;FLAVOR:Marlin
;TIME:4817
;Filament used: 2.76738m
;Layer height: 0.2
;MINX:43
;MINY:78.896
;MINZ:0.2
;MAXX:176.978
;MAXY:141.104
;MAXZ:9
;Generated with Cura_SteamEngine 4.7.0
M140 S60
M105
M190 S60
M104 S200
M105
M109 S200
M82 ;absolute extrusion mode
; Ender 3 Custom Start G-code
G92 E0 ; Reset Extruder
G28 ; Home all axes
G1 Z2.0 F3000 ; Move Z Axis up little to prevent scratching of Heat Bed
G1 X0.1 Y20 Z0.3 F5000.0 ; Move to start position
G1 X0.1 Y200.0 Z0.3 F1500.0 E15 ; Draw the first line
G1 X0.4 Y200.0 Z0.3 F5000.0 ; Move to side a little
G1 X0.4 Y20 Z0.3 F1500.0 E30 ; Draw the second line
G92 E0 ; Reset Extruder
G1 Z2.0 F3000 ; Move Z Axis up little to prevent scratching of Heat Bed
G1 X5 Y20 Z0.3 F5000.0 ; Move over to prevent blob squish
G92 E0
G92 E0
G1 F1500 E-6.5
;LAYER_COUNT:45
;LAYER:0
M107
M204 S500
M205 X8 Y8
G0 F6000 X48.408 Y82.045 Z0.2
;TYPE:SKIRT
G1 F1500 E0
G1 F1200 X49.235 Y81.602 E0.0312
G1 X50.096 Y81.231 E0.06239
G1 X50.986 Y80.935 E0.09358
G1 X51.898 Y80.716 E0.12478
G1 X52.825 Y80.576 E0.15596
G1 X53.761 Y80.515 E0.18716
G1 X54.315 Y80.516 E0.20558
G1 X55.473 Y80.548 E0.24411
G1 X58.049 Y80.584 E0.3298
G1 X60.573 Y80.547 E0.41376
G1 X63.104 Y80.439 E0.49802
G1 X65.565 Y80.264 E0.58007
G1 X68.119 Y80.009 E0.66544
G1 X70.589 Y79.693 E0.74827
G1 X73.099 Y79.299 E0.83277
G1 X73.275 Y79.267 E0.83872
G1 X73.978 Y79.152 E0.86241
G1 X74.891 Y79.043 E0.893
G1 X75.269 Y79.014 E0.9056
G1 X76.121 Y78.945 E0.93404
G1 X76.709 Y78.913 E0.95362
G1 X77.038 Y78.904 E0.96457
G1 X77.315 Y78.9 E0.97378
G1 X77.947 Y78.9 E0.9948
G1 X78.199 Y78.904 E1.00318
G1 X80.203 Y78.896 E1.06984
G1 X80.453 Y78.906 E1.07816
G1 X81.303 Y78.9 E1.10643
G1 X81.947 Y78.9 E1.12785
G1 X82.199 Y78.904 E1.13623
G1 X84.203 Y78.896 E1.20289
G1 X84.453 Y78.906 E1.21121
G1 X85.303 Y78.9 E1.23948
G1 X85.947 Y78.9 E1.2609
G1 X86.199 Y78.904 E1.26928
G1 X88.203 Y78.896 E1.33594
G1 X88.453 Y78.906 E1.34426
G1 X89.303 Y78.9 E1.37253
G1 X89.954 Y78.9 E1.39418
G1 X90.642 Y78.91 E1.41707
G1 X90.939 Y78.918 E1.42695
G1 X91.873 Y78.957 E1.45804
G1 X92.38 Y78.972 E1.47491
G1 X94.03 Y79.043 E1.52984
G1 X94.361 Y79.062 E1.54087
G1 X94.743 Y79.09 E1.55361
G1 X95.683 Y79.2 E1.58509
G1 X96.256 Y79.292 E1.60439
G1 X96.584 Y79.35 E1.61547
G1 X97.967 Y79.615 E1.6623
G1 X98.748 Y79.759 E1.68872
G1 X99.415 Y79.894 E1.71135
G1 X99.755 Y79.969 E1.72293
G1 X100.235 Y80.083 E1.73934
G1 X100.414 Y80.127 E1.74547
G1 X100.799 Y80.225 E1.75869
G1 X102.816 Y80.714 E1.82771
G1 X103.848 Y80.953 E1.86295
G1 X104.283 Y81.058 E1.87783
G1 X104.642 Y81.149 E1.89015
G1 X106.826 Y81.678 E1.96489
G1 X107.687 Y81.877 E1.99428
G1 X108.192 Y81.998 E2.01155
G1 X108.577 Y82.096 E2.02477
G1 X110.594 Y82.585 E2.0938
G1 X111.626 Y82.824 E2.12903
G1 X112.061 Y82.929 E2.14391
G1 X112.42 Y83.02 E2.15623
G1 X114.604 Y83.549 E2.23097
G1 X115.487 Y83.753 E2.26111
G1 X115.907 Y83.854 E2.27548
G1 X116.336 Y83.963 E2.2902
G1 X118.419 Y84.467 E2.36148
G1 X119.295 Y84.668 E2.39138
G1 X119.896 Y84.813 E2.41194
G1 X120.28 Y84.91 E2.42511
G1 X122.353 Y85.413 E2.49606
G1 X123.26 Y85.622 E2.52702
G1 X123.739 Y85.738 E2.54341
G1 X124.451 Y85.919 E2.56785
G1 X124.793 Y86.012 E2.57963
G1 X128.524 Y86.99 E2.70792
G1 X135.044 Y88.558 E2.93096
G1 X137.593 Y89.134 E3.01788
G1 X140.041 Y89.614 E3.10085
G1 X142.534 Y90.03 E3.18491
G1 X145.035 Y90.374 E3.26888
G1 X147.524 Y90.646 E3.35216
G1 X150.068 Y90.851 E3.43704
G1 X152.563 Y90.982 E3.52014
G1 X155.072 Y91.041 E3.60361
G1 X157.042 Y91.03 E3.66914
G1 X157.17 Y91.035 E3.6734
G1 X158.409 Y91.025 E3.71461
G1 X159.711 Y91.092 E3.75797
G1 X160.01 Y91.128 E3.76799
G1 X160.6 Y91.207 E3.78779
G1 X160.878 Y91.248 E3.79713
G1 X161.553 Y91.356 E3.81987
G1 X162.472 Y91.544 E3.85107
G1 X163.073 Y91.712 E3.87182
G1 X163.734 Y91.917 E3.89484
G1 X164.02 Y92.01 E3.90484
G1 X164.64 Y92.221 E3.92663
G1 X165.514 Y92.56 E3.95781
G1 X166.043 Y92.809 E3.97725
G1 X166.607 Y93.093 E3.99826
G1 X166.892 Y93.242 E4.00895
G1 X167.519 Y93.581 E4.03266
G1 X168.324 Y94.062 E4.06385
G1 X168.813 Y94.402 E4.08366
G1 X169.315 Y94.772 E4.1044
G1 X169.57 Y94.966 E4.11506
G1 X170.132 Y95.406 E4.1388
G1 X170.75 Y95.928 E4.1657
G1 X171.305 Y96.466 E4.19141
G1 X171.721 Y96.899 E4.21138
G1 X171.916 Y97.107 E4.22086
G1 X172.393 Y97.63 E4.24441
G1 X173.112 Y98.505 E4.28208
G1 X173.371 Y98.869 E4.29693
G1 X173.699 Y99.35 E4.3163
G1 X173.854 Y99.583 E4.32561
G1 X174.245 Y100.189 E4.34959
G1 X174.841 Y101.234 E4.38961
G1 X175.009 Y101.582 E4.40246
G1 X175.266 Y102.138 E4.42283
G1 X175.395 Y102.428 E4.43339
G1 X175.658 Y103.043 E4.45563
G1 X175.99 Y103.92 E4.48682
G1 X176.153 Y104.461 E4.50562
G1 X176.321 Y105.074 E4.52676
G1 X176.403 Y105.39 E4.53761
G1 X176.569 Y106.075 E4.56106
G1 X176.793 Y107.302 E4.60254
G1 X176.835 Y107.676 E4.61506
G1 X176.891 Y108.258 E4.63451
G1 X176.916 Y108.555 E4.64442
G1 X176.964 Y109.251 E4.66762
G1 X176.978 Y110.513 E4.7096
G1 X176.959 Y110.864 E4.72129
G1 X176.923 Y111.378 E4.73843
G1 X176.898 Y111.682 E4.74857
G1 X176.828 Y112.396 E4.77244
G1 X176.675 Y113.435 E4.80737
G1 X176.561 Y113.962 E4.8253
G1 X176.423 Y114.531 E4.84477
G1 X176.354 Y114.799 E4.85398
G1 X176.17 Y115.482 E4.8775
G1 X175.888 Y116.377 E4.90871
G1 X175.669 Y116.931 E4.92853
G1 X175.416 Y117.525 E4.95
G1 X175.278 Y117.836 E4.96132
G1 X175.128 Y118.16 E4.97319
G1 X174.966 Y118.496 E4.9856
G1 X174.755 Y118.914 E5.00117
G1 X174.291 Y119.742 E5.03274
G1 X174.176 Y119.928 E5.04002
G1 X173.985 Y120.226 E5.05179
G1 X173.74 Y120.593 E5.06647
G1 X173.346 Y121.168 E5.08965
G1 X172.558 Y122.184 E5.13241
G1 X172.354 Y122.415 E5.14266
G1 X171.981 Y122.825 E5.1611
G1 X171.752 Y123.07 E5.17225
G1 X171.254 Y123.585 E5.19608
G1 X170.573 Y124.23 E5.22728
G1 X170.11 Y124.613 E5.24726
G1 X169.579 Y125.027 E5.26966
G1 X169.341 Y125.207 E5.27958
G1 X168.801 Y125.605 E5.30189
G1 X168.044 Y126.116 E5.33227
G1 X167.483 Y126.441 E5.35384
G1 X166.95 Y126.729 E5.37399
G1 X166.653 Y126.883 E5.38511
G1 X166.019 Y127.201 E5.4087
G1 X164.923 Y127.678 E5.44846
G1 X164.579 Y127.802 E5.46062
G1 X164.025 Y127.99 E5.48008
G1 X163.719 Y128.088 E5.49077
G1 X163.045 Y128.295 E5.51422
G1 X162.202 Y128.518 E5.54322
G1 X162.166 Y128.526 E5.54445
G1 X161.506 Y128.652 E5.5668
G1 X160.908 Y128.747 E5.58693
G1 X160.65 Y128.785 E5.59561
G1 X159.974 Y128.876 E5.61829
G1 X158.704 Y128.972 E5.66066
G1 X158.299 Y128.976 E5.67413
G1 X157.284 Y128.967 E5.70789
G1 X157.16 Y128.969 E5.71201
G1 X155.366 Y128.955 E5.77168
G1 X152.85 Y129.007 E5.85538
G1 X150.318 Y129.131 E5.9397
G1 X147.844 Y129.323 E6.02223
G1 X145.32 Y129.59 E6.10665
G1 X142.822 Y129.926 E6.19048
G1 X140.36 Y130.328 E6.27345
G1 X137.868 Y130.809 E6.35786
G1 X135.067 Y131.436 E6.45333
G1 X128.592 Y132.995 E6.67485
G1 X126.051 Y133.644 E6.76207
G1 X125.877 Y133.694 E6.76809
G1 X125.617 Y133.765 E6.77706
G1 X123.638 Y134.282 E6.84509
G1 X123.295 Y134.366 E6.85683
G1 X122.78 Y134.483 E6.8744
G1 X119.636 Y135.25 E6.98204
G1 X118.752 Y135.452 E7.0122
G1 X115.719 Y136.192 E7.11603
G1 X115.533 Y136.236 E7.12239
G1 X114.922 Y136.374 E7.14322
G1 X111.697 Y137.159 E7.25362
G1 X110.96 Y137.326 E7.27875
G1 X107.963 Y138.058 E7.38137
G1 X107.782 Y138.101 E7.38755
G1 X107.114 Y138.252 E7.41033
G1 X103.919 Y139.03 E7.5197
G1 X103.168 Y139.2 E7.54531
G1 X100.212 Y139.922 E7.64652
G1 X100.028 Y139.965 E7.65281
G1 X99.391 Y140.109 E7.67453
G1 X99.086 Y140.174 E7.6849
G1 X98.353 Y140.318 E7.70974
G1 X97.176 Y140.532 E7.74953
G1 X96.521 Y140.659 E7.77172
G1 X96.255 Y140.708 E7.78072
G1 X95.923 Y140.764 E7.79192
G1 X94.939 Y140.884 E7.82489
G1 X94.213 Y140.94 E7.84911
G1 X93.947 Y140.958 E7.85798
G1 X92.981 Y141.009 E7.89015
G1 X91.577 Y141.063 E7.93688
G1 X90.499 Y141.095 E7.97275
G1 X90.197 Y141.1 E7.9828
G1 X89.553 Y141.1 E8.00422
G1 X89.301 Y141.096 E8.0126
G1 X87.297 Y141.104 E8.07925
G1 X87.047 Y141.094 E8.08757
G1 X86.197 Y141.1 E8.11585
G1 X85.553 Y141.1 E8.13727
G1 X85.301 Y141.096 E8.14565
G1 X83.297 Y141.104 E8.2123
G1 X83.047 Y141.094 E8.22062
G1 X82.197 Y141.1 E8.2489
G1 X81.553 Y141.1 E8.27032
G1 X81.301 Y141.096 E8.2787
G1 X79.297 Y141.104 E8.34535
G1 X79.047 Y141.094 E8.35367
G1 X78.197 Y141.1 E8.38195
G1 X77.55 Y141.1 E8.40346
G1 X76.846 Y141.09 E8.42688
G1 X76.237 Y141.064 E8.44716
G1 X75.376 Y141.004 E8.47586
G1 X75.057 Y140.978 E8.48651
G1 X74.663 Y140.939 E8.49968
G1 X74.035 Y140.858 E8.52074
G1 X73.304 Y140.742 E8.54535
G1 X71.846 Y140.492 E8.59456
G1 X69.314 Y140.132 E8.67962
G1 X66.872 Y139.854 E8.76136
G1 X64.309 Y139.637 E8.84691
G1 X61.85 Y139.497 E8.92883
G1 X59.292 Y139.425 E9.01395
G1 X56.733 Y139.425 E9.09906
G1 X55.432 Y139.453 E9.14234
G1 X54.328 Y139.485 E9.17907
G1 X53.39 Y139.472 E9.21028
G1 X52.457 Y139.38 E9.24146
G1 X51.535 Y139.208 E9.27265
G1 X50.631 Y138.958 E9.30385
G1 X49.752 Y138.632 E9.33503
G1 X48.903 Y138.232 E9.36624
G1 X48.092 Y137.762 E9.39742
G1 X47.324 Y137.224 E9.42861
G1 X46.604 Y136.622 E9.45982
G1 X45.938 Y135.962 E9.49101
G1 X45.331 Y135.247 E9.5222
G1 X44.787 Y134.483 E9.5534
G1 X44.31 Y133.676 E9.58458
G1 X43.904 Y132.83 E9.61579
G1 X43.571 Y131.954 E9.64696
G1 X43.313 Y131.052 E9.67816
G1 X43.134 Y130.131 E9.70937
G1 X43.034 Y129.199 E9.74054
G1 X43.012 Y128.65 E9.75882
G1 X43.001 Y127.894 E9.78397
G1 X43 Y127.174 E9.80791
G1 X43.001 Y126.996 E9.81383
G1 X43.012 Y126.318 E9.83639
G1 X43.068 Y125.381 E9.86761
G1 X43.144 Y124.793 E9.88733
G1 X43.285 Y123.895 E9.91756
G1 X43.654 Y121.3 E10.00474
G1 X43.941 Y118.779 E10.08913
G1 X44.152 Y116.292 E10.17214
G1 X44.295 Y113.792 E10.25543
G1 X44.367 Y111.244 E10.34021
G1 X44.367 Y108.755 E10.423
G1 X44.295 Y106.223 E10.50724
G1 X44.152 Y103.686 E10.59176
G1 X43.943 Y101.221 E10.67404
G1 X43.658 Y98.713 E10.75799
G1 X43.294 Y96.154 E10.84396
G1 X43.195 Y95.553 E10.86422
G1 X43.159 Y95.317 E10.87216
G1 X43.122 Y95.058 E10.88086
G1 X43.017 Y93.852 E10.92113
G1 X43.007 Y93.538 E10.93158
G1 X43.001 Y93.199 E10.94285
G1 X43.001 Y92.054 E10.98094
G1 X43.01 Y91.368 E11.00375
G1 X43.062 Y90.431 E11.03497
G1 X43.194 Y89.503 E11.06614
G1 X43.405 Y88.589 E11.09734
G1 X43.692 Y87.696 E11.12854
G1 X44.055 Y86.831 E11.15974
G1 X44.49 Y86 E11.19094
G1 X44.994 Y85.209 E11.22213
G1 X45.563 Y84.464 E11.25331
G1 X46.194 Y83.77 E11.28451
G1 X46.882 Y83.133 E11.31569
G1 X47.622 Y82.556 E11.3469
G1 X48.408 Y82.045 E11.37809
G0 F6000 X48.787 Y82.287
G1 F1200 X49.607 Y81.869 E11.4087
G1 X50.461 Y81.524 E11.43933
G1 X51.341 Y81.253 E11.46996
G1 X52.241 Y81.06 E11.50057
G1 X53.155 Y80.946 E11.53121
G1 X54.304 Y80.916 E11.56944
G1 X55.457 Y80.948 E11.6078
G1 X58.049 Y80.984 E11.69402
G1 X60.596 Y80.947 E11.77874
G1 X63.113 Y80.839 E11.86253
G1 X65.599 Y80.663 E11.94543
G1 X68.174 Y80.406 E12.0315
G1 X70.631 Y80.092 E12.11388
G1 X73.194 Y79.689 E12.20017
G1 X73.347 Y79.661 E12.20535
G1 X73.552 Y79.626 E12.21226
G1 X74.041 Y79.547 E12.22874
G1 X74.921 Y79.442 E12.25822
G1 X75.299 Y79.413 E12.27083
G1 X76.153 Y79.344 E12.29932
G1 X76.72 Y79.313 E12.31821
G1 X77.049 Y79.304 E12.32916
G1 X77.315 Y79.3 E12.338
G1 X77.941 Y79.3 E12.35882
G1 X78.195 Y79.304 E12.36727
G1 X80.205 Y79.296 E12.43413
G1 X80.451 Y79.306 E12.44232
G1 X81.304 Y79.3 E12.47069
G1 X81.941 Y79.3 E12.49187
G1 X82.195 Y79.304 E12.50032
G1 X84.205 Y79.296 E12.56718
G1 X84.451 Y79.306 E12.57537
G1 X85.304 Y79.3 E12.60374
G1 X85.941 Y79.3 E12.62492
G1 X86.195 Y79.304 E12.63337
G1 X88.205 Y79.296 E12.70023
G1 X88.451 Y79.306 E12.70842
G1 X89.304 Y79.3 E12.73679
G1 X89.948 Y79.3 E12.75821
G1 X90.636 Y79.31 E12.78109
G1 X90.922 Y79.318 E12.79061
G1 X91.845 Y79.356 E12.82133
G1 X92.363 Y79.372 E12.83857
G1 X94.013 Y79.443 E12.8935
G1 X94.332 Y79.461 E12.90413
G1 X94.714 Y79.489 E12.91687
G1 X95.619 Y79.595 E12.94717
G1 X96.192 Y79.687 E12.96647
G1 X96.508 Y79.743 E12.97715
G1 X97.92 Y80.014 E13.02497
G1 X98.675 Y80.153 E13.0505
G1 X98.875 Y80.192 E13.05728
G1 X99.335 Y80.286 E13.0729
G1 X99.662 Y80.358 E13.08403
G1 X100.315 Y80.514 E13.10636
G1 X100.684 Y80.608 E13.11903
G1 X102.8 Y81.121 E13.19144
G1 X103.755 Y81.342 E13.22405
G1 X104.184 Y81.446 E13.23873
G1 X104.525 Y81.533 E13.25043
G1 X106.738 Y82.069 E13.32617
G1 X107.595 Y82.266 E13.35541
G1 X108.093 Y82.385 E13.37244
G1 X108.462 Y82.479 E13.38511
G1 X110.578 Y82.992 E13.45753
G1 X111.533 Y83.213 E13.49013
G1 X111.962 Y83.317 E13.50481
G1 X112.303 Y83.404 E13.51652
G1 X114.516 Y83.94 E13.59225
G1 X115.394 Y84.142 E13.62221
G1 X115.809 Y84.242 E13.63641
G1 X116.24 Y84.352 E13.65121
G1 X118.331 Y84.858 E13.72276
G1 X119.325 Y85.086 E13.75668
G1 X119.798 Y85.201 E13.77287
G1 X120.185 Y85.299 E13.78615
G1 X122.266 Y85.803 E13.85736
G1 X123.167 Y86.011 E13.88812
G1 X123.497 Y86.09 E13.89941
G1 X124.353 Y86.307 E13.92878
G1 X124.679 Y86.395 E13.94001
G1 X128.437 Y87.381 E14.06923
G1 X134.925 Y88.941 E14.29117
G1 X137.534 Y89.53 E14.38013
G1 X139.931 Y90.001 E14.46138
G1 X142.486 Y90.427 E14.54753
G1 X145.013 Y90.775 E14.63237
G1 X147.481 Y91.044 E14.71495
G1 X150.049 Y91.251 E14.80064
G1 X152.535 Y91.381 E14.88343
G1 X155.064 Y91.441 E14.96757
G1 X157.044 Y91.43 E15.03343
G1 X157.17 Y91.435 E15.03762
G1 X158.412 Y91.425 E15.07893
G1 X159.667 Y91.49 E15.12073
G1 X159.957 Y91.525 E15.13045
G1 X160.547 Y91.604 E15.15024
G1 X160.815 Y91.643 E15.15925
G1 X161.49 Y91.751 E15.18199
G1 X162.392 Y91.936 E15.21261
G1 X162.955 Y92.094 E15.23206
G1 X163.616 Y92.299 E15.25508
G1 X163.891 Y92.388 E15.26469
G1 X164.511 Y92.599 E15.28648
G1 X165.369 Y92.933 E15.3171
G1 X165.863 Y93.167 E15.33528
G1 X166.427 Y93.451 E15.35628
G1 X166.701 Y93.594 E15.36656
G1 X167.328 Y93.933 E15.39027
G1 X168.118 Y94.405 E15.42088
G1 X168.576 Y94.724 E15.43944
G1 X169.078 Y95.094 E15.46018
G1 X169.323 Y95.281 E15.47043
G1 X169.885 Y95.721 E15.49417
G1 X170.481 Y96.224 E15.52011
G1 X171.017 Y96.743 E15.54493
G1 X171.433 Y97.176 E15.5649
G1 X171.621 Y97.377 E15.57405
G1 X172.098 Y97.9 E15.5976
G1 X172.79 Y98.742 E15.63385
G1 X173.041 Y99.094 E15.64823
G1 X173.369 Y99.575 E15.66759
G1 X173.518 Y99.8 E15.67656
G1 X173.909 Y100.406 E15.70055
G1 X174.483 Y101.413 E15.7391
G1 X174.646 Y101.749 E15.75152
G1 X174.903 Y102.305 E15.7719
G1 X175.027 Y102.585 E15.78208
G1 X175.29 Y103.2 E15.80433
G1 X175.615 Y104.062 E15.83497
G1 X175.767 Y104.566 E15.85248
G1 X175.935 Y105.179 E15.87362
G1 X176.014 Y105.485 E15.88413
G1 X176.18 Y106.17 E15.90757
G1 X176.396 Y107.351 E15.9475
G1 X176.437 Y107.715 E15.95969
G1 X176.493 Y108.297 E15.97913
G1 X176.517 Y108.583 E15.98868
G1 X176.565 Y109.279 E16.01188
G1 X176.579 Y110.495 E16.05233
G1 X176.56 Y110.836 E16.06369
G1 X176.524 Y111.35 E16.08083
G1 X176.499 Y111.643 E16.09061
G1 X176.429 Y112.357 E16.11447
G1 X176.283 Y113.358 E16.14812
G1 X176.274 Y113.404 E16.14968
G1 X176.172 Y113.867 E16.16544
G1 X176.034 Y114.436 E16.18492
G1 X175.968 Y114.695 E16.19381
G1 X175.784 Y115.378 E16.21733
G1 X175.506 Y116.256 E16.24797
G1 X175.301 Y116.775 E16.26652
G1 X175.048 Y117.369 E16.288
G1 X174.915 Y117.668 E16.29888
G1 X174.765 Y117.992 E16.31076
G1 X174.609 Y118.316 E16.32272
G1 X174.398 Y118.734 E16.33829
G1 X173.951 Y119.531 E16.36869
G1 X173.836 Y119.717 E16.37596
G1 X173.651 Y120.005 E16.38734
G1 X173.41 Y120.367 E16.40181
G1 X173.016 Y120.942 E16.42499
G1 X172.257 Y121.921 E16.46619
G1 X172.058 Y122.146 E16.47618
G1 X171.685 Y122.556 E16.49462
G1 X171.464 Y122.792 E16.50537
G1 X170.966 Y123.307 E16.5292
G1 X170.298 Y123.94 E16.55981
G1 X169.864 Y124.297 E16.5785
G1 X169.333 Y124.711 E16.60089
G1 X169.104 Y124.885 E16.61046
G1 X168.564 Y125.283 E16.63277
G1 X167.833 Y125.776 E16.6621
G1 X167.293 Y126.089 E16.68286
G1 X166.76 Y126.377 E16.70301
G1 X166.473 Y126.526 E16.71376
G1 X165.839 Y126.844 E16.73735
G1 X164.784 Y127.304 E16.77563
G1 X164.45 Y127.423 E16.78743
G1 X163.896 Y127.611 E16.80688
G1 X163.602 Y127.706 E16.81716
G1 X162.928 Y127.913 E16.84061
G1 X162.115 Y128.128 E16.86858
G1 X162.079 Y128.136 E16.86981
G1 X161.443 Y128.257 E16.89134
G1 X160.845 Y128.352 E16.91148
G1 X160.596 Y128.388 E16.91985
G1 X159.92 Y128.479 E16.94253
G1 X158.697 Y128.572 E16.98333
G1 X158.303 Y128.576 E16.99643
G1 X157.219 Y128.567 E17.03249
G1 X157.163 Y128.569 E17.03435
G1 X155.361 Y128.555 E17.09429
