;FLAVOR:Marlin
;TIME:7631
;Filament used: 3.68277m
;Layer height: 0.2
;MINX:77.36
;MINY:97.601
;MINZ:0.2
;MAXX:142.64
;MAXY:123.559
;MAXZ:76.2
;Generated with Cura_SteamEngine 4.7.0
M140 S60
M105
M190 S60
M104 S200
M105
M109 S200
M82 ;absolute extrusion mode
; Ender 3 Custom Start G-code
G92 E0 ; Reset Extruder
G28 ; Home all axes
G1 Z2.0 F3000 ; Move Z Axis up little to prevent scratching of Heat Bed
G1 X0.1 Y20 Z0.3 F5000.0 ; Move to start position
G1 X0.1 Y200.0 Z0.3 F1500.0 E15 ; Draw the first line
G1 X0.4 Y200.0 Z0.3 F5000.0 ; Move to side a little
G1 X0.4 Y20 Z0.3 F1500.0 E30 ; Draw the second line
G92 E0 ; Reset Extruder
G1 Z2.0 F3000 ; Move Z Axis up little to prevent scratching of Heat Bed
G1 X5 Y20 Z0.3 F5000.0 ; Move over to prevent blob squish
G92 E0
G92 E0
G1 F1500 E-6.5
;LAYER_COUNT:381
;LAYER:0
M107
G0 F6000 X131.426 Y105.306 Z0.2
;TYPE:SKIRT
G1 F1500 E0
G1 F1200 X131.681 Y105.026 E0.0126
G1 X131.989 Y104.805 E0.0252
G1 X132.336 Y104.654 E0.03779
G1 X132.877 Y104.571 E0.056
G1 X140.84 Y104.571 E0.32085
G1 X141.217 Y104.611 E0.33346
G1 X141.577 Y104.729 E0.34606
G1 X141.904 Y104.919 E0.35863
G1 X142.185 Y105.174 E0.37126
G1 X142.405 Y105.483 E0.38387
G1 X142.557 Y105.83 E0.39647
G1 X142.64 Y106.372 E0.41471
G1 X142.639 Y109.572 E0.52114
G1 X142.599 Y109.948 E0.53372
G1 X142.481 Y110.308 E0.54632
G1 X142.29 Y110.636 E0.55894
G1 X142.035 Y110.916 E0.57154
G1 X141.727 Y111.137 E0.58415
G1 X141.38 Y111.288 E0.59673
G1 X140.839 Y111.371 E0.61494
G1 X132.876 Y111.371 E0.87979
G1 X132.499 Y111.331 E0.8924
G1 X132.139 Y111.213 E0.905
G1 X131.812 Y111.023 E0.91758
G1 X131.531 Y110.768 E0.9302
G1 X131.311 Y110.459 E0.94281
G1 X131.159 Y110.112 E0.95541
G1 X131.076 Y109.57 E0.97365
G1 X131.077 Y106.37 E1.08008
G1 X131.117 Y105.994 E1.09266
G1 X131.235 Y105.634 E1.10526
G1 X131.426 Y105.306 E1.11788
G0 F6000 X131.823 Y105.45
G1 F1200 X132.071 Y105.226 E1.129
G1 X132.365 Y105.068 E1.1401
G1 X132.688 Y104.984 E1.1512
G1 X132.877 Y104.971 E1.1575
G1 X140.84 Y104.971 E1.42235
G1 X141.172 Y105.011 E1.43347
G1 X141.484 Y105.128 E1.44456
G1 X141.761 Y105.316 E1.45569
G1 X141.984 Y105.564 E1.46678
G1 X142.143 Y105.858 E1.4779
G1 X142.227 Y106.182 E1.48903
G1 X142.24 Y106.371 E1.49533
G1 X142.239 Y109.571 E1.60177
G1 X142.199 Y109.903 E1.61289
G1 X142.082 Y110.216 E1.624
G1 X141.893 Y110.492 E1.63513
G1 X141.645 Y110.716 E1.64624
G1 X141.351 Y110.874 E1.65735
G1 X141.028 Y110.958 E1.66845
G1 X140.839 Y110.971 E1.67475
G1 X132.876 Y110.971 E1.9396
G1 X132.544 Y110.931 E1.95072
G1 X132.232 Y110.814 E1.9618
G1 X131.955 Y110.626 E1.97294
G1 X131.732 Y110.378 E1.98403
G1 X131.573 Y110.084 E1.99515
G1 X131.489 Y109.76 E2.00628
G1 X131.476 Y109.571 E2.01258
G1 X131.477 Y106.371 E2.11901
G1 X131.517 Y106.039 E2.13013
G1 X131.634 Y105.726 E2.14125
G1 X131.823 Y105.45 E2.15237
G0 F6000 X132.033 Y105.834
G1 F1200 X132.217 Y105.62 E2.16176
G1 X132.453 Y105.465 E2.17115
G1 X132.723 Y105.383 E2.18054
G1 X132.877 Y105.371 E2.18568
G1 X140.84 Y105.371 E2.45053
G1 X141.119 Y105.411 E2.4599
G1 X141.376 Y105.527 E2.46928
G1 X141.591 Y105.71 E2.47867
G1 X141.745 Y105.946 E2.48804
G1 X141.828 Y106.216 E2.49744
G1 X141.84 Y106.371 E2.50261
G1 X141.839 Y109.571 E2.60904
G1 X141.799 Y109.851 E2.61845
G1 X141.683 Y110.108 E2.62783
G1 X141.499 Y110.322 E2.63721
G1 X141.263 Y110.477 E2.6466
G1 X140.993 Y110.559 E2.65599
G1 X140.839 Y110.571 E2.66113
G1 X132.876 Y110.571 E2.92598
G1 X132.597 Y110.531 E2.93535
G1 X132.34 Y110.415 E2.94473
G1 X132.125 Y110.232 E2.95412
G1 X131.971 Y109.996 E2.96349
G1 X131.888 Y109.726 E2.97289
G1 X131.876 Y109.571 E2.97806
G1 X131.877 Y106.371 E3.08449
G1 X131.917 Y106.091 E3.0939
G1 X132.033 Y105.834 E3.10328
G0 F6000 X132.431 Y105.97
G1 F1200 X132.603 Y105.837 E3.11051
G1 X132.877 Y105.771 E3.11988
G1 X140.84 Y105.771 E3.38473
G1 X141.055 Y105.811 E3.39201
G1 X141.241 Y105.924 E3.39924
G1 X141.374 Y106.097 E3.4065
G1 X141.44 Y106.371 E3.41588
G1 X141.439 Y109.571 E3.52231
G1 X141.399 Y109.786 E3.52958
G1 X141.285 Y109.972 E3.53684
G1 X141.113 Y110.105 E3.54407
G1 X140.839 Y110.171 E3.55344
G1 X132.876 Y110.171 E3.81829
G1 X132.661 Y110.131 E3.82557
G1 X132.475 Y110.018 E3.83281
G1 X132.342 Y109.845 E3.84006
G1 X132.276 Y109.571 E3.84944
G1 X132.277 Y106.371 E3.95587
G1 X132.317 Y106.156 E3.96314
G1 X132.431 Y105.97 E3.9704
G0 F6000 X132.716 Y106.252
G1 F1200 X132.877 Y106.171 E3.97639
G1 X140.84 Y106.171 E4.24125
G1 X140.959 Y106.21 E4.24541
G1 X141.04 Y106.371 E4.2514
G1 X141.039 Y109.571 E4.35784
G1 X141 Y109.69 E4.362
G1 X140.839 Y109.771 E4.368
G1 X132.876 Y109.771 E4.63285
G1 X132.757 Y109.732 E4.63701
G1 X132.676 Y109.571 E4.64301
G1 X132.677 Y106.371 E4.74944
G1 X132.716 Y106.252 E4.7536
G1 F1500 E-1.7464
G0 F6000 X132.211 Y106.252
G0 X129.998 Y105.056
G1 F1500 E4.7536
G1 F1200 X129.999 Y108.256 E4.86004
G1 X129.959 Y108.633 E4.87265
G1 X129.841 Y108.993 E4.88525
G1 X129.651 Y109.321 E4.89785
G1 X129.396 Y109.601 E4.91045
G1 X129.088 Y109.822 E4.92306
G1 X128.741 Y109.974 E4.93566
G1 X128.199 Y110.057 E4.9539
G1 X122.699 Y110.057 E5.13683
G1 X122.322 Y110.017 E5.14944
G1 X121.962 Y109.899 E5.16204
G1 X121.635 Y109.709 E5.17461
G1 X121.354 Y109.454 E5.18724
G1 X121.134 Y109.145 E5.19985
G1 X120.982 Y108.798 E5.21245
G1 X120.899 Y108.257 E5.23066
G1 X120.899 Y106.912 E5.27539
G1 X120.795 Y107.703 E5.30193
G1 X120.675 Y108.153 E5.31742
G1 X120.362 Y108.914 E5.34478
G1 X120.125 Y109.324 E5.36054
G1 X119.638 Y109.959 E5.38715
G1 X119.458 Y110.161 E5.39615
G1 X119.432 Y110.186 E5.39735
G1 X119.336 Y110.269 E5.40157
G1 X119.689 Y110.357 E5.41367
G1 X120.029 Y110.523 E5.42626
G1 X120.327 Y110.758 E5.43888
G1 X120.569 Y111.049 E5.45147
G1 X120.745 Y111.385 E5.46408
G1 X120.811 Y111.582 E5.47099
G1 X123.192 Y120.466 E5.7769
G1 X123.251 Y120.84 E5.7895
G1 X123.23 Y121.219 E5.80212
G1 X123.131 Y121.584 E5.8147
G1 X122.957 Y121.921 E5.82731
G1 X122.716 Y122.214 E5.83993
G1 X122.42 Y122.45 E5.85252
G1 X121.919 Y122.671 E5.87074
G1 X118.828 Y123.5 E5.97718
G1 X118.454 Y123.559 E5.98977
G1 X118.076 Y123.538 E6.00236
G1 X117.71 Y123.439 E6.01497
G1 X117.373 Y123.265 E6.02759
G1 X117.08 Y123.025 E6.04018
G1 X116.844 Y122.728 E6.0528
G1 X116.623 Y122.227 E6.07101
G1 X114.24 Y113.341 E6.37701
G1 X114.181 Y112.967 E6.3896
G1 X114.202 Y112.589 E6.40219
G1 X114.301 Y112.223 E6.4148
G1 X114.475 Y111.886 E6.42742
G1 X114.715 Y111.593 E6.44001
G1 X114.874 Y111.467 E6.44676
G1 X114.466 Y111.358 E6.46081
G1 X113.71 Y111.045 E6.48802
G1 X113.304 Y110.811 E6.50361
G1 X112.667 Y110.323 E6.5303
G1 X112.568 Y110.241 E6.53457
G1 X112.32 Y109.978 E6.5466
G1 X111.818 Y109.325 E6.57399
G1 X111.581 Y108.915 E6.58974
G1 X111.269 Y108.16 E6.61691
G1 X111.149 Y107.71 E6.6324
G1 X111.041 Y106.897 E6.65968
G1 X111.04 Y106.425 E6.67538
G1 X111.148 Y105.605 E6.70289
G1 X111.27 Y105.152 E6.71849
G1 X111.582 Y104.398 E6.74563
G1 X111.816 Y103.991 E6.76125
G1 X112.305 Y103.353 E6.78798
G1 X112.387 Y103.254 E6.79226
G1 X112.65 Y103.006 E6.80428
G1 X113.302 Y102.505 E6.83163
G1 X113.71 Y102.269 E6.84731
G1 X114.466 Y101.956 E6.87452
G1 X114.919 Y101.835 E6.89012
G1 X115.734 Y101.727 E6.91746
G1 X116.206 Y101.726 E6.93316
G1 X117.024 Y101.834 E6.9606
G1 X117.477 Y101.956 E6.97621
G1 X118.232 Y102.269 E7.00339
G1 X118.638 Y102.503 E7.01898
G1 X119.275 Y102.991 E7.04567
G1 X119.374 Y103.073 E7.04994
G1 X119.622 Y103.336 E7.06196
G1 X120.124 Y103.989 E7.08936
G1 X120.36 Y104.398 E7.10506
G1 X120.672 Y105.152 E7.1322
G1 X120.793 Y105.603 E7.14774
G1 X120.899 Y106.402 E7.17454
G1 X120.899 Y105.057 E7.21928
G1 X120.939 Y104.68 E7.23189
G1 X121.057 Y104.32 E7.24449
G1 X121.247 Y103.993 E7.25707
G1 X121.502 Y103.712 E7.26969
G1 X121.811 Y103.492 E7.2823
G1 X122.158 Y103.34 E7.2949
G1 X122.699 Y103.257 E7.31311
G1 X128.198 Y103.257 E7.49601
G1 X128.575 Y103.297 E7.50861
G1 X128.935 Y103.415 E7.52122
G1 X129.262 Y103.605 E7.53379
G1 X129.543 Y103.86 E7.54641
G1 X129.763 Y104.169 E7.55903
G1 X129.915 Y104.516 E7.57163
G1 X129.998 Y105.056 E7.5898
G0 F6000 X129.598 Y105.057
G1 F1200 X129.599 Y108.257 E7.69623
G1 X129.559 Y108.588 E7.70732
G1 X129.442 Y108.901 E7.71844
G1 X129.254 Y109.177 E7.72955
G1 X129.006 Y109.401 E7.74066
G1 X128.712 Y109.56 E7.75178
G1 X128.389 Y109.644 E7.76288
G1 X128.199 Y109.657 E7.76921
G1 X122.699 Y109.657 E7.95214
G1 X122.367 Y109.617 E7.96326
G1 X122.055 Y109.5 E7.97435
G1 X121.778 Y109.312 E7.98548
G1 X121.555 Y109.064 E7.99657
G1 X121.396 Y108.77 E8.00769
G1 X121.312 Y108.446 E8.01882
G1 X121.299 Y108.257 E8.02513
G1 X121.299 Y105.057 E8.13156
G1 X121.339 Y104.725 E8.14268
G1 X121.456 Y104.413 E8.15376
G1 X121.644 Y104.136 E8.1649
G1 X121.892 Y103.913 E8.17599
G1 X122.186 Y103.754 E8.18711
G1 X122.51 Y103.67 E8.19824
G1 X122.699 Y103.657 E8.20454
G1 X128.198 Y103.657 E8.38744
G1 X128.53 Y103.697 E8.39856
G1 X128.842 Y103.814 E8.40964
G1 X129.119 Y104.002 E8.42078
G1 X129.342 Y104.25 E8.43187
G1 X129.501 Y104.544 E8.44299
G1 X129.585 Y104.868 E8.45412
G1 X129.598 Y105.057 E8.46042
G0 F6000 X129.198 Y105.057
G1 F1200 X129.199 Y108.257 E8.56685
G1 X129.159 Y108.536 E8.57623
G1 X129.043 Y108.793 E8.58561
G1 X128.86 Y109.008 E8.595
G1 X128.624 Y109.162 E8.60437
G1 X128.354 Y109.245 E8.61376
G1 X128.199 Y109.257 E8.61894
G1 X122.699 Y109.257 E8.80187
G1 X122.42 Y109.217 E8.81124
G1 X122.163 Y109.101 E8.82062
G1 X121.948 Y108.918 E8.83001
G1 X121.794 Y108.682 E8.83938
G1 X121.711 Y108.412 E8.84878
G1 X121.699 Y108.257 E8.85395
G1 X121.699 Y105.057 E8.96038
G1 X121.739 Y104.778 E8.96975
G1 X121.855 Y104.521 E8.97913
G1 X122.038 Y104.306 E8.98852
G1 X122.274 Y104.152 E8.9979
G1 X122.544 Y104.069 E9.00729
G1 X122.699 Y104.057 E9.01246
G1 X128.198 Y104.057 E9.19536
G1 X128.477 Y104.097 E9.20473
G1 X128.734 Y104.213 E9.21411
G1 X128.949 Y104.396 E9.2235
G1 X129.103 Y104.632 E9.23288
G1 X129.186 Y104.902 E9.24227
G1 X129.198 Y105.057 E9.24744
G0 F6000 X128.798 Y105.057
G1 F1200 X128.799 Y108.257 E9.35387
G1 X128.759 Y108.471 E9.36111
G1 X128.646 Y108.658 E9.36838
G1 X128.473 Y108.791 E9.37564
G1 X128.199 Y108.857 E9.38501
G1 X122.699 Y108.857 E9.56794
G1 X122.484 Y108.817 E9.57522
G1 X122.298 Y108.704 E9.58246
G1 X122.165 Y108.531 E9.58971
G1 X122.099 Y108.257 E9.59909
G1 X122.099 Y105.057 E9.70552
G1 X122.139 Y104.842 E9.71279
G1 X122.252 Y104.656 E9.72003
G1 X122.425 Y104.523 E9.72729
G1 X122.699 Y104.457 E9.73666
G1 X128.198 Y104.457 E9.91956
G1 X128.413 Y104.497 E9.92684
G1 X128.599 Y104.61 E9.93407
G1 X128.732 Y104.783 E9.94133
G1 X128.798 Y105.057 E9.95071
G0 F6000 X128.398 Y105.057
G1 F1200 X128.399 Y108.257 E10.05714
G1 X128.36 Y108.376 E10.0613
G1 X128.199 Y108.457 E10.0673
G1 X122.699 Y108.457 E10.25023
G1 X122.58 Y108.418 E10.25439
G1 X122.499 Y108.257 E10.26039
G1 X122.499 Y105.057 E10.36682
G1 X122.538 Y104.938 E10.37099
G1 X122.699 Y104.857 E10.37698
G1 X128.198 Y104.857 E10.55988
G1 X128.317 Y104.896 E10.56404
G1 X128.398 Y105.057 E10.57004
G1 F1500 E4.07004
G0 F6000 X128.863 Y105.056
G0 X128.851 Y104.404
G0 X122.046 Y104.404
G0 X120.505 Y106.47
G1 F1500 E10.57004
G1 F1200 X120.505 Y106.836 E10.58221
G1 X120.398 Y107.65 E10.60952
G1 X120.305 Y108.001 E10.62159
G1 X119.992 Y108.762 E10.64896
G1 X119.808 Y109.081 E10.66121
G1 X119.321 Y109.716 E10.68783
G1 X119.18 Y109.873 E10.69485
G1 X119.154 Y109.898 E10.69605
G1 X119.039 Y109.997 E10.70109
G1 X118.404 Y110.487 E10.72777
G1 X118.086 Y110.672 E10.74001
G1 X117.325 Y110.988 E10.76741
G1 X116.973 Y111.083 E10.77954
G1 X116.178 Y111.189 E10.80621
G1 X116.043 Y111.2 E10.81072
G1 X116.015 Y111.201 E10.81165
G1 X115.782 Y111.19 E10.81941
G1 X114.972 Y111.083 E10.84658
G1 X114.619 Y110.989 E10.85873
G1 X113.863 Y110.676 E10.88595
G1 X113.548 Y110.493 E10.89807
G1 X112.911 Y110.005 E10.92475
G1 X112.83 Y109.939 E10.92823
G1 X112.637 Y109.734 E10.93759
G1 X112.135 Y109.081 E10.96499
G1 X111.951 Y108.763 E10.97721
G1 X111.639 Y108.008 E11.00438
G1 X111.545 Y107.657 E11.01647
G1 X111.437 Y106.844 E11.04374
G1 X111.437 Y106.477 E11.05595
G1 X111.545 Y105.657 E11.08346
G1 X111.639 Y105.305 E11.09558
G1 X111.951 Y104.551 E11.12272
G1 X112.134 Y104.234 E11.13489
G1 X112.623 Y103.596 E11.16163
G1 X112.689 Y103.516 E11.16508
G1 X112.894 Y103.323 E11.17444
G1 X113.546 Y102.822 E11.20179
G1 X113.863 Y102.638 E11.21398
G1 X114.619 Y102.325 E11.2412
G1 X114.971 Y102.231 E11.25331
G1 X115.786 Y102.123 E11.28066
G1 X116.153 Y102.123 E11.29286
G1 X116.971 Y102.231 E11.32031
G1 X117.324 Y102.326 E11.33247
G1 X118.079 Y102.639 E11.35965
G1 X118.394 Y102.821 E11.37175
G1 X119.031 Y103.309 E11.39844
G1 X119.112 Y103.375 E11.40191
G1 X119.305 Y103.58 E11.41128
G1 X119.807 Y104.233 E11.43867
G1 X119.991 Y104.551 E11.45089
G1 X120.303 Y105.305 E11.47803
G1 X120.397 Y105.656 E11.49012
G1 X120.505 Y106.47 E11.51743
G0 F6000 X120.108 Y106.522
G1 F1200 X120.108 Y106.784 E11.52614
G1 X120.001 Y107.598 E11.55345
G1 X119.935 Y107.848 E11.56205
G1 X119.622 Y108.609 E11.58942
G1 X119.491 Y108.838 E11.59819
G1 X119.004 Y109.473 E11.62481
G1 X118.903 Y109.585 E11.62983
G1 X118.877 Y109.61 E11.63103
G1 X118.795 Y109.681 E11.63463
G1 X118.16 Y110.171 E11.66131
G1 X117.932 Y110.303 E11.67007
G1 X117.171 Y110.619 E11.69748
G1 X116.92 Y110.686 E11.70612
G1 X116.125 Y110.792 E11.7328
G1 X116.029 Y110.8 E11.736
G1 X116.001 Y110.801 E11.73693
G1 X115.834 Y110.793 E11.74249
G1 X115.024 Y110.686 E11.76967
G1 X114.772 Y110.619 E11.77834
G1 X114.016 Y110.306 E11.80555
G1 X113.791 Y110.176 E11.8142
G1 X113.154 Y109.688 E11.84089
G1 X113.092 Y109.637 E11.84356
G1 X112.954 Y109.49 E11.85026
G1 X112.452 Y108.837 E11.87766
G1 X112.321 Y108.61 E11.88637
G1 X112.009 Y107.855 E11.91355
G1 X111.942 Y107.605 E11.92215
G1 X111.834 Y106.792 E11.94943
G1 X111.834 Y106.529 E11.95818
G1 X111.942 Y105.709 E11.98569
G1 X112.009 Y105.458 E11.99433
G1 X112.321 Y104.704 E12.02147
G1 X112.451 Y104.478 E12.03014
G1 X112.94 Y103.84 E12.05688
G1 X112.991 Y103.778 E12.05955
G1 X113.138 Y103.64 E12.06625
G1 X113.79 Y103.139 E12.0936
G1 X114.016 Y103.008 E12.10229
G1 X114.772 Y102.695 E12.1295
G1 X115.024 Y102.628 E12.13818
G1 X115.839 Y102.52 E12.16552
G1 X116.101 Y102.52 E12.17424
G1 X116.919 Y102.628 E12.20168
G1 X117.171 Y102.695 E12.21035
G1 X117.926 Y103.008 E12.23753
G1 X118.151 Y103.138 E12.24618
G1 X118.788 Y103.626 E12.27287
G1 X118.85 Y103.677 E12.27554
G1 X118.988 Y103.824 E12.28224
G1 X119.49 Y104.477 E12.30964
G1 X119.621 Y104.704 E12.31836
G1 X119.933 Y105.458 E12.3455
G1 X120 Y105.708 E12.3541
G1 X120.108 Y106.522 E12.38142
G0 F6000 X119.712 Y106.575
G1 F1200 X119.712 Y106.732 E12.38664
G1 X119.605 Y107.546 E12.41394
G1 X119.565 Y107.696 E12.41911
G1 X119.252 Y108.457 E12.44648
G1 X119.173 Y108.594 E12.45174
G1 X118.686 Y109.229 E12.47835
G1 X118.626 Y109.296 E12.48134
G1 X118.6 Y109.321 E12.48254
G1 X118.551 Y109.364 E12.48471
G1 X117.916 Y109.854 E12.51139
G1 X117.779 Y109.933 E12.51665
G1 X117.018 Y110.249 E12.54405
G1 X116.867 Y110.29 E12.54926
G1 X116.072 Y110.396 E12.57593
G1 X115.986 Y110.402 E12.5788
G1 X115.886 Y110.397 E12.58213
G1 X115.076 Y110.29 E12.60931
G1 X114.925 Y110.249 E12.61451
G1 X114.169 Y109.936 E12.64173
G1 X114.034 Y109.858 E12.64691
G1 X113.397 Y109.37 E12.6736
G1 X113.354 Y109.334 E12.67547
G1 X113.271 Y109.247 E12.67946
G1 X112.769 Y108.594 E12.70686
G1 X112.69 Y108.457 E12.71212
G1 X112.378 Y107.702 E12.73929
G1 X112.338 Y107.552 E12.74445
G1 X112.23 Y106.739 E12.77173
G1 X112.23 Y106.582 E12.77695
G1 X112.338 Y105.762 E12.80446
G1 X112.379 Y105.611 E12.80967
G1 X112.691 Y104.857 E12.83681
G1 X112.769 Y104.721 E12.84202
G1 X113.258 Y104.083 E12.86876
G1 X113.294 Y104.04 E12.87062
G1 X113.381 Y103.957 E12.87462
G1 X114.033 Y103.456 E12.90197
G1 X114.169 Y103.378 E12.90719
G1 X114.925 Y103.065 E12.9344
G1 X115.076 Y103.024 E12.9396
G1 X115.891 Y102.916 E12.96695
G1 X116.049 Y102.916 E12.9722
G1 X116.867 Y103.024 E12.99965
G1 X117.018 Y103.065 E13.00485
G1 X117.773 Y103.378 E13.03203
G1 X117.908 Y103.456 E13.03722
G1 X118.545 Y103.944 E13.06391
G1 X118.588 Y103.98 E13.06577
G1 X118.671 Y104.067 E13.06977
G1 X119.173 Y104.72 E13.09717
G1 X119.251 Y104.857 E13.10241
G1 X119.563 Y105.611 E13.12955
