;FLAVOR:Marlin
;TIME:5396
;Filament used: 1.49769m
;Layer height: 0.12
;MINX:88.359
;MINY:88.359
;MINZ:0.144
;MAXX:131.645
;MAXY:131.645
;MAXZ:4.674
;Generated with Cura_SteamEngine 4.7.0
M140 S60
M105
M190 S60
M104 S225
M105
M109 S225
M82 ;absolute extrusion mode
; Ender 3 Custom Start G-code
G92 E0 ; Reset Extruder
G28 ; Home all axes
G1 Z2.0 F3000 ; Move Z Axis up little to prevent scratching of Heat Bed
G1 X0.1 Y20 Z0.3 F5000.0 ; Move to start position
G1 X0.1 Y200.0 Z0.3 F1500.0 E15 ; Draw the first line
G1 X0.4 Y200.0 Z0.3 F5000.0 ; Move to side a little
G1 X0.4 Y20 Z0.3 F1500.0 E30 ; Draw the second line
G92 E0 ; Reset Extruder
G1 Z2.0 F3000 ; Move Z Axis up little to prevent scratching of Heat Bed
G1 X5 Y20 Z0.3 F5000.0 ; Move over to prevent blob squish
G92 E0
G92 E0
G1 F1500 E-6.5
;LAYER_COUNT:33
;LAYER:-6
M107
G0 F9000 X96.113 Y95.861 Z0.144
;TYPE:SUPPORT-INTERFACE
G1 F1500 E0
G1 F900 X96.307 Y95.698 E0.01214
G1 X96.483 Y95.586 E0.02213
G1 X97.025 Y95.191 E0.05425
G1 X97.522 Y94.723 E0.08694
G1 X97.953 Y94.199 E0.11944
G1 X98.17 Y93.872 E0.13824
G1 X98.274 Y93.749 E0.14595
G1 X98.5 Y93.556 E0.16019
G1 X98.657 Y93.448 E0.16931
G1 X98.901 Y93.286 E0.18334
G1 X99.434 Y92.88 E0.21543
G1 X99.918 Y92.403 E0.24798
G1 X100.214 Y92.041 E0.27037
G1 X100.26 Y91.98 E0.27403
G1 X100.322 Y91.907 E0.27862
G1 X100.414 Y91.814 E0.28488
G1 X100.497 Y91.739 E0.29024
G1 X100.594 Y91.663 E0.29614
G1 X100.688 Y91.6 E0.30156
G1 X100.811 Y91.527 E0.30841
G1 X100.913 Y91.475 E0.3139
G1 X101.052 Y91.419 E0.32107
G1 X101.147 Y91.387 E0.32588
G1 X101.292 Y91.352 E0.33302
G1 X101.392 Y91.333 E0.3379
G1 X101.469 Y91.323 E0.34161
G1 X101.614 Y91.312 E0.34858
G1 X101.73 Y91.312 E0.35413
G1 X101.854 Y91.32 E0.36009
G1 X101.984 Y91.339 E0.36638
G1 X102.526 Y91.429 E0.39269
G1 X102.526 Y91.418 E0.39322
G1 X102.629 Y91.433 E0.3982
G1 X103.311 Y91.446 E0.43087
G1 X103.988 Y91.374 E0.46348
G1 X104.568 Y91.241 E0.49198
G1 X104.948 Y91.132 E0.51092
G1 X105.545 Y90.982 E0.5404
G1 X106.229 Y90.836 E0.5739
G1 X106.841 Y90.726 E0.60368
G1 X107.016 Y90.7 E0.61215
G1 X107.673 Y90.567 E0.64426
G1 X108.318 Y90.348 E0.67688
G1 X108.931 Y90.05 E0.70952
G1 X109.421 Y89.736 E0.7374
G1 X109.72 Y89.518 E0.75512
G1 X109.782 Y89.485 E0.75848
G1 X109.826 Y89.472 E0.76068
G1 X110.233 Y89.416 E0.78036
G1 X110.307 Y89.413 E0.78391
G1 X110.593 Y89.421 E0.79761
G1 X110.681 Y89.436 E0.80188
G1 X110.814 Y89.498 E0.80891
G1 X110.92 Y89.556 E0.8147
G1 X110.966 Y89.596 E0.81762
G1 X111.499 Y90.001 E0.84968
G1 X112.091 Y90.342 E0.8824
G1 X112.722 Y90.605 E0.91514
G1 X113.396 Y90.79 E0.94862
G1 X114.075 Y90.928 E0.9818
G1 X114.592 Y91.052 E1.00727
G1 X114.592 Y91.049 E1.00741
G1 X114.721 Y91.081 E1.01378
G1 X115.246 Y91.224 E1.03984
G1 X115.398 Y91.267 E1.0474
G1 X115.864 Y91.413 E1.07079
G1 X116.451 Y91.615 E1.10052
G1 X117.098 Y91.792 E1.13265
G1 X117.778 Y91.886 E1.16553
G1 X118.626 Y91.883 E1.20614
G1 X118.693 Y91.878 E1.20936
G1 X118.773 Y91.877 E1.21319
G1 X118.877 Y91.883 E1.21818
G1 X119.005 Y91.899 E1.22436
G1 X119.116 Y91.923 E1.2298
G1 X119.243 Y91.962 E1.23616
G1 X119.349 Y92.004 E1.24162
G1 X119.475 Y92.066 E1.24835
G1 X119.553 Y92.114 E1.25274
G1 X119.649 Y92.181 E1.25834
G1 X119.722 Y92.242 E1.2629
G1 X119.8 Y92.316 E1.26805
G1 X119.883 Y92.409 E1.27402
G1 X119.952 Y92.5 E1.27949
G1 X120.045 Y92.647 E1.28782
G1 X120.248 Y93.011 E1.30778
G1 X120.261 Y93.004 E1.30849
G1 X120.318 Y93.1 E1.31383
G1 X120.738 Y93.639 E1.34656
G1 X121.218 Y94.117 E1.37901
G1 X121.541 Y94.379 E1.39893
G1 X121.742 Y94.529 E1.41094
G1 X122.005 Y94.74 E1.42709
G1 X122.554 Y95.13 E1.45934
G1 X123.302 Y95.515 E1.49963
G1 X123.447 Y95.576 E1.50717
G1 X123.573 Y95.652 E1.51421
G1 X123.781 Y95.827 E1.52723
G1 X123.776 Y95.832 E1.52757
G1 X124.165 Y96.187 E1.55279
G1 X124.225 Y96.25 E1.55696
G1 X124.306 Y96.36 E1.5635
G1 X124.357 Y96.457 E1.56875
G1 X124.567 Y96.982 E1.59583
G1 X124.576 Y96.978 E1.59631
G1 X124.606 Y97.051 E1.60009
G1 X125.08 Y97.842 E1.64425
G1 X125.353 Y98.217 E1.66647
G1 X125.78 Y98.734 E1.69858
G1 X126.278 Y99.2 E1.73125
G1 X126.834 Y99.602 E1.76411
G1 X127.153 Y99.768 E1.78133
G1 X127.143 Y99.791 E1.78253
G1 X127.66 Y100.031 E1.80983
G1 X127.767 Y100.087 E1.81562
G1 X127.879 Y100.155 E1.82189
G1 X127.962 Y100.213 E1.82674
G1 X128.061 Y100.294 E1.83287
G1 X128.154 Y100.382 E1.839
G1 X128.227 Y100.46 E1.84412
G1 X128.305 Y100.555 E1.85
G1 X128.37 Y100.645 E1.85532
G1 X128.445 Y100.762 E1.86198
G1 X128.5 Y100.865 E1.86757
G1 X128.552 Y100.979 E1.87357
G1 X128.597 Y101.1 E1.87975
G1 X128.632 Y101.219 E1.8857
G1 X128.659 Y101.341 E1.89168
G1 X128.677 Y101.462 E1.89754
G1 X128.686 Y101.559 E1.9022
G1 X128.689 Y101.663 E1.90719
G1 X128.685 Y101.789 E1.91323
G1 X128.672 Y101.916 E1.91934
G1 X128.651 Y102.04 E1.92536
G1 X128.626 Y102.148 E1.93067
G1 X128.516 Y102.537 E1.95003
G1 X128.533 Y102.545 E1.95093
G1 X128.49 Y102.719 E1.95952
G1 X128.413 Y103.398 E1.99225
G1 X128.422 Y104.084 E2.02511
G1 X128.552 Y104.912 E2.06525
G1 X128.702 Y105.535 E2.09594
G1 X128.765 Y105.774 E2.10778
G1 X128.99 Y106.405 E2.13986
G1 X129.296 Y107.011 E2.17238
G1 X129.468 Y107.275 E2.18747
G1 X129.565 Y107.456 E2.1973
G1 X129.609 Y107.578 E2.20351
G1 X129.686 Y107.944 E2.22143
G1 X129.694 Y107.944 E2.22181
G1 X129.744 Y108.169 E2.23285
G1 X129.976 Y108.812 E2.26559
G1 X130.286 Y109.416 E2.29811
G1 X130.461 Y109.683 E2.3134
G1 X130.514 Y109.783 E2.31882
G1 X130.527 Y109.815 E2.32047
G1 X130.53 Y109.828 E2.32111
G1 X130.583 Y110.227 E2.34039
G1 X130.587 Y110.307 E2.34422
G1 X130.579 Y110.593 E2.35793
G1 X130.564 Y110.681 E2.3622
G1 X130.499 Y110.821 E2.36959
G1 X130.422 Y110.961 E2.37725
G1 X130.384 Y111.016 E2.38045
G1 X130.039 Y111.59 E2.41252
G1 X129.764 Y112.215 E2.44523
G1 X129.572 Y112.864 E2.47764
G1 X129.498 Y113.247 E2.49633
G1 X129.481 Y113.36 E2.5018
G1 X129.361 Y113.993 E2.53266
G1 X129.346 Y114.07 E2.53641
G1 X129.214 Y114.657 E2.56523
G1 X129.065 Y115.22 E2.59312
G1 X129.039 Y115.326 E2.59835
G1 X128.841 Y115.986 E2.63135
G1 X128.627 Y116.63 E2.66385
G1 X128.462 Y117.068 E2.68627
G1 X128.266 Y117.708 E2.71833
G1 X128.156 Y118.352 E2.74962
G1 X128.149 Y118.352 E2.74996
G1 X128.147 Y118.387 E2.75163
G1 X128.139 Y118.387 E2.75202
G1 X128.12 Y118.856 E2.7745
G1 X128.104 Y118.991 E2.78101
G1 X128.076 Y119.126 E2.78761
G1 X128.052 Y119.215 E2.79203
G1 X128.041 Y119.247 E2.79365
G1 X128.014 Y119.313 E2.79706
G1 X127.96 Y119.428 E2.80315
G1 X127.925 Y119.492 E2.80664
G1 X127.843 Y119.617 E2.8138
G1 X127.781 Y119.695 E2.81857
G1 X127.691 Y119.791 E2.82488
G1 X127.598 Y119.876 E2.83091
G1 X127.411 Y120.021 E2.84225
G1 X126.904 Y120.469 E2.87465
G1 X126.276 Y121.227 E2.92179
G1 X126.194 Y121.351 E2.92891
G1 X126.157 Y121.404 E2.93201
G1 X125.803 Y121.891 E2.96085
G1 X125.752 Y121.958 E2.96488
G1 X125.367 Y122.45 E2.9948
G1 X124.93 Y122.972 E3.02741
G1 X124.488 Y123.466 E3.05915
G1 X124.027 Y123.947 E3.09106
G1 X124.019 Y123.953 E3.09154
G1 X123.763 Y124.202 E3.10865
G1 X123.65 Y124.317 E3.11637
G1 X123.57 Y124.394 E3.12169
G1 X123.569 Y124.393 E3.12175
G1 X123.495 Y124.463 E3.12663
G1 X123.055 Y124.864 E3.15514
G1 X123.018 Y124.896 E3.15749
G1 X123.019 Y124.897 E3.15756
G1 X122.521 Y125.317 E3.18876
G1 X122.051 Y125.69 E3.2175
G1 X121.58 Y126.039 E3.24557
G1 X121.047 Y126.429 E3.2772
G1 X121.06 Y126.442 E3.27808
G1 X120.924 Y126.549 E3.28637
G1 X120.444 Y127.038 E3.31919
G1 X119.942 Y127.72 E3.35975
G1 X119.845 Y127.879 E3.36867
G1 X119.778 Y127.972 E3.37416
G1 X119.693 Y128.076 E3.38059
G1 X119.619 Y128.154 E3.38574
G1 X119.527 Y128.239 E3.39174
G1 X119.45 Y128.302 E3.39651
G1 X119.329 Y128.39 E3.40367
G1 X119.226 Y128.454 E3.40948
G1 X119.126 Y128.507 E3.4149
G1 X119.025 Y128.552 E3.4202
G1 X118.912 Y128.593 E3.42595
G1 X118.775 Y128.634 E3.4328
G1 X118.659 Y128.658 E3.43848
G1 X118.578 Y128.672 E3.44241
G1 X118.461 Y128.683 E3.44804
G1 X118.311 Y128.688 E3.45523
G1 X118.187 Y128.683 E3.46117
G1 X118.038 Y128.669 E3.46834
G1 X117.369 Y128.645 E3.5004
G1 X116.687 Y128.708 E3.53321
G1 X115.956 Y128.877 E3.56914
G1 X115.511 Y129.014 E3.59144
G1 X115.384 Y129.05 E3.59776
G1 X114.768 Y129.213 E3.62828
G1 X114.096 Y129.371 E3.66134
G1 X113.509 Y129.485 E3.68998
G1 X113.396 Y129.505 E3.69548
G1 X112.766 Y129.607 E3.72605
G1 X112.562 Y129.633 E3.7359
G1 X111.904 Y129.76 E3.76799
G1 X111.255 Y129.973 E3.80071
G1 X110.728 Y130.224 E3.82866
G1 X110.721 Y130.215 E3.82921
G1 X110.309 Y130.465 E3.85229
G1 X110.212 Y130.516 E3.85754
G1 X110.188 Y130.526 E3.85878
G1 X110.168 Y130.53 E3.85976
G1 X109.772 Y130.583 E3.8789
G1 X109.693 Y130.587 E3.88269
G1 X109.407 Y130.579 E3.89639
G1 X109.321 Y130.565 E3.90056
G1 X109.186 Y130.502 E3.9077
G1 X108.994 Y130.396 E3.9182
G1 X108.482 Y130.09 E3.94677
G1 X107.857 Y129.816 E3.97945
G1 X107.208 Y129.626 E4.01184
G1 X106.777 Y129.545 E4.03285
G1 X106.168 Y129.437 E4.06247
G1 X105.964 Y129.395 E4.07244
G1 X105.603 Y129.317 E4.09013
G1 X105.432 Y129.278 E4.09853
G1 X104.798 Y129.119 E4.12984
G1 X104.246 Y128.958 E4.15738
G1 X104.176 Y128.939 E4.16085
G1 X104.086 Y128.911 E4.16537
G1 X103.512 Y128.723 E4.19429
G1 X102.873 Y128.491 E4.22685
G1 X102.812 Y128.467 E4.22999
G1 X102.172 Y128.266 E4.26212
G1 X101.505 Y128.146 E4.29458
G1 X101.127 Y128.116 E4.31274
G1 X100.993 Y128.1 E4.31921
G1 X100.914 Y128.085 E4.32306
G1 X100.769 Y128.044 E4.33027
G1 X100.701 Y128.019 E4.33374
G1 X100.652 Y127.998 E4.3363
G1 X100.564 Y127.956 E4.34097
G1 X100.459 Y127.895 E4.34678
G1 X100.364 Y127.829 E4.35232
G1 X100.279 Y127.759 E4.3576
G1 X100.171 Y127.655 E4.36478
G1 X100.115 Y127.593 E4.36878
G1 X100.065 Y127.528 E4.37271
G1 X99.621 Y127.025 E4.40484
G1 X99.112 Y126.578 E4.43729
G1 X98.78 Y126.339 E4.45688
G1 X98.714 Y126.294 E4.4607
G1 X98.196 Y125.926 E4.49114
G1 X98.163 Y125.899 E4.49318
G1 X98.155 Y125.895 E4.49361
G1 X97.745 Y125.582 E4.51831
G1 X97.63 Y125.492 E4.52531
G1 X97.15 Y125.096 E4.55511
G1 X96.616 Y124.627 E4.58915
G1 X96.207 Y124.238 E4.61618
G1 X96.129 Y124.159 E4.6215
G1 X95.999 Y124.036 E4.63007
G1 X95.683 Y123.717 E4.65158
G1 X95.19 Y123.185 E4.68632
G1 X94.773 Y122.7 E4.71695
G1 X94.457 Y122.308 E4.74107
G1 X94.34 Y122.164 E4.74995
G1 X93.911 Y121.591 E4.78423
G1 X93.758 Y121.371 E4.79707
G1 X93.34 Y120.847 E4.82917
G1 X92.849 Y120.368 E4.86203
G1 X92.604 Y120.191 E4.8765
G1 X92.616 Y120.179 E4.87732
G1 X92.169 Y119.874 E4.90323
G1 X92.114 Y119.839 E4.90636
G1 X92.034 Y119.782 E4.91106
G1 X91.936 Y119.702 E4.91712
G1 X91.837 Y119.61 E4.92359
G1 X91.76 Y119.528 E4.92898
G1 X91.679 Y119.428 E4.93514
G1 X91.61 Y119.33 E4.94088
G1 X91.566 Y119.26 E4.94484
G1 X91.505 Y119.147 E4.95099
G1 X91.449 Y119.025 E4.95742
G1 X91.408 Y118.916 E4.963
G1 X91.373 Y118.803 E4.96867
G1 X91.35 Y118.705 E4.97349
G1 X91.325 Y118.555 E4.98077
G1 X91.314 Y118.427 E4.98692
G1 X91.312 Y118.308 E4.99262
G1 X91.319 Y118.153 E5.00005
G1 X91.363 Y117.669 E5.02333
G1 X91.339 Y117.669 E5.02448
G1 X91.346 Y117.512 E5.03201
G1 X91.289 Y116.829 E5.06483
G1 X91.101 Y116.007 E5.10522
G1 X90.968 Y115.577 E5.12678
G1 X90.807 Y115 E5.15547
G1 X90.631 Y114.263 E5.19176
G1 X90.549 Y113.86 E5.21146
G1 X90.509 Y113.668 E5.22085
G1 X90.394 Y112.99 E5.25379
G1 X90.316 Y112.411 E5.28177
G1 X90.25 Y111.984 E5.30246
G1 X90.229 Y111.987 E5.30348
G1 X90.203 Y111.851 E5.31011
G1 X89.989 Y111.198 E5.34302
G1 X89.586 Y110.395 E5.38605
G1 X89.536 Y110.312 E5.39069
G1 X89.484 Y110.213 E5.39605
G1 X89.474 Y110.186 E5.39743
G1 X89.47 Y110.17 E5.39822
G1 X89.417 Y109.772 E5.41745
G1 X89.413 Y109.688 E5.42147
G1 X89.421 Y109.407 E5.43494
G1 X89.436 Y109.319 E5.43921
G1 X89.498 Y109.186 E5.44624
G1 X89.554 Y109.082 E5.4519
G1 X89.81 Y108.786 E5.47064
G1 X90.215 Y108.251 E5.50278
G1 X90.555 Y107.66 E5.53544
G1 X90.82 Y107.028 E5.56826
G1 X91.017 Y106.286 E5.60503
G1 X91.088 Y105.913 E5.62321
G1 X91.118 Y105.766 E5.6304
G1 X91.267 Y105.102 E5.66299
G1 X91.406 Y104.567 E5.68947
G1 X91.439 Y104.461 E5.69478
G1 X91.596 Y103.93 E5.7213
G1 X91.647 Y103.764 E5.72962
G1 X91.662 Y103.722 E5.73176
G1 X91.83 Y103.073 E5.76386
G1 X91.919 Y102.392 E5.79676
G1 X91.9 Y101.491 E5.83992
G1 X91.882 Y101.323 E5.84801
G1 X91.879 Y101.237 E5.85213
G1 X91.883 Y101.112 E5.85812
G1 X91.887 Y101.064 E5.86043
G1 X91.901 Y100.97 E5.86498
G1 X91.917 Y100.901 E5.86838
G1 X91.956 Y100.768 E5.87501
G1 X91.98 Y100.703 E5.87833
G1 X92.032 Y100.588 E5.88438
G1 X92.096 Y100.472 E5.89072
G1 X92.142 Y100.402 E5.89473
G1 X92.22 Y100.301 E5.90085
G1 X92.28 Y100.236 E5.90508
G1 X92.368 Y100.153 E5.91088
G1 X92.473 Y100.068 E5.91735
G1 X92.587 Y99.99 E5.92396
G1 X93.016 Y99.737 E5.94782
G1 X93.008 Y99.721 E5.94867
G1 X93.23 Y99.576 E5.96137
G1 X93.754 Y99.131 E5.9943
G1 X94.337 Y98.464 E6.03673
G1 X94.629 Y98.067 E6.06033
G1 X94.74 Y97.925 E6.06896
G1 X95.126 Y97.375 E6.10114
G1 X95.489 Y96.661 E6.13951
G1 X95.552 Y96.51 E6.14734
G1 X95.634 Y96.375 E6.15491
G1 X95.821 Y96.156 E6.1687
G1 X96.013 Y95.964 E6.18171
G1 X96.113 Y95.861 E6.18858
G0 F9000 X96 Y95.977
G1 F900 X96 Y124.036 E7.53246
G0 F9000 X97.6 Y125.467
G1 F900 X97.6 Y94.628 E9.00948
G0 F9000 X99.2 Y93.058
G1 F900 X99.2 Y126.655 E10.61859
G0 F9000 X100.8 Y128.052
G1 F900 X100.8 Y91.533 E12.36765
G0 F9000 X102.4 Y91.409
G1 F900 X102.4 Y128.337 E14.13631
G0 F9000 X104 Y128.882
G1 F900 X104 Y91.371 E15.93288
G0 F9000 X105.6 Y90.97
G1 F900 X105.6 Y129.316 E17.76945
G0 F9000 X107.2 Y129.624
G1 F900 X107.2 Y90.662 E19.63552
G0 F9000 X108.8 Y90.113
G1 F900 X108.8 Y130.28 E21.5593
G0 F9000 X110.4 Y130.41
G1 F900 X110.4 Y89.416 E23.52269
G0 F9000 X112 Y90.29
G1 F900 X112 Y129.742 E25.41223
G0 F9000 X113.6 Y129.468
G1 F900 X113.6 Y90.832 E27.26268
G0 F9000 X115.2 Y91.212
G1 F900 X115.2 Y129.099 E29.07726
G0 F9000 X116.8 Y128.698
G1 F900 X116.8 Y91.711 E30.84874
G0 F9000 X118.4 Y91.883
G1 F900 X118.4 Y128.686 E32.61141
G0 F9000 X120 Y127.642
G1 F900 X120 Y92.576 E34.29088
G0 F9000 X121.6 Y94.424
G1 F900 X121.6 Y126.025 E35.8044
G0 F9000 X123.2 Y124.732
G1 F900 X123.2 Y95.463 E37.20622
G0 F9000 X124.8 Y97.375
G1 F900 X124.8 Y123.118 E38.43917
G0 F9000 X126.4 Y121.078
G1 F900 X126.4 Y99.289 E39.48275
G0 F9000 X128 Y100.245
G1 F900 X128 Y119.343 E40.39744
G1 F1500 E33.89744
G0 F9000 X129.086 Y119.443
G0 X129.152 Y119.406
G0 X129.861 Y116.457
G0 X130.549 Y113.423
G0 X129.6 Y112.77
G1 F1500 E40.39744
G1 F900 X129.6 Y107.554 E40.64726
G1 F1500 E34.14726
G0 F9000 X130.383 Y106.729
G0 X129.665 Y100.961
G0 X129.372 Y100.236
G0 X128.764 Y99.494
G0 X125.133 Y95.615
G0 X120.573 Y91.475
G0 X119.598 Y90.958
G0 X110.697 Y88.359
G0 X109.623 Y88.425
G0 X100.854 Y90.363
G0 X100.121 Y90.699
G0 X97.517 Y92.996
G0 X94.768 Y95.75
G0 X93.649 Y97.607
G0 X94.4 Y98.378
G1 F1500 E40.64726
G1 F900 X94.4 Y122.237 E41.78997
G0 F9000 X92.8 Y120.332
G1 F900 X92.8 Y99.864 E42.77028
G1 F1500 E36.27028
G0 F9000 X91.829 Y99.219
G0 X91.402 Y99.619
G0 X91.001 Y100.285
G0 X90.9 Y100.725
G0 X90.236 Y104.839
G0 X91.2 Y105.4
G1 F1500 E42.77028
G1 F900 X91.2 Y116.439 E43.29899
G1 F1500 E36.79899
G0 F9000 X90.074 Y116.285
G0 X89.612 Y114.481
G0 X89.001 Y111.602
G0 X89.6 Y110.422
G1 F1500 E43.29899
G1 F900 X89.6 Y109.028 E43.36575
G1 F1500 E36.86575
G0 F300 X89.6 Y109.028 Z0.324
G0 F9000 X88.359 Y109.303
G0 X88.409 Y110.159
G0 X90.28 Y117.535
G0 X91.317 Y118.187
;TIME_ELAPSED:72.394251
;LAYER:-5
;TYPE:SUPPORT
G1 F1500 E43.36575
G1 F900 X101.255 Y128.125 E44.20717
G1 X101.126 Y128.115 E44.21492
G1 X100.993 Y128.099 E44.22294
G1 X100.914 Y128.083 E44.22776
G1 X100.769 Y128.043 E44.23677
G1 X100.701 Y128.018 E44.2411
G1 X100.651 Y127.996 E44.24437
G1 X100.564 Y127.955 E44.25013
G1 X100.458 Y127.894 E44.25745
G1 X100.363 Y127.827 E44.26441
G1 X100.279 Y127.758 E44.27092
G1 X100.17 Y127.654 E44.27994
G1 X100.115 Y127.591 E44.28495
G1 X100.064 Y127.527 E44.28985
G1 X99.62 Y127.023 E44.33006
G1 X99.111 Y126.577 E44.37058
G1 X98.779 Y126.338 E44.39507
G1 X98.713 Y126.293 E44.39985
G1 X98.195 Y125.925 E44.43789
G1 X98.162 Y125.898 E44.44044
G1 X98.154 Y125.894 E44.44098
G1 X97.745 Y125.581 E44.47181
G1 X97.63 Y125.491 E44.48055
G1 X97.15 Y125.094 E44.51785
G1 X96.616 Y124.626 E44.56036
G1 X96.207 Y124.237 E44.59415
G1 X96.129 Y124.158 E44.6008
