;FLAVOR:Marlin
;TIME:2920
;Filament used: 0.648829m
;Layer height: 0.12
;MINX:93.541
;MINY:102.437
;MINZ:0.2
;MAXX:135.11
;MAXY:132.572
;MAXZ:23.96
;Generated with Cura_SteamEngine 4.6.2
M140 S60
M105
M190 S60
M104 S200
M105
M109 S200
M82 ;absolute extrusion mode
; Ender 3 Custom Start G-code
G92 E0 ; Reset Extruder
G28 ; Home all axes
G1 Z2.0 F3000 ; Move Z Axis up little to prevent scratching of Heat Bed
G1 X0.1 Y20 Z0.3 F5000.0 ; Move to start position
G1 X0.1 Y200.0 Z0.3 F1500.0 E15 ; Draw the first line
G1 X0.4 Y200.0 Z0.3 F5000.0 ; Move to side a little
G1 X0.4 Y20 Z0.3 F1500.0 E30 ; Draw the second line
G92 E0 ; Reset Extruder
G1 Z2.0 F3000 ; Move Z Axis up little to prevent scratching of Heat Bed
G1 X5 Y20 Z0.3 F5000.0 ; Move over to prevent blob squish
G92 E0
G92 E0
G1 F1500 E-6
;LAYER_COUNT:199
;LAYER:0
M107
M204 S500
M205 X8 Y8
G0 F7500 X119.258 Y103.314 Z0.2
;TYPE:SKIRT
G1 F1500 E0
G1 X120.108 Y103.416 E0.02705
G1 X120.397 Y103.463 E0.0363
G1 X120.832 Y103.544 E0.05028
G1 X121.502 Y103.683 E0.0719
G1 X122.31 Y103.885 E0.09822
G1 X122.575 Y103.963 E0.10695
G1 X123.065 Y104.121 E0.12322
G1 X123.762 Y104.365 E0.14655
G1 X124.691 Y104.742 E0.17823
G1 X125.074 Y104.92 E0.19157
G1 X125.413 Y105.085 E0.20349
G1 X125.887 Y105.327 E0.2203
G1 X126.612 Y105.736 E0.2466
G1 X126.832 Y105.872 E0.25478
G1 X127.23 Y106.131 E0.26978
G1 X127.867 Y106.567 E0.29417
G1 X128.514 Y107.048 E0.31964
G1 X128.779 Y107.262 E0.33041
G1 X129.077 Y107.512 E0.3427
G1 X129.328 Y107.731 E0.35322
G1 X129.908 Y108.279 E0.37844
G1 X130.246 Y108.624 E0.3937
G1 X130.49 Y108.882 E0.40492
G1 X130.744 Y109.16 E0.41681
G1 X131.319 Y109.847 E0.44512
G1 X131.805 Y110.483 E0.47041
G1 X132.182 Y111.005 E0.49076
G1 X132.619 Y111.681 E0.51619
G1 X132.818 Y112.017 E0.52853
G1 X133.244 Y112.814 E0.55709
G1 X133.597 Y113.645 E0.58561
G1 X133.898 Y114.587 E0.61686
G1 X133.966 Y114.842 E0.6252
G1 X134.159 Y115.724 E0.65373
G1 X134.274 Y116.62 E0.68227
G1 X134.31 Y117.522 E0.7108
G1 X134.265 Y118.424 E0.73933
G1 X134.136 Y119.343 E0.76865
G1 X134.082 Y119.632 E0.77794
G1 X133.877 Y120.512 E0.80649
G1 X133.595 Y121.37 E0.83503
G1 X133.239 Y122.2 E0.86357
G1 X132.81 Y122.995 E0.89211
G1 X132.615 Y123.321 E0.90411
G1 X132.26 Y123.883 E0.92512
G1 X131.837 Y124.494 E0.9486
G1 X131.659 Y124.732 E0.95799
G1 X131.436 Y125.02 E0.9695
G1 X131.184 Y125.333 E0.98219
G1 X130.588 Y126.009 E1.01067
G1 X129.875 Y126.743 E1.043
G1 X129.588 Y127.023 E1.05567
G1 X128.987 Y127.565 E1.08124
G1 X128.797 Y127.723 E1.08905
G1 X128.387 Y128.046 E1.10554
G1 X127.898 Y128.412 E1.12484
G1 X127.129 Y128.934 E1.15421
G1 X126.23 Y129.482 E1.18748
G1 X126.024 Y129.6 E1.19498
G1 X125.281 Y129.986 E1.22143
G1 X124.695 Y130.255 E1.24181
G1 X124.417 Y130.375 E1.25138
G1 X123.814 Y130.613 E1.27186
G1 X123.183 Y130.839 E1.29304
G1 X122.248 Y131.124 E1.32392
G1 X121.47 Y131.321 E1.34928
G1 X120.404 Y131.531 E1.38361
G1 X119.723 Y131.628 E1.40535
G1 X119.272 Y131.682 E1.4197
G1 X118.881 Y131.72 E1.43211
G1 X118.02 Y131.767 E1.45936
G1 X117.615 Y131.772 E1.47215
G1 X117.059 Y131.764 E1.48972
G1 X115.655 Y131.703 E1.53413
G1 X105.213 Y131.059 E1.86469
G1 X104.535 Y131.007 E1.88618
G1 X103.638 Y130.898 E1.91473
G1 X102.893 Y130.745 E1.93876
G1 X102.668 Y130.69 E1.94608
G1 X101.801 Y130.437 E1.97462
G1 X100.96 Y130.108 E2.00315
G1 X100.434 Y129.858 E2.02155
G1 X100.28 Y129.779 E2.02702
G1 X99.496 Y129.331 E2.05555
G1 X98.754 Y128.816 E2.08409
G1 X98.127 Y128.298 E2.10979
G1 X97.953 Y128.142 E2.11717
G1 X97.308 Y127.51 E2.14571
G1 X96.721 Y126.823 E2.17426
G1 X96.275 Y126.205 E2.19834
G1 X96.153 Y126.022 E2.20529
G1 X95.686 Y125.249 E2.23382
G1 X95.289 Y124.438 E2.26236
G1 X94.945 Y123.535 E2.29289
G1 X94.875 Y123.321 E2.3
G1 X94.633 Y122.451 E2.32854
G1 X94.468 Y121.563 E2.35707
G1 X94.379 Y120.583 E2.38817
G1 X94.35 Y119.9 E2.40977
G1 X94.341 Y119.454 E2.42386
G1 X94.347 Y115.467 E2.54984
G1 X94.358 Y114.768 E2.57193
G1 X94.412 Y113.866 E2.60048
G1 X94.634 Y112.567 E2.64212
G1 X94.688 Y112.34 E2.64949
G1 X94.936 Y111.472 E2.67802
G1 X95.259 Y110.629 E2.70654
G1 X95.578 Y109.963 E2.72987
G1 X95.674 Y109.78 E2.7364
G1 X96.129 Y108.999 E2.76496
G1 X96.651 Y108.262 E2.7935
G1 X97.037 Y107.794 E2.81267
G1 X97.172 Y107.64 E2.81914
G1 X97.797 Y106.988 E2.84768
G1 X98.477 Y106.394 E2.87621
G1 X99.207 Y105.862 E2.90475
G1 X99.705 Y105.552 E2.92328
G1 X99.94 Y105.415 E2.93188
G1 X100.739 Y104.995 E2.9604
G1 X101.67 Y104.613 E2.9922
G1 X101.797 Y104.568 E2.99645
G1 X102.661 Y104.304 E3.025
G1 X103.545 Y104.118 E3.05354
G1 X104.377 Y104.016 E3.08003
G1 X105.793 Y103.903 E3.12491
G1 X116.353 Y103.265 E3.45919
G1 X116.938 Y103.238 E3.47769
G1 X117.843 Y103.236 E3.50629
G1 X118.459 Y103.263 E3.52577
G0 F1350 X118.57 Y103.267
G0 X119.258 Y103.314
G0 F7500 X119.289 Y102.916
G1 F1500 X120.173 Y103.021 E3.5539
G1 X120.462 Y103.068 E3.56315
G1 X120.913 Y103.152 E3.57764
G1 X121.583 Y103.291 E3.59926
G1 X122.423 Y103.501 E3.62662
G1 X122.688 Y103.579 E3.63535
G1 X123.197 Y103.743 E3.65225
G1 X123.894 Y103.987 E3.67558
G1 X124.859 Y104.379 E3.70849
G1 X125.242 Y104.557 E3.72184
G1 X125.595 Y104.729 E3.73424
G1 X126.069 Y104.971 E3.75106
G1 X126.823 Y105.396 E3.77841
G1 X127.043 Y105.532 E3.78658
G1 X127.456 Y105.801 E3.80216
G1 X128.093 Y106.237 E3.82655
G1 X128.766 Y106.737 E3.85304
G1 X129.031 Y106.951 E3.8638
G1 X129.34 Y107.211 E3.87656
G1 X129.591 Y107.43 E3.88708
G1 X130.194 Y107.999 E3.91328
G1 X130.532 Y108.344 E3.92854
G1 X130.786 Y108.612 E3.94021
G1 X131.04 Y108.89 E3.95211
G1 X131.636 Y109.604 E3.98149
G1 X132.122 Y110.24 E4.00679
G1 X132.509 Y110.775 E4.02765
G1 X132.963 Y111.477 E4.05407
G1 X133.162 Y111.813 E4.0664
G1 X133.597 Y112.625 E4.09551
G1 X133.959 Y113.471 E4.12459
G1 X134.284 Y114.484 E4.1582
G1 X134.352 Y114.739 E4.16654
G1 X134.55 Y115.638 E4.19563
G1 X134.67 Y116.551 E4.22472
G1 X134.71 Y117.47 E4.25379
G1 X134.67 Y118.39 E4.28288
G1 X134.53 Y119.417 E4.31564
G1 X134.476 Y119.706 E4.32492
G1 X134.267 Y120.603 E4.35403
G1 X133.982 Y121.478 E4.3831
G1 X133.622 Y122.325 E4.41218
G1 X133.153 Y123.2 E4.44355
G1 X132.789 Y123.799 E4.4657
G1 X132.597 Y124.099 E4.47695
G1 X132.158 Y124.734 E4.50135
G1 X131.98 Y124.972 E4.51074
G1 X131.748 Y125.27 E4.52267
G1 X131.496 Y125.583 E4.53537
G1 X130.876 Y126.287 E4.56501
G1 X130.389 Y126.793 E4.5872
G1 X130.154 Y127.029 E4.59772
G1 X129.867 Y127.309 E4.61039
G1 X129.243 Y127.872 E4.63695
G1 X129.053 Y128.03 E4.64475
G1 X128.627 Y128.366 E4.6619
G1 X128.138 Y128.732 E4.6812
G1 X127.339 Y129.275 E4.71172
G1 X126.429 Y129.829 E4.74538
G1 X126.223 Y129.947 E4.75289
G1 X125.451 Y130.348 E4.78037
G1 X125.15 Y130.489 E4.79087
G1 X124.576 Y130.742 E4.8107
G1 X123.949 Y130.989 E4.83199
G1 X123.318 Y131.215 E4.85317
G1 X122.346 Y131.512 E4.88528
G1 X121.568 Y131.709 E4.91064
G1 X120.461 Y131.927 E4.94629
G1 X119.78 Y132.024 E4.96802
G1 X119.31 Y132.08 E4.98298
G1 X118.919 Y132.118 E4.99539
G1 X118.025 Y132.167 E5.02368
G1 X117.62 Y132.172 E5.03648
G1 X117.042 Y132.164 E5.05475
G1 X115.63 Y132.102 E5.0994
G1 X105.182 Y131.458 E5.43016
G1 X104.504 Y131.406 E5.45164
G1 X103.59 Y131.296 E5.48073
G1 X102.798 Y131.134 E5.50627
G1 X102.573 Y131.079 E5.51359
G1 X101.689 Y130.822 E5.54268
G1 X100.831 Y130.489 E5.57176
G1 X100.252 Y130.213 E5.59203
G1 X100.098 Y130.134 E5.5975
G1 X99.298 Y129.679 E5.62658
G1 X98.54 Y129.156 E5.65568
G1 X97.86 Y128.595 E5.68353
G1 X97.686 Y128.439 E5.69091
G1 X97.028 Y127.796 E5.71998
G1 X96.428 Y127.097 E5.74909
G1 X95.942 Y126.427 E5.77524
G1 X95.82 Y126.244 E5.78219
G1 X95.343 Y125.456 E5.8113
G1 X94.937 Y124.63 E5.84038
G1 X94.565 Y123.659 E5.87323
G1 X94.495 Y123.445 E5.88035
G1 X94.247 Y122.559 E5.90942
G1 X94.077 Y121.654 E5.93852
G1 X93.98 Y120.6 E5.97196
G1 X93.951 Y119.917 E5.99356
G1 X93.941 Y119.453 E6.00822
G1 X93.947 Y115.46 E6.13439
G1 X93.958 Y114.761 E6.15648
G1 X94.013 Y113.842 E6.18557
G1 X94.147 Y112.931 E6.21467
G1 X94.245 Y112.475 E6.2294
G1 X94.299 Y112.248 E6.23678
G1 X94.551 Y111.362 E6.26588
G1 X94.878 Y110.502 E6.29495
G1 X95.224 Y109.777 E6.32034
G1 X95.32 Y109.594 E6.32687
G1 X95.783 Y108.798 E6.35596
G1 X96.313 Y108.045 E6.38506
G1 X96.736 Y107.531 E6.40609
G1 X96.871 Y107.377 E6.41256
G1 X97.507 Y106.711 E6.44166
G1 X98.199 Y106.104 E6.47074
G1 X98.941 Y105.558 E6.49985
G1 X99.503 Y105.207 E6.52079
G1 X99.738 Y105.07 E6.52938
G1 X100.553 Y104.641 E6.55849
G1 X101.537 Y104.236 E6.59211
G1 X101.664 Y104.191 E6.59636
G1 X102.544 Y103.921 E6.62545
G1 X103.444 Y103.729 E6.65453
G1 X104.345 Y103.617 E6.68322
G1 X105.769 Y103.503 E6.72835
G1 X116.334 Y102.865 E7.06279
G1 X116.919 Y102.838 E7.08129
G1 X117.86 Y102.837 E7.11102
G1 X118.49 Y102.864 E7.13095
G0 F1350 X118.587 Y102.868
G0 X119.289 Y102.916
G0 F7500 X119.32 Y102.517
G1 F1500 X120.237 Y102.627 E7.16013
G1 X120.526 Y102.674 E7.16938
G1 X120.995 Y102.76 E7.18445
G1 X121.665 Y102.899 E7.20607
G1 X122.536 Y103.118 E7.23444
G1 X122.801 Y103.196 E7.24317
G1 X123.33 Y103.366 E7.26073
G1 X124.027 Y103.61 E7.28406
G1 X125.028 Y104.017 E7.31821
G1 X125.411 Y104.195 E7.33155
G1 X125.777 Y104.373 E7.34441
G1 X126.251 Y104.615 E7.36123
G1 X127.033 Y105.055 E7.38958
G1 X127.253 Y105.191 E7.39775
G1 X127.682 Y105.471 E7.41394
G1 X128.319 Y105.907 E7.43833
G1 X129.017 Y106.426 E7.46581
G1 X129.282 Y106.64 E7.47658
G1 X129.603 Y106.909 E7.48981
G1 X129.854 Y107.128 E7.50033
G1 X130.479 Y107.719 E7.52751
G1 X130.817 Y108.064 E7.54277
G1 X131.081 Y108.342 E7.55489
G1 X131.335 Y108.62 E7.56679
G1 X131.954 Y109.361 E7.59729
G1 X132.44 Y109.997 E7.62258
G1 X132.693 Y110.341 E7.63608
G1 X132.836 Y110.544 E7.64392
G1 X133.308 Y111.273 E7.67136
G1 X133.507 Y111.609 E7.6837
G1 X133.95 Y112.436 E7.71335
G1 X134.321 Y113.297 E7.74297
G1 X134.671 Y114.381 E7.77896
G1 X134.739 Y114.636 E7.7873
G1 X134.941 Y115.551 E7.81691
G1 X135.065 Y116.481 E7.84655
G1 X135.11 Y117.418 E7.87619
G1 X135.074 Y118.355 E7.90582
G1 X134.923 Y119.49 E7.942
G1 X134.869 Y119.779 E7.95129
G1 X134.657 Y120.693 E7.98094
G1 X134.369 Y121.586 E8.01059
G1 X134.006 Y122.45 E8.0402
G1 X133.496 Y123.406 E8.07443
G1 X133.126 Y124.015 E8.09695
G1 X132.934 Y124.315 E8.1082
G1 X132.478 Y124.973 E8.1335
G1 X132.3 Y125.211 E8.14289
G1 X132.059 Y125.521 E8.1553
G1 X131.807 Y125.834 E8.16799
G1 X131.165 Y126.564 E8.19871
G1 X130.678 Y127.07 E8.2209
G1 X130.434 Y127.316 E8.23185
G1 X130.147 Y127.596 E8.24452
G1 X129.498 Y128.18 E8.2721
G1 X129.308 Y128.338 E8.27991
G1 X128.866 Y128.686 E8.29769
G1 X128.377 Y129.052 E8.31699
G1 X127.549 Y129.616 E8.34864
G1 X126.923 Y130.001 E8.37186
G1 X126.422 Y130.294 E8.3902
G1 X125.62 Y130.71 E8.41875
G1 X125.319 Y130.851 E8.42925
G1 X124.734 Y131.109 E8.44945
G1 X124.084 Y131.366 E8.47154
G1 X123.453 Y131.592 E8.49272
G1 X122.444 Y131.899 E8.52604
G1 X121.666 Y132.096 E8.5514
G1 X120.517 Y132.323 E8.58841
G1 X119.836 Y132.42 E8.61014
G1 X119.349 Y132.478 E8.62564
G1 X118.958 Y132.516 E8.63805
G1 X118.03 Y132.567 E8.66742
G1 X117.625 Y132.572 E8.68021
G1 X117.025 Y132.563 E8.69918
G1 X115.605 Y132.501 E8.74409
G1 X105.152 Y131.857 E9.075
G1 X104.474 Y131.805 E9.09648
G1 X103.543 Y131.693 E9.12611
G1 X102.703 Y131.522 E9.1532
G1 X102.478 Y131.467 E9.16052
G1 X101.577 Y131.206 E9.19016
G1 X100.702 Y130.869 E9.21978
G1 X100.069 Y130.569 E9.24192
G1 X99.915 Y130.49 E9.24739
G1 X99.1 Y130.027 E9.277
G1 X98.327 Y129.496 E9.30663
G1 X97.593 Y128.893 E9.33665
G1 X97.419 Y128.737 E9.34403
G1 X96.748 Y128.082 E9.37366
G1 X96.135 Y127.372 E9.4033
G1 X95.609 Y126.649 E9.43155
G1 X95.487 Y126.466 E9.4385
G1 X95.001 Y125.664 E9.46813
G1 X94.585 Y124.824 E9.49775
G1 X94.185 Y123.784 E9.53296
G1 X94.115 Y123.57 E9.54007
G1 X93.862 Y122.667 E9.5697
G1 X93.686 Y121.746 E9.59933
G1 X93.58 Y120.617 E9.63516
G1 X93.551 Y119.934 E9.65676
G1 X93.541 Y119.453 E9.67196
G1 X93.547 Y115.454 E9.79832
G1 X93.558 Y114.755 E9.82041
G1 X93.613 Y113.819 E9.85003
G1 X93.747 Y112.89 E9.87969
G1 X93.856 Y112.382 E9.89611
G1 X93.91 Y112.155 E9.90348
G1 X94.165 Y111.253 E9.9331
G1 X94.497 Y110.376 E9.96273
G1 X94.87 Y109.591 E9.99019
G1 X94.966 Y109.408 E9.99672
G1 X95.437 Y108.597 E10.02635
G1 X95.975 Y107.829 E10.05598
G1 X96.435 Y107.267 E10.07893
G1 X96.57 Y107.113 E10.0854
G1 X97.218 Y106.435 E10.11503
G1 X97.921 Y105.814 E10.14467
G1 X98.675 Y105.256 E10.17431
G1 X99.302 Y104.861 E10.19773
G1 X99.537 Y104.724 E10.20632
G1 X100.367 Y104.287 E10.23596
G1 X101.403 Y103.859 E10.27138
G1 X101.53 Y103.814 E10.27563
G1 X102.427 Y103.538 E10.30529
G1 X103.343 Y103.34 E10.3349
G1 X104.312 Y103.218 E10.36576
G1 X105.745 Y103.104 E10.41118
G1 X116.316 Y102.466 E10.7458
G1 X116.901 Y102.439 E10.76431
G1 X117.877 Y102.437 E10.79514
G1 X118.521 Y102.465 E10.81551
G0 F1350 X118.604 Y102.468
G0 X119.32 Y102.517
G1 F1500 E4.81551
;MESH:3DBenchy.stl
G0 F7500 X114.023 Y112.958
G0 X114.266 Y116.982
G0 X114.16 Y117.799
;TYPE:WALL-INNER
G1 F1500 E10.81551
G1 X114.16 Y117.653 E10.82013
G1 X114.161 Y117.584 E10.82231
G1 X114.162 Y117.37 E10.82907
G1 X114.163 Y117.258 E10.83261
G1 X114.163 Y117.166 E10.83551
G1 X114.164 Y117.151 E10.83599
G1 X114.17 Y117.166
G1 X114.192 Y117.258 E10.83617
G1 X114.206 Y117.37 E10.8365
G1 X114.205 Y117.584 E10.83727
G1 X114.198 Y117.653
G1 X114.16 Y117.799 E10.83759
G0 F7500 X113.758 Y118.247
;TYPE:WALL-OUTER
G1 F1500 X113.758 Y118.15 E10.8405
G1 X113.766 Y116.905 E10.87787
G1 X113.766 Y116.725 E10.88327
G1 X113.821 Y116.723 E10.88493
G1 X114.001 Y116.732 E10.88864
G1 X114.198 Y116.743 E10.89457
G1 X114.344 Y116.775 E10.89905
G1 X114.373 Y116.788 E10.90001
G1 X114.431 Y116.831 E10.90217
G1 X114.489 Y116.905 E10.905
G1 X114.509 Y116.941 E10.90623
G1 X114.553 Y117.047 E10.90968
G1 X114.586 Y117.182 E10.91385
G1 X114.606 Y117.348 E10.91887
G1 X114.605 Y117.609 E10.9267
G1 X114.593 Y117.721 E10.93008
G1 X114.548 Y117.908 E10.93586
G1 X114.514 Y117.992 E10.93858
G1 X114.459 Y118.08 E10.94169
G1 X114.416 Y118.129 E10.94365
G1 X114.377 Y118.159 E10.94513
G1 X114.337 Y118.182 E10.94651
G1 X114.294 Y118.2 E10.94791
G1 X114.198 Y118.221 E10.95086
G1 X114.077 Y118.231 E10.95451
G1 X113.98 Y118.239 E10.95695
G1 X113.852 Y118.239 E10.96079
G1 X113.758 Y118.247 E10.96363
G0 F7500 X113.758 Y118.15
G0 X113.759 Y117.847
G0 X114.021 Y117.981
;TYPE:SKIN
G1 F1500 X114.056 Y118.016 E10.96441
G0 F7500 X114.361 Y117.634
G1 F1500 E4.96441
G0 F7500 X114.301 Y117.628
G0 X113.978 Y116.945
G0 X112.746 Y116.937
G0 X112.397 Y116.018
G0 X112.03 Y115.723
G0 X111.735 Y115.654
G0 X107.296 Y115.162
;TYPE:WALL-INNER
G1 F1500 E10.96441
G1 X107.165 Y115.098 E10.96901
G1 X107.017 Y115.049 E10.97394
G1 X107.161 Y115.041 E10.97418
G1 X107.288 Y115.034 E10.97567
G1 X107.623 Y115.014 E10.9859
G1 X107.861 Y115 E10.99343
G1 X108.042 Y114.989 E10.99916
G1 X108.223 Y114.978 E11.00489
G1 X109.491 Y114.903 E11.04502
G1 X109.887 Y114.879 E11.05756
G1 X110.055 Y114.869 E11.06288
G1 X110.317 Y114.853 E11.07117
G1 X110.397 Y114.848 E11.0737
G1 X110.653 Y114.832 E11.08181
G1 X110.896 Y114.817 E11.0895
G1 X111.222 Y114.797 E11.09982
G1 X111.535 Y114.778 E11.10973
G1 X111.777 Y114.763 E11.11739
G1 X112.107 Y114.743 E11.12784
G1 X112.281 Y114.732 E11.13334
G1 X112.296 Y114.732 E11.13382
G1 X112.849 Y114.697 E11.15133
G1 X112.967 Y114.69 E11.15506
G1 X113.143 Y114.679 E11.16063
G1 X113.304 Y114.669 E11.16573
G1 X113.887 Y114.633 E11.18419
G1 X113.971 Y114.628 E11.18685
G1 X117.494 Y114.414 E11.29837
G1 X118.352 Y114.468 E11.32553
G1 X119.19 Y114.633 E11.35252
G1 X120.021 Y114.912 E11.38022
G1 X120.784 Y115.288 E11.40709
G1 X121.097 Y115.497 E11.41898
G1 X121.116 Y115.509 E11.41969
G1 X121.177 Y115.55 E11.42202
G1 X121.312 Y115.641 E11.42716
G1 X121.47 Y115.747 E11.43317
G1 X121.241 Y115.749 E11.43511
G1 X121.014 Y115.795 E11.43972
G1 X120.897 Y115.839 E11.44329
G1 X120.877 Y115.829 E11.44399
G1 X120.794 Y115.788 E11.44692
G1 X120.364 Y115.719 E11.46068
G1 X119.941 Y115.843 E11.47461
G1 X119.777 Y115.955 E11.48088
G1 X119.574 Y115.842 E11.48822
G1 X119.325 Y115.765 E11.49646
G1 X119.101 Y115.74 E11.50358
G1 X118.829 Y115.749 E11.51218
G1 X118.575 Y115.835 E11.52065
G1 X118.533 Y115.812 E11.52216
G1 X118.175 Y115.726 E11.5338
