;FLAVOR:Marlin
;TIME:3385
;Filament used: 1.3177m
;Layer height: 0.12
;MINX:79.813
;MINY:79.813
;MINZ:0.12
;MAXX:140.184
;MAXY:140.184
;MAXZ:3.96
;Generated with Cura_SteamEngine 4.7.0
M140 S60
M105
M190 S60
M104 S200
M105
M109 S200
M82 ;absolute extrusion mode
; Ender 3 Custom Start G-code
G92 E0 ; Reset Extruder
G28 ; Home all axes
G1 Z2.0 F3000 ; Move Z Axis up little to prevent scratching of Heat Bed
G1 X0.1 Y20 Z0.3 F5000.0 ; Move to start position
G1 X0.1 Y200.0 Z0.3 F1500.0 E15 ; Draw the first line
G1 X0.4 Y200.0 Z0.3 F5000.0 ; Move to side a little
G1 X0.4 Y20 Z0.3 F1500.0 E30 ; Draw the second line
G92 E0 ; Reset Extruder
G1 Z2.0 F3000 ; Move Z Axis up little to prevent scratching of Heat Bed
G1 X5 Y20 Z0.3 F5000.0 ; Move over to prevent blob squish
G92 E0
G92 E0
G1 F1500 E-6.5
;LAYER_COUNT:33
;LAYER:0
M107
G0 F6000 X88.82 Y88.487 Z0.12
;TYPE:SKIRT
G1 F1500 E0
G1 F1200 X89.287 Y88.041 E0.01289
G1 X89.508 Y87.836 E0.0189
G1 X90.07 Y87.328 E0.03402
G1 X90.337 Y87.094 E0.04111
G1 X90.809 Y86.696 E0.05343
G1 X91.135 Y86.429 E0.06184
G1 X91.436 Y86.191 E0.06949
G1 X91.945 Y85.803 E0.08227
G1 X92.262 Y85.57 E0.09012
G1 X92.853 Y85.152 E0.10456
G1 X93.19 Y84.923 E0.11269
G1 X93.856 Y84.488 E0.12857
G1 X94.279 Y84.226 E0.1385
G1 X95.092 Y83.746 E0.15734
G1 X95.528 Y83.501 E0.16732
G1 X96.182 Y83.154 E0.18209
G1 X96.557 Y82.965 E0.19047
G1 X97.22 Y82.645 E0.20517
G1 X97.515 Y82.507 E0.21166
G1 X97.773 Y82.394 E0.21729
G1 X98.478 Y82.092 E0.23259
G1 X98.905 Y81.919 E0.24178
G1 X99.603 Y81.654 E0.25668
G1 X99.992 Y81.515 E0.26493
G1 X100.831 Y81.235 E0.28258
G1 X101.047 Y81.165 E0.28711
G1 X101.228 Y81.109 E0.29089
G1 X101.514 Y81.025 E0.29684
G1 X102.1 Y80.861 E0.30898
G1 X102.658 Y80.721 E0.32046
G1 X104.045 Y80.41 E0.34883
G1 X104.441 Y80.328 E0.3569
G1 X104.839 Y80.254 E0.36498
G1 X105.286 Y80.181 E0.37402
G1 X106.024 Y80.075 E0.3889
G1 X106.449 Y80.022 E0.39744
G1 X107.246 Y79.939 E0.41343
G1 X107.493 Y79.916 E0.41838
G1 X107.793 Y79.893 E0.42439
G1 X108.611 Y79.843 E0.44074
G1 X109.124 Y79.824 E0.45099
G1 X109.891 Y79.813 E0.4663
G1 X110.293 Y79.815 E0.47432
G1 X111.058 Y79.832 E0.48959
G1 X111.344 Y79.842 E0.4953
G1 X111.607 Y79.856 E0.50056
G1 X112.353 Y79.905 E0.51547
G1 X112.604 Y79.924 E0.5205
G1 X112.963 Y79.958 E0.52769
G1 X113.769 Y80.047 E0.54388
G1 X114.274 Y80.115 E0.55405
G1 X115.004 Y80.23 E0.56879
G1 X115.388 Y80.298 E0.57658
G1 X116.202 Y80.456 E0.59312
G1 X116.435 Y80.503 E0.59787
G1 X116.555 Y80.529 E0.60032
G1 X116.869 Y80.602 E0.60675
G1 X117.588 Y80.78 E0.62153
G1 X117.957 Y80.878 E0.62915
G1 X118.635 Y81.071 E0.64322
G1 X118.925 Y81.158 E0.64926
G1 X119.249 Y81.262 E0.65605
G1 X119.983 Y81.507 E0.67149
G1 X120.433 Y81.668 E0.68103
G1 X121.12 Y81.931 E0.69571
G1 X121.668 Y82.158 E0.70755
G1 X122.91 Y82.712 E0.73469
G1 X123.257 Y82.874 E0.74233
G1 X123.562 Y83.023 E0.7491
G1 X123.949 Y83.222 E0.75779
G1 X124.69 Y83.621 E0.77458
G1 X125.117 Y83.863 E0.78438
G1 X125.85 Y84.301 E0.80142
G1 X126.243 Y84.547 E0.81067
G1 X126.883 Y84.967 E0.82595
G1 X127.261 Y85.227 E0.8351
G1 X127.916 Y85.697 E0.85119
G1 X128.283 Y85.972 E0.86034
G1 X128.932 Y86.48 E0.87679
G1 X129.314 Y86.793 E0.88665
G1 X129.961 Y87.348 E0.90366
G1 X130.303 Y87.654 E0.91281
G1 X130.796 Y88.114 E0.92627
G1 X131.105 Y88.414 E0.93487
G1 X131.545 Y88.858 E0.94734
G1 X131.767 Y89.089 E0.95373
G1 X132.385 Y89.75 E0.97179
G1 X132.569 Y89.952 E0.97724
G1 X132.754 Y90.16 E0.9828
G1 X132.95 Y90.386 E0.98877
G1 X133.264 Y90.759 E0.9985
G1 X133.506 Y91.056 E1.00614
G1 X133.956 Y91.63 E1.0207
G1 X134.136 Y91.866 E1.02662
G1 X134.328 Y92.125 E1.03306
G1 X134.458 Y92.305 E1.03749
G1 X134.826 Y92.823 E1.05017
G1 X134.978 Y93.043 E1.0555
G1 X135.15 Y93.298 E1.06164
G1 X135.322 Y93.561 E1.06791
G1 X135.694 Y94.148 E1.08178
G1 X135.929 Y94.536 E1.09083
G1 X136.332 Y95.234 E1.10692
G1 X136.448 Y95.439 E1.11162
G1 X136.554 Y95.632 E1.11601
G1 X136.684 Y95.877 E1.12155
G1 X136.961 Y96.413 E1.13359
G1 X137.107 Y96.706 E1.14012
G1 X137.272 Y97.05 E1.14774
G1 X137.357 Y97.232 E1.15174
G1 X137.593 Y97.748 E1.16307
G1 X137.703 Y97.995 E1.16846
G1 X137.804 Y98.231 E1.17359
G1 X137.897 Y98.455 E1.17843
G1 X138.121 Y99.012 E1.19041
G1 X138.222 Y99.274 E1.19601
G1 X138.348 Y99.612 E1.20321
G1 X138.426 Y99.828 E1.20779
G1 X138.603 Y100.335 E1.21851
G1 X138.708 Y100.651 E1.22515
G1 X138.88 Y101.2 E1.23663
G1 X139.064 Y101.823 E1.2496
G1 X139.147 Y102.123 E1.25581
G1 X139.205 Y102.342 E1.26033
G1 X139.272 Y102.605 E1.26575
G1 X139.44 Y103.309 E1.28019
G1 X139.513 Y103.641 E1.28697
G1 X139.563 Y103.887 E1.29198
G1 X139.726 Y104.737 E1.30926
G1 X139.808 Y105.225 E1.31913
G1 X139.918 Y105.981 E1.33438
G1 X139.954 Y106.249 E1.33977
G1 X139.981 Y106.473 E1.34428
G1 X140.008 Y106.717 E1.34917
G1 X140.07 Y107.35 E1.36187
G1 X140.093 Y107.619 E1.36725
G1 X140.114 Y107.906 E1.373
G1 X140.129 Y108.146 E1.3778
G1 X140.163 Y108.81 E1.39106
G1 X140.174 Y109.114 E1.39714
G1 X140.181 Y109.411 E1.40306
G1 X140.184 Y109.67 E1.40823
G1 X140.184 Y110.456 E1.42392
G1 X140.172 Y110.966 E1.4341
G1 X140.134 Y111.785 E1.45046
G1 X140.103 Y112.252 E1.4598
G1 X140.033 Y113.037 E1.47553
G1 X140.003 Y113.323 E1.48127
G1 X139.974 Y113.574 E1.48631
G1 X139.944 Y113.815 E1.49116
G1 X139.855 Y114.46 E1.50415
G1 X139.813 Y114.738 E1.50976
G1 X139.769 Y115.006 E1.51518
G1 X139.73 Y115.228 E1.51968
G1 X139.614 Y115.854 E1.53238
G1 X139.555 Y116.149 E1.53839
G1 X139.502 Y116.397 E1.54345
G1 X139.455 Y116.608 E1.54776
G1 X139.298 Y117.278 E1.56149
G1 X139.225 Y117.569 E1.56748
G1 X139.156 Y117.831 E1.57289
G1 X139.087 Y118.083 E1.5781
G1 X138.879 Y118.803 E1.59306
G1 X138.738 Y119.253 E1.60247
G1 X138.524 Y119.89 E1.61588
G1 X138.428 Y120.166 E1.62171
G1 X138.304 Y120.505 E1.62891
G1 X138.229 Y120.703 E1.63314
G1 X138.032 Y121.211 E1.64401
G1 X137.928 Y121.469 E1.64956
G1 X137.777 Y121.831 E1.65739
G1 X137.672 Y122.074 E1.66267
G1 X137.43 Y122.617 E1.67454
G1 X137.318 Y122.86 E1.67988
G1 X137.184 Y123.142 E1.68611
G1 X137.049 Y123.417 E1.69222
G1 X136.737 Y124.029 E1.70593
G1 X136.531 Y124.414 E1.71464
G1 X136.172 Y125.054 E1.72929
G1 X135.997 Y125.354 E1.73622
G1 X135.759 Y125.747 E1.74539
G1 X135.449 Y126.244 E1.75708
G1 X135.298 Y126.48 E1.76267
G1 X135.075 Y126.818 E1.77075
G1 X134.913 Y127.055 E1.77648
G1 X134.578 Y127.535 E1.78816
G1 X134.425 Y127.75 E1.79343
G1 X134.262 Y127.972 E1.79892
G1 X134.113 Y128.17 E1.80387
G1 X133.736 Y128.66 E1.8162
G1 X133.562 Y128.868 E1.82162
G1 X133.567 Y128.872 E1.82174
G1 X133.397 Y129.082 E1.82714
G1 X133.242 Y129.269 E1.83198
G1 X132.822 Y129.765 E1.84495
G1 X132.631 Y129.985 E1.85077
G1 X132.422 Y130.219 E1.85703
G1 X132.24 Y130.418 E1.86241
G1 X131.86 Y130.823 E1.87349
G1 X131.581 Y131.109 E1.88147
G1 X131.135 Y131.551 E1.894
G1 X130.902 Y131.776 E1.90046
G1 X130.247 Y132.388 E1.91835
G1 X130.045 Y132.572 E1.9238
G1 X129.838 Y132.756 E1.92933
G1 X129.629 Y132.936 E1.93483
G1 X129.255 Y133.252 E1.9446
G1 X128.941 Y133.508 E1.95269
G1 X128.368 Y133.957 E1.96722
G1 X128.128 Y134.14 E1.97324
G1 X127.87 Y134.331 E1.97965
G1 X127.702 Y134.453 E1.98379
G1 X127.182 Y134.823 E1.99653
G1 X126.948 Y134.985 E2.0022
G1 X126.694 Y135.156 E2.00832
G1 X126.439 Y135.322 E2.01439
G1 X125.852 Y135.694 E2.02826
G1 X125.466 Y135.928 E2.03726
G1 X124.758 Y136.337 E2.05358
G1 X124.478 Y136.494 E2.05999
G1 X124.141 Y136.674 E2.06761
G1 X123.599 Y136.955 E2.07979
G1 X123.304 Y137.102 E2.08637
G1 X122.961 Y137.267 E2.09397
G1 X122.787 Y137.349 E2.09781
G1 X122.267 Y137.588 E2.10923
G1 X121.952 Y137.726 E2.11609
G1 X121.529 Y137.904 E2.12525
G1 X120.96 Y138.133 E2.13749
G1 X120.644 Y138.254 E2.14424
G1 X120.195 Y138.418 E2.15378
G1 X119.654 Y138.607 E2.16522
G1 X119.34 Y138.711 E2.17182
G1 X118.995 Y138.82 E2.17904
G1 X118.795 Y138.881 E2.18321
G1 X118.175 Y139.064 E2.19611
G1 X117.865 Y139.151 E2.20254
G1 X117.645 Y139.209 E2.20708
G1 X117.398 Y139.271 E2.21216
G1 X116.695 Y139.439 E2.22658
G1 X116.359 Y139.513 E2.23345
G1 X116.119 Y139.562 E2.23834
G1 X115.303 Y139.719 E2.25492
G1 X114.821 Y139.801 E2.26468
G1 X114.03 Y139.917 E2.28063
G1 X113.75 Y139.954 E2.28627
G1 X113.526 Y139.981 E2.29077
G1 X113.284 Y140.007 E2.29563
G1 X112.652 Y140.069 E2.3083
G1 X112.372 Y140.093 E2.31391
G1 X112.054 Y140.116 E2.32027
G1 X111.814 Y140.131 E2.32507
G1 X111.18 Y140.163 E2.33774
G1 X110.885 Y140.174 E2.34363
G1 X110.588 Y140.181 E2.34956
G1 X110.315 Y140.184 E2.35501
G1 X109.512 Y140.183 E2.37103
G1 X109.018 Y140.171 E2.38089
G1 X108.217 Y140.134 E2.39689
G1 X107.748 Y140.103 E2.40627
G1 X106.963 Y140.033 E2.422
G1 X106.671 Y140.003 E2.42786
G1 X106.404 Y139.972 E2.43322
G1 X106.172 Y139.942 E2.43789
G1 X105.533 Y139.854 E2.45076
G1 X105.226 Y139.807 E2.45696
G1 X104.772 Y139.73 E2.46615
G1 X104.146 Y139.614 E2.47886
G1 X103.851 Y139.555 E2.48486
G1 X103.603 Y139.502 E2.48992
G1 X103.392 Y139.455 E2.49423
G1 X102.722 Y139.298 E2.50797
G1 X102.413 Y139.221 E2.51432
G1 X102.149 Y139.151 E2.51977
G1 X101.921 Y139.088 E2.52449
G1 X101.203 Y138.881 E2.53941
G1 X100.747 Y138.738 E2.54894
G1 X100.11 Y138.524 E2.56235
G1 X99.837 Y138.429 E2.56812
G1 X99.484 Y138.3 E2.57562
G1 X99.275 Y138.221 E2.58008
G1 X98.781 Y138.029 E2.59066
G1 X98.52 Y137.923 E2.59628
G1 X98.152 Y137.769 E2.60424
G1 X97.917 Y137.668 E2.60934
G1 X97.352 Y137.416 E2.62169
G1 X97.098 Y137.299 E2.62727
G1 X96.838 Y137.175 E2.63302
G1 X96.576 Y137.046 E2.63885
G1 X95.97 Y136.737 E2.65242
G1 X95.581 Y136.528 E2.66123
G1 X94.94 Y136.168 E2.67591
G1 X94.656 Y136.003 E2.68246
G1 X94.245 Y135.754 E2.69205
G1 X93.741 Y135.439 E2.70391
G1 X93.499 Y135.283 E2.70966
G1 X93.138 Y135.044 E2.7183
G1 X92.919 Y134.896 E2.72357
G1 X92.46 Y134.576 E2.73474
G1 X92.224 Y134.407 E2.74053
G1 X92.011 Y134.25 E2.74581
G1 X91.822 Y134.107 E2.75054
G1 X91.333 Y133.73 E2.76286
G1 X91.09 Y133.537 E2.76905
G1 X90.866 Y133.354 E2.77483
G1 X90.714 Y133.227 E2.77878
G1 X90.216 Y132.805 E2.79181
G1 X89.993 Y132.612 E2.79769
G1 X89.775 Y132.417 E2.80353
G1 X89.582 Y132.239 E2.80877
G1 X89.176 Y131.858 E2.81988
G1 X88.89 Y131.58 E2.82784
G1 X88.448 Y131.134 E2.84037
G1 X88.223 Y130.901 E2.84683
G1 X87.611 Y130.246 E2.86472
G1 X87.41 Y130.024 E2.8707
G1 X87.18 Y129.764 E2.87763
G1 X87.006 Y129.563 E2.88293
G1 X86.696 Y129.195 E2.89253
G1 X86.417 Y128.849 E2.9014
G1 X85.916 Y128.203 E2.91772
G1 X85.725 Y127.95 E2.92404
G1 X85.538 Y127.694 E2.93037
G1 X85.375 Y127.465 E2.93598
G1 X84.964 Y126.871 E2.95039
G1 X84.72 Y126.502 E2.95922
G1 X84.344 Y125.909 E2.97324
G1 X84.174 Y125.632 E2.97972
G1 X83.923 Y125.209 E2.98954
G1 X83.811 Y125.017 E2.99397
G1 X83.542 Y124.542 E3.00487
G1 X83.392 Y124.266 E3.01113
G1 X83.22 Y123.941 E3.01847
G1 X83.084 Y123.676 E3.02442
G1 X82.784 Y123.07 E3.03791
G1 X82.586 Y122.649 E3.0472
G1 X82.28 Y121.959 E3.06226
G1 X82.171 Y121.703 E3.06781
G1 X81.987 Y121.258 E3.07742
G1 X81.886 Y121.005 E3.08286
G1 X81.729 Y120.597 E3.09158
G1 X81.621 Y120.304 E3.09781
G1 X81.437 Y119.782 E3.10886
G1 X81.339 Y119.492 E3.11497
G1 X81.167 Y118.957 E3.12618
G1 X81.089 Y118.702 E3.1315
G1 X80.964 Y118.273 E3.14042
G1 X80.794 Y117.647 E3.15337
G1 X80.715 Y117.338 E3.15973
G1 X80.631 Y116.989 E3.16689
G1 X80.582 Y116.776 E3.17126
G1 X80.442 Y116.139 E3.18427
G1 X80.388 Y115.877 E3.18961
G1 X80.326 Y115.558 E3.19609
G1 X80.27 Y115.246 E3.20242
G1 X80.173 Y114.657 E3.21433
G1 X80.134 Y114.398 E3.21956
G1 X80.083 Y114.023 E3.22711
G1 X80.001 Y113.343 E3.24078
G1 X79.97 Y113.049 E3.24668
G1 X79.932 Y112.642 E3.25484
G1 X79.912 Y112.407 E3.25954
G1 X79.868 Y111.794 E3.27181
G1 X79.85 Y111.486 E3.27797
G1 X79.833 Y111.097 E3.28574
G1 X79.824 Y110.798 E3.29171
G1 X79.813 Y110.129 E3.30506
G1 X79.813 Y109.71 E3.31342
G1 X79.818 Y109.426 E3.31909
G1 X79.841 Y108.698 E3.33362
G1 X79.858 Y108.33 E3.34097
G1 X79.875 Y108.073 E3.34611
G1 X79.928 Y107.381 E3.35996
G1 X79.956 Y107.078 E3.36604
G1 X79.996 Y106.695 E3.37372
G1 X80.023 Y106.46 E3.37844
G1 X80.1 Y105.85 E3.39071
G1 X80.14 Y105.563 E3.39649
G1 X80.187 Y105.256 E3.40269
G1 X80.236 Y104.964 E3.4086
G1 X80.368 Y104.234 E3.42341
G1 X80.456 Y103.797 E3.4323
G1 X80.617 Y103.075 E3.44706
G1 X80.707 Y102.702 E3.45472
G1 X80.812 Y102.298 E3.46305
G1 X80.862 Y102.113 E3.46688
G1 X81.035 Y101.492 E3.47974
G1 X81.123 Y101.192 E3.48598
G1 X81.205 Y100.927 E3.49151
G1 X81.281 Y100.69 E3.49648
G1 X81.488 Y100.071 E3.50951
G1 X81.598 Y99.757 E3.51615
G1 X81.675 Y99.548 E3.52059
G1 X81.967 Y98.791 E3.53678
G1 X82.096 Y98.471 E3.54367
G1 X82.289 Y98.019 E3.55348
G1 X82.545 Y97.441 E3.56609
G1 X82.69 Y97.128 E3.57298
G1 X82.854 Y96.787 E3.58053
G1 X82.945 Y96.603 E3.58462
G1 X83.186 Y96.125 E3.59531
G1 X83.328 Y95.853 E3.60143
G1 X83.532 Y95.475 E3.61
G1 X83.651 Y95.26 E3.61491
G1 X83.87 Y94.875 E3.62374
G1 X84.031 Y94.6 E3.6301
G1 X84.31 Y94.141 E3.64082
G1 X84.662 Y93.584 E3.65397
G1 X84.837 Y93.317 E3.66034
G1 X85.087 Y92.947 E3.66925
G1 X85.214 Y92.762 E3.67373
G1 X85.497 Y92.361 E3.68353
G1 X85.696 Y92.088 E3.69027
G1 X85.967 Y91.728 E3.69926
G1 X86.095 Y91.561 E3.70346
G1 X86.413 Y91.155 E3.71375
G1 X86.618 Y90.901 E3.72026
G1 X86.896 Y90.567 E3.72894
G1 X87.043 Y90.395 E3.73345
G1 X87.358 Y90.032 E3.74304
G1 X87.55 Y89.816 E3.74881
G1 X87.84 Y89.499 E3.75738
G1 X88.007 Y89.321 E3.76226
G1 X88.468 Y88.839 E3.77557
G1 X88.82 Y88.487 E3.7855
G0 F6000 X89.096 Y88.776
G1 F1200 X89.563 Y88.33 E3.79839
G1 X89.776 Y88.132 E3.80419
G1 X90.338 Y87.624 E3.81931
G1 X90.596 Y87.399 E3.82614
G1 X91.063 Y87.005 E3.83833
G1 X91.389 Y86.738 E3.84674
G1 X91.679 Y86.509 E3.85412
G1 X92.188 Y86.121 E3.86689
G1 X92.493 Y85.897 E3.87444
G1 X93.084 Y85.479 E3.88889
G1 X93.408 Y85.258 E3.89671
G1 X94.074 Y84.823 E3.91259
G1 X94.482 Y84.57 E3.92217
G1 X95.295 Y84.09 E3.94101
G1 X95.716 Y83.854 E3.95064
G1 X96.37 Y83.507 E3.96541
G1 X96.73 Y83.325 E3.97346
G1 X97.393 Y83.005 E3.98816
G1 X97.679 Y82.872 E3.99445
G1 X97.93 Y82.761 E3.99993
G1 X98.635 Y82.459 E4.01523
G1 X99.047 Y82.293 E4.0241
G1 X99.745 Y82.028 E4.039
G1 X100.12 Y81.894 E4.04694
G1 X100.424 Y81.791 E4.05335
G1 X100.957 Y81.614 E4.06456
G1 X101.346 Y81.492 E4.07269
G1 X101.622 Y81.41 E4.07844
G1 X102.208 Y81.246 E4.09058
G1 X102.746 Y81.111 E4.10165
G1 X104.133 Y80.8 E4.13002
G1 X104.514 Y80.722 E4.13778
G1 X104.912 Y80.648 E4.14586
G1 X105.343 Y80.577 E4.15457
G1 X106.081 Y80.471 E4.16945
G1 X106.49 Y80.42 E4.17768
G1 X107.449 Y80.321 E4.19692
G1 X107.817 Y80.293 E4.20428
G1 X108.635 Y80.243 E4.22064
G1 X109.13 Y80.224 E4.23052
G1 X109.897 Y80.213 E4.24583
G1 X110.284 Y80.215 E4.25355
G1 X111.049 Y80.232 E4.26882
G1 X111.327 Y80.241 E4.27437
G1 X111.581 Y80.255 E4.27945
G1 X112.327 Y80.304 E4.29437
G1 X112.569 Y80.322 E4.29921
G1 X112.693 Y80.333 E4.3017
G1 X112.919 Y80.356 E4.30623
G1 X113.725 Y80.445 E4.32241
G1 X114.212 Y80.51 E4.33222
G1 X114.942 Y80.625 E4.34697
G1 X115.312 Y80.69 E4.35446
G1 X116.126 Y80.848 E4.37101
G1 X116.471 Y80.92 E4.37804
G1 X116.773 Y80.991 E4.38423
G1 X117.492 Y81.169 E4.39902
G1 X117.847 Y81.263 E4.40634
G1 X118.525 Y81.456 E4.42041
G1 X118.805 Y81.54 E4.42625
G1 X119.122 Y81.641 E4.43289
G1 X119.856 Y81.886 E4.44833
G1 X120.29 Y82.042 E4.45753
G1 X120.977 Y82.305 E4.47221
G1 X121.505 Y82.523 E4.48361
G1 X122.747 Y83.077 E4.51075
G1 X123.082 Y83.234 E4.51813
G1 X123.387 Y83.383 E4.52491
G1 X123.759 Y83.574 E4.53325
G1 X124.5 Y83.973 E4.55005
G1 X124.912 Y84.207 E4.5595
G1 X125.645 Y84.645 E4.57654
G1 X126.024 Y84.882 E4.58546
G1 X126.664 Y85.302 E4.60074
G1 X127.028 Y85.552 E4.60955
G1 X127.683 Y86.022 E4.62564
G1 X128.037 Y86.287 E4.63446
G1 X128.686 Y86.795 E4.65091
G1 X129.053 Y87.097 E4.6604
G1 X129.7 Y87.652 E4.67741
G1 X130.03 Y87.947 E4.68624
G1 X130.523 Y88.407 E4.6997
G1 X130.821 Y88.696 E4.70798
G1 X131.261 Y89.14 E4.72046
G1 X131.475 Y89.362 E4.72661
G1 X132.093 Y90.023 E4.74467
G1 X132.27 Y90.217 E4.74991
G1 X132.455 Y90.425 E4.75546
G1 X132.644 Y90.644 E4.76124
G1 X132.958 Y91.017 E4.77097
G1 X133.191 Y91.303 E4.77833
G1 X133.641 Y91.877 E4.79288
G1 X133.814 Y92.104 E4.79858
G1 X134.006 Y92.363 E4.80501
G1 X134.132 Y92.537 E4.8093
G1 X134.5 Y93.055 E4.82198
G1 X134.647 Y93.267 E4.82713
