;FLAVOR:Marlin
;TIME:4502
;Filament used: 1.70942m
;Layer height: 0.2
;MINX:95.456
;MINY:115.2
;MINZ:0.2
;MAXX:139.542
;MAXY:120.653
;MAXZ:70
;POSTPROCESSED
;ChangeAtZ instances: 1
;Generated with Cura_SteamEngine 4.6.2
M140 S60
M105
M190 S60
M104 S240
M105
M109 S240
M82 ;absolute extrusion mode
; Ender 3 Custom Start G-code
G92 E0 ; Reset Extruder
G28 ; Home all axes
G1 Z2.0 F3000 ; Move Z Axis up little to prevent scratching of Heat Bed
G1 X0.1 Y20 Z0.3 F5000.0 ; Move to start position
G1 X0.1 Y200.0 Z0.3 F1500.0 E15 ; Draw the first line
G1 X0.4 Y200.0 Z0.3 F5000.0 ; Move to side a little
G1 X0.4 Y20 Z0.3 F1500.0 E30 ; Draw the second line
G92 E0 ; Reset Extruder
G1 Z2.0 F3000 ; Move Z Axis up little to prevent scratching of Heat Bed
G1 X5 Y20 Z0.3 F5000.0 ; Move over to prevent blob squish
G92 E0
G92 E0
G1 F1500 E-6
;LAYER_COUNT:350
;LAYER:0
M107
M204 S500
M205 X8 Y8
;MESH:SmartTemperatureTower_TempFloor_240.stl
G0 F7500 X135.373 Y115.752 Z0.2
;TYPE:WALL-INNER
G1 F1500 E0
G1 X135.377 Y119.08 E0.10516
G1 X135.377 Y119.248 E0.11046
G1 X135.314 Y119.25 E0.11246
G1 X135.146 Y119.25 E0.11776
G1 X105.572 Y119.25 E1.05222
G1 X105.572 Y115.949 E1.15652
G1 X105.572 Y115.75 E1.16281
G1 X105.771 Y115.75 E1.16688
G1 X135.373 Y115.752 E2.10221
G0 F7500 X135.773 Y115.366
;TYPE:WALL-OUTER
G1 F1500 X135.777 Y119.634 E2.23033
G1 X135.688 Y119.64 E2.233
G1 X135.325 Y119.65 E2.24391
G1 X105.172 Y119.65 E3.14902
G1 X105.172 Y115.35 E3.27809
G1 X134.973 Y115.349 E4.17263
G0 F1350 X135.28 Y115.349
G0 X135.643 Y115.358
G0 X135.773 Y115.366
G0 F7500 X135.773 Y115.766
G0 X135.333 Y115.766
G0 X134.983 Y116.142
;TYPE:SKIN
G1 F1500 X134.987 Y118.86 E4.25852
G1 X105.962 Y118.86 E5.17562
G1 X105.962 Y116.14 E5.26157
G1 X134.183 Y116.142 E6.15327
G0 F1350 X134.983 Y116.142
G0 F7500 X134.984 Y115.862
G0 X135.191 Y115.934
G0 X135.195 Y119.068
G0 X133.785 Y119.14
G0 X133.785 Y117.66
G1 F1500 X107.162 Y117.66 E6.99448
G1 X107.162 Y117.34 E7.00459
G1 X133.303 Y117.342 E7.83057
G0 F1350 X133.785 Y117.342
G0 X133.785 Y117.66
G0 F7500 X134.186 Y118.06
G1 F1500 X106.762 Y118.06 E8.69709
G1 X106.762 Y116.94 E8.73248
G1 X134.184 Y116.942 E9.59894
G1 X134.185 Y117.26 E9.60898
G0 F1350 X134.186 Y118.06
G0 F7500 X134.587 Y118.46
G1 F1500 X106.362 Y118.46 E10.50081
G1 X106.362 Y116.54 E10.56148
G1 X134.583 Y116.542 E11.45318
G1 X134.586 Y117.66 E11.48851
G0 F1350 X134.587 Y118.46
G0 F7500 X134.587 Y119.05
;MESH:NONMESH
G0 F300 X134.587 Y119.05 Z0.4
G0 F7500 X134.587 Y119.14
G0 X135.476 Y119.34
G0 X135.64 Y119.34
;TIME_ELAPSED:20.925587
;LAYER:1
M140 S60
M106 S85
;TYPE:WALL-INNER
;MESH:SmartTemperatureTower_TempFloor_240.stl
G1 F2250 X135.441 Y119.348 E11.49513
G1 X135.278 Y119.35 E11.50055
G1 X105.423 Y119.35 E12.49354
G1 X105.224 Y119.35 E12.50015
G1 X105.224 Y119.151 E12.50444
G1 X105.225 Y115.65 E12.62088
G1 X135.254 Y115.649 E13.61965
G1 X135.266 Y115.649 E13.62005
G1 X135.64 Y115.661 E13.63249
G1 X135.64 Y115.673 E13.63289
G1 X135.64 Y118.54 E13.72825
G0 F2025 X135.64 Y119.34
G0 F8250 X136.04 Y119.715
;TYPE:WALL-OUTER
G1 F1500 X135.821 Y119.733 E13.73519
G1 X135.458 Y119.748 E13.74667
G1 X135.283 Y119.75 E13.7522
G1 X104.825 Y119.75 E14.71459
G1 X104.824 Y119.339 E14.72757
G1 X104.825 Y115.25 E14.85677
G1 X135.279 Y115.249 E15.81903
G1 X135.777 Y115.265 E15.83478
G1 X136.031 Y115.283 E15.84282
G1 X136.04 Y115.401 E15.84656
G1 X136.04 Y118.915 E15.95759
G0 F1350 X136.04 Y119.715
G0 F8250 X135.821 Y119.733
G0 X135.64 Y119.74
G0 X135.622 Y119.3
G0 X135.25 Y118.96
;TYPE:SKIN
G1 F1500 X105.614 Y118.96 E16.94329
G1 X105.615 Y116.04 E17.04041
G1 X135.25 Y116.039 E18.02608
G1 X135.25 Y118.16 E18.09662
G0 F1350 X135.25 Y118.96
G1 F1500 E12.09662
G0 F8250 X135.53 Y118.96
G0 X135.466 Y119.145
G0 X106.814 Y119.24
G0 X106.814 Y117.76
G1 F1500 E18.09662
G1 X106.815 Y117.24 E18.11392
G1 X134.05 Y117.239 E19.01976
G1 X134.05 Y117.76 E19.03708
G1 X107.614 Y117.76 E19.91635
G0 F1350 X106.814 Y117.76
G0 F8250 X106.414 Y118.16
G1 F1500 X106.415 Y116.84 E19.96025
G1 X134.45 Y116.839 E20.8927
G1 X134.45 Y118.16 E20.93664
G1 X107.214 Y118.16 E21.84251
G0 F1350 X106.414 Y118.16
G0 F8250 X106.014 Y118.56
G1 F1500 X106.015 Y116.44 E21.91302
G1 X134.85 Y116.439 E22.87208
G1 X134.85 Y118.56 E22.94262
G1 X106.814 Y118.56 E23.8751
G0 F1350 X106.014 Y118.56
G0 F8250 X105.424 Y118.559
G1 F1500 E17.8751
;MESH:NONMESH
G0 F300 X105.424 Y118.559 Z0.6
G0 F8250 X105.335 Y118.559
G0 X105.407 Y115.832
G0 X135.74 Y115.619
G0 X135.789 Y115.619
;TIME_ELAPSED:38.360856
;LAYER:2
M106 S170
;TYPE:WALL-INNER
;MESH:SmartTemperatureTower_TempFloor_240.stl
G1 F1500 E23.8751
G1 F1308.2 X135.79 Y119.38 E24.00019
G1 X135.457 Y119.397 E24.01128
G1 X135.225 Y119.4 E24.019
G1 X105.056 Y119.4 E25.02243
G1 X105.055 Y115.799 E25.1422
G1 X105.055 Y115.6 E25.14881
G1 X105.254 Y115.6 E25.1531
G1 X135.427 Y115.601 E26.15666
G1 X135.763 Y115.618 E26.16784
G0 F1177.4 X135.789 Y115.619
G0 F9000 X136.189 Y115.246
;TYPE:WALL-OUTER
G1 F654.1 X136.19 Y119.751 E26.31019
G1 X135.996 Y119.77 E26.31635
G1 X135.462 Y119.797 E26.33324
G1 X135.23 Y119.8 E26.34057
G1 X104.656 Y119.8 E27.30663
G1 X104.655 Y115.4 E27.44565
G1 X104.655 Y115.2 E27.45197
G1 X104.855 Y115.2 E27.45606
G1 X135.447 Y115.201 E28.42268
G1 X135.988 Y115.228 E28.4398
G1 X136.135 Y115.242 E28.44446
G0 F588.7 X136.189 Y115.246
G0 F9000 X136.189 Y115.646
G0 X135.749 Y115.646
G0 X135.868 Y115.544
;MESH:NONMESH
G0 F300 X135.868 Y115.544 Z0.8
G0 F9000 X135.858 Y119.378
;TIME_ELAPSED:48.929321
;LAYER:3
M106 S255
;TYPE:WALL-INNER
;MESH:SmartTemperatureTower_TempFloor_240.stl
G1 F1323.9 X135.8 Y119.382 E28.4464
G1 X135.458 Y119.397 E28.45778
G1 X135.122 Y119.4 E28.46896
G1 X104.941 Y119.4 E29.47278
G1 X104.94 Y115.799 E29.59255
G1 X104.94 Y115.6 E29.59917
G1 X105.139 Y115.6 E29.60345
G1 X116.235 Y115.6 E29.97251
G1 X116.235 Y115.9 E29.98249
G1 X119.985 Y115.9 E30.10721
G1 X119.985 Y115.6 E30.11719
G1 X120.7 Y115.6 E30.14097
G1 X120.7 Y115.9 E30.15095
G1 X122.995 Y115.9 E30.22728
G1 X122.995 Y115.6 E30.23726
G1 X123.117 Y115.6 E30.23911
G1 X123.117 Y115.9 E30.24216
G1 X125.929 Y115.9 E30.33569
G1 X125.929 Y115.6 E30.34567
G1 X135.603 Y115.606 E30.66743
G1 X135.858 Y115.62 E30.67592
G1 X135.858 Y118.578 E30.7743
G0 F1191.5 X135.858 Y119.378
G0 F9000 X136.258 Y119.746
;TYPE:WALL-OUTER
G1 F661.9 X135.825 Y119.782 E30.78803
G1 X135.475 Y119.797 E30.7991
G1 X135.125 Y119.8 E30.81016
G1 X104.541 Y119.8 E31.77653
G1 X104.54 Y115.4 E31.91555
G1 X104.54 Y115.2 E31.92187
G1 X104.74 Y115.2 E31.92597
G1 X116.635 Y115.2 E32.30181
G1 X116.635 Y115.5 E32.31129
G1 X119.585 Y115.5 E32.4045
G1 X119.585 Y115.2 E32.41398
G1 X121.1 Y115.2 E32.46185
G1 X121.1 Y115.5 E32.47133
G1 X122.595 Y115.5 E32.51857
G1 X122.595 Y115.2 E32.52805
G1 X123.517 Y115.2 E32.55718
G1 X123.517 Y115.5 E32.56666
G1 X125.529 Y115.5 E32.63023
G1 X125.529 Y115.2 E32.63971
G1 X135.608 Y115.206 E32.95818
G1 X135.978 Y115.227 E32.96989
G1 X136.258 Y115.254 E32.97878
G1 X136.258 Y118.946 E33.09544
G0 F595.7 X136.258 Y119.746
G0 F9000 X135.859 Y119.779
G0 X135.823 Y119.341
G0 X135.937 Y119.454
;MESH:NONMESH
G0 F300 X135.937 Y119.454 Z1
G0 F9000 X135.934 Y119.371
;TIME_ELAPSED:59.567065
;LAYER:4
;TYPE:WALL-INNER
;MESH:SmartTemperatureTower_TempFloor_240.stl
G1 F1743.4 X135.002 Y119.4 E33.12645
G1 X104.825 Y119.4 E34.13014
G1 X104.824 Y115.799 E34.24991
G1 X104.824 Y115.6 E34.25653
G1 X105.023 Y115.6 E34.26081
G1 X116.235 Y115.6 E34.63372
G1 X116.235 Y115.9 E34.6437
G1 X119.985 Y115.9 E34.76843
G1 X119.985 Y115.6 E34.77841
G1 X120.7 Y115.6 E34.80219
G1 X120.7 Y115.9 E34.81216
G1 X126.206 Y115.9 E34.99529
G1 X126.206 Y115.6 E35.00527
G1 X135.642 Y115.608 E35.31912
G1 X135.929 Y115.624 E35.32868
G1 X135.935 Y115.625 E35.32888
G1 X135.934 Y118.571 E35.42686
G0 F1569 X135.934 Y119.371
G0 F9000 X136.334 Y119.735
;TYPE:WALL-OUTER
G1 F871.7 X136.002 Y119.769 E35.43741
G1 X135.015 Y119.8 E35.46861
G1 X104.425 Y119.8 E36.43517
G1 X104.424 Y115.4 E36.57419
G1 X104.424 Y115.2 E36.58051
G1 X104.624 Y115.2 E36.5846
G1 X116.635 Y115.2 E36.96412
G1 X116.635 Y115.5 E36.9736
G1 X119.585 Y115.5 E37.06681
G1 X119.585 Y115.2 E37.07629
G1 X121.1 Y115.2 E37.12416
G1 X121.1 Y115.5 E37.13364
G1 X122.595 Y115.5 E37.18087
G1 X122.595 Y115.2 E37.19035
G1 X123.235 Y115.2 E37.21057
G1 X123.235 Y115.5 E37.22005
G1 X125.806 Y115.5 E37.30129
G1 X125.806 Y115.2 E37.31077
G1 X135.646 Y115.208 E37.62168
G1 X135.97 Y115.226 E37.63194
G1 X136.335 Y115.264 E37.64353
G1 X136.334 Y118.935 E37.75953
G0 F784.5 X136.334 Y119.735
G0 F9000 X136.002 Y119.769
G0 X135.935 Y119.771
G0 X135.922 Y119.331
G0 X135.544 Y118.993
;TYPE:SKIN
G1 F871.7 X134.99 Y119.01 E37.77796
G1 X131.852 Y119.01 E37.88233
G1 X131.852 Y115.995 E37.98261
G1 X135.545 Y115.998 E38.10544
G1 X135.544 Y118.193 E38.17845
G0 F784.5 X135.544 Y118.993
G0 F9000 X135.824 Y118.994
G0 X135.76 Y119.174
G0 X134.344 Y119.29
G0 X134.344 Y117.81
G1 F871.7 X133.052 Y117.81 E38.22142
G1 X133.052 Y117.196 E38.24184
G1 X134.345 Y117.197 E38.28485
G1 X134.344 Y117.624 E38.29905
G0 F784.5 X134.344 Y117.81
G0 F9000 X134.744 Y118.21
G1 F871.7 X132.652 Y118.21 E38.36863
G1 X132.652 Y116.795 E38.41569
G1 X134.745 Y116.798 E38.4853
G1 X134.744 Y117.846 E38.52016
G0 F784.5 X134.744 Y118.21
G0 F9000 X134.978 Y118.61
G1 F871.7 X132.252 Y118.61 E38.61083
G1 X132.252 Y116.395 E38.6845
G1 X135.145 Y116.398 E38.78072
G1 X135.144 Y118.217 E38.84122
G0 F784.5 X135.144 Y118.605
G0 X134.978 Y118.61
G0 F9000 X134.978 Y119.2
;MESH:NONMESH
G0 F300 X134.978 Y119.2 Z1.2
G0 F9000 X134.978 Y119.29
G0 X136.021 Y119.365
;TIME_ELAPSED:71.006523
;LAYER:5
;TYPE:WALL-INNER
;MESH:SmartTemperatureTower_TempFloor_240.stl
G1 F1500.5 X135.974 Y119.37 E38.84279
G1 X135.708 Y119.379 E38.85165
G1 X135.708 Y119.365
G1 X135.708 Y115.636 E38.97567
G1 X135.707 Y115.618 E38.97627
G1 X135.931 Y115.626 E38.98102
G1 X136.021 Y115.635 E38.98403
G1 X136.021 Y119.365 E39.08135
G0 F9000 X136.421 Y119.724
;TYPE:WALL-OUTER
G1 F750.3 X136.004 Y119.769 E39.0946
G1 X135.515 Y119.787 E39.11006
G1 X135.514 Y119.788 E39.11011
G1 X135.308 Y119.794 E39.11662
G1 X135.308 Y119.588 E39.1208
G1 X135.308 Y119.587 E39.12083
G1 X135.307 Y115.41 E39.25281
G1 X135.307 Y115.409 E39.25284
G1 X135.307 Y115.203 E39.25935
G1 X135.513 Y115.209 E39.26353
G1 X135.514 Y115.21 E39.26358
G1 X135.958 Y115.226 E39.27762
G1 X136.418 Y115.274 E39.29223
G1 X136.421 Y115.508 E39.29962
G1 X136.421 Y119.328 E39.42033
G0 F675.2 X136.421 Y119.724
G0 F9000 X136.023 Y119.766
G0 X135.976 Y119.329
G0 X135.821 Y119.169
G1 F1500 E33.42033
G0 F9000 X135.508 Y117.5
G0 X134.631 Y117.499
G0 X134.754 Y117.49
G1 F1500 E39.42033
G1 F750.3 X134.739 Y117.557 E39.42249
G1 X134.703 Y117.607 E39.42444
G1 X134.633 Y117.668 E39.42738
G1 X134.591 Y117.696 E39.42897
G1 X134.585 Y117.699 E39.42918
G1 X134.48 Y117.754 E39.43293
G1 X134.478 Y117.755 E39.433
G1 X134.334 Y117.808 E39.43785
G1 X134.188 Y117.844 E39.4426
G1 X134.008 Y117.873 E39.44836
G1 X133.826 Y117.885 E39.45412
G1 X133.652 Y117.88 E39.45962
G1 X133.47 Y117.86 E39.46541
G1 X133.309 Y117.828 E39.47059
G1 X133.163 Y117.784 E39.47541
G1 X133.091 Y117.755 E39.47786
G1 X132.98 Y117.696 E39.48184
G1 X132.938 Y117.668 E39.48343
G1 X132.871 Y117.61 E39.48623
G1 X132.825 Y117.541 E39.48885
G1 X132.823 Y117.537 E39.48899
G1 X132.816 Y117.51 E39.48987
G1 X132.826 Y117.457 E39.49158
G1 X132.847 Y117.42 E39.49292
G1 X132.893 Y117.368 E39.49512
G1 X132.981 Y117.303 E39.49857
G1 X133.087 Y117.247 E39.50236
G1 X133.091 Y117.246 E39.50249
G1 X133.236 Y117.192 E39.50738
G1 X133.382 Y117.156 E39.51213
G1 X133.562 Y117.127 E39.51789
G1 X133.745 Y117.115 E39.52369
G1 X133.918 Y117.12 E39.52916
G1 X134.1 Y117.14 E39.53494
G1 X134.261 Y117.172 E39.54013
G1 X134.406 Y117.216 E39.54492
G1 X134.48 Y117.246 E39.54744
G1 X134.531 Y117.273 E39.54926
G0 F675.2 X134.585 Y117.301
G0 X134.591 Y117.304
G0 X134.633 Y117.332
G0 X134.703 Y117.393
G0 X134.745 Y117.459
G0 X134.746 Y117.461
G0 X134.754 Y117.49
G0 F9000 X134.739 Y117.557
G0 X134.703 Y117.607
G0 X134.633 Y117.668
G0 X134.591 Y117.696
G0 X134.585 Y117.699
G0 X134.48 Y117.754
G0 X134.478 Y117.755
G0 X134.476 Y117.756
G0 X134.166 Y117.666
G1 F1500 E33.54926
G0 F9000 X134.16 Y117.645
G0 X133.667 Y117.709
G0 X133.069 Y117.55
G0 X133.042 Y117.405
G0 X132.042 Y117.405
G0 X131.862 Y115.6
;TYPE:WALL-INNER
G1 F1500 E39.54926
G1 F1500.5 X131.862 Y119.4 E39.67565
G1 X104.71 Y119.4 E40.57873
G1 X104.709 Y115.799 E40.6985
G1 X104.709 Y115.6 E40.70512
G1 X104.908 Y115.6 E40.7094
G1 X116.235 Y115.6 E41.08614
G1 X116.235 Y115.9 E41.09612
G1 X119.985 Y115.9 E41.22084
G1 X119.985 Y115.6 E41.23082
G1 X120.7 Y115.6 E41.2546
G1 X120.7 Y115.735 E41.25909
G1 X121.279 Y115.9 E41.27912
G1 X126.351 Y115.9 E41.44781
G1 X126.352 Y115.6 E41.45779
G1 X131.062 Y115.6 E41.61444
G0 F1350.5 X131.862 Y115.6
G0 F9000 X132.262 Y115.2
;TYPE:WALL-OUTER
G1 F750.3 X132.262 Y119.8 E41.75979
G1 X104.31 Y119.8 E42.64299
G1 X104.309 Y115.4 E42.78202
G1 X104.309 Y115.2 E42.78834
G1 X104.509 Y115.2 E42.79243
G1 X116.635 Y115.2 E43.17558
G1 X116.635 Y115.5 E43.18506
G1 X119.585 Y115.5 E43.27827
G1 X119.585 Y115.2 E43.28775
G1 X121.1 Y115.2 E43.33562
G1 X121.1 Y115.433 E43.34298
G1 X121.335 Y115.5 E43.3507
G1 X122.595 Y115.5 E43.39051
G1 X122.595 Y115.2 E43.39999
G1 X123.081 Y115.2 E43.41535
G1 X123.08 Y115.5 E43.42483
G1 X125.952 Y115.5 E43.51558
G1 X125.953 Y115.2 E43.52505
G1 X131.462 Y115.2 E43.69912
G0 F675.2 X132.262 Y115.2
G0 F9000 X132.262 Y115.6
G0 X131.822 Y115.64
G0 X131.934 Y115.528
G1 F1500 E37.69912
;MESH:NONMESH
G0 F300 X131.934 Y115.528 Z1.4
G0 F9000 X132.042 Y115.629
G0 X133.127 Y115.629
G0 X134.442 Y115.629
G0 X135.508 Y115.629
G0 X135.905 Y115.629
;TIME_ELAPSED:83.249945
;LAYER:6
;TYPE:WALL-INNER
;MESH:SmartTemperatureTower_TempFloor_240.stl
G1 F1500 E43.69912
G1 F1476.2 X136.118 Y115.642 E43.70622
G1 X136.119 Y119.358 E43.82982
G1 X136.105 Y119.36 E43.83029
G1 X135.906 Y119.37 E43.83691
G1 X135.906 Y119.359
G1 X135.906 Y115.643 E43.90275
G1 X135.905 Y115.629
G0 F9000 X135.505 Y115.203
;TYPE:WALL-OUTER
G1 F738.1 X135.717 Y115.216 E43.90946
G1 X136.172 Y115.245 E43.92387
G1 X136.518 Y115.286 E43.93488
G1 X136.519 Y119.712 E44.07473
G1 X136.146 Y119.758 E44.0866
G1 X135.716 Y119.781 E44.10021
G1 X135.715 Y119.782 E44.10025
G1 X135.506 Y119.791 E44.10686
G1 X135.506 Y119.582 E44.11108
G1 X135.506 Y119.581 E44.11111
G1 X135.505 Y115.416 E44.24272
G1 X135.505 Y115.415 E44.24275
G1 X135.505 Y115.203 E44.24701
G0 F9000 X135.717 Y115.216
G0 X135.905 Y115.227
G0 X135.946 Y115.668
G0 X136.106 Y115.833
G1 F1500 E38.24701
G0 F9000 X135.706 Y117.5
G0 X134.597 Y117.494
G0 X134.719 Y117.473
G1 F1500 E44.24701
G1 F738.1 X134.712 Y117.544 E44.24926
G1 X134.677 Y117.598 E44.25129
G1 X134.612 Y117.656 E44.25405
G1 X134.597 Y117.665 E44.2546
G1 X134.518 Y117.714 E44.25754
G1 X134.502 Y117.721 E44.25809
G1 X134.387 Y117.772 E44.26206
G1 X134.247 Y117.816 E44.2667
G1 X134.011 Y117.857 E44.27427
G1 X133.828 Y117.868 E44.28006
G1 X133.567 Y117.858 E44.28831
G1 X133.318 Y117.814 E44.2963
G1 X133.183 Y117.772 E44.30077
G1 X133.068 Y117.72 E44.30476
G1 X133.053 Y117.714 E44.30527
G1 X132.973 Y117.665 E44.30823
G1 X132.959 Y117.657 E44.30874
G1 X132.895 Y117.599 E44.31147
G1 X132.861 Y117.552 E44.3133
G1 X132.85 Y117.525 E44.31423
G1 X132.849 Y117.481 E44.31562
G1 X132.861 Y117.446 E44.31679
G1 X132.893 Y117.4 E44.31856
G1 X132.958 Y117.344 E44.32127
G1 X132.972 Y117.336 E44.32178
G1 X133.053 Y117.286 E44.32478
G1 X133.068 Y117.28 E44.32529
G1 X133.183 Y117.228 E44.32928
G1 X133.323 Y117.184 E44.33392
G1 X133.559 Y117.143 E44.34149
G1 X133.742 Y117.132 E44.34728
G1 X134.003 Y117.142 E44.35553
G1 X134.252 Y117.186 E44.36352
G1 X134.387 Y117.228 E44.36799
G1 X134.491 Y117.274 E44.37158
G0 F664.3 X134.502 Y117.279
G0 X134.518 Y117.286
G0 X134.597 Y117.335
G0 X134.612 Y117.344
G0 X134.695 Y117.424
G0 X134.719 Y117.473
G0 F9000 X134.712 Y117.544
G0 X134.677 Y117.598
G0 X134.612 Y117.656
G0 X134.597 Y117.665
G0 X134.518 Y117.714
G0 X134.502 Y117.721
G0 X134.455 Y117.742
G0 X134.132 Y117.674
G1 F1500 E38.37158
G0 F9000 X134.126 Y117.634
G0 X133.823 Y117.697
G0 X133.244 Y117.612
