;FLAVOR:Marlin
;TIME:6755
;Filament used: 6.61197m
;Layer height: 0.28
;MINX:46.799
;MINY:85.545
;MINZ:0.285
;MAXX:188.201
;MAXY:150.308
;MAXZ:7.845
;Generated with Cura_SteamEngine 4.6.2
M140 S60
M105
M190 S60
M104 S200
M105
M109 S200
M82 ;absolute extrusion mode
; Ender 3 Custom Start G-code
G92 E0 ; Reset Extruder
G28 ; Home all axes
G1 Z2.0 F3000 ; Move Z Axis up little to prevent scratching of Heat Bed
G1 X0.1 Y20 Z0.3 F5000.0 ; Move to start position
G1 X0.1 Y200.0 Z0.3 F1500.0 E15 ; Draw the first line
G1 X0.4 Y200.0 Z0.3 F5000.0 ; Move to side a little
G1 X0.4 Y20 Z0.3 F1500.0 E30 ; Draw the second line
G92 E0 ; Reset Extruder
G1 Z2.0 F3000 ; Move Z Axis up little to prevent scratching of Heat Bed
G1 X5 Y20 Z0.3 F5000.0 ; Move over to prevent blob squish
G92 E0
G92 E0
G1 F1500 E-6
;LAYER_COUNT:28
;LAYER:0
M107
M204 S500
M205 X8 Y8
;MESH:Articulated_Butterfly.stl
G0 F7500 X82.266 Y91.49 Z0.285
;TYPE:WALL-INNER
G1 F1500 E0
G1 F1800 X83.843 Y90.705 E0.07932
G1 X83.95 Y90.652 E0.08469
G1 X84.028 Y90.613 E0.08862
G1 X84.054 Y90.86 E0.09516
G1 X84.066 Y90.979 E0.09962
G1 X87.213 Y120.882 E1.45347
G1 X87.233 Y121.079 E1.46238
G1 X87.036 Y121.099 E1.46815
G1 X82.856 Y121.539 E1.65739
G1 X82.923 Y122.205 E1.68753
G1 X83.397 Y126.715 E1.89172
G1 X87.777 Y126.255 E2.09002
G1 X89.175 Y139.557 E2.69225
G1 X89.102 Y139.598 E2.69602
G1 X86.589 Y140.921 E2.82389
G1 X84.021 Y142.189 E2.95285
G1 X84.001 Y142.199 E2.95385
G1 X83.656 Y142.357 E2.97094
G1 X83.641 Y142.257
G1 X83.638 Y142.235 E2.9719
G1 X81.342 Y127.752 E3.63216
G1 X81.311 Y127.555 E3.64114
G1 X81.114 Y127.587 E3.64694
G1 X80.612 Y127.67 E3.66985
G1 X77.919 Y128.097 E3.79262
G1 X77.737 Y127.012 E3.84215
G1 X77.704 Y126.814 E3.85119
G1 X77.902 Y126.783 E3.857
G1 X80.914 Y126.307 E3.9943
G1 X81.11 Y126.276 E4.00324
G1 X81.079 Y126.08 E4.00901
G1 X77.098 Y100.969 E5.15378
G1 X77.32 Y100.351 E5.18335
G1 X77.774 Y98.886 E5.2524
G1 X78.039 Y98.154 E5.28746
G1 X78.328 Y97.537 E5.31813
G1 X78.709 Y96.951 E5.3496
G1 X79.202 Y96.423 E5.38213
G1 X79.778 Y95.866 E5.41821
G1 X80.257 Y95.206 E5.45493
G1 X80.955 Y93.83 E5.5244
G1 X81.57 Y92.497 E5.5905
G1 X81.903 Y91.938 E5.61979
G1 X82.266 Y91.49 E5.64576
G0 F7500 X82.007 Y91.174
;TYPE:WALL-OUTER
G1 F1800 X82.027 Y91.162 E5.64675
G1 X84.109 Y90.126 E5.74623
G1 X84.366 Y89.998 E5.75851
G1 X84.396 Y90.284 E5.76575
G1 X84.452 Y90.818 E5.78872
G1 X87.673 Y121.435 E7.10558
G1 X83.358 Y121.889 E7.29117
G1 X83.294 Y121.895 E7.29392
G1 X83.321 Y122.164 E7.30548
G1 X83.327 Y122.228 E7.30792
G1 X83.753 Y126.275 E7.48198
G1 X88.132 Y125.815 E7.67032
G1 X88.139 Y125.87 E7.67269
G1 X89.6 Y139.776 E8.27079
G1 X89.288 Y139.952 E8.28611
G1 X86.766 Y141.28 E8.40803
G1 X84.168 Y142.563 E8.53197
G1 X83.583 Y142.832 E8.55952
G1 X83.344 Y142.941 E8.57075
G1 X83.303 Y142.682 E8.57751
G1 X80.986 Y128.061 E9.21072
G1 X80.979 Y128.015 E9.21271
G1 X80.677 Y128.065 E9.2258
G1 X80.631 Y128.072 E9.22763
G1 X77.591 Y128.554 E9.35929
G1 X77.276 Y126.68 E9.44057
G1 X77.243 Y126.482 E9.44916
G1 X77.441 Y126.451 E9.45468
G1 X80.455 Y125.974 E9.5852
G1 X80.652 Y125.943 E9.59373
G1 X80.621 Y125.746 E9.59924
G1 X76.687 Y100.931 E10.67395
G1 X76.941 Y100.224 E10.70608
G1 X77.398 Y98.75 E10.77209
G1 X77.668 Y98.004 E10.80603
G1 X77.978 Y97.341 E10.83734
G1 X78.393 Y96.703 E10.86989
G1 X78.924 Y96.135 E10.90315
G1 X79.475 Y95.603 E10.93591
G1 X79.915 Y94.997 E10.96795
G1 X80.595 Y93.656 E11.03226
G1 X81.214 Y92.314 E11.09548
G1 X81.575 Y91.709 E11.12561
G1 X82.007 Y91.174 E11.15502
G0 F7500 X82.027 Y91.162
G0 X82.364 Y90.995
G0 X82.559 Y91.389
G0 X82.515 Y91.802
;TYPE:SKIN
G1 F1800 X83.699 Y91.212 E11.21459
G1 X86.804 Y120.732 E12.55108
G1 X82.429 Y121.192 E12.74916
G1 X82.535 Y122.244 E12.79677
G1 X83.048 Y127.144 E13.0186
G1 X87.43 Y126.684 E13.21699
G1 X88.76 Y139.338 E13.78988
G1 X86.411 Y140.574 E13.9094
G1 X83.961 Y141.784 E14.03243
G1 X81.635 Y127.106 E14.70157
G1 X80.685 Y127.264 E14.74493
G1 X78.239 Y127.651 E14.85643
G1 X78.153 Y127.138 E14.87985
G1 X81.556 Y126.6 E15.03498
G1 X77.5 Y101.005 E16.2018
G1 X77.69 Y100.474 E16.22719
G1 X78.141 Y99.019 E16.29578
G1 X78.403 Y98.296 E16.3304
G1 X78.667 Y97.73 E16.35852
G1 X79.019 Y97.19 E16.38755
G1 X79.473 Y96.704 E16.41749
G1 X80.074 Y96.123 E16.45513
G1 X80.591 Y95.41 E16.49479
G1 X81.306 Y94 E16.56597
G1 X81.918 Y92.674 E16.63173
G1 X82.224 Y92.16 E16.65866
G1 X82.515 Y91.802 E16.67943
G0 F7500 X83.169 Y91.654
G1 F1800 X83.633 Y92.119 E16.70901
G0 F7500 X83.7 Y92.751
G1 F1800 X82.791 Y91.842 E16.76689
G0 F7500 X82.479 Y92.096
G1 F1800 X83.766 Y93.383 E16.84884
G0 F7500 X83.833 Y94.015
G1 F1800 X82.248 Y92.43 E16.94977
G0 F7500 X82.041 Y92.789
G1 F1800 X83.899 Y94.647 E17.06808
G0 F7500 X83.966 Y95.279
G1 F1800 X81.862 Y93.176 E17.20202
G0 F7500 X81.683 Y93.562
G1 F1800 X84.032 Y95.911 E17.3516
G0 F7500 X84.099 Y96.544
G1 F1800 X81.504 Y93.949 E17.51684
G0 F7500 X81.317 Y94.328
G1 F1800 X84.165 Y97.176 E17.69819
G0 F7500 X84.231 Y97.808
G1 F1800 X81.127 Y94.703 E17.89587
G0 F7500 X80.936 Y95.078
G1 F1800 X84.299 Y98.441 E18.11002
G0 F7500 X84.365 Y99.073
G1 F1800 X80.746 Y95.454 E18.34046
G0 F7500 X80.514 Y95.787
G1 F1800 X84.432 Y99.705 E18.58994
G0 F7500 X84.498 Y100.337
G1 F1800 X80.276 Y96.115 E18.85878
G0 F7500 X80.006 Y96.411
G1 F1800 X84.565 Y100.969 E19.14905
G0 F7500 X84.631 Y101.602
G1 F1800 X79.718 Y96.689 E19.46189
G0 F7500 X79.437 Y96.974
G1 F1800 X84.697 Y102.234 E19.79683
G0 F7500 X84.764 Y102.866
G1 F1800 X79.164 Y97.266 E20.15342
G0 F7500 X78.937 Y97.605
G1 F1800 X84.83 Y103.498 E20.52866
G0 F7500 X84.897 Y104.13
G1 F1800 X78.732 Y97.966 E20.92119
G0 F7500 X78.553 Y98.352
G1 F1800 X84.963 Y104.762 E21.32936
G0 F7500 X85.03 Y105.394
G1 F1800 X78.401 Y98.766 E21.75144
G0 F7500 X78.255 Y99.185
G1 F1800 X85.096 Y106.027 E22.18708
G0 F7500 X85.163 Y106.659
G1 F1800 X78.121 Y99.617 E22.63549
G0 F7500 X77.988 Y100.049
G1 F1800 X85.229 Y107.291 E23.0966
G0 F7500 X85.296 Y107.923
G1 F1800 X77.853 Y100.481 E23.57051
G0 F7500 X77.706 Y100.899
G1 F1800 X85.362 Y108.555 E24.05801
G0 F7500 X85.429 Y109.187
G1 F1800 X77.741 Y101.5 E24.54752
G0 F7500 X77.847 Y102.171
G1 F1800 X85.495 Y109.82 E25.03455
G0 F7500 X85.562 Y110.452
G1 F1800 X77.954 Y102.844 E25.519
G0 F7500 X78.06 Y103.516
G1 F1800 X85.628 Y111.084 E26.0009
G0 F7500 X85.695 Y111.717
G1 F1800 X78.167 Y104.188 E26.48029
G0 F7500 X78.273 Y104.861
G1 F1800 X85.762 Y112.349 E26.95713
G0 F7500 X85.828 Y112.981
G1 F1800 X78.379 Y105.532 E27.43145
G0 F7500 X78.486 Y106.205
G1 F1800 X85.895 Y113.613 E27.9032
G0 F7500 X85.961 Y114.245
G1 F1800 X78.593 Y106.877 E28.37237
G0 F7500 X78.699 Y107.549
G1 F1800 X86.028 Y114.877 E28.83902
G0 F7500 X86.094 Y115.51
G1 F1800 X78.806 Y108.221 E29.30312
G0 F7500 X78.913 Y108.894
G1 F1800 X86.16 Y116.142 E29.76462
G0 F7500 X86.227 Y116.774
G1 F1800 X79.019 Y109.566 E30.22359
G0 F7500 X79.125 Y110.238
G1 F1800 X86.293 Y117.406 E30.68003
G0 F7500 X86.36 Y118.038
G1 F1800 X79.232 Y110.91 E31.13391
G0 F7500 X79.338 Y111.582
G1 F1800 X86.426 Y118.67 E31.58525
G0 F7500 X86.493 Y119.303
G1 F1800 X79.445 Y112.255 E32.03404
G0 F7500 X79.551 Y112.927
G1 F1800 X86.559 Y119.935 E32.48028
G0 F7500 X86.626 Y120.567
G1 F1800 X79.658 Y113.599 E32.92398
G0 F7500 X79.765 Y114.271
G1 F1800 X86.134 Y120.64 E33.32953
G0 F7500 X85.622 Y120.694
G1 F1800 X79.871 Y114.943 E33.69573
G0 F7500 X79.978 Y115.616
G1 F1800 X85.11 Y120.748 E34.02252
G0 F7500 X84.598 Y120.802
G1 F1800 X80.084 Y116.287 E34.30999
G0 F7500 X80.19 Y116.96
G1 F1800 X84.086 Y120.855 E34.55804
G0 F7500 X83.574 Y120.909
G1 F1800 X80.297 Y117.632 E34.7667
G0 F7500 X80.403 Y118.304
G1 F1800 X83.062 Y120.963 E34.93602
G0 F7500 X82.55 Y121.017
G1 F1800 X80.51 Y118.977 E35.06592
G0 F7500 X80.617 Y119.649
G1 F1800 X82.281 Y121.313 E35.17188
G0 F7500 X82.343 Y121.941
G1 F1800 X80.723 Y120.321 E35.27503
G0 F7500 X80.83 Y120.993
G1 F1800 X82.409 Y122.572 E35.37558
G0 F7500 X82.474 Y123.204
G1 F1800 X80.936 Y121.665 E35.47354
G0 F7500 X81.042 Y122.337
G1 F1800 X82.54 Y123.835 E35.56893
G0 F7500 X82.607 Y124.467
G1 F1800 X81.149 Y123.01 E35.66174
G0 F7500 X81.255 Y123.682
G1 F1800 X82.672 Y125.099 E35.75197
G0 F7500 X82.739 Y125.731
G1 F1800 X81.362 Y124.354 E35.83965
G0 F7500 X81.469 Y125.027
G1 F1800 X82.805 Y126.362 E35.92469
G0 F7500 X82.87 Y126.994
G1 F1800 X81.575 Y125.698 E36.00718
G0 F7500 X81.682 Y126.371
G1 F1800 X87.889 Y132.578 E36.40242
G0 F7500 X87.823 Y131.946
G1 F1800 X83.168 Y127.291 E36.69883
G0 F7500 X83.68 Y127.238
G1 F1800 X87.756 Y131.314 E36.95838
G0 F7500 X87.69 Y130.682
G1 F1800 X84.192 Y127.184 E37.18112
G0 F7500 X84.704 Y127.13
G1 F1800 X87.623 Y130.05 E37.36702
G0 F7500 X87.557 Y129.418
G1 F1800 X85.216 Y127.076 E37.51612
G0 F7500 X85.728 Y127.023
G1 F1800 X87.491 Y128.786 E37.62838
G0 F7500 X87.424 Y128.153
G1 F1800 X86.24 Y126.969 E37.70377
G0 F7500 X86.752 Y126.915
G1 F1800 X87.358 Y127.521 E37.74236
G1 F1500 E31.74236
G0 F7500 X87.795 Y127.476
G0 X88.986 Y139.458
G0 X86.509 Y140.77
G0 X83.802 Y142.086
G0 X81.458 Y127.78
G0 X81.892 Y127.712
G1 F1500 E37.74236
G1 F1800 X88.022 Y133.843 E38.13273
G0 F7500 X87.956 Y133.211
G1 F1800 X81.785 Y127.04 E38.52567
G0 F7500 X81.68 Y126.935
G1 F1800 X81.512 Y126.767 E38.53637
G0 F7500 X81.195 Y127.016
G1 F1800 X81.024 Y126.845 E38.54726
G0 F7500 X80.71 Y127.096
G1 F1800 X80.535 Y126.922 E38.55837
G0 F7500 X80.221 Y127.173
G1 F1800 X80.047 Y126.999 E38.56945
G0 F7500 X79.733 Y127.25
G1 F1800 X79.559 Y127.076 E38.58053
G0 F7500 X79.245 Y127.328
G1 F1800 X79.07 Y127.154 E38.59164
G0 F7500 X78.756 Y127.405
G1 F1800 X78.582 Y127.231 E38.60272
G0 F7500 X78.515 Y126.798
G0 X77.914 Y126.965
G0 X78.069 Y127.889
G0 X81.168 Y127.753
G0 X81.565 Y128.453
G0 X81.998 Y128.385
G1 F1800 X88.089 Y134.475 E38.99054
G0 F7500 X88.155 Y135.107
G1 F1800 X82.104 Y129.056 E39.37584
G0 F7500 X82.211 Y129.729
G1 F1800 X88.222 Y135.739 E39.75857
G0 F7500 X88.288 Y136.371
G1 F1800 X82.318 Y130.401 E40.13872
G0 F7500 X82.425 Y131.074
G1 F1800 X88.355 Y137.004 E40.51632
G0 F7500 X88.421 Y137.636
G1 F1800 X82.531 Y131.746 E40.89137
G0 F7500 X82.638 Y132.418
G1 F1800 X88.488 Y138.268 E41.26388
G0 F7500 X88.554 Y138.9
G1 F1800 X82.744 Y133.09 E41.63384
G0 F7500 X82.85 Y133.762
G1 F1800 X88.422 Y139.333 E41.98861
G0 F7500 X88.051 Y139.529
G1 F1800 X82.957 Y134.435 E42.31298
G0 F7500 X83.064 Y135.107
G1 F1800 X87.681 Y139.724 E42.60697
G0 F7500 X87.31 Y139.919
G1 F1800 X83.171 Y135.78 E42.87052
G0 F7500 X83.277 Y136.451
G1 F1800 X86.94 Y140.114 E43.10377
G0 F7500 X86.568 Y140.309
G1 F1800 X83.384 Y137.124 E43.30655
G0 F7500 X83.49 Y137.796
G1 F1800 X86.195 Y140.501 E43.47879
G0 F7500 X85.816 Y140.688
G1 F1800 X83.596 Y138.468 E43.62015
G0 F7500 X83.703 Y139.14
G1 F1800 X85.437 Y140.874 E43.73057
G0 F7500 X85.059 Y141.062
G1 F1800 X83.81 Y139.813 E43.8101
G0 F7500 X83.917 Y140.485
G1 F1800 X84.68 Y141.248 E43.85868
G0 F7500 X84.301 Y141.435
G1 F1800 X84.023 Y141.157 E43.87639
G0 F7500 X83.679 Y141.214
G1 F1500 E37.87639
G0 F7500 X83.588 Y141.226
G0 X83.802 Y142.086
G0 X86.509 Y140.77
G0 X88.986 Y139.458
G0 X88.947 Y139.056
G0 X89.273 Y138.582
G0 X91.066 Y138.394
G0 X91.264 Y138.373
;TYPE:WALL-INNER
G1 F1500 E43.87639
G1 F1800 X91.233 Y138.071 E43.89006
G1 X89.781 Y124.279 E44.51449
G1 X89.761 Y124.082 E44.5234
G1 X89.564 Y124.102 E44.52916
G1 X86.733 Y124.402 E44.65735
G1 X86.612 Y123.307 E44.70695
G1 X86.59 Y123.109 E44.71592
G1 X86.788 Y123.088 E44.72171
G1 X89.43 Y122.809 E44.84133
G1 X89.627 Y122.789 E44.85024
G1 X89.607 Y122.592 E44.85601
G1 X89.502 Y121.606 E44.90066
G1 X86.132 Y89.568 E46.35115
G1 X87.788 Y88.743 E46.43446
G1 X88.402 Y88.25 E46.46991
G1 X88.995 Y87.901 E46.50089
G1 X89.636 Y87.636 E46.53212
G1 X90.317 Y87.449 E46.56392
G1 X91.021 Y87.331 E46.59606
G1 X91.742 Y87.285 E46.62859
G1 X92.47 Y87.3 E46.66138
G1 X93.345 Y87.386 E46.70097
G1 X93.618 Y87.299 E46.71387
G1 X93.663 Y87.285 E46.71599
G1 X93.738 Y87.261 E46.71953
G1 X93.762 Y87.594 E46.72974
G1 X93.764 Y87.641 E46.7317
G1 X95.357 Y117.976 E48.09944
G1 X91.157 Y118.198 E48.28882
G1 X90.958 Y118.208 E48.29779
G1 X90.969 Y118.407 E48.30358
G1 X90.996 Y118.878 E48.32483
G1 X91.235 Y123.406 E48.52899
G1 X95.43 Y123.185 E48.71813
G1 X95.628 Y123.175 E48.72706
G1 X95.638 Y123.373 E48.73283
G1 X96.273 Y135.447 E49.27722
G1 X94.118 Y136.756 E49.39075
G1 X91.528 Y138.224 E49.5248
G1 X91.264 Y138.373 E49.53274
G0 F7500 X90.93 Y139.022
;TYPE:WALL-OUTER
G1 F1800 X90.899 Y138.719 E49.54577
G1 X89.425 Y124.72 E50.14788
G1 X89.405 Y124.522 E50.15639
G1 X89.207 Y124.543 E50.16189
G1 X86.379 Y124.842 E50.28353
G1 X86.169 Y122.951 E50.36492
G1 X86.148 Y122.753 E50.37343
G1 X86.346 Y122.732 E50.37894
G1 X88.989 Y122.453 E50.49262
G1 X89.187 Y122.433 E50.50114
G1 X89.166 Y122.235 E50.50664
G1 X89.104 Y121.648 E50.53188
G1 X85.705 Y89.334 E51.92173
G1 X87.571 Y88.404 E52.01091
G1 X88.177 Y87.918 E52.04414
G1 X88.817 Y87.541 E52.07591
G1 X89.505 Y87.257 E52.10775
G1 X90.232 Y87.057 E52.14
G1 X90.968 Y86.934 E52.17192
G1 X91.737 Y86.885 E52.20488
G1 X92.491 Y86.9 E52.23714
G1 X93.302 Y86.98 E52.272
G1 X93.86 Y86.802 E52.29705
G1 X94.102 Y86.726 E52.3079
G1 X94.119 Y86.979 E52.31448
G1 X94.161 Y87.573 E52.33995
G1 X95.777 Y118.354 E53.65841
G1 X91.443 Y118.583 E53.84405
G1 X91.38 Y118.586 E53.84675
G1 X91.395 Y118.857 E53.85836
G1 X91.398 Y118.92 E53.86075
G1 X91.613 Y122.986 E54.03492
G1 X95.824 Y122.764 E54.21529
G1 X96.005 Y122.755 E54.22304
G1 X96.008 Y122.791 E54.22459
G1 X96.017 Y122.972 E54.23234
G1 X96.685 Y135.665 E54.77603
G1 X94.326 Y137.098 E54.89409
G1 X91.195 Y138.872 E55.04802
G1 X90.93 Y139.022 E55.0556
G0 F7500 X90.899 Y138.719
G0 X90.889 Y138.624
G0 X91.187 Y138.594
G0 X91.727 Y137.984
G0 X91.59 Y137.74
;TYPE:SKIN
G1 F1800 X90.108 Y123.653 E55.69338
G1 X87.078 Y123.973 E55.83056
G1 X87.021 Y123.456 E55.85398
G1 X90.056 Y123.136 E55.99139
G1 X89.89 Y121.565 E56.06252
G1 X86.549 Y89.796 E57.50084
G1 X87.999 Y89.073 E57.57379
G1 X88.625 Y88.57 E57.60995
G1 X89.163 Y88.254 E57.63805
G1 X89.768 Y88.004 E57.66752
G1 X90.406 Y87.829 E57.69731
G1 X91.051 Y87.721 E57.72675
G1 X91.759 Y87.675 E57.7587
G1 X92.449 Y87.69 E57.78977
G1 X93.381 Y87.782 E57.83194
G1 X94.947 Y117.607 E59.17669
G1 X90.547 Y117.839 E59.37508
G1 X90.606 Y118.9 E59.42293
G1 X90.868 Y123.816 E59.64459
G1 X95.259 Y123.586 E59.84257
G1 X95.871 Y135.235 E60.3678
G1 X93.925 Y136.417 E60.47031
G1 X91.59 Y137.74 E60.59115
G0 F7500 X92.043 Y137.298
G1 F1800 X91.664 Y136.919 E60.61529
G0 F7500 X91.597 Y136.287
G1 F1800 X92.404 Y137.093 E60.66664
G0 F7500 X92.765 Y136.888
G1 F1800 X91.531 Y135.654 E60.74522
G0 F7500 X91.464 Y135.022
G1 F1800 X93.126 Y136.684 E60.85105
G0 F7500 X93.488 Y136.48
G1 F1800 X91.398 Y134.39 E60.98413
G0 F7500 X91.331 Y133.757
G1 F1800 X93.848 Y136.275 E61.14444
G0 F7500 X94.2 Y136.061
G1 F1800 X91.264 Y133.125 E61.33139
G0 F7500 X91.198 Y132.493
G1 F1800 X94.552 Y135.847 E61.54496
G0 F7500 X94.904 Y135.633
G1 F1800 X91.131 Y131.861 E61.78518
G0 F7500 X91.065 Y131.229
G1 F1800 X95.256 Y135.42 E62.05205
G0 F7500 X95.607 Y135.205
G1 F1800 X90.998 Y130.596 E62.34553
G0 F7500 X90.932 Y129.964
G1 F1800 X95.683 Y134.715 E62.64806
G0 F7500 X95.652 Y134.119
G1 F1800 X90.865 Y129.331 E62.95291
G0 F7500 X90.798 Y128.699
G1 F1800 X95.621 Y133.522 E63.26002
G0 F7500 X95.589 Y132.924
G1 F1800 X90.732 Y128.067 E63.56929
G0 F7500 X90.665 Y127.435
G1 F1800 X95.558 Y132.327 E63.88083
G0 F7500 X95.527 Y131.731
G1 F1800 X90.599 Y126.803 E64.19462
G0 F7500 X90.533 Y126.171
G1 F1800 X95.496 Y131.134 E64.51065
G0 F7500 X95.464 Y130.536
G1 F1800 X90.466 Y125.539 E64.82887
G0 F7500 X90.399 Y124.906
G1 F1800 X95.433 Y129.94 E65.14942
G0 F7500 X95.402 Y129.343
G1 F1800 X90.332 Y124.274 E65.47222
G0 F7500 X90.266 Y123.641
G1 F1800 X95.37 Y128.745 E65.79723
G0 F7500 X95.339 Y128.148
G1 F1800 X91.151 Y123.96 E66.0639
G0 F7500 X91.688 Y123.932
G1 F1800 X95.308 Y127.552 E66.29441
G0 F7500 X95.276 Y126.954
G1 F1800 X92.225 Y123.904 E66.48866
G0 F7500 X92.763 Y123.876
G1 F1800 X95.245 Y126.357 E66.64667
G0 F7500 X95.214 Y125.761
G1 F1800 X93.301 Y123.848 E66.76848
G0 F7500 X93.838 Y123.82
