;FLAVOR:Marlin
;TIME:3400
;Filament used: 1.33151m
;Layer height: 0.12
;MINX:79.343
;MINY:79.345
;MINZ:0.12
;MAXX:140.662
;MAXY:140.654
;MAXZ:3.96
;Generated with Cura_SteamEngine 4.7.0
M140 S60
M105
M190 S60
M104 S200
M105
M109 S200
M82 ;absolute extrusion mode
; Ender 3 Custom Start G-code
G92 E0 ; Reset Extruder
G28 ; Home all axes
G1 Z2.0 F3000 ; Move Z Axis up little to prevent scratching of Heat Bed
G1 X0.1 Y20 Z0.3 F5000.0 ; Move to start position
G1 X0.1 Y200.0 Z0.3 F1500.0 E15 ; Draw the first line
G1 X0.4 Y200.0 Z0.3 F5000.0 ; Move to side a little
G1 X0.4 Y20 Z0.3 F1500.0 E30 ; Draw the second line
G92 E0 ; Reset Extruder
G1 Z2.0 F3000 ; Move Z Axis up little to prevent scratching of Heat Bed
G1 X5 Y20 Z0.3 F5000.0 ; Move over to prevent blob squish
G92 E0
G92 E0
G1 F1500 E-6.5
;LAYER_COUNT:33
;LAYER:0
M107
G0 F6000 X88.353 Y88.28 Z0.12
;TYPE:SKIRT
G1 F1500 E0
G1 F1200 X88.81 Y87.834 E0.01274
G1 X89.08 Y87.579 E0.02015
G1 X89.444 Y87.247 E0.02999
G1 X89.792 Y86.943 E0.03921
G1 X90.841 Y86.064 E0.06652
G1 X91.439 Y85.597 E0.08166
G1 X92.526 Y84.807 E0.10848
G1 X92.748 Y84.65 E0.1139
G1 X92.864 Y84.57 E0.11672
G1 X93.161 Y84.372 E0.12384
G1 X93.693 Y84.03 E0.13646
G1 X94.014 Y83.831 E0.144
G1 X94.607 Y83.478 E0.15777
G1 X94.925 Y83.296 E0.16508
G1 X95.366 Y83.053 E0.17513
G1 X95.78 Y82.836 E0.18446
G1 X96.903 Y82.278 E0.20948
G1 X97.26 Y82.108 E0.21737
G1 X97.628 Y81.946 E0.2254
G1 X98.497 Y81.582 E0.2442
G1 X98.871 Y81.434 E0.25222
G1 X99.442 Y81.219 E0.2644
G1 X99.777 Y81.098 E0.27151
G1 X100.683 Y80.79 E0.2906
G1 X100.929 Y80.71 E0.29577
G1 X101.101 Y80.656 E0.29936
G1 X101.545 Y80.527 E0.30859
G1 X102.417 Y80.293 E0.32661
G1 X102.781 Y80.202 E0.3341
G1 X103.397 Y80.059 E0.34672
G1 X103.78 Y79.977 E0.35453
G1 X104.524 Y79.832 E0.36966
G1 X104.899 Y79.766 E0.37726
G1 X105.301 Y79.702 E0.38538
G1 X105.658 Y79.651 E0.39258
G1 X106.493 Y79.546 E0.40937
G1 X106.815 Y79.51 E0.41584
G1 X107.576 Y79.437 E0.43109
G1 X107.999 Y79.405 E0.43956
G1 X108.437 Y79.38 E0.44832
G1 X108.806 Y79.365 E0.45569
G1 X109.53 Y79.348 E0.47014
G1 X109.873 Y79.345 E0.47698
G1 X110.905 Y79.353 E0.49758
G1 X111.666 Y79.386 E0.51278
G1 X113.053 Y79.493 E0.54054
G1 X113.771 Y79.572 E0.55496
G1 X114.69 Y79.704 E0.57348
G1 X115.055 Y79.762 E0.58086
G1 X115.987 Y79.928 E0.59975
G1 X116.709 Y80.082 E0.61448
G1 X118.038 Y80.412 E0.64181
G1 X118.351 Y80.495 E0.64827
G1 X118.544 Y80.549 E0.65227
G1 X118.851 Y80.64 E0.65866
G1 X119.323 Y80.787 E0.66853
G1 X119.744 Y80.927 E0.67738
G1 X120.628 Y81.242 E0.69611
G1 X121.015 Y81.388 E0.70436
G1 X121.869 Y81.729 E0.72271
G1 X122.159 Y81.849 E0.72898
G1 X122.613 Y82.053 E0.73891
G1 X123.511 Y82.481 E0.75876
G1 X123.827 Y82.638 E0.7658
G1 X124.547 Y83.01 E0.78198
G1 X124.909 Y83.206 E0.79019
G1 X125.332 Y83.445 E0.79989
G1 X125.627 Y83.618 E0.80671
G1 X126.128 Y83.922 E0.81841
G1 X126.431 Y84.112 E0.82554
G1 X127.006 Y84.487 E0.83924
G1 X127.356 Y84.725 E0.84769
G1 X127.939 Y85.138 E0.86195
G1 X128.175 Y85.31 E0.86777
G1 X128.765 Y85.752 E0.88249
G1 X129.084 Y86 E0.89055
G1 X129.553 Y86.379 E0.90258
G1 X129.853 Y86.631 E0.9104
G1 X130.287 Y87.008 E0.92187
G1 X130.547 Y87.241 E0.92884
G1 X130.98 Y87.642 E0.94062
G1 X131.257 Y87.907 E0.94827
G1 X132.11 Y88.754 E0.97226
G1 X132.609 Y89.285 E0.9868
G1 X133.273 Y90.038 E1.00683
G1 X133.513 Y90.318 E1.01419
G1 X133.864 Y90.744 E1.02521
G1 X134.089 Y91.027 E1.03242
G1 X134.451 Y91.497 E1.04426
G1 X134.688 Y91.817 E1.05221
G1 X135.05 Y92.324 E1.06464
G1 X135.237 Y92.595 E1.07121
G1 X135.667 Y93.237 E1.08663
G1 X135.883 Y93.572 E1.09459
G1 X136.439 Y94.471 E1.11568
G1 X136.615 Y94.765 E1.12252
G1 X136.81 Y95.111 E1.13044
G1 X137.094 Y95.637 E1.14237
G1 X137.292 Y96.021 E1.151
G1 X137.666 Y96.784 E1.16795
G1 X137.842 Y97.161 E1.17626
G1 X138.14 Y97.832 E1.19091
G1 X138.26 Y98.112 E1.19699
G1 X138.543 Y98.8 E1.21183
G1 X138.696 Y99.194 E1.22027
G1 X138.87 Y99.668 E1.23034
G1 X138.998 Y100.037 E1.23814
G1 X139.199 Y100.651 E1.25103
G1 X139.293 Y100.954 E1.25736
G1 X139.534 Y101.769 E1.27432
G1 X139.64 Y102.15 E1.28221
G1 X139.806 Y102.796 E1.29552
G1 X139.868 Y103.048 E1.3007
G1 X139.913 Y103.242 E1.30468
G1 X140.007 Y103.692 E1.31385
G1 X140.224 Y104.844 E1.33725
G1 X140.286 Y105.207 E1.34459
G1 X140.354 Y105.649 E1.35352
G1 X140.406 Y106.031 E1.36121
G1 X140.475 Y106.615 E1.37295
G1 X140.513 Y106.996 E1.38059
G1 X140.577 Y107.767 E1.39603
G1 X140.6 Y108.094 E1.40257
G1 X140.641 Y108.866 E1.418
G1 X140.654 Y109.264 E1.42594
G1 X140.662 Y109.739 E1.43542
G1 X140.662 Y110.13 E1.44323
G1 X140.649 Y110.825 E1.4571
G1 X140.639 Y111.133 E1.46325
G1 X140.608 Y111.796 E1.47649
G1 X140.579 Y112.228 E1.48513
G1 X140.519 Y112.923 E1.49906
G1 X140.486 Y113.247 E1.50556
G1 X140.405 Y113.944 E1.51956
G1 X140.351 Y114.35 E1.52773
G1 X140.265 Y114.908 E1.539
G1 X140.214 Y115.21 E1.54511
G1 X140.095 Y115.861 E1.55832
G1 X140.009 Y116.282 E1.56689
G1 X139.834 Y117.065 E1.5829
G1 X139.756 Y117.392 E1.58961
G1 X139.613 Y117.951 E1.60113
G1 X139.512 Y118.318 E1.60872
G1 X139.318 Y118.98 E1.62249
G1 X139.204 Y119.346 E1.63014
G1 X139.045 Y119.826 E1.64023
G1 X138.919 Y120.186 E1.64784
G1 X138.638 Y120.945 E1.66399
G1 X138.526 Y121.234 E1.67018
G1 X138.303 Y121.788 E1.6821
G1 X138.131 Y122.192 E1.69086
G1 X137.876 Y122.759 E1.70327
G1 X137.735 Y123.06 E1.7099
G1 X137.264 Y124.028 E1.73138
G1 X137.143 Y124.269 E1.73676
G1 X137.068 Y124.414 E1.74002
G1 X136.894 Y124.738 E1.74736
G1 X136.69 Y125.102 E1.75569
G1 X136.449 Y125.51 E1.76514
G1 X135.695 Y126.729 E1.79375
G1 X135.298 Y127.328 E1.80809
G1 X134.695 Y128.174 E1.82882
G1 X134.463 Y128.487 E1.8366
G1 X134.103 Y128.956 E1.84839
G1 X133.867 Y129.253 E1.85596
G1 X133.516 Y129.679 E1.86698
G1 X133.272 Y129.964 E1.87447
G1 X132.654 Y130.664 E1.8931
G1 X132.491 Y130.845 E1.89796
G1 X132.407 Y130.936 E1.90043
G1 X132.058 Y131.297 E1.91045
G1 X131.35 Y131.997 E1.93032
G1 X131.115 Y132.222 E1.93682
G1 X130.645 Y132.66 E1.94964
G1 X130.343 Y132.932 E1.95775
G1 X129.765 Y133.432 E1.973
G1 X129.529 Y133.63 E1.97915
G1 X129.031 Y134.037 E1.99198
G1 X128.666 Y134.323 E2.00123
G1 X128.287 Y134.607 E2.01069
G1 X128.022 Y134.799 E2.01722
G1 X127.367 Y135.26 E2.0332
G1 X127.072 Y135.461 E2.04032
G1 X126.26 Y135.994 E2.05971
G1 X125.926 Y136.205 E2.06759
G1 X125.733 Y136.322 E2.0721
G1 X125.508 Y136.454 E2.0773
G1 X124.942 Y136.779 E2.09033
G1 X124.604 Y136.966 E2.09804
G1 X124.252 Y137.152 E2.10598
G1 X123.863 Y137.348 E2.11467
G1 X122.9 Y137.809 E2.13598
G1 X122.541 Y137.973 E2.14386
G1 X121.953 Y138.229 E2.15665
G1 X121.631 Y138.363 E2.16361
G1 X120.895 Y138.656 E2.17942
G1 X120.546 Y138.788 E2.18687
G1 X120.098 Y138.949 E2.19637
G1 X119.719 Y139.077 E2.20435
G1 X118.756 Y139.384 E2.22452
G1 X118.062 Y139.581 E2.23892
G1 X117.082 Y139.824 E2.25907
G1 X116.766 Y139.897 E2.26554
G1 X115.959 Y140.072 E2.28202
G1 X115.523 Y140.158 E2.29089
G1 X115.054 Y140.24 E2.30039
G1 X114.748 Y140.289 E2.30657
G1 X114.022 Y140.395 E2.32122
G1 X113.648 Y140.443 E2.32874
G1 X113.009 Y140.514 E2.34157
G1 X112.611 Y140.551 E2.34955
G1 X112.114 Y140.588 E2.35949
G1 X111.728 Y140.61 E2.36721
G1 X110.938 Y140.641 E2.38299
G1 X110.613 Y140.648 E2.38947
G1 X109.992 Y140.654 E2.40187
G1 X109.622 Y140.652 E2.40925
G1 X108.872 Y140.634 E2.42422
G1 X108.478 Y140.617 E2.43209
G1 X107.777 Y140.575 E2.44611
G1 X107.454 Y140.551 E2.45257
G1 X106.907 Y140.502 E2.46353
G1 X106.466 Y140.454 E2.47238
G1 X105.699 Y140.354 E2.48782
G1 X105.394 Y140.31 E2.49397
G1 X104.897 Y140.231 E2.50401
G1 X104.526 Y140.165 E2.51153
G1 X103.821 Y140.028 E2.52586
G1 X103.444 Y139.948 E2.53355
G1 X102.656 Y139.766 E2.54969
G1 X102.283 Y139.673 E2.55736
G1 X101.91 Y139.573 E2.56507
G1 X101.588 Y139.481 E2.57175
G1 X100.734 Y139.224 E2.58955
G1 X100.332 Y139.095 E2.59798
G1 X99.866 Y138.935 E2.60781
G1 X99.582 Y138.833 E2.61383
G1 X98.882 Y138.571 E2.62875
G1 X98.477 Y138.41 E2.63744
G1 X97.97 Y138.197 E2.64842
G1 X97.674 Y138.068 E2.65486
G1 X96.949 Y137.738 E2.67076
G1 X96.595 Y137.569 E2.67859
G1 X96.104 Y137.324 E2.68954
G1 X95.804 Y137.168 E2.69628
G1 X94.843 Y136.651 E2.71806
G1 X94.505 Y136.462 E2.72579
G1 X94.315 Y136.351 E2.73018
G1 X93.98 Y136.147 E2.73801
G1 X93.892 Y136.091 E2.74009
G1 X93.752 Y136.005 E2.74337
G1 X93.349 Y135.744 E2.75295
G1 X92.513 Y135.177 E2.77311
G1 X92.205 Y134.961 E2.78062
G1 X91.396 Y134.371 E2.8006
G1 X90.833 Y133.931 E2.81486
G1 X90.074 Y133.298 E2.83458
G1 X89.762 Y133.027 E2.84283
G1 X89.064 Y132.399 E2.86156
G1 X88.896 Y132.245 E2.86611
G1 X88.735 Y132.094 E2.87052
G1 X88.396 Y131.76 E2.88001
G1 X87.993 Y131.355 E2.89142
G1 X87.708 Y131.058 E2.89963
G1 X87.275 Y130.589 E2.91237
G1 X87.041 Y130.327 E2.91938
G1 X86.57 Y129.783 E2.93374
G1 X86.32 Y129.484 E2.94152
G1 X86.03 Y129.124 E2.95074
G1 X85.756 Y128.769 E2.95969
G1 X85.211 Y128.033 E2.97797
G1 X85.003 Y127.742 E2.98511
G1 X84.62 Y127.188 E2.99855
G1 X84.421 Y126.891 E3.00568
G1 X84.026 Y126.278 E3.02023
G1 X83.817 Y125.941 E3.02815
G1 X83.496 Y125.401 E3.04068
G1 X83.325 Y125.102 E3.04756
G1 X82.833 Y124.212 E3.06785
G1 X82.499 Y123.557 E3.08252
G1 X82.03 Y122.556 E3.10458
G1 X81.865 Y122.186 E3.11267
G1 X81.708 Y121.816 E3.12069
G1 X81.575 Y121.489 E3.12773
G1 X81.296 Y120.768 E3.14316
G1 X81.175 Y120.44 E3.15014
G1 X80.921 Y119.716 E3.16545
G1 X80.799 Y119.347 E3.17321
G1 X80.66 Y118.901 E3.18253
G1 X80.548 Y118.517 E3.19051
G1 X80.364 Y117.841 E3.20449
G1 X80.285 Y117.532 E3.21086
G1 X80.119 Y116.844 E3.22498
G1 X80.041 Y116.497 E3.23208
G1 X79.893 Y115.783 E3.24663
G1 X79.813 Y115.353 E3.25536
G1 X79.709 Y114.727 E3.26802
G1 X79.661 Y114.411 E3.2744
G1 X79.57 Y113.744 E3.28783
G1 X79.525 Y113.365 E3.29545
G1 X79.467 Y112.792 E3.30694
G1 X79.436 Y112.423 E3.31433
G1 X79.387 Y111.695 E3.32889
G1 X79.368 Y111.31 E3.33659
G1 X79.349 Y110.72 E3.34837
G1 X79.343 Y110.347 E3.35581
G1 X79.344 Y109.756 E3.36761
G1 X79.35 Y109.406 E3.37459
G1 X79.387 Y108.305 E3.39658
G1 X79.437 Y107.562 E3.41144
G1 X79.548 Y106.47 E3.43334
G1 X79.589 Y106.127 E3.44023
G1 X79.658 Y105.61 E3.45064
G1 X79.72 Y105.203 E3.45886
G1 X79.905 Y104.129 E3.48061
G1 X79.926 Y104.015 E3.48292
G1 X80.046 Y103.45 E3.49445
G1 X80.277 Y102.484 E3.51427
G1 X80.374 Y102.106 E3.52206
G1 X80.518 Y101.586 E3.53282
G1 X80.617 Y101.249 E3.53983
G1 X80.785 Y100.71 E3.5511
G1 X80.897 Y100.372 E3.55821
G1 X81.271 Y99.296 E3.58094
G1 X81.547 Y98.581 E3.59623
G1 X82.077 Y97.342 E3.62313
G1 X82.381 Y96.692 E3.63745
G1 X82.839 Y95.789 E3.65765
G1 X83.014 Y95.457 E3.66514
G1 X83.474 Y94.622 E3.68417
G1 X83.64 Y94.332 E3.69083
G1 X83.721 Y94.195 E3.69401
G1 X83.889 Y93.92 E3.70044
G1 X84.194 Y93.437 E3.71184
G1 X84.44 Y93.064 E3.72076
G1 X85.036 Y92.2 E3.7417
G1 X85.267 Y91.878 E3.74961
G1 X85.5 Y91.565 E3.7574
G1 X85.727 Y91.271 E3.76481
G1 X86.182 Y90.701 E3.77937
G1 X86.403 Y90.433 E3.7863
G1 X87.118 Y89.593 E3.80831
G1 X87.286 Y89.4 E3.81342
G1 X87.377 Y89.298 E3.81615
G1 X87.656 Y88.996 E3.82435
G1 X88.107 Y88.527 E3.83734
G1 X88.353 Y88.28 E3.84429
G0 F6000 X88.633 Y88.566
G1 F1200 X89.09 Y88.12 E3.85704
G1 X89.35 Y87.874 E3.86418
G1 X89.714 Y87.542 E3.87401
G1 X90.049 Y87.249 E3.88289
G1 X91.098 Y86.37 E3.9102
G1 X91.674 Y85.92 E3.92479
G1 X92.761 Y85.13 E3.95161
G1 X93.091 Y84.899 E3.95965
G1 X93.377 Y84.709 E3.9665
G1 X93.909 Y84.367 E3.97912
G1 X94.219 Y84.175 E3.9864
G1 X94.812 Y83.822 E4.00017
G1 X95.118 Y83.646 E4.00721
G1 X95.559 Y83.403 E4.01726
G1 X95.958 Y83.194 E4.02625
G1 X97.081 Y82.636 E4.05127
G1 X97.428 Y82.471 E4.05894
G1 X97.783 Y82.315 E4.06668
G1 X98.652 Y81.951 E4.08548
G1 X99.012 Y81.808 E4.09321
G1 X99.583 Y81.593 E4.10539
G1 X99.906 Y81.477 E4.11224
G1 X100.812 Y81.169 E4.13133
G1 X101.049 Y81.092 E4.13631
G1 X101.221 Y81.038 E4.1399
G1 X101.649 Y80.913 E4.1488
G1 X102.521 Y80.679 E4.16682
G1 X102.871 Y80.592 E4.17402
G1 X103.487 Y80.449 E4.18664
G1 X103.856 Y80.37 E4.19417
G1 X104.6 Y80.225 E4.20929
G1 X104.961 Y80.161 E4.21661
G1 X105.363 Y80.097 E4.22473
G1 X105.707 Y80.048 E4.23167
G1 X106.542 Y79.943 E4.24846
G1 X106.853 Y79.908 E4.25471
G1 X107.614 Y79.835 E4.26996
G1 X108.022 Y79.804 E4.27813
G1 X108.46 Y79.779 E4.28688
G1 X108.815 Y79.765 E4.29397
G1 X109.539 Y79.748 E4.30843
G1 X109.87 Y79.745 E4.31503
G1 X110.902 Y79.753 E4.33563
G1 X111.635 Y79.784 E4.35027
G1 X113.022 Y79.891 E4.37803
G1 X113.714 Y79.968 E4.39192
G1 X114.633 Y80.1 E4.41045
G1 X114.985 Y80.156 E4.41757
G1 X115.917 Y80.322 E4.43646
G1 X116.612 Y80.47 E4.45064
G1 X117.941 Y80.8 E4.47796
G1 X118.243 Y80.88 E4.4842
G1 X118.436 Y80.934 E4.4882
G1 X118.732 Y81.021 E4.49436
G1 X119.204 Y81.168 E4.50422
G1 X119.61 Y81.304 E4.51277
G1 X120.494 Y81.619 E4.53149
G1 X120.867 Y81.76 E4.53945
G1 X121.721 Y82.101 E4.5578
G1 X122.003 Y82.218 E4.56389
G1 X122.441 Y82.414 E4.57347
G1 X123.339 Y82.842 E4.59332
G1 X123.644 Y82.994 E4.60012
G1 X124.364 Y83.366 E4.6163
G1 X124.712 Y83.554 E4.62419
G1 X125.135 Y83.793 E4.63389
G1 X125.42 Y83.96 E4.64048
G1 X125.921 Y84.264 E4.65217
G1 X126.212 Y84.447 E4.65903
G1 X126.787 Y84.822 E4.67273
G1 X127.124 Y85.051 E4.68086
G1 X127.707 Y85.464 E4.69512
G1 X127.935 Y85.631 E4.70076
G1 X128.525 Y86.073 E4.71547
G1 X128.832 Y86.311 E4.72322
G1 X129.301 Y86.69 E4.73526
G1 X129.59 Y86.933 E4.74279
G1 X130.024 Y87.31 E4.75426
G1 X130.275 Y87.535 E4.76099
G1 X130.708 Y87.936 E4.77277
G1 X130.975 Y88.191 E4.78014
G1 X131.828 Y89.038 E4.80413
G1 X132.309 Y89.549 E4.81813
G1 X132.973 Y90.302 E4.83816
G1 X133.204 Y90.572 E4.84526
G1 X133.555 Y90.998 E4.85627
G1 X133.772 Y91.271 E4.86323
G1 X134.134 Y91.741 E4.87507
G1 X134.363 Y92.049 E4.88273
G1 X134.725 Y92.556 E4.89516
G1 X134.905 Y92.817 E4.90149
G1 X135.335 Y93.459 E4.91691
G1 X135.543 Y93.782 E4.92457
G1 X136.099 Y94.681 E4.94567
G1 X136.27 Y94.968 E4.95234
G1 X136.458 Y95.301 E4.95997
G1 X136.742 Y95.827 E4.9719
G1 X136.933 Y96.198 E4.98022
G1 X137.307 Y96.961 E4.99718
G1 X137.477 Y97.324 E5.00518
G1 X137.775 Y97.995 E5.01983
G1 X137.89 Y98.265 E5.02569
G1 X138.173 Y98.953 E5.04053
G1 X138.321 Y99.332 E5.04865
G1 X138.495 Y99.806 E5.05873
G1 X138.618 Y100.161 E5.06623
G1 X138.819 Y100.775 E5.07912
G1 X138.91 Y101.067 E5.08522
G1 X139.151 Y101.882 E5.10218
G1 X139.252 Y102.25 E5.1098
G1 X139.418 Y102.896 E5.12311
G1 X139.478 Y103.139 E5.12811
G1 X139.523 Y103.333 E5.13208
G1 X139.614 Y103.766 E5.14091
G1 X139.831 Y104.918 E5.1643
G1 X139.891 Y105.268 E5.17139
G1 X139.959 Y105.71 E5.18031
G1 X140.009 Y106.078 E5.18773
G1 X140.078 Y106.662 E5.19946
G1 X140.115 Y107.029 E5.20682
G1 X140.179 Y107.8 E5.22226
G1 X140.2 Y108.115 E5.22856
G1 X140.241 Y108.887 E5.24399
G1 X140.254 Y109.27 E5.25164
G1 X140.262 Y109.745 E5.26112
G1 X140.262 Y110.122 E5.26864
G1 X140.249 Y110.817 E5.28251
G1 X140.239 Y111.114 E5.28844
G1 X140.208 Y111.777 E5.30169
G1 X140.181 Y112.194 E5.31003
G1 X140.121 Y112.889 E5.32395
G1 X140.089 Y113.201 E5.33021
G1 X140.008 Y113.898 E5.34421
G1 X139.955 Y114.289 E5.35208
G1 X139.869 Y114.847 E5.36335
G1 X139.82 Y115.138 E5.36924
G1 X139.701 Y115.789 E5.38245
G1 X139.619 Y116.195 E5.39071
G1 X139.444 Y116.978 E5.40672
G1 X139.368 Y117.293 E5.41319
G1 X139.225 Y117.852 E5.4247
G1 X139.128 Y118.206 E5.43203
G1 X138.934 Y118.868 E5.4458
G1 X138.824 Y119.22 E5.45316
G1 X138.665 Y119.7 E5.46325
G1 X138.544 Y120.047 E5.47058
G1 X138.263 Y120.806 E5.48673
G1 X138.155 Y121.084 E5.49268
G1 X137.932 Y121.638 E5.5046
G1 X137.766 Y122.028 E5.51306
G1 X137.511 Y122.595 E5.52547
G1 X137.376 Y122.885 E5.53185
G1 X136.905 Y123.853 E5.55333
G1 X136.788 Y124.085 E5.55852
G1 X136.713 Y124.23 E5.56178
G1 X136.545 Y124.542 E5.56885
G1 X136.341 Y124.906 E5.57717
G1 X136.109 Y125.3 E5.5863
G1 X135.355 Y126.519 E5.6149
G1 X134.972 Y127.095 E5.62871
G1 X134.369 Y127.941 E5.64944
G1 X134.145 Y128.243 E5.65694
G1 X133.785 Y128.712 E5.66874
G1 X133.558 Y128.999 E5.67604
G1 X133.207 Y129.425 E5.68706
G1 X132.972 Y129.699 E5.69426
G1 X132.354 Y130.399 E5.7129
G1 X132.197 Y130.574 E5.71759
G1 X132.113 Y130.665 E5.72006
G1 X131.777 Y131.013 E5.72971
G1 X131.069 Y131.713 E5.74958
G1 X130.843 Y131.93 E5.75584
G1 X130.373 Y132.368 E5.76866
G1 X130.081 Y132.63 E5.77648
