;FLAVOR:Marlin
;TIME:2736
;Filament used: 2.32895m
;Layer height: 0.28
;MINX:75.433
;MINY:101.79
;MINZ:0.285
;MAXX:159.55
;MAXY:133.209
;MAXZ:8.965
;Generated with Cura_SteamEngine 4.6.2
M140 S60
M105
M190 S60
M104 S200
M105
M109 S200
M82 ;absolute extrusion mode
; Ender 3 Custom Start G-code
G92 E0 ; Reset Extruder
G28 ; Home all axes
G1 Z2.0 F3000 ; Move Z Axis up little to prevent scratching of Heat Bed
G1 X0.1 Y20 Z0.3 F5000.0 ; Move to start position
G1 X0.1 Y200.0 Z0.3 F1500.0 E15 ; Draw the first line
G1 X0.4 Y200.0 Z0.3 F5000.0 ; Move to side a little
G1 X0.4 Y20 Z0.3 F1500.0 E30 ; Draw the second line
G92 E0 ; Reset Extruder
G1 Z2.0 F3000 ; Move Z Axis up little to prevent scratching of Heat Bed
G1 X5 Y20 Z0.3 F5000.0 ; Move over to prevent blob squish
G92 E0
G92 E0
G1 F1500 E-6
;LAYER_COUNT:32
;LAYER:0
M107
M204 S500
M205 X8 Y8
;MESH:fish_fossilz.stl
G0 F7500 X76.839 Y105.854 Z0.285
;TYPE:WALL-INNER
G1 F1500 E0
G1 F1800 X76.918 Y105.88 E0.00374
G1 X77.183 Y105.985 E0.01658
G1 X77.782 Y106.223 E0.0456
G1 X78.701 Y106.651 E0.09125
G1 X78.889 Y106.752 E0.10086
G1 X79.59 Y107.119 E0.13648
G1 X80.802 Y107.789 E0.19884
G1 X81.458 Y108.18 E0.23322
G1 X82.106 Y108.591 E0.26777
G1 X82.782 Y109.051 E0.30459
G1 X83.411 Y109.512 E0.3397
G1 X84.102 Y110.068 E0.37964
G1 X84.704 Y110.604 E0.41593
G1 X84.941 Y110.831 E0.43071
G1 X85.245 Y111.121 E0.44962
G1 X85.33 Y111.202 E0.45491
G1 X85.482 Y111.348 E0.4644
G1 X85.642 Y111.508 E0.47459
G1 X85.659 Y111.525 E0.47567
G1 X86.26 Y112.125 E0.51391
G1 X87.478 Y113.411 E0.59366
G1 X88.05 Y114.059 E0.63258
G1 X88.342 Y114.39 E0.65245
G1 X87.901 Y114.39 E0.66326
G1 X87.9 Y114.39 E0.6633
G1 X87.428 Y114.39 E0.68456
G1 X86.401 Y113.965 E0.7346
G1 X86.147 Y113.868 E0.74684
G1 X85.312 Y113.568 E0.78679
G1 X85.059 Y113.489 E0.79873
G1 X84.972 Y113.462 E0.80283
G1 X84.898 Y113.438 E0.80633
G1 X84.809 Y113.41 E0.81053
G1 X84.705 Y113.377 E0.81544
G1 X84.835 Y113.327 E0.81701
G1 X84.953 Y113.26 E0.81998
G1 X85.058 Y113.185 E0.8241
G1 X85.124 Y113.122 E0.82773
G1 X85.204 Y113.046 E0.8327
G1 X85.303 Y112.908 E0.84034
G1 X85.373 Y112.785 E0.84671
G1 X85.441 Y112.599 E0.85563
G1 X85.47 Y112.464 E0.86185
G1 X85.484 Y112.261 E0.87101
G1 X85.471 Y112.119 E0.87743
G1 X85.44 Y111.978 E0.88393
G1 X85.376 Y111.806 E0.89219
G1 X85.368 Y111.783 E0.89328
G1 X85.247 Y111.591 E0.90276
G1 X85.235 Y111.578 E0.90307
G1 X85.105 Y111.438 E0.91014
G1 X85.013 Y111.365 E0.91453
G1 X84.669 Y111.123 E0.93198
G1 X84.043 Y110.682 E0.96645
G1 X83.011 Y109.99 E1.0224
G1 X82.283 Y109.529 E1.0612
G1 X81.51 Y109.068 E1.10172
G1 X80.205 Y108.357 E1.16864
G1 X79 Y107.735 E1.2297
G1 X78.195 Y107.342 E1.27003
G1 X76.981 Y106.764 E1.33057
G1 X76.888 Y106.173 E1.35751
G1 X76.845 Y105.892 E1.36577
G1 X76.839 Y105.854
G0 F7500 X77.408 Y107.267
G0 X80.082 Y108.587
G0 X82.146 Y109.751
G0 X84.927 Y111.63
G0 X85.189 Y112.052
G0 X85.19 Y112.527
G0 X85.007 Y112.874
G0 X84.571 Y113.149
G0 X84.116 Y113.152
G0 X78.314 Y109.964
G1 F1800 X78.481 Y110.05 E1.37423
G1 X78.987 Y110.314 E1.39992
G1 X79.389 Y110.523 E1.42033
G1 X80.5 Y111.138 E1.4775
G1 X81.167 Y111.54 E1.51257
G1 X81.866 Y111.988 E1.54995
G1 X82.475 Y112.398 E1.58301
G1 X82.807 Y112.622 E1.60104
G1 X82.894 Y112.683 E1.60582
G1 X83.357 Y113.007 E1.63127
G1 X82.769 Y112.863 E1.63973
G1 X82.757 Y112.861
G1 X82.365 Y112.777 E1.65433
G1 X81.946 Y112.687 E1.67363
G1 X81.119 Y112.531 E1.71152
G1 X79.752 Y112.318 E1.77382
G1 X79.029 Y111.081 E1.83833
G1 X78.709 Y110.582 E1.86502
G1 X78.402 Y110.101 E1.88122
G1 X78.314 Y109.964 E1.8818
G1 F1500 E-4.1182
G0 F7500 X84.116 Y113.152
G0 X84.571 Y113.149
G0 X85.007 Y112.874
G0 X85.211 Y112.427
G0 X85.189 Y112.052
G0 X84.927 Y111.63
G0 X82.146 Y109.751
G0 X78.882 Y107.968
G0 X77.516 Y107.32
G0 X76.526 Y105.493
G0 X76.334 Y105.273
;TYPE:WALL-OUTER
G1 F1500 E1.8818
G1 F1800 X76.647 Y105.373 E1.89586
G1 X77.057 Y105.504 E1.91427
G1 X77.941 Y105.856 E1.95497
G1 X78.87 Y106.288 E1.9988
G1 X79.076 Y106.398 E2.00878
G1 X79.776 Y106.765 E2.04259
G1 X81.007 Y107.445 E2.10275
G1 X81.663 Y107.836 E2.13541
G1 X82.331 Y108.26 E2.16926
G1 X83.007 Y108.72 E2.20423
G1 X83.662 Y109.2 E2.23897
G1 X84.353 Y109.756 E2.2769
G1 X84.97 Y110.305 E2.31223
G1 X85.765 Y111.065 E2.35928
G1 X86.543 Y111.842 E2.40631
G1 X87.778 Y113.146 E2.48313
G1 X88.72 Y114.213 E2.54402
G1 X88.943 Y114.48 E2.5589
G1 X89.148 Y114.724 E2.57253
G1 X89.203 Y114.789 E2.57617
G1 X89.07 Y114.79 E2.57816
G1 X88.751 Y114.79 E2.5872
G1 X87.348 Y114.79 E2.64722
G1 X86.253 Y114.337 E2.6979
G1 X86.008 Y114.243 E2.70913
G1 X85.184 Y113.947 E2.74658
G1 X84.401 Y113.701 E2.78169
G1 X83.602 Y113.478 E2.81717
G1 X82.68 Y113.253 E2.85777
G1 X81.867 Y113.079 E2.89333
G1 X81.051 Y112.925 E2.92885
G1 X79.503 Y112.684 E2.99586
G1 X78.688 Y111.29 E3.06493
G1 X77.89 Y110.044 E3.12822
G1 X77.575 Y109.58 E3.15221
G1 X77.281 Y109.147 E3.1746
G1 X77.133 Y108.941 E3.18545
G1 X77.333 Y109.038 E3.18657
G1 X77.804 Y109.267 E3.20139
G1 X78.297 Y109.507 E3.22484
G1 X78.666 Y109.695 E3.24256
G1 X79.574 Y110.168 E3.28635
G1 X80.694 Y110.788 E3.34111
G1 X81.383 Y111.203 E3.37552
G1 X82.09 Y111.656 E3.41143
G1 X83.031 Y112.29 E3.45997
G1 X83.959 Y112.94 E3.50843
G1 X84.068 Y112.99 E3.51356
G1 X84.149 Y113.017 E3.51721
G1 X84.288 Y113.039 E3.52323
G1 X84.369 Y113.04 E3.5267
G1 X84.448 Y113.033 E3.53009
G1 X84.531 Y113.015 E3.53372
G1 X84.664 Y112.964 E3.53981
G1 X84.738 Y112.922 E3.54345
G1 X84.803 Y112.876 E3.54686
G1 X84.901 Y112.782 E3.55267
G1 X84.966 Y112.692 E3.55742
G1 X85.009 Y112.616 E3.56115
G1 X85.056 Y112.488 E3.56699
G1 X85.073 Y112.408 E3.57048
G1 X85.083 Y112.266 E3.57657
G1 X85.075 Y112.181 E3.58022
G1 X85.055 Y112.091 E3.58417
G1 X85.007 Y111.961 E3.5901
G1 X84.928 Y111.836 E3.59642
G1 X84.832 Y111.732 E3.60248
G1 X84.773 Y111.685 E3.6057
G1 X83.816 Y111.012 E3.65575
G1 X82.793 Y110.325 E3.70846
G1 X82.074 Y109.87 E3.74485
G1 X81.312 Y109.416 E3.78279
G1 X80.017 Y108.71 E3.84588
G1 X78.82 Y108.092 E3.90351
G1 X78.021 Y107.702 E3.94154
G1 X76.619 Y107.034 E4.00797
G1 X76.427 Y105.813 E4.06083
G1 X76.389 Y105.597 E4.07022
G1 X76.334 Y105.273 E4.07826
G0 F7500 X76.647 Y105.373
G0 X76.715 Y105.394
G0 X76.654 Y105.584
G0 X77.435 Y106.204
G0 X77.33 Y106.464
;TYPE:SKIN
G1 F1800 X77.638 Y106.586 E4.09318
G1 X78.521 Y106.996 E4.13701
G1 X78.706 Y107.097 E4.1465
G1 X79.401 Y107.46 E4.18181
G1 X80.388 Y108.012 E4.23273
G1 X79.175 Y107.386 E4.29419
G1 X78.364 Y106.991 E4.3348
G1 X77.335 Y106.5 E4.38614
G1 X77.33 Y106.464 E4.38778
G0 F7500 X77.435 Y106.204
G0 X77.078 Y106.147
G0 X77.139 Y106.645
G0 X83.895 Y110.898
G0 X85.039 Y111.751
G0 X85.213 Y112.159
G0 X85.136 Y112.674
G0 X84.813 Y113.04
G0 X84.374 Y113.179
G0 X83.983 Y113.084
G0 X79.563 Y110.747
G0 X79.428 Y110.99
G1 F1800 X80.305 Y111.476 E4.43292
G1 X80.956 Y111.868 E4.46714
G1 X81.477 Y112.202 E4.495
G1 X81.185 Y112.147 E4.50838
G1 X79.995 Y111.961 E4.56261
G1 X79.428 Y110.99 E4.61324
G0 F7500 X79.563 Y110.747
G0 X78.886 Y110.486
G0 X79.861 Y112.159
G0 X80.074 Y112.256
G0 X80.142 Y111.821
G1 F1800 X80.036 Y111.715 E4.61999
G0 F7500 X79.656 Y111.936
G0 X79.821 Y112.116
G0 X85.453 Y113.501
G0 X85.547 Y113.238
G1 F1800 X85.632 Y113.118 E4.62661
G1 X85.728 Y112.949 E4.63536
G1 X85.817 Y112.708 E4.64693
G1 X85.858 Y112.519 E4.65564
G1 X85.874 Y112.29 E4.66598
G1 X85.978 Y112.394 E4.6726
G1 X87.195 Y113.68 E4.75232
G1 X87.461 Y113.981 E4.77041
G1 X86.545 Y113.602 E4.81504
G1 X86.282 Y113.502 E4.82771
G1 X85.547 Y113.238 E4.86287
G0 F7500 X85.869 Y113.022
G1 F1800 X86.117 Y113.27 E4.87866
G0 F7500 X85.965 Y113.697
G1 F1500 E-1.12134
G0 F7500 X83.632 Y113.362
G0 X82.085 Y114.875
G0 X81.82 Y115.013
;TYPE:WALL-INNER
G1 F1500 E4.87866
G1 F1800 X81.788 Y115.153 E4.88513
G1 X81.787 Y115.886 E4.91813
G1 X81.345 Y115.886 E4.93804
G1 X81.154 Y115.297 E4.96592
G1 X81.017 Y114.951 E4.98267
G1 X80.973 Y114.842 E4.98796
G1 X81.193 Y114.88 E4.99282
G1 X81.82 Y115.013 E5.02168
G0 F7500 X82.667 Y114.79
;TYPE:WALL-OUTER
G1 F1800 X82.621 Y114.79 E5.02365
G1 X82.521 Y114.803 E5.02796
G1 X82.497 Y114.813 E5.02907
G1 X82.422 Y114.843 E5.03253
G1 X82.326 Y114.913 E5.03761
G1 X82.261 Y114.992 E5.04199
G1 X82.232 Y115.055 E5.04495
G1 X82.21 Y115.101 E5.04714
G1 X82.188 Y115.198 E5.05139
G1 X82.187 Y116.286 E5.09793
G1 X81.03 Y116.286 E5.14742
G1 X81.019 Y116.227 E5.14999
G1 X80.966 Y116.015 E5.15933
G1 X80.778 Y115.433 E5.1855
G1 X80.505 Y114.752 E5.21688
G1 X80.493 Y114.721 E5.2183
G1 X80.316 Y114.323 E5.23693
G1 X80.554 Y114.364 E5.24018
G1 X80.587 Y114.369 E5.24154
G1 X81.265 Y114.487 E5.27098
G1 X82.252 Y114.695 E5.31413
G1 X82.32 Y114.709 E5.31574
G1 X82.366 Y114.719 E5.31586
G1 X82.444 Y114.736 E5.31686
G1 X82.467 Y114.741
G1 X82.532 Y114.756 E5.31794
G1 X82.623 Y114.779 E5.31813
G1 X82.667 Y114.79
G0 F7500 X82.621 Y114.79
G0 X82.521 Y114.803
G0 X82.497 Y114.813
G0 X82.422 Y114.843
G0 X82.326 Y114.913
G0 X82.307 Y114.936
G0 X81.687 Y115.189
G1 F1500 E-0.68187
G0 F7500 X81.787 Y116.066
G0 X81.787 Y118.034
G0 X81.787 Y118.214
;TYPE:WALL-INNER
G1 F1500 E5.31813
G1 F1800 X81.787 Y118.904 E5.3492
G1 X81.815 Y119.088 E5.35758
G1 X81.33 Y119.188 E5.37988
G1 X80.973 Y119.261 E5.39629
G1 X81.104 Y118.921 E5.40549
G1 X81.18 Y118.726 E5.41491
G1 X81.346 Y118.214 E5.43915
G1 X81.787 Y118.214 E5.45901
G0 F7500 X82.187 Y117.814
;TYPE:WALL-OUTER
G1 F1800 X82.187 Y118.875 E5.50439
G1 X82.202 Y118.979 E5.50888
G1 X82.224 Y119.034 E5.51142
G1 X82.239 Y119.073 E5.51321
G1 X82.312 Y119.174 E5.51854
G1 X82.394 Y119.24 E5.52304
G1 X82.48 Y119.282 E5.52713
G1 X82.589 Y119.308 E5.53193
G1 X82.66 Y119.308 E5.53496
G1 X82.593 Y119.324 E5.53498
G1 X82.497 Y119.347 E5.53575
G1 X82.426 Y119.365 E5.53742
G1 X82.364 Y119.381 E5.53792
G1 X82.319 Y119.393 E5.53818
G1 X82.306 Y119.395
G1 X82.265 Y119.403 E5.53984
G1 X81.09 Y119.646 E5.59117
G1 X80.679 Y119.716 E5.609
G1 X80.313 Y119.778 E5.62488
G1 X80.463 Y119.438 E5.63377
G1 X80.554 Y119.233 E5.64336
G1 X80.803 Y118.591 E5.67282
G1 X80.958 Y118.119 E5.69407
G1 X81.031 Y117.814 E5.70748
G1 X82.187 Y117.814 E5.75693
G0 F7500 X82.187 Y118.214
G0 X81.747 Y118.254
G0 X81.859 Y118.142
G1 F1500 E-0.24307
G0 F7500 X82.01 Y119.084
G0 X82.089 Y119.225
G0 X82.48 Y120.991
G0 X82.608 Y121.27
;TYPE:WALL-INNER
G1 F1500 E5.75693
G1 F1800 X82.951 Y121.193 E5.77276
G1 X83.356 Y121.093 E5.79154
G1 X83.038 Y121.316 E5.79456
G1 X82.675 Y121.57 E5.80701
G1 X82.474 Y121.705 E5.81791
G1 X81.765 Y122.18 E5.85634
G1 X81.078 Y122.615 E5.89295
G1 X80.294 Y123.079 E5.93397
G1 X79.322 Y123.613 E5.9839
G1 X78.975 Y123.792 E6.00148
G1 X78.974 Y123.793 E6.00155
G1 X78.323 Y124.127 E6.03449
G1 X78.715 Y123.508 E6.05157
G1 X79.146 Y122.828 E6.08782
G1 X79.751 Y121.785 E6.14211
G1 X81.237 Y121.549 E6.20986
G1 X82.064 Y121.39 E6.24778
G1 X82.371 Y121.322 E6.26194
G1 X82.608 Y121.27 E6.27162
G0 F7500 X84.708 Y120.724
G1 F1800 X84.762 Y120.707 E6.27417
G1 X84.894 Y120.665 E6.28041
G1 X84.968 Y120.641 E6.28391
G1 X85.022 Y120.623 E6.28647
G1 X85.031 Y120.62 E6.2869
G1 X85.423 Y120.494 E6.30544
G1 X86.151 Y120.231 E6.34029
G1 X86.646 Y120.035 E6.36427
G1 X87.427 Y119.71 E6.40235
G1 X87.914 Y119.71 E6.42428
G1 X88.296 Y119.71 E6.44148
G1 X88.343 Y119.71 E6.4436
G1 X88.296 Y119.766 E6.4446
G1 X88.042 Y120.051 E6.45504
G1 X87.333 Y120.845 E6.50297
G1 X86.107 Y122.131 E6.58297
G1 X85.657 Y122.579 E6.61156
G1 X85.633 Y122.602 E6.61306
G1 X85.483 Y122.751 E6.62258
G1 X85.383 Y122.85 E6.62892
G1 X85.318 Y122.911 E6.63293
G1 X84.947 Y123.263 E6.65596
G1 X84.593 Y123.599 E6.67793
G1 X83.97 Y124.141 E6.71511
G1 X83.339 Y124.639 E6.75131
G1 X82.688 Y125.112 E6.78754
G1 X82.012 Y125.568 E6.82426
G1 X81.37 Y125.973 E6.85843
G1 X80.718 Y126.359 E6.89255
G1 X79.591 Y126.98 E6.95049
G1 X78.559 Y127.518 E7.00289
G1 X77.65 Y127.932 E7.04786
G1 X77.107 Y128.144 E7.07411
G1 X76.955 Y128.203 E7.08145
G1 X76.838 Y128.249 E7.08711
G1 X76.879 Y128.011 E7.09256
G1 X76.9 Y127.85 E7.09835
G1 X76.968 Y127.342 E7.12143
G1 X79.151 Y126.288 E7.23058
G1 X79.547 Y126.086 E7.25059
G1 X80.625 Y125.519 E7.30543
G1 X81.644 Y124.954 E7.3579
G1 X82.44 Y124.473 E7.39977
G1 X83.202 Y123.983 E7.44056
G1 X84.112 Y123.371 E7.48994
G1 X84.676 Y122.971 E7.52107
G1 X85.093 Y122.675 E7.542
G1 X85.14 Y122.624 E7.54449
G1 X85.245 Y122.512 E7.55032
G1 X85.361 Y122.33 E7.55911
G1 X85.373 Y122.299 E7.56058
G1 X85.439 Y122.124 E7.569
G1 X85.466 Y122.001 E7.57467
G1 X85.484 Y121.866 E7.58081
G1 X85.474 Y121.642 E7.5909
G1 X85.423 Y121.436 E7.60046
G1 X85.375 Y121.32 E7.60611
G1 X85.32 Y121.216 E7.61141
G1 X85.227 Y121.084 E7.61868
G1 X85.147 Y120.998 E7.62397
G1 X85.141 Y120.991 E7.62434
G1 X85.057 Y120.915 E7.62892
G1 X84.95 Y120.837 E7.63313
G1 X84.776 Y120.748 E7.6386
G1 X84.708 Y120.724 E7.63924
G1 F1500 E1.63924
G0 F7500 X82.905 Y120.998
G0 X82.86 Y120.804
;TYPE:WALL-OUTER
G1 F1500 E7.63924
G1 F1800 X83.663 Y120.605 E7.67463
G1 X84.517 Y120.365 E7.71257
G1 X85.294 Y120.115 E7.74749
G1 X86.009 Y119.857 E7.78
G1 X86.496 Y119.664 E7.80241
G1 X87.349 Y119.31 E7.84191
G1 X88.774 Y119.31 E7.90287
G1 X88.775 Y119.31 E7.90291
G1 X89.203 Y119.31 E7.92122
G1 X88.927 Y119.638 E7.93124
G1 X88.602 Y120.024 E7.95282
G1 X87.623 Y121.121 E8.01572
G1 X86.397 Y122.407 E8.09172
G1 X85.658 Y123.139 E8.13621
G1 X84.869 Y123.889 E8.18277
G1 X84.218 Y124.455 E8.21967
G1 X83.574 Y124.963 E8.25476
G1 X82.912 Y125.444 E8.28976
G1 X82.236 Y125.9 E8.32464
G1 X81.574 Y126.317 E8.35811
G1 X80.922 Y126.703 E8.39052
G1 X79.776 Y127.335 E8.4465
G1 X78.739 Y127.876 E8.49653
G1 X77.804 Y128.302 E8.54048
G1 X76.948 Y128.636 E8.57978
G1 X76.645 Y128.732 E8.59338
G1 X76.334 Y128.829 E8.60731
G1 X76.388 Y128.508 E8.6153
G1 X76.483 Y127.951 E8.63947
G1 X76.6 Y127.075 E8.67727
G1 X76.646 Y127.053 E8.67946
G1 X78.973 Y125.93 E8.78998
G1 X79.363 Y125.731 E8.8087
G1 X80.435 Y125.167 E8.86052
G1 X81.444 Y124.608 E8.90986
G1 X82.228 Y124.134 E8.94905
G1 X82.982 Y123.649 E8.98739
G1 X83.885 Y123.042 E9.03394
G1 X84.828 Y122.373 E9.08339
G1 X84.927 Y122.266 E9.08963
G1 X85.002 Y122.149 E9.09557
G1 X85.055 Y122.01 E9.10194
G1 X85.072 Y121.932 E9.10535
G1 X85.083 Y121.849 E9.10893
G1 X85.076 Y121.7 E9.11531
G1 X85.042 Y121.562 E9.12139
G1 X85.012 Y121.49 E9.12473
G1 X84.978 Y121.425 E9.12787
G1 X84.915 Y121.336 E9.13253
G1 X84.859 Y121.275 E9.13607
G1 X84.805 Y121.226 E9.13919
G1 X84.74 Y121.179 E9.14262
G1 X84.617 Y121.116 E9.14853
G1 X84.535 Y121.087 E9.15225
G1 X84.392 Y121.063 E9.15846
G1 X84.311 Y121.06 E9.16192
G1 X84.234 Y121.065 E9.16522
G1 X84.158 Y121.079 E9.16853
G1 X84.082 Y121.103 E9.17194
G1 X83.955 Y121.162 E9.17793
G1 X82.898 Y121.902 E9.23312
G1 X81.979 Y122.518 E9.28044
G1 X81.29 Y122.954 E9.31532
G1 X80.487 Y123.43 E9.35525
G1 X79.515 Y123.964 E9.40269
G1 X78.054 Y124.715 E9.47295
G1 X77.796 Y124.84 E9.48522
G1 X77.394 Y125.034 E9.50431
G1 X77.127 Y125.164 E9.51701
G1 X77.324 Y124.891 E9.52087
G1 X77.574 Y124.521 E9.53441
G1 X77.996 Y123.896 E9.56667
G1 X78.804 Y122.62 E9.63127
G1 X79.502 Y121.418 E9.69073
G1 X79.594 Y121.405 E9.6947
G1 X81.168 Y121.155 E9.76287
G1 X81.983 Y120.998 E9.79837
G1 X82.86 Y120.804 E9.8368
G0 F7500 X83.248 Y120.708
G0 X83.294 Y120.902
G0 X81.426 Y121.625
G0 X81.477 Y121.9
;TYPE:SKIN
G1 F1800 X80.879 Y122.279 E9.86867
G1 X80.095 Y122.743 E9.90969
G1 X79.429 Y123.11 E9.94393
G1 X79.479 Y123.031 E9.94814
G1 X79.994 Y122.142 E9.9944
G1 X81.305 Y121.933 E10.05417
G1 X81.477 Y121.9 E10.06206
G0 F7500 X81.426 Y121.625
G0 X82.372 Y121.53
G0 X80.695 Y122.713
G0 X80.472 Y122.333
G1 F1800 X80.381 Y122.241 E10.06789
G0 F7500 X80.116 Y122.543
G1 F1800 X80.008 Y122.434 E10.0748
G0 F7500 X79.63 Y122.214
G0 X78.885 Y123.613
G0 X84.125 Y120.944
G0 X84.57 Y120.952
G0 X84.958 Y121.176
G0 X85.175 Y121.519
G0 X85.189 Y122.05
G0 X84.972 Y122.397
G0 X80.508 Y125.706
G0 X80.637 Y125.953
G1 F1800 X80.524 Y126.02 E10.08071
G1 X79.406 Y126.637 E10.13821
G1 X78.397 Y127.163 E10.18944
G1 X77.49 Y127.575 E10.23429
G1 X77.321 Y127.642 E10.24248
G1 X77.327 Y127.602 E10.2443
G1 X79.324 Y126.637 E10.34417
G1 X79.726 Y126.433 E10.36446
G1 X80.637 Y125.953 E10.41083
G0 F7500 X80.508 Y125.706
G0 X85.55 Y122.399
G0 X86.075 Y122.004
G0 X85.873 Y121.811
