;FLAVOR:Marlin
;TIME:9188
;Filament used: 5.2328m
;Layer height: 0.2
;MINX:66.276
;MINY:73.163
;MINZ:0.2
;MAXX:168.717
;MAXY:161.772
;MAXZ:13
;Generated with Cura_SteamEngine 4.6.2
M140 S60
M105
M190 S60
M104 S200
M105
M109 S200
M82 ;absolute extrusion mode
; Ender 3 Custom Start G-code
G92 E0 ; Reset Extruder
G28 ; Home all axes
G1 Z2.0 F3000 ; Move Z Axis up little to prevent scratching of Heat Bed
G1 X0.1 Y20 Z0.3 F5000.0 ; Move to start position
G1 X0.1 Y200.0 Z0.3 F1500.0 E15 ; Draw the first line
G1 X0.4 Y200.0 Z0.3 F5000.0 ; Move to side a little
G1 X0.4 Y20 Z0.3 F1500.0 E30 ; Draw the second line
G92 E0 ; Reset Extruder
G1 Z2.0 F3000 ; Move Z Axis up little to prevent scratching of Heat Bed
G1 X5 Y20 Z0.3 F5000.0 ; Move over to prevent blob squish
G92 E0
G92 E0
G1 F1500 E-6.5
;LAYER_COUNT:65
;LAYER:0
M107
G0 F6000 X106.395 Y73.97 Z0.2
;TYPE:SKIRT
G1 F1500 E0
G1 F1200 X107.401 Y73.988 E0.03347
G1 X108.59 Y74.038 E0.07305
G1 X111.19 Y74.111 E0.15956
G1 X113.69 Y74.111 E0.24271
G1 X116.582 Y74.011 E0.33895
G1 X118.763 Y73.969 E0.41151
G1 X138.36 Y73.971 E1.06331
G1 X139.051 Y73.981 E1.08629
G1 X139.952 Y74.034 E1.11631
G1 X140.845 Y74.167 E1.14634
G1 X141.724 Y74.378 E1.1764
G1 X142.58 Y74.666 E1.20644
G1 X143.407 Y75.028 E1.23647
G1 X144.199 Y75.462 E1.26651
G1 X144.949 Y75.965 E1.29654
G1 X145.652 Y76.532 E1.32658
G1 X146.302 Y77.159 E1.35662
G1 X146.894 Y77.841 E1.38666
G1 X147.423 Y78.573 E1.4167
G1 X147.886 Y79.348 E1.44672
G1 X148.278 Y80.162 E1.47677
G1 X148.597 Y81.007 E1.50681
G1 X148.904 Y82.177 E1.54704
G1 X149.102 Y83.173 E1.58082
G1 X149.198 Y83.7 E1.59864
G1 X149.708 Y86.29 E1.68643
G1 X150.26 Y88.729 E1.76961
G1 X150.896 Y91.211 E1.85483
G1 X151.606 Y93.689 E1.94056
G1 X152.36 Y96.064 E2.02344
G1 X153.202 Y98.476 E2.10841
G1 X154.118 Y100.88 E2.19398
G1 X155.073 Y103.187 E2.27702
G1 X156.123 Y105.534 E2.36254
G1 X157.222 Y107.816 E2.44678
G1 X158.374 Y110.043 E2.53018
G1 X159.617 Y112.29 E2.61558
G1 X160.918 Y114.491 E2.70062
G1 X162.252 Y116.609 E2.78387
G1 X163.688 Y118.752 E2.86967
G1 X165.345 Y121.1 E2.96526
G1 X165.832 Y121.86 E2.99528
G1 X166.251 Y122.66 E3.02532
G1 X166.597 Y123.495 E3.05538
G1 X166.867 Y124.356 E3.08539
G1 X167.061 Y125.238 E3.11543
G1 X167.176 Y126.134 E3.14547
G1 X167.209 Y126.789 E3.16729
G1 X167.227 Y127.726 E3.19846
G1 X167.308 Y130.352 E3.28584
G1 X167.459 Y132.879 E3.37004
G1 X167.684 Y135.437 E3.45544
G1 X167.813 Y136.58 E3.4937
G1 X167.869 Y137.151 E3.51278
G1 X167.918 Y138.053 E3.54283
G1 X167.893 Y138.861 E3.56972
G1 X167.833 Y139.702 E3.59776
G1 X167.038 Y149.115 E3.91195
G1 X166.97 Y149.807 E3.93508
G1 X166.842 Y150.7 E3.96508
G1 X166.635 Y151.58 E3.99515
G1 X166.352 Y152.437 E4.02517
G1 X165.994 Y153.266 E4.0552
G1 X165.563 Y154.06 E4.08525
G1 X165.065 Y154.813 E4.11528
G1 X164.501 Y155.519 E4.14533
G1 X163.878 Y156.172 E4.17535
G1 X163.199 Y156.768 E4.2054
G1 X162.431 Y157.326 E4.23697
G1 X162.258 Y157.44 E4.24387
G1 X161.855 Y157.693 E4.25969
G1 X159.12 Y159.316 E4.36547
G1 X158.584 Y159.623 E4.38601
G1 X157.781 Y160.037 E4.41606
G1 X156.945 Y160.378 E4.44609
G1 X156.081 Y160.644 E4.47616
G1 X155.198 Y160.832 E4.50619
G1 X154.302 Y160.942 E4.53621
G1 X153.399 Y160.971 E4.56626
G1 X152.112 Y160.875 E4.60919
G1 X151.903 Y160.846 E4.6162
G1 X150.614 Y160.582 E4.65997
G1 X150.174 Y160.461 E4.67514
G1 X122.887 Y152.665 E5.61903
G1 X122.216 Y152.463 E5.64233
G1 X121.363 Y152.165 E5.67239
G1 X120.541 Y151.792 E5.70241
G1 X119.754 Y151.348 E5.73246
G1 X119.01 Y150.836 E5.7625
G1 X118.314 Y150.261 E5.79253
G1 X117.672 Y149.626 E5.82256
G1 X117.088 Y148.937 E5.8526
G1 X116.568 Y148.199 E5.88263
G1 X116.115 Y147.418 E5.91266
G1 X115.732 Y146.599 E5.94273
G1 X115.467 Y145.884 E5.96809
G1 X115.34 Y145.499 E5.98158
G1 X114.476 Y142.982 E6.07009
G1 X113.581 Y140.593 E6.15494
G1 X112.643 Y138.298 E6.2374
G1 X111.6 Y135.932 E6.3234
G1 X110.517 Y133.655 E6.40726
G1 X109.37 Y131.409 E6.49114
G1 X108.132 Y129.144 E6.577
G1 X106.857 Y126.963 E6.66102
G1 X105.517 Y124.81 E6.74537
G1 X104.118 Y122.699 E6.8296
G1 X102.656 Y120.622 E6.91408
G1 X101.124 Y118.572 E6.9992
G1 X99.554 Y116.591 E7.08327
G1 X97.923 Y114.648 E7.16765
G1 X96.236 Y112.751 E7.25208
G1 X94.496 Y110.901 E7.33655
G1 X92.717 Y109.113 E7.42044
G1 X90.856 Y107.347 E7.50577
G1 X88.961 Y105.649 E7.5904
G1 X87.023 Y104.008 E7.67486
G1 X85.063 Y102.44 E7.75835
G1 X83.005 Y100.888 E7.84408
G1 X80.954 Y99.431 E7.92776
G1 X78.837 Y98.015 E8.01247
G1 X76.68 Y96.658 E8.09722
G1 X74.485 Y95.364 E8.18197
G1 X72.869 Y94.461 E8.24354
G1 X72.101 Y93.986 E8.27358
G1 X71.377 Y93.445 E8.30364
G1 X70.705 Y92.842 E8.33367
G1 X70.088 Y92.182 E8.36372
G1 X69.533 Y91.47 E8.39374
G1 X69.042 Y90.712 E8.42378
G1 X68.595 Y89.859 E8.45581
G1 X68.441 Y89.528 E8.46796
G1 X68.248 Y89.087 E8.48397
G1 X68.015 Y88.515 E8.50451
G1 X67.784 Y87.931 E8.5254
G1 X67.489 Y87.077 E8.55545
G1 X67.271 Y86.201 E8.58547
G1 X67.132 Y85.308 E8.61553
G1 X67.072 Y84.407 E8.64557
G1 X67.091 Y83.504 E8.67561
G1 X67.191 Y82.607 E8.70562
G1 X67.369 Y81.722 E8.73565
G1 X67.626 Y80.856 E8.76569
G1 X67.957 Y80.016 E8.79572
G1 X68.362 Y79.208 E8.82578
G1 X68.837 Y78.44 E8.85582
G1 X69.377 Y77.717 E8.88583
G1 X69.98 Y77.044 E8.91589
G1 X70.64 Y76.427 E8.94594
G1 X71.351 Y75.871 E8.97596
G1 X72.109 Y75.38 E9.006
G1 X72.908 Y74.958 E9.03605
G1 X73.741 Y74.609 E9.06609
G1 X74.601 Y74.334 E9.09612
G1 X75.482 Y74.137 E9.12615
G1 X76.377 Y74.018 E9.15618
G1 X77.021 Y73.982 E9.17763
G1 X77.638 Y73.97 E9.19815
G1 X88.069 Y73.97 E9.54509
G1 X88.639 Y73.978 E9.56405
G1 X91.327 Y73.978 E9.65345
G1 X91.963 Y73.97 E9.67461
G1 X96.734 Y73.97 E9.83329
G1 X97.17 Y73.976 E9.8478
G1 X99.291 Y73.963 E9.91834
G1 X100.766 Y73.972 E9.9674
G1 X106.395 Y73.97 E10.15462
G0 F6000 X106.401 Y73.57
G1 F1200 X107.418 Y73.589 E10.18845
G1 X108.549 Y73.637 E10.22611
G1 X111.201 Y73.711 E10.31435
G1 X113.676 Y73.711 E10.39666
G1 X116.574 Y73.611 E10.49311
G1 X118.763 Y73.569 E10.56593
G1 X138.365 Y73.571 E11.21789
G1 X139.056 Y73.581 E11.24088
G1 X139.975 Y73.634 E11.2715
G1 X140.887 Y73.767 E11.30215
G1 X141.783 Y73.979 E11.33277
G1 X142.657 Y74.267 E11.36338
G1 X143.503 Y74.63 E11.394
G1 X144.314 Y75.065 E11.42461
G1 X145.085 Y75.569 E11.45525
G1 X145.809 Y76.138 E11.48587
G1 X146.48 Y76.768 E11.51649
G1 X147.095 Y77.453 E11.5471
G1 X147.648 Y78.189 E11.57772
G1 X148.135 Y78.971 E11.60836
G1 X148.552 Y79.791 E11.63896
G1 X148.896 Y80.645 E11.66958
G1 X149.165 Y81.526 E11.70022
G1 X149.297 Y82.099 E11.71978
G1 X149.496 Y83.101 E11.75376
G1 X149.593 Y83.629 E11.77161
G1 X150.098 Y86.196 E11.85863
G1 X150.66 Y88.681 E11.94337
G1 X151.281 Y91.107 E12.02666
G1 X151.976 Y93.531 E12.11053
G1 X152.754 Y95.98 E12.19599
G1 X153.581 Y98.349 E12.27945
G1 X154.473 Y100.691 E12.3628
G1 X155.444 Y103.036 E12.44722
G1 X156.49 Y105.375 E12.53244
G1 X157.566 Y107.609 E12.61491
G1 X158.736 Y109.872 E12.69964
G1 X159.968 Y112.099 E12.78429
G1 X161.242 Y114.253 E12.86753
G1 X162.616 Y116.436 E12.95332
G1 X163.994 Y118.492 E13.03564
G1 X165.672 Y120.869 E13.13242
G1 X166.169 Y121.644 E13.16304
G1 X166.598 Y122.458 E13.19364
G1 X166.954 Y123.307 E13.22426
G1 X167.235 Y124.184 E13.25489
G1 X167.439 Y125.082 E13.28552
G1 X167.565 Y125.994 E13.31614
G1 X167.609 Y126.781 E13.34236
G1 X167.626 Y127.705 E13.3731
G1 X167.709 Y130.353 E13.46121
G1 X167.858 Y132.854 E13.54454
G1 X168.081 Y135.392 E13.62928
G1 X168.211 Y136.541 E13.66774
G1 X168.267 Y137.112 E13.68682
G1 X168.317 Y138.032 E13.71747
G1 X168.292 Y138.889 E13.74598
G1 X168.231 Y139.736 E13.77423
G1 X167.436 Y149.154 E14.08859
G1 X167.368 Y149.846 E14.11171
G1 X167.238 Y150.757 E14.14232
G1 X167.03 Y151.654 E14.17295
G1 X166.745 Y152.529 E14.20355
G1 X166.384 Y153.376 E14.23418
G1 X165.952 Y154.189 E14.2648
G1 X165.451 Y154.961 E14.29541
G1 X164.884 Y155.687 E14.32605
G1 X164.257 Y156.361 E14.35666
G1 X163.574 Y156.978 E14.38728
G1 X162.652 Y157.66 E14.42542
G1 X162.479 Y157.774 E14.43231
G1 X162.059 Y158.036 E14.44878
G1 X159.318 Y159.663 E14.55479
G1 X158.782 Y159.97 E14.57534
G1 X157.964 Y160.393 E14.60597
G1 X157.113 Y160.742 E14.63656
G1 X156.234 Y161.017 E14.66719
G1 X155.335 Y161.214 E14.6978
G1 X154.422 Y161.333 E14.72843
G1 X153.502 Y161.372 E14.75905
G1 X152.582 Y161.331 E14.78968
G1 X152.057 Y161.271 E14.80726
G1 X151.848 Y161.242 E14.81428
G1 X150.508 Y160.967 E14.85977
G1 X150.065 Y160.845 E14.87506
G1 X122.771 Y153.048 E15.81917
G1 X122.1 Y152.846 E15.84248
G1 X121.231 Y152.543 E15.87309
G1 X120.392 Y152.165 E15.9037
G1 X119.588 Y151.716 E15.93432
G1 X118.826 Y151.199 E15.96495
G1 X118.112 Y150.617 E15.99559
G1 X117.452 Y149.976 E16.02619
G1 X116.849 Y149.28 E16.05682
G1 X116.309 Y148.535 E16.08742
G1 X115.836 Y147.745 E16.11805
G1 X115.433 Y146.917 E16.14868
G1 X115.087 Y146.01 E16.18096
G1 X114.946 Y145.58 E16.19601
G1 X114.107 Y143.136 E16.28196
G1 X113.216 Y140.76 E16.36636
G1 X112.26 Y138.418 E16.45049
G1 X111.25 Y136.129 E16.53371
G1 X110.143 Y133.802 E16.61942
G1 X109.013 Y131.589 E16.70206
G1 X107.787 Y129.346 E16.78708
G1 X106.521 Y127.181 E16.8705
G1 X105.187 Y125.037 E16.95448
G1 X103.774 Y122.904 E17.03958
G1 X102.337 Y120.863 E17.1226
G1 X100.81 Y118.82 E17.20743
G1 X99.249 Y116.85 E17.29103
G1 X97.616 Y114.905 E17.3755
G1 X95.929 Y113.008 E17.45994
G1 X94.205 Y111.174 E17.54366
G1 X92.441 Y109.403 E17.62679
G1 X90.597 Y107.652 E17.71137
G1 X88.681 Y105.935 E17.79694
G1 X86.778 Y104.323 E17.87989
G1 X84.818 Y102.756 E17.96335
G1 X82.778 Y101.218 E18.04833
G1 X80.73 Y99.762 E18.1319
G1 X78.598 Y98.336 E18.21721
G1 X76.495 Y97.014 E18.29983
G1 X74.267 Y95.7 E18.38586
G1 X72.674 Y94.81 E18.44656
G1 X71.89 Y94.327 E18.47718
G1 X71.152 Y93.777 E18.5078
G1 X70.463 Y93.165 E18.53845
G1 X69.831 Y92.496 E18.56906
G1 X69.259 Y91.775 E18.59967
G1 X68.752 Y91.007 E18.63028
G1 X68.232 Y90.027 E18.66717
G1 X68.078 Y89.696 E18.67932
G1 X67.878 Y89.239 E18.69591
G1 X67.643 Y88.662 E18.71663
G1 X67.412 Y88.078 E18.73752
G1 X67.111 Y87.208 E18.76814
G1 X66.886 Y86.315 E18.79877
G1 X66.74 Y85.406 E18.82939
G1 X66.673 Y84.488 E18.86
G1 X66.687 Y83.567 E18.89064
G1 X66.78 Y82.651 E18.92126
G1 X66.952 Y81.747 E18.95187
G1 X67.202 Y80.861 E18.98249
G1 X67.528 Y80 E19.01311
G1 X67.927 Y79.17 E19.04374
G1 X68.397 Y78.379 E19.07434
G1 X68.934 Y77.631 E19.10497
G1 X69.533 Y76.932 E19.13558
G1 X70.191 Y76.288 E19.16621
G1 X70.903 Y75.704 E19.19684
G1 X71.662 Y75.183 E19.22745
G1 X72.464 Y74.731 E19.25807
G1 X73.302 Y74.349 E19.28871
G1 X74.17 Y74.042 E19.31933
G1 X75.061 Y73.812 E19.34993
G1 X75.969 Y73.659 E19.38056
G1 X77.011 Y73.582 E19.41531
G1 X77.638 Y73.57 E19.43617
G1 X88.075 Y73.57 E19.78331
G1 X88.645 Y73.578 E19.80227
G1 X91.321 Y73.578 E19.89127
G1 X91.963 Y73.57 E19.91262
G1 X96.74 Y73.57 E20.07151
G1 X97.173 Y73.576 E20.08591
G1 X99.293 Y73.563 E20.15642
G1 X100.768 Y73.572 E20.20548
G1 X106.401 Y73.57 E20.39284
G0 F6000 X106.407 Y73.17
G1 F1200 X107.435 Y73.189 E20.42704
G1 X108.578 Y73.237 E20.46508
G1 X111.212 Y73.311 E20.55273
G1 X113.691 Y73.311 E20.63518
G1 X116.566 Y73.211 E20.73086
G1 X118.763 Y73.169 E20.80395
G1 X138.371 Y73.171 E21.45611
G1 X139.062 Y73.181 E21.47909
G1 X139.999 Y73.235 E21.51031
G1 X140.927 Y73.368 E21.54149
G1 X141.841 Y73.579 E21.57269
G1 X142.733 Y73.868 E21.60388
G1 X143.597 Y74.232 E21.63506
G1 X144.428 Y74.668 E21.66627
G1 X145.218 Y75.173 E21.69746
G1 X145.962 Y75.744 E21.72865
G1 X146.655 Y76.376 E21.75985
G1 X147.292 Y77.065 E21.79106
G1 X147.867 Y77.805 E21.82223
G1 X148.378 Y78.592 E21.85343
G1 X148.819 Y79.419 E21.88461
G1 X149.189 Y80.281 E21.91581
G1 X149.484 Y81.172 E21.94702
G1 X149.689 Y82.02 E21.97604
G1 X149.889 Y83.029 E22.01025
G1 X149.983 Y83.544 E22.02767
G1 X150.488 Y86.11 E22.11465
G1 X151.042 Y88.557 E22.1981
G1 X151.668 Y91.002 E22.28204
G1 X152.369 Y93.446 E22.3666
G1 X153.126 Y95.833 E22.44989
G1 X153.961 Y98.223 E22.5341
G1 X154.852 Y100.563 E22.61738
G1 X155.807 Y102.869 E22.70039
G1 X156.838 Y105.175 E22.78441
G1 X157.938 Y107.458 E22.86869
G1 X159.092 Y109.689 E22.95224
G1 X160.319 Y111.908 E23.03657
G1 X161.581 Y114.042 E23.11903
G1 X162.928 Y116.181 E23.20311
G1 X164.353 Y118.307 E23.28823
G1 X165.998 Y120.638 E23.38312
G1 X166.506 Y121.427 E23.41433
G1 X166.945 Y122.256 E23.44553
G1 X167.311 Y123.119 E23.47671
G1 X167.602 Y124.011 E23.50792
G1 X167.817 Y124.924 E23.53912
G1 X167.953 Y125.852 E23.57031
G1 X168.009 Y126.774 E23.60103
G1 X168.025 Y127.648 E23.63011
G1 X168.108 Y130.316 E23.71889
G1 X168.258 Y132.832 E23.80272
G1 X168.48 Y135.351 E23.88683
G1 X168.609 Y136.502 E23.92535
G1 X168.665 Y137.073 E23.94443
G1 X168.717 Y138.01 E23.97564
G1 X168.691 Y138.917 E24.00582
G1 X168.63 Y139.769 E24.03423
G1 X167.834 Y149.193 E24.34879
G1 X167.766 Y149.885 E24.37192
G1 X167.635 Y150.813 E24.40309
G1 X167.425 Y151.727 E24.43428
G1 X167.138 Y152.62 E24.46548
G1 X166.775 Y153.485 E24.49668
G1 X166.341 Y154.316 E24.52786
G1 X165.837 Y155.108 E24.55909
G1 X165.268 Y155.853 E24.59027
G1 X164.637 Y156.547 E24.62146
G1 X163.95 Y157.185 E24.65265
G1 X162.872 Y157.994 E24.69747
G1 X162.699 Y158.108 E24.70437
G1 X162.264 Y158.38 E24.72143
G1 X159.517 Y160.01 E24.82767
G1 X158.981 Y160.317 E24.84821
G1 X158.148 Y160.748 E24.87941
G1 X157.282 Y161.107 E24.91059
G1 X156.387 Y161.39 E24.94181
G1 X155.473 Y161.596 E24.97297
G1 X154.543 Y161.724 E25.00419
G1 X153.607 Y161.772 E25.03537
G1 X152.669 Y161.74 E25.06658
G1 X152.002 Y161.668 E25.0889
G1 X151.793 Y161.639 E25.09591
G1 X150.871 Y161.47 E25.12709
G1 X150.403 Y161.353 E25.14314
G1 X149.955 Y161.23 E25.15859
G1 X122.656 Y153.431 E26.10288
G1 X121.985 Y153.229 E26.12619
G1 X121.099 Y152.921 E26.15739
G1 X120.243 Y152.538 E26.18858
G1 X119.423 Y152.084 E26.21975
G1 X118.644 Y151.561 E26.25096
G1 X117.912 Y150.974 E26.28217
G1 X117.233 Y150.327 E26.31336
G1 X116.612 Y149.624 E26.34456
G1 X116.053 Y148.872 E26.37573
G1 X115.56 Y148.074 E26.40692
G1 X115.137 Y147.237 E26.43812
G1 X114.707 Y146.135 E26.47746
G1 X114.552 Y145.664 E26.49395
G1 X113.73 Y143.269 E26.57817
G1 X112.843 Y140.904 E26.66218
G1 X111.9 Y138.596 E26.74511
G1 X110.874 Y136.27 E26.82966
G1 X109.791 Y133.991 E26.91358
G1 X108.664 Y131.784 E26.99601
G1 X107.449 Y129.56 E27.0803
G1 X106.169 Y127.372 E27.16461
G1 X104.841 Y125.238 E27.24821
G1 X103.446 Y123.133 E27.3322
G1 X102.006 Y121.087 E27.41541
G1 X100.505 Y119.079 E27.4988
G1 X98.945 Y117.111 E27.58232
G1 X97.297 Y115.148 E27.66757
G1 X95.655 Y113.301 E27.74977
G1 X93.929 Y111.466 E27.83356
G1 X92.129 Y109.657 E27.91843
G1 X90.319 Y107.939 E28.00143
G1 X88.439 Y106.254 E28.0854
G1 X86.536 Y104.643 E28.16833
G1 X84.55 Y103.055 E28.25291
G1 X82.551 Y101.547 E28.33619
G1 X80.481 Y100.076 E28.42065
G1 X78.41 Y98.691 E28.50352
G1 X76.26 Y97.338 E28.58801
G1 X74.082 Y96.054 E28.6721
G1 X72.479 Y95.159 E28.73316
G1 X71.68 Y94.667 E28.76437
G1 X70.926 Y94.109 E28.79557
G1 X70.223 Y93.489 E28.82675
G1 X69.575 Y92.811 E28.85794
G1 X68.987 Y92.08 E28.88914
G1 X68.463 Y91.302 E28.92034
G1 X67.87 Y90.196 E28.96208
G1 X67.716 Y89.865 E28.97422
G1 X67.508 Y89.39 E28.99147
G1 X67.271 Y88.809 E29.01234
G1 X67.04 Y88.225 E29.03323
G1 X66.733 Y87.339 E29.06442
G1 X66.502 Y86.43 E29.09561
G1 X66.349 Y85.505 E29.12679
G1 X66.276 Y84.57 E29.15799
G1 X66.283 Y83.632 E29.18919
G1 X66.369 Y82.698 E29.22038
G1 X66.535 Y81.775 E29.25157
G1 X66.779 Y80.869 E29.28278
G1 X67.099 Y79.988 E29.31396
G1 X67.493 Y79.136 E29.34518
G1 X67.958 Y78.322 E29.37636
G1 X68.491 Y77.55 E29.40756
G1 X69.087 Y76.827 E29.43872
G1 X69.743 Y76.156 E29.46994
G1 X70.454 Y75.544 E29.50114
G1 X71.214 Y74.995 E29.53232
G1 X72.019 Y74.513 E29.56353
G1 X72.861 Y74.101 E29.5947
G1 X73.736 Y73.762 E29.62592
G1 X74.636 Y73.499 E29.6571
G1 X75.555 Y73.313 E29.68829
G1 X76.487 Y73.207 E29.71949
G1 X77.002 Y73.182 E29.73663
G1 X77.638 Y73.17 E29.75779
G1 X88.08 Y73.17 E30.10509
G1 X88.65 Y73.178 E30.12405
G1 X91.315 Y73.178 E30.21269
G1 X91.963 Y73.17 E30.23425
G1 X96.746 Y73.17 E30.39333
G1 X97.176 Y73.176 E30.40763
G1 X99.296 Y73.163 E30.47815
G1 X100.771 Y73.172 E30.52721
G1 X106.407 Y73.17 E30.71466
G1 F1500 E24.21466
;MESH:Flexi-Rex-improved.stl
G0 F6000 X115.73 Y90.123
