;FLAVOR:Marlin
;TIME:3054
;Filament used: 2.11795m
;Layer height: 0.2
;MINX:100.768
;MINY:92.25
;MINZ:0.2
;MAXX:142.768
;MAXY:142.75
;MAXZ:34.6
;Generated with Cura_SteamEngine 4.6.2
M140 S60
M105
M190 S60
M104 S200
M105
M109 S200
M82 ;absolute extrusion mode
; Ender 3 Custom Start G-code
G92 E0 ; Reset Extruder
G28 ; Home all axes
G1 Z2.0 F3000 ; Move Z Axis up little to prevent scratching of Heat Bed
G1 X0.1 Y20 Z0.3 F5000.0 ; Move to start position
G1 X0.1 Y200.0 Z0.3 F1500.0 E15 ; Draw the first line
G1 X0.4 Y200.0 Z0.3 F5000.0 ; Move to side a little
G1 X0.4 Y20 Z0.3 F1500.0 E30 ; Draw the second line
G92 E0 ; Reset Extruder
G1 Z2.0 F3000 ; Move Z Axis up little to prevent scratching of Heat Bed
G1 X5 Y20 Z0.3 F5000.0 ; Move over to prevent blob squish
G92 E0
G92 E0
G1 F1500 E-6.5
;LAYER_COUNT:175
;LAYER:0
M107
G0 F6000 X120.371 Y93.067 Z0.2
;TYPE:SKIRT
G1 F1500 E0
G1 F1200 X123.058 Y93.067 E0.08937
G1 X124.081 Y93.05 E0.1234
G1 X131.207 Y93.051 E0.36041
G1 X131.905 Y93.061 E0.38363
G1 X132.807 Y93.114 E0.41368
G1 X133.7 Y93.246 E0.44371
G1 X134.578 Y93.457 E0.47374
G1 X135.434 Y93.745 E0.50378
G1 X136.261 Y94.107 E0.5338
G1 X137.053 Y94.542 E0.56386
G1 X137.804 Y95.044 E0.5939
G1 X138.507 Y95.611 E0.62394
G1 X139.157 Y96.238 E0.65398
G1 X139.749 Y96.92 E0.68402
G1 X140.279 Y97.651 E0.71405
G1 X140.741 Y98.427 E0.74409
G1 X141.134 Y99.24 E0.77412
G1 X141.452 Y100.085 E0.80415
G1 X141.695 Y100.955 E0.83419
G1 X141.86 Y101.843 E0.86423
G1 X141.955 Y102.973 E0.90195
G1 X141.968 Y103.58 E0.92214
G1 X141.967 Y111.659 E1.19085
G1 X141.96 Y112.134 E1.20665
G1 X141.968 Y115.54 E1.31994
G1 X141.967 Y123.666 E1.59021
G1 X141.957 Y124.383 E1.61406
G1 X141.904 Y125.285 E1.64411
G1 X141.772 Y126.178 E1.67414
G1 X141.562 Y127.056 E1.70416
G1 X141.274 Y127.913 E1.73423
G1 X140.912 Y128.74 E1.76426
G1 X140.478 Y129.532 E1.7943
G1 X139.976 Y130.283 E1.82434
G1 X139.41 Y130.986 E1.85436
G1 X138.683 Y131.73 E1.88896
G1 X138.417 Y131.976 E1.90101
G1 X136.479 Y133.784 E1.98916
G1 X134.698 Y135.542 E2.07239
G1 X132.921 Y137.398 E2.15786
G1 X132.49 Y137.872 E2.17917
G1 X131.731 Y138.688 E2.21623
G1 X131.087 Y139.321 E2.24627
G1 X130.39 Y139.895 E2.2763
G1 X129.644 Y140.405 E2.30635
G1 X128.857 Y140.847 E2.33637
G1 X128.033 Y141.218 E2.36643
G1 X127.18 Y141.515 E2.39647
G1 X126.304 Y141.734 E2.4265
G1 X125.412 Y141.876 E2.45655
G1 X124.545 Y141.937 E2.48545
G1 X123.938 Y141.95 E2.50565
G1 X115.189 Y141.949 E2.79664
G1 X114.508 Y141.939 E2.81929
G1 X113.607 Y141.886 E2.84931
G1 X112.713 Y141.753 E2.87937
G1 X111.835 Y141.542 E2.90941
G1 X110.979 Y141.254 E2.93945
G1 X110.152 Y140.891 E2.96949
G1 X109.361 Y140.456 E2.99951
G1 X108.61 Y139.954 E3.02956
G1 X107.908 Y139.387 E3.05957
G1 X107.258 Y138.76 E3.08961
G1 X106.666 Y138.077 E3.11967
G1 X106.136 Y137.346 E3.1497
G1 X105.674 Y136.57 E3.17974
G1 X105.282 Y135.756 E3.20979
G1 X105.1 Y135.3 E3.22612
G1 X104.602 Y133.952 E3.27391
G1 X104.497 Y133.641 E3.28483
G1 X103.615 Y131.256 E3.36941
G1 X102.636 Y128.821 E3.4567
G1 X102.37 Y128.186 E3.4796
G1 X102.058 Y127.339 E3.50962
G1 X101.823 Y126.467 E3.53965
G1 X101.665 Y125.577 E3.56972
G1 X101.583 Y124.559 E3.60369
G1 X101.568 Y123.92 E3.62495
G1 X101.569 Y115.827 E3.89412
G1 X101.576 Y115.362 E3.90959
G1 X101.568 Y111.96 E4.02274
G1 X101.569 Y103.786 E4.29461
G1 X101.578 Y103.121 E4.31673
G1 X101.63 Y102.219 E4.34678
G1 X101.762 Y101.326 E4.3768
G1 X101.972 Y100.448 E4.40683
G1 X102.259 Y99.591 E4.43689
G1 X102.621 Y98.764 E4.46691
G1 X103.054 Y97.972 E4.49694
G1 X103.556 Y97.221 E4.52698
G1 X104.123 Y96.517 E4.55705
G1 X104.749 Y95.867 E4.58706
G1 X105.43 Y95.274 E4.6171
G1 X106.162 Y94.744 E4.64715
G1 X106.937 Y94.281 E4.67718
G1 X107.75 Y93.888 E4.70721
G1 X108.595 Y93.568 E4.73727
G1 X109.464 Y93.325 E4.76728
G1 X110.352 Y93.159 E4.79732
G1 X111.491 Y93.063 E4.83534
G1 X112.098 Y93.05 E4.85554
G1 X119.227 Y93.051 E5.09265
G1 X120.371 Y93.067 E5.1307
G0 F6000 X120.376 Y92.667
G1 F1200 X123.051 Y92.667 E5.21967
G1 X124.081 Y92.65 E5.25393
G1 X131.213 Y92.651 E5.49115
G1 X131.911 Y92.661 E5.51436
G1 X132.83 Y92.714 E5.54498
G1 X133.741 Y92.847 E5.5756
G1 X134.637 Y93.058 E5.60622
G1 X135.511 Y93.346 E5.63682
G1 X136.358 Y93.709 E5.66747
G1 X137.169 Y94.144 E5.69808
G1 X137.939 Y94.648 E5.72869
G1 X138.663 Y95.217 E5.75932
G1 X139.335 Y95.847 E5.78996
G1 X139.95 Y96.532 E5.82057
G1 X140.503 Y97.268 E5.85119
G1 X140.99 Y98.049 E5.88181
G1 X141.407 Y98.87 E5.91243
G1 X141.752 Y99.724 E5.94307
G1 X142.021 Y100.604 E5.97367
G1 X142.213 Y101.505 E6.00431
G1 X142.326 Y102.418 E6.03491
G1 X142.355 Y102.962 E6.05303
G1 X142.368 Y103.58 E6.07359
G1 X142.367 Y111.665 E6.3425
G1 X142.36 Y112.139 E6.35827
G1 X142.368 Y115.539 E6.47135
G1 X142.367 Y123.672 E6.74185
G1 X142.357 Y124.389 E6.7657
G1 X142.304 Y125.308 E6.79632
G1 X142.172 Y126.219 E6.82694
G1 X141.961 Y127.115 E6.85755
G1 X141.673 Y127.99 E6.88819
G1 X141.31 Y128.836 E6.91881
G1 X140.876 Y129.647 E6.9494
G1 X140.372 Y130.418 E6.98004
G1 X139.804 Y131.142 E7.01065
G1 X138.955 Y132.023 E7.05134
G1 X138.689 Y132.269 E7.06339
G1 X136.768 Y134.06 E7.15075
G1 X134.967 Y135.838 E7.23492
G1 X133.205 Y137.678 E7.31965
G1 X132.783 Y138.144 E7.34056
G1 X132.024 Y138.96 E7.37763
G1 X131.368 Y139.607 E7.40828
G1 X130.658 Y140.194 E7.43892
G1 X129.901 Y140.717 E7.46952
G1 X129.101 Y141.172 E7.50013
G1 X128.264 Y141.556 E7.53076
G1 X127.397 Y141.867 E7.56139
G1 X126.507 Y142.101 E7.592
G1 X125.6 Y142.256 E7.62261
G1 X124.556 Y142.337 E7.65743
G1 X123.938 Y142.35 E7.67799
G1 X115.183 Y142.349 E7.96918
G1 X114.502 Y142.339 E7.99184
G1 X113.583 Y142.285 E8.02246
G1 X112.672 Y142.152 E8.05308
G1 X111.776 Y141.941 E8.08369
G1 X110.902 Y141.652 E8.11431
G1 X110.056 Y141.289 E8.14493
G1 X109.245 Y140.854 E8.17554
G1 X108.474 Y140.35 E8.20618
G1 X107.751 Y139.78 E8.2368
G1 X107.079 Y139.151 E8.26741
G1 X106.465 Y138.465 E8.29803
G1 X105.912 Y137.729 E8.32865
G1 X105.425 Y136.947 E8.35929
G1 X105.008 Y136.127 E8.38989
G1 X104.725 Y135.44 E8.4146
G1 X104.223 Y134.079 E8.46285
G1 X104.119 Y133.77 E8.47369
G1 X103.245 Y131.407 E8.55749
G1 X102.278 Y129.001 E8.64374
G1 X102.001 Y128.341 E8.66754
G1 X101.682 Y127.477 E8.69818
G1 X101.44 Y126.589 E8.72879
G1 X101.276 Y125.683 E8.75941
G1 X101.183 Y124.571 E8.79653
G1 X101.168 Y123.92 E8.81818
G1 X101.169 Y115.821 E9.08756
G1 X101.176 Y115.357 E9.10299
G1 X101.168 Y111.961 E9.21594
G1 X101.169 Y103.781 E9.48801
G1 X101.178 Y103.116 E9.51013
G1 X101.23 Y102.196 E9.54078
G1 X101.362 Y101.285 E9.5714
G1 X101.573 Y100.389 E9.60201
G1 X101.86 Y99.514 E9.63264
G1 X102.223 Y98.668 E9.66326
G1 X102.657 Y97.856 E9.69388
G1 X103.16 Y97.085 E9.7245
G1 X103.729 Y96.361 E9.75513
G1 X104.357 Y95.689 E9.78572
G1 X105.042 Y95.073 E9.81636
G1 X105.778 Y94.52 E9.84698
G1 X106.559 Y94.032 E9.87761
G1 X107.379 Y93.614 E9.90822
G1 X108.233 Y93.269 E9.93886
G1 X109.113 Y92.999 E9.96947
G1 X110.013 Y92.807 E10.00008
G1 X110.927 Y92.693 E10.03072
G1 X111.48 Y92.663 E10.04914
G1 X112.098 Y92.65 E10.06969
G1 X119.232 Y92.651 E10.30697
G1 X120.376 Y92.667 E10.34503
G0 F6000 X120.382 Y92.267
G1 F1200 X123.044 Y92.267 E10.43356
G1 X124.081 Y92.25 E10.46806
G1 X131.219 Y92.251 E10.70547
G1 X131.917 Y92.261 E10.72869
G1 X132.853 Y92.315 E10.75987
G1 X133.781 Y92.447 E10.79105
G1 X134.695 Y92.659 E10.82225
G1 X135.587 Y92.948 E10.85344
G1 X136.452 Y93.311 E10.88464
G1 X137.282 Y93.747 E10.91582
G1 X138.073 Y94.252 E10.94704
G1 X138.817 Y94.823 E10.97823
G1 X139.51 Y95.455 E11.00943
G1 X140.147 Y96.143 E11.04061
G1 X140.722 Y96.884 E11.07181
G1 X141.233 Y97.67 E11.10299
G1 X141.675 Y98.498 E11.13421
G1 X142.044 Y99.36 E11.16539
G1 X142.339 Y100.25 E11.19658
G1 X142.557 Y101.162 E11.22777
G1 X142.697 Y102.09 E11.25898
G1 X142.755 Y102.951 E11.28768
G1 X142.768 Y103.58 E11.30861
G1 X142.767 Y111.671 E11.57771
G1 X142.76 Y112.144 E11.59345
G1 X142.768 Y115.538 E11.70633
G1 X142.767 Y123.677 E11.97704
G1 X142.757 Y124.394 E12.00089
G1 X142.704 Y125.331 E12.0321
G1 X142.571 Y126.259 E12.06328
G1 X142.36 Y127.173 E12.09448
G1 X142.072 Y128.065 E12.12566
G1 X141.708 Y128.93 E12.15687
G1 X141.273 Y129.761 E12.18807
G1 X140.768 Y130.551 E12.21925
G1 X140.198 Y131.296 E12.25045
G1 X139.566 Y131.989 E12.28165
G1 X139.227 Y132.317 E12.29734
G1 X138.961 Y132.563 E12.30939
G1 X137.039 Y134.355 E12.39679
G1 X135.254 Y136.117 E12.48021
G1 X133.508 Y137.941 E12.56419
G1 X133.075 Y138.417 E12.58559
G1 X132.316 Y139.233 E12.62266
G1 X131.649 Y139.892 E12.65385
G1 X130.928 Y140.491 E12.68502
G1 X130.158 Y141.027 E12.71623
G1 X129.346 Y141.496 E12.74742
G1 X128.496 Y141.893 E12.77862
G1 X127.616 Y142.217 E12.80981
G1 X126.712 Y142.465 E12.84099
G1 X125.789 Y142.634 E12.8722
G1 X124.567 Y142.737 E12.91298
G1 X123.938 Y142.75 E12.93391
G1 X115.177 Y142.749 E13.2253
G1 X114.496 Y142.739 E13.24795
G1 X113.56 Y142.685 E13.27914
G1 X112.632 Y142.552 E13.31032
G1 X111.718 Y142.34 E13.34152
G1 X110.826 Y142.051 E13.37271
G1 X109.962 Y141.687 E13.40389
G1 X109.131 Y141.251 E13.43511
G1 X108.341 Y140.745 E13.46631
G1 X107.597 Y140.175 E13.49748
G1 X106.904 Y139.543 E13.52868
G1 X106.268 Y138.854 E13.55986
G1 X105.692 Y138.113 E13.59108
G1 X105.182 Y137.326 E13.62227
G1 X104.741 Y136.499 E13.65344
G1 X104.35 Y135.58 E13.68666
G1 X103.96 Y134.533 E13.72382
G1 X103.74 Y133.9 E13.74611
G1 X102.886 Y131.59 E13.82802
G1 X101.866 Y129.053 E13.91897
G1 X101.632 Y128.495 E13.93909
G1 X101.307 Y127.616 E13.97026
G1 X101.058 Y126.711 E14.00148
G1 X100.887 Y125.789 E14.03267
G1 X100.783 Y124.583 E14.07293
G1 X100.773 Y124.257 E14.08378
G1 X100.768 Y123.92 E14.09499
G1 X100.769 Y115.815 E14.36456
G1 X100.776 Y115.352 E14.37997
G1 X100.768 Y111.962 E14.49272
G1 X100.769 Y103.775 E14.76502
G1 X100.778 Y103.11 E14.78714
G1 X100.831 Y102.174 E14.81832
G1 X100.963 Y101.245 E14.84953
G1 X101.174 Y100.331 E14.88073
G1 X101.462 Y99.439 E14.9119
G1 X101.825 Y98.574 E14.9431
G1 X102.26 Y97.743 E14.9743
G1 X102.764 Y96.953 E15.00547
G1 X103.334 Y96.208 E15.03667
G1 X103.966 Y95.514 E15.06789
G1 X104.654 Y94.877 E15.09907
G1 X105.394 Y94.301 E15.13026
G1 X106.18 Y93.789 E15.16146
G1 X107.007 Y93.347 E15.19265
G1 X107.869 Y92.977 E15.22385
G1 X108.759 Y92.681 E15.25505
G1 X109.671 Y92.463 E15.28623
G1 X110.598 Y92.322 E15.31742
G1 X111.469 Y92.263 E15.34646
G1 X112.098 Y92.25 E15.36738
G1 X119.238 Y92.251 E15.60486
G1 X120.382 Y92.267 E15.64291
G1 F1500 E9.14291
;MESH:calicat.stl
G0 F6000 X120.421 Y112.903
G0 X119.354 Y114.585
G0 X119.354 Y115.664
G0 X112.55 Y116.032
G0 X112.55 Y123.468
G0 X119.696 Y123.822
G0 X119.696 Y127.178
G0 X115.413 Y127.532
G0 X115.232 Y131.15
;TYPE:WALL-INNER
G1 F1500 E15.64291
G1 F1200 X115.231 Y127.549 E15.76268
G1 X115.231 Y127.35 E15.7693
G1 X115.43 Y127.35 E15.77358
G1 X119.868 Y127.35 E15.92119
G1 X119.868 Y123.65 E16.04425
G1 X112.368 Y123.65 E16.29371
G1 X112.368 Y115.85 E16.55313
G1 X119.168 Y115.85 E16.7793
G1 X119.168 Y120.85 E16.9456
G1 X124.368 Y120.85 E17.11856
G1 X124.368 Y115.85 E17.28486
G1 X131.168 Y115.85 E17.51103
G1 X131.168 Y123.65 E17.77046
G1 X123.668 Y123.65 E18.01991
G1 X123.668 Y131.15 E18.26936
G1 X115.232 Y131.15 E18.54994
G0 F6000 X114.832 Y131.55
;TYPE:WALL-OUTER
G1 F1200 X114.831 Y126.95 E18.70294
G1 X119.468 Y126.95 E18.85716
G1 X119.468 Y124.05 E18.95362
G1 X111.968 Y124.05 E19.20307
G1 X111.968 Y115.45 E19.48911
G1 X119.568 Y115.45 E19.74188
G1 X119.568 Y120.45 E19.90818
G1 X123.968 Y120.45 E20.05453
G1 X123.968 Y115.45 E20.22083
G1 X131.568 Y115.45 E20.47361
G1 X131.568 Y124.05 E20.75964
G1 X124.068 Y124.05 E21.00909
G1 X124.068 Y131.55 E21.25855
G1 X114.832 Y131.55 E21.56574
G0 F6000 X115.102 Y131.28
G0 X115.622 Y131.04
G0 X115.622 Y130.76
;TYPE:SKIN
G1 F1200 X115.621 Y127.74 E21.66618
G1 X120.258 Y127.74 E21.82041
G1 X120.258 Y123.26 E21.96941
G1 X112.758 Y123.26 E22.21887
G1 X112.758 Y116.24 E22.45235
G1 X118.778 Y116.24 E22.65258
G1 X118.778 Y121.24 E22.81888
G1 X124.758 Y121.24 E23.01777
G1 X124.758 Y116.24 E23.18407
G1 X130.778 Y116.24 E23.3843
G1 X130.778 Y123.26 E23.61779
G1 X123.278 Y123.26 E23.86724
G1 X123.278 Y130.76 E24.11669
G1 X115.622 Y130.76 E24.37133
G0 F6000 X115.891 Y130.599
G1 F1200 X115.781 Y130.489 E24.3765
G0 F6000 X115.781 Y129.923
G1 F1200 X116.456 Y130.599 E24.40828
G0 F6000 X117.022 Y130.599
G1 F1200 X115.781 Y129.358 E24.46665
G0 F6000 X115.78 Y128.791
G1 F1200 X117.588 Y130.599 E24.55169
G0 F6000 X118.154 Y130.599
G1 F1200 X115.78 Y128.226 E24.66333
G0 F6000 X116.019 Y127.899
G1 F1200 X118.719 Y130.599 E24.79033
G0 F6000 X119.285 Y130.599
G1 F1200 X116.585 Y127.899 E24.91733
G0 F6000 X117.151 Y127.899
G1 F1200 X119.851 Y130.599 E25.04433
G0 F6000 X120.416 Y130.599
G1 F1200 X117.717 Y127.899 E25.17131
G0 F6000 X118.282 Y127.899
G1 F1200 X120.982 Y130.599 E25.29831
G0 F6000 X121.548 Y130.599
G1 F1200 X118.848 Y127.899 E25.42531
G0 F6000 X119.414 Y127.899
G1 F1200 X122.113 Y130.599 E25.55228
G0 F6000 X122.679 Y130.599
G1 F1200 X119.979 Y127.899 E25.67928
G0 F6000 X120.418 Y127.772
G1 F1200 X123.117 Y130.471 E25.80624
G0 F6000 X123.117 Y129.906
G1 F1200 X120.418 Y127.206 E25.93321
G0 F6000 X120.418 Y126.64
G1 F1200 X123.117 Y129.34 E26.06019
G0 F6000 X123.117 Y128.774
G1 F1200 X120.418 Y126.075 E26.18714
G0 F6000 X120.418 Y125.509
G1 F1200 X123.117 Y128.209 E26.31412
G0 F6000 X123.117 Y127.643
G1 F1200 X120.418 Y124.943 E26.44109
G0 F6000 X120.418 Y124.377
G1 F1200 X123.117 Y127.077 E26.56807
G0 F6000 X123.117 Y126.512
G1 F1200 X120.418 Y123.812 E26.69505
G0 F6000 X120.418 Y123.246
G1 F1200 X123.117 Y125.946 E26.82202
G0 F6000 X123.117 Y125.38
G1 F1200 X119.137 Y121.4 E27.00923
G0 F6000 X119.703 Y121.4
G1 F1200 X123.117 Y124.814 E27.16981
G0 F6000 X123.117 Y124.249
G1 F1200 X120.268 Y121.4 E27.30382
G0 F6000 X120.834 Y121.4
G1 F1200 X123.117 Y123.683 E27.41121
G0 F6000 X123.117 Y123.117
G1 F1200 X121.4 Y121.4 E27.49197
G0 F6000 X121.966 Y121.4
G1 F1200 X123.665 Y123.099 E27.57189
G0 F6000 X124.23 Y123.099
G1 F1200 X122.531 Y121.4 E27.6518
G0 F6000 X123.097 Y121.4
G1 F1200 X124.796 Y123.099 E27.73172
G0 F6000 X125.362 Y123.099
G1 F1200 X123.663 Y121.4 E27.81163
G0 F6000 X124.228 Y121.4
G1 F1200 X125.927 Y123.099 E27.89155
G0 F6000 X126.493 Y123.099
G1 F1200 X124.794 Y121.4 E27.97146
G0 F6000 X124.917 Y120.957
G1 F1200 X127.059 Y123.099 E28.07222
G0 F6000 X127.624 Y123.099
G1 F1200 X124.917 Y120.392 E28.19955
G0 F6000 X124.917 Y119.826
G1 F1200 X128.19 Y123.099 E28.3535
G0 F6000 X128.756 Y123.099
G1 F1200 X124.917 Y119.26 E28.53407
G0 F6000 X124.917 Y118.694
G1 F1200 X129.322 Y123.099 E28.74127
G0 F6000 X129.887 Y123.099
G1 F1200 X124.917 Y118.129 E28.97504
G0 F6000 X124.917 Y117.563
G1 F1200 X130.453 Y123.099 E29.23544
G0 F6000 X130.617 Y122.697
G1 F1200 X124.917 Y116.997 E29.50355
G0 F6000 X124.917 Y116.432
G1 F1200 X130.617 Y122.132 E29.77166
G0 F6000 X130.617 Y121.566
G1 F1200 X125.451 Y116.4 E30.01466
G0 F6000 X126.017 Y116.4
G1 F1200 X130.617 Y121 E30.23103
G0 F6000 X130.617 Y120.435
G1 F1200 X126.582 Y116.4 E30.42082
G0 F6000 X127.148 Y116.4
G1 F1200 X130.617 Y119.869 E30.58399
G0 F6000 X130.617 Y119.303
G1 F1200 X127.714 Y116.4 E30.72054
G0 F6000 X128.279 Y116.4
G1 F1200 X130.617 Y118.738 E30.83051
G0 F6000 X130.617 Y118.172
G1 F1200 X128.845 Y116.4 E30.91386
G0 F6000 X129.411 Y116.4
G1 F1200 X130.617 Y117.606 E30.97059
G0 F6000 X130.617 Y117.041
G1 F1200 X129.976 Y116.4 E31.00074
G0 F6000 X130.542 Y116.4
G1 F1200 X130.617 Y116.475 E31.00427
G0 F6000 X131.058 Y116.475
G0 X130.986 Y116.032
G0 X124.55 Y116.032
G0 X124.196 Y120.678
G0 X119.34 Y120.678
G0 X119.058 Y116.92
G0 X118.617 Y116.92
G1 F1200 X118.096 Y116.399 E31.02877
G0 F6000 X117.531 Y116.399
G1 F1200 X118.617 Y117.486 E31.07988
G0 F6000 X118.617 Y118.052
G1 F1200 X116.965 Y116.399 E31.15761
G0 F6000 X116.399 Y116.399
G1 F1200 X118.617 Y118.617 E31.26193
G0 F6000 X118.617 Y119.183
G1 F1200 X115.833 Y116.399 E31.39288
G0 F6000 X115.268 Y116.399
G1 F1200 X118.617 Y119.749 E31.55043
G0 F6000 X118.617 Y120.314
G1 F1200 X114.702 Y116.399 E31.73458
G0 F6000 X114.136 Y116.399
G1 F1200 X118.617 Y120.88 E31.94536
G0 F6000 X119.058 Y120.88
G0 X118.986 Y116.032
G0 X112.55 Y116.032
