;FLAVOR:Marlin
;TIME:7716
;Filament used: 4.11797m
;Layer height: 0.2
;MINX:82.861
;MINY:101.939
;MINZ:0.2
;MAXX:152.139
;MAXY:129.82
;MAXZ:76.2
;Generated with Cura_SteamEngine 4.6.2
M140 S60
M105
M190 S60
M104 S200
M105
M109 S200
M82 ;absolute extrusion mode
; Ender 3 Custom Start G-code
G92 E0 ; Reset Extruder
G28 ; Home all axes
G1 Z2.0 F3000 ; Move Z Axis up little to prevent scratching of Heat Bed
G1 X0.1 Y20 Z0.3 F5000.0 ; Move to start position
G1 X0.1 Y200.0 Z0.3 F1500.0 E15 ; Draw the first line
G1 X0.4 Y200.0 Z0.3 F5000.0 ; Move to side a little
G1 X0.4 Y20 Z0.3 F1500.0 E30 ; Draw the second line
G92 E0 ; Reset Extruder
G1 Z2.0 F3000 ; Move Z Axis up little to prevent scratching of Heat Bed
G1 X5 Y20 Z0.3 F5000.0 ; Move over to prevent blob squish
G92 E0
G92 E0
G1 F1500 E-6
;LAYER_COUNT:381
;LAYER:0
M107
M204 S500
M205 X8 Y8
G0 F7500 X84.197 Y115.036 Z0.2
;TYPE:SKIRT
G1 F1500 E0
G1 X84.642 Y114.71 E0.01743
G1 X85.129 Y114.452 E0.03484
G1 X85.648 Y114.267 E0.05225
G1 X86.188 Y114.159 E0.06965
G1 X86.661 Y114.129 E0.08463
G1 X94.624 Y114.129 E0.33624
G1 X95.174 Y114.169 E0.35366
G1 X95.712 Y114.288 E0.37107
G1 X96.227 Y114.484 E0.38848
G1 X96.708 Y114.752 E0.40588
G1 X97.146 Y115.086 E0.42329
G1 X97.53 Y115.481 E0.44069
G1 X97.746 Y115.779 E0.45232
G1 X98.306 Y115.576 E0.47114
G1 X98.847 Y115.47 E0.48856
G1 X99.301 Y115.443 E0.50293
G1 X104.492 Y115.443 E0.66695
G1 X102.377 Y107.552 E0.92509
G1 X102.273 Y107.011 E0.94249
G1 X102.249 Y106.46 E0.95992
G1 X102.304 Y105.912 E0.97732
G1 X102.438 Y105.378 E0.99472
G1 X102.648 Y104.868 E1.01214
G1 X102.93 Y104.395 E1.02954
G1 X103.277 Y103.967 E1.04695
G1 X103.682 Y103.593 E1.06437
G1 X104.137 Y103.283 E1.08177
G1 X104.633 Y103.041 E1.09921
G1 X105.062 Y102.898 E1.1135
G1 X108.153 Y102.068 E1.21462
G1 X108.694 Y101.964 E1.23203
G1 X109.244 Y101.939 E1.24943
G1 X109.792 Y101.995 E1.26683
G1 X110.327 Y102.129 E1.28426
G1 X110.836 Y102.339 E1.30166
G1 X111.31 Y102.62 E1.31907
G1 X111.738 Y102.967 E1.33648
G1 X112.112 Y103.372 E1.3539
G1 X112.422 Y103.827 E1.37129
G1 X112.664 Y104.322 E1.3887
G1 X112.808 Y104.754 E1.40309
G1 X115.19 Y113.641 E1.69381
G1 X115.294 Y114.182 E1.71121
G1 X115.318 Y114.733 E1.72864
G1 X115.289 Y115.022 E1.73782
G1 X115.376 Y115.08 E1.74112
G1 X116.03 Y115.575 E1.76704
G1 X116.444 Y115.939 E1.78445
G1 X116.736 Y116.271 E1.79842
G1 X117.241 Y116.92 E1.82441
G1 X117.496 Y117.302 E1.83892
G1 X117.731 Y116.955 E1.85216
G1 X118.233 Y116.302 E1.87819
G1 X118.6 Y115.891 E1.8956
G1 X118.931 Y115.605 E1.90942
G1 X119.583 Y115.104 E1.9354
G1 X119.709 Y115.021 E1.94017
G1 X119.68 Y114.636 E1.95237
G1 X119.718 Y114.086 E1.96979
G1 X119.81 Y113.641 E1.98415
G1 X122.192 Y104.755 E2.27483
G1 X122.372 Y104.235 E2.29222
G1 X122.627 Y103.746 E2.30964
G1 X122.949 Y103.299 E2.32705
G1 X123.332 Y102.903 E2.34446
G1 X123.769 Y102.567 E2.36187
G1 X124.25 Y102.298 E2.37929
G1 X124.764 Y102.101 E2.39668
G1 X125.302 Y101.98 E2.41411
G1 X125.852 Y101.939 E2.43153
G1 X126.401 Y101.977 E2.44892
G1 X126.846 Y102.069 E2.46328
G1 X129.937 Y102.898 E2.5644
G1 X130.458 Y103.079 E2.58182
G1 X130.947 Y103.333 E2.59923
G1 X131.393 Y103.655 E2.61662
G1 X131.789 Y104.039 E2.63405
G1 X132.125 Y104.476 E2.65146
G1 X132.394 Y104.956 E2.66885
G1 X132.591 Y105.471 E2.68627
G1 X132.712 Y106.009 E2.7037
G1 X132.753 Y106.558 E2.72109
G1 X132.714 Y107.108 E2.73851
G1 X132.623 Y107.552 E2.75283
G1 X130.507 Y115.443 E3.01097
G1 X135.698 Y115.443 E3.175
G1 X136.248 Y115.483 E3.19242
G1 X136.786 Y115.602 E3.20983
G1 X137.25 Y115.778 E3.22551
G1 X137.533 Y115.407 E3.24025
G1 X137.928 Y115.023 E3.25766
G1 X138.374 Y114.699 E3.27508
G1 X138.862 Y114.444 E3.29248
G1 X139.382 Y114.261 E3.30989
G1 X139.923 Y114.156 E3.32731
G1 X140.376 Y114.129 E3.34165
G1 X148.32 Y114.129 E3.59265
G1 X148.87 Y114.169 E3.61008
G1 X149.408 Y114.288 E3.62749
G1 X149.923 Y114.484 E3.6449
G1 X150.404 Y114.752 E3.6623
G1 X150.842 Y115.086 E3.6797
G1 X151.226 Y115.481 E3.69711
G1 X151.55 Y115.927 E3.71453
G1 X151.805 Y116.415 E3.73192
G1 X151.988 Y116.935 E3.74934
G1 X152.093 Y117.476 E3.76676
G1 X152.12 Y117.906 E3.78037
G1 X152.139 Y121.096 E3.88117
G1 X152.102 Y121.646 E3.89858
G1 X151.986 Y122.185 E3.916
G1 X151.794 Y122.701 E3.9334
G1 X151.529 Y123.184 E3.95081
G1 X151.197 Y123.624 E3.96822
G1 X150.804 Y124.011 E3.98565
G1 X150.36 Y124.337 E4.00306
G1 X149.874 Y124.595 E4.02044
G1 X149.355 Y124.781 E4.03786
G1 X148.815 Y124.889 E4.05526
G1 X148.344 Y124.919 E4.07018
G1 X140.381 Y124.929 E4.32178
G1 X139.831 Y124.89 E4.33921
G1 X139.293 Y124.771 E4.35662
G1 X138.824 Y124.594 E4.37246
G1 X138.541 Y124.965 E4.3872
G1 X138.146 Y125.349 E4.40461
G1 X137.7 Y125.673 E4.42202
G1 X137.212 Y125.928 E4.43942
G1 X136.692 Y126.111 E4.45684
G1 X136.151 Y126.216 E4.47425
G1 X135.698 Y126.243 E4.48859
G1 X130.199 Y126.243 E4.66234
G1 X129.649 Y126.203 E4.67977
G1 X129.111 Y126.084 E4.69718
G1 X128.596 Y125.888 E4.71459
G1 X128.372 Y125.763 E4.7227
G1 X128.011 Y126.081 E4.7379
G1 X127.359 Y126.582 E4.76388
G1 X126.899 Y126.885 E4.78128
G1 X126.499 Y127.079 E4.79533
G1 X125.744 Y127.392 E4.82115
G1 X125.221 Y127.566 E4.83857
G1 X124.786 Y127.649 E4.85256
G1 X123.968 Y127.757 E4.87863
G1 X123.418 Y127.79 E4.89604
G1 X122.973 Y127.757 E4.91014
G1 X122.156 Y127.649 E4.93618
G1 X121.616 Y127.538 E4.9536
G1 X121.2 Y127.393 E4.96752
G1 X120.444 Y127.08 E4.99337
G1 X119.952 Y126.833 E5.01077
G1 X119.583 Y126.582 E5.02487
G1 X118.931 Y126.081 E5.05085
G1 X118.519 Y125.715 E5.06826
G1 X118.233 Y125.384 E5.08209
G1 X117.731 Y124.731 E5.10811
G1 X117.5 Y124.38 E5.12139
G1 X117.292 Y124.69 E5.13318
G1 X116.797 Y125.344 E5.1591
G1 X116.433 Y125.758 E5.17652
G1 X116.1 Y126.051 E5.19053
G1 X115.452 Y126.555 E5.21647
G1 X114.994 Y126.86 E5.23386
G1 X114.597 Y127.056 E5.24785
G1 X113.844 Y127.374 E5.27368
G1 X113.323 Y127.551 E5.29106
G1 X112.892 Y127.636 E5.30494
G1 X112.077 Y127.75 E5.33094
G1 X111.528 Y127.787 E5.34833
G1 X111.087 Y127.759 E5.36229
G1 X110.275 Y127.659 E5.38814
G1 X109.734 Y127.552 E5.40557
G1 X109.306 Y127.407 E5.41985
G1 X108.542 Y127.096 E5.44591
G1 X108.048 Y126.851 E5.46333
G1 X107.682 Y126.606 E5.47725
G1 X107.028 Y126.111 E5.50317
G1 X106.632 Y125.763 E5.51982
G1 X106.315 Y125.928 E5.53112
G1 X105.795 Y126.111 E5.54853
G1 X105.254 Y126.216 E5.56595
G1 X104.801 Y126.243 E5.58029
G1 X99.302 Y126.243 E5.75404
G1 X98.752 Y126.203 E5.77146
G1 X98.214 Y126.084 E5.78887
G1 X97.699 Y125.888 E5.80629
G1 X97.218 Y125.62 E5.82368
G1 X96.78 Y125.286 E5.84109
G1 X96.396 Y124.891 E5.85849
G1 X96.171 Y124.582 E5.87057
G1 X95.618 Y124.782 E5.88915
G1 X95.077 Y124.887 E5.90657
G1 X94.631 Y124.914 E5.92068
G1 X86.685 Y124.929 E6.17175
G1 X86.136 Y124.89 E6.18915
G1 X85.597 Y124.772 E6.20658
G1 X85.082 Y124.578 E6.22397
G1 X84.6 Y124.31 E6.24139
G1 X84.162 Y123.976 E6.2588
G1 X83.776 Y123.583 E6.2762
G1 X83.452 Y123.137 E6.29362
G1 X83.195 Y122.65 E6.31102
G1 X83.012 Y122.13 E6.32844
G1 X82.906 Y121.589 E6.34586
G1 X82.878 Y121.149 E6.35979
G1 X82.861 Y117.949 E6.4609
G1 X82.898 Y117.399 E6.47832
G1 X83.014 Y116.861 E6.49571
G1 X83.207 Y116.345 E6.51312
G1 X83.472 Y115.862 E6.53052
G1 X83.654 Y115.621 E6.54007
G0 F1350 X83.805 Y115.422
G0 X84.197 Y115.036
G0 F7500 X84.588 Y115.234
G1 F1500 X85.025 Y114.949 E6.55655
G1 X85.499 Y114.734 E6.573
G1 X86.001 Y114.594 E6.58946
G1 X86.661 Y114.529 E6.61042
G1 X94.624 Y114.529 E6.86203
G1 X95.144 Y114.569 E6.87851
G1 X95.651 Y114.688 E6.89496
G1 X96.134 Y114.883 E6.91142
G1 X96.582 Y115.149 E6.92788
G1 X96.984 Y115.481 E6.94436
G1 X97.33 Y115.871 E6.96083
G1 X97.608 Y116.301 E6.97701
G1 X97.68 Y116.254 E6.97973
G1 X98.155 Y116.042 E6.99616
G1 X98.658 Y115.904 E7.01264
G1 X99.301 Y115.843 E7.03305
G1 X104.801 Y115.843 E7.20683
G1 X105.017 Y115.86 E7.21368
G1 X102.763 Y107.448 E7.48885
G1 X102.667 Y106.936 E7.50531
G1 X102.65 Y106.415 E7.52178
G1 X102.714 Y105.898 E7.53824
G1 X102.855 Y105.396 E7.55472
G1 X103.072 Y104.922 E7.57119
G1 X103.358 Y104.487 E7.58764
G1 X103.708 Y104.1 E7.60413
G1 X104.113 Y103.772 E7.62059
G1 X104.563 Y103.509 E7.63706
G1 X105.165 Y103.284 E7.65737
G1 X108.256 Y102.454 E7.7585
G1 X108.768 Y102.358 E7.77496
G1 X109.289 Y102.341 E7.79143
G1 X109.807 Y102.404 E7.80791
G1 X110.308 Y102.546 E7.82437
G1 X110.782 Y102.762 E7.84083
G1 X111.218 Y103.048 E7.8573
G1 X111.605 Y103.398 E7.87379
G1 X111.933 Y103.802 E7.89023
G1 X112.196 Y104.252 E7.9067
G1 X112.422 Y104.858 E7.92714
G1 X114.804 Y113.745 E8.21785
G1 X114.9 Y114.257 E8.23431
G1 X114.917 Y114.778 E8.25078
G1 X114.863 Y115.215 E8.2647
G1 X115.135 Y115.399 E8.27507
G1 X115.789 Y115.894 E8.30099
G1 X116.179 Y116.239 E8.31744
G1 X116.42 Y116.517 E8.32907
G1 X116.925 Y117.166 E8.35505
G1 X117.213 Y117.601 E8.37153
G1 X117.375 Y117.933 E8.38321
G1 X117.498 Y118.224 E8.39319
G1 X117.602 Y117.972 E8.4018
G1 X117.837 Y117.507 E8.41826
G1 X118.048 Y117.199 E8.43006
G1 X118.55 Y116.546 E8.45609
G1 X118.899 Y116.158 E8.47258
G1 X119.174 Y115.922 E8.48403
G1 X119.826 Y115.421 E8.51001
G1 X120.141 Y115.216 E8.52188
G1 X120.091 Y114.902 E8.53193
G1 X120.089 Y114.381 E8.54839
G1 X120.196 Y113.745 E8.56877
G1 X122.578 Y104.859 E8.85945
G1 X122.751 Y104.367 E8.87593
G1 X122.997 Y103.908 E8.89239
G1 X123.311 Y103.491 E8.90888
G1 X123.684 Y103.128 E8.92533
G1 X124.109 Y102.826 E8.9418
G1 X124.575 Y102.592 E8.95828
G1 X125.071 Y102.432 E8.97474
G1 X125.585 Y102.35 E8.99119
G1 X126.107 Y102.348 E9.00769
G1 X126.743 Y102.455 E9.02806
G1 X129.834 Y103.284 E9.12918
G1 X130.325 Y103.457 E9.14563
G1 X130.785 Y103.704 E9.16213
G1 X131.201 Y104.017 E9.17858
G1 X131.564 Y104.391 E9.19505
G1 X131.866 Y104.815 E9.21149
G1 X132.1 Y105.281 E9.22797
G1 X132.26 Y105.777 E9.24444
G1 X132.342 Y106.292 E9.26092
G1 X132.344 Y106.813 E9.27738
G1 X132.237 Y107.448 E9.29772
G1 X129.981 Y115.864 E9.57303
G1 X130.198 Y115.843 E9.57992
G1 X135.698 Y115.843 E9.75371
G1 X136.218 Y115.883 E9.77019
G1 X136.725 Y116.002 E9.78664
G1 X137.208 Y116.197 E9.8031
G1 X137.396 Y116.308 E9.81
G1 X137.596 Y115.971 E9.82238
G1 X137.928 Y115.569 E9.83885
G1 X138.318 Y115.223 E9.85533
G1 X138.756 Y114.94 E9.8718
G1 X139.231 Y114.727 E9.88825
G1 X139.734 Y114.59 E9.90473
G1 X140.376 Y114.529 E9.9251
G1 X148.32 Y114.529 E10.17611
G1 X148.84 Y114.569 E10.19259
G1 X149.347 Y114.688 E10.20904
G1 X149.83 Y114.883 E10.2255
G1 X150.278 Y115.149 E10.24196
G1 X150.68 Y115.481 E10.25844
G1 X151.026 Y115.871 E10.27491
G1 X151.309 Y116.309 E10.29139
G1 X151.522 Y116.784 E10.30784
G1 X151.659 Y117.287 E10.32431
G1 X151.72 Y117.909 E10.34406
G1 X151.739 Y121.099 E10.44485
G1 X151.702 Y121.619 E10.46133
G1 X151.586 Y122.127 E10.47779
G1 X151.394 Y122.611 E10.49424
G1 X151.13 Y123.061 E10.51073
G1 X150.801 Y123.464 E10.52717
G1 X150.413 Y123.813 E10.54366
G1 X149.977 Y124.098 E10.56011
G1 X149.503 Y124.314 E10.57657
G1 X149.001 Y124.454 E10.59304
G1 X148.343 Y124.519 E10.61393
G1 X140.38 Y124.529 E10.86554
G1 X139.861 Y124.49 E10.88199
G1 X139.353 Y124.371 E10.89847
G1 X138.87 Y124.177 E10.91492
G1 X138.678 Y124.063 E10.92197
G1 X138.478 Y124.401 E10.93438
G1 X138.146 Y124.803 E10.95086
G1 X137.756 Y125.149 E10.96733
G1 X137.318 Y125.432 E10.98381
G1 X136.843 Y125.645 E11.00026
G1 X136.34 Y125.782 E11.01673
G1 X135.698 Y125.843 E11.0371
G1 X130.199 Y125.843 E11.21086
G1 X129.679 Y125.803 E11.22734
G1 X129.172 Y125.684 E11.24379
G1 X128.689 Y125.489 E11.26025
G1 X128.29 Y125.252 E11.27491
G1 X128.054 Y125.517 E11.28613
G1 X127.768 Y125.764 E11.29807
G1 X127.116 Y126.265 E11.32405
G1 X126.679 Y126.55 E11.34053
G1 X126.346 Y126.71 E11.35221
G1 X125.591 Y127.023 E11.37803
G1 X125.096 Y127.185 E11.39449
G1 X124.734 Y127.253 E11.40612
G1 X123.916 Y127.361 E11.4322
G1 X123.396 Y127.389 E11.44865
G1 X123.025 Y127.361 E11.46041
G1 X122.208 Y127.253 E11.48645
G1 X121.699 Y127.145 E11.50289
G1 X121.353 Y127.023 E11.51448
G1 X120.597 Y126.71 E11.54033
G1 X120.133 Y126.475 E11.55677
G1 X119.826 Y126.265 E11.56852
G1 X119.174 Y125.764 E11.5945
G1 X118.787 Y125.416 E11.61094
G1 X118.55 Y125.14 E11.62244
G1 X118.048 Y124.487 E11.64846
G1 X117.763 Y124.051 E11.66492
G1 X117.602 Y123.715 E11.6767
G1 X117.498 Y123.465 E11.68525
G1 X117.412 Y123.677 E11.69248
G1 X117.179 Y124.144 E11.70897
G1 X116.973 Y124.449 E11.7206
G1 X116.478 Y125.103 E11.74652
G1 X116.133 Y125.493 E11.76297
G1 X115.854 Y125.735 E11.77464
G1 X115.206 Y126.239 E11.80058
G1 X114.772 Y126.526 E11.81702
G1 X114.442 Y126.687 E11.82862
G1 X113.689 Y127.005 E11.85445
G1 X113.195 Y127.171 E11.87091
G1 X112.837 Y127.24 E11.88243
G1 X112.022 Y127.354 E11.90844
G1 X111.502 Y127.387 E11.9249
G1 X111.135 Y127.362 E11.93652
G1 X110.323 Y127.262 E11.96237
G1 X109.813 Y127.158 E11.97882
G1 X109.457 Y127.036 E11.99071
G1 X108.693 Y126.725 E12.01677
G1 X108.227 Y126.492 E12.03324
G1 X107.923 Y126.287 E12.04482
G1 X107.269 Y125.792 E12.07074
G1 X106.879 Y125.447 E12.08719
G1 X106.706 Y125.248 E12.09552
G1 X106.421 Y125.432 E12.10624
G1 X105.946 Y125.645 E12.12269
G1 X105.443 Y125.782 E12.13916
G1 X104.801 Y125.843 E12.15954
G1 X99.302 Y125.843 E12.33329
G1 X98.782 Y125.803 E12.34977
G1 X98.275 Y125.684 E12.36623
G1 X97.792 Y125.489 E12.38268
G1 X97.344 Y125.223 E12.39915
G1 X96.942 Y124.891 E12.41562
G1 X96.596 Y124.501 E12.43209
G1 X96.313 Y124.063 E12.44857
G1 X96.244 Y124.103 E12.45109
G1 X95.769 Y124.316 E12.46754
G1 X95.266 Y124.453 E12.48401
G1 X94.63 Y124.514 E12.5042
G1 X86.684 Y124.529 E12.75527
G1 X86.165 Y124.49 E12.77172
G1 X85.657 Y124.372 E12.78819
G1 X85.173 Y124.178 E12.80467
G1 X84.725 Y123.912 E12.82113
G1 X84.323 Y123.581 E12.83759
G1 X83.976 Y123.192 E12.85406
G1 X83.692 Y122.755 E12.87053
G1 X83.479 Y122.28 E12.88697
G1 X83.34 Y121.777 E12.90346
G1 X83.278 Y121.147 E12.92347
G1 X83.261 Y117.947 E13.02458
G1 X83.298 Y117.427 E13.04105
G1 X83.414 Y116.919 E13.05751
G1 X83.607 Y116.435 E13.07398
G1 X83.871 Y115.986 E13.09044
G1 X84.024 Y115.799 E13.09807
G0 F1350 X84.201 Y115.582
G0 X84.588 Y115.234
G0 F7500 X84.596 Y115.753
G1 F1500 X84.977 Y115.446 E13.11353
G1 X85.403 Y115.205 E13.129
G1 X85.863 Y115.037 E13.14447
G1 X86.344 Y114.946 E13.15994
G1 X86.661 Y114.929 E13.16997
G1 X94.624 Y114.929 E13.42158
G1 X95.112 Y114.969 E13.43705
G1 X95.587 Y115.088 E13.45252
G1 X96.036 Y115.282 E13.46797
G1 X96.448 Y115.547 E13.48345
G1 X96.811 Y115.875 E13.49891
G1 X97.116 Y116.258 E13.51438
G1 X97.354 Y116.686 E13.52985
G1 X97.434 Y116.907 E13.53728
G1 X97.629 Y116.752 E13.54515
G1 X98.057 Y116.513 E13.56064
G1 X98.517 Y116.347 E13.57609
G1 X98.998 Y116.258 E13.59155
G1 X99.301 Y116.243 E13.60114
G1 X104.801 Y116.243 E13.77492
G1 X105.289 Y116.283 E13.79039
G1 X105.57 Y116.353 E13.79954
G1 X105.53 Y116.229 E13.80366
G1 X103.149 Y107.345 E14.09427
G1 X103.062 Y106.863 E14.10975
G1 X103.053 Y106.374 E14.1252
G1 X103.125 Y105.889 E14.1407
G1 X103.274 Y105.423 E14.15615
G1 X103.497 Y104.988 E14.1716
G1 X103.788 Y104.594 E14.18708
G1 X104.139 Y104.253 E14.20254
G1 X104.541 Y103.973 E14.21802
G1 X104.983 Y103.763 E14.23348
G1 X105.269 Y103.671 E14.24297
G1 X108.36 Y102.841 E14.3441
G1 X108.842 Y102.753 E14.35958
G1 X109.331 Y102.744 E14.37503
G1 X109.815 Y102.815 E14.39049
G1 X110.281 Y102.964 E14.40595
G1 X110.717 Y103.187 E14.42142
G1 X111.111 Y103.478 E14.4369
G1 X111.452 Y103.829 E14.45236
G1 X111.732 Y104.231 E14.46784
G1 X111.942 Y104.673 E14.4833
G1 X112.036 Y104.961 E14.49288
G1 X114.418 Y113.848 E14.78359
G1 X114.505 Y114.33 E14.79907
G1 X114.514 Y114.819 E14.81452
G1 X114.442 Y115.304 E14.83001
G1 X114.403 Y115.427 E14.83409
G1 X114.655 Y115.555 E14.84302
G1 X114.894 Y115.718 E14.85216
G1 X115.548 Y116.213 E14.87808
G1 X115.912 Y116.539 E14.89352
G1 X116.105 Y116.763 E14.90286
G1 X116.61 Y117.412 E14.92885
G1 X116.878 Y117.821 E14.9443
G1 X117.006 Y118.089 E14.95368
G1 X117.323 Y118.841 E14.97947
G1 X117.476 Y119.306 E14.99493
G1 X117.501 Y119.435 E14.99909
G1 X117.561 Y119.154 E15.00816
G1 X117.659 Y118.88 E15.01736
G1 X117.971 Y118.125 E15.04317
G1 X118.195 Y117.69 E15.05863
G1 X118.366 Y117.443 E15.06812
G1 X118.868 Y116.79 E15.09415
G1 X119.197 Y116.427 E15.10963
G1 X119.418 Y116.239 E15.1188
G1 X120.07 Y115.738 E15.14478
