;FLAVOR:Marlin
;TIME:2216
;Filament used: 0.827384m
;Layer height: 0.2
;MINX:100.15
;MINY:104.1
;MINZ:0.2
;MAXX:137.804
;MAXY:130.9
;MAXZ:35
;POSTPROCESSED
;ChangeAtZ instances: 1
;Generated with Cura_SteamEngine 4.6.2
M140 S60
M105
M190 S60
M104 S200
M105
M109 S200
M82 ;absolute extrusion mode
; Ender 3 Custom Start G-code
G92 E0 ; Reset Extruder
G28 ; Home all axes
G1 Z2.0 F3000 ; Move Z Axis up little to prevent scratching of Heat Bed
G1 X0.1 Y20 Z0.3 F5000.0 ; Move to start position
G1 X0.1 Y200.0 Z0.3 F1500.0 E15 ; Draw the first line
G1 X0.4 Y200.0 Z0.3 F5000.0 ; Move to side a little
G1 X0.4 Y20 Z0.3 F1500.0 E30 ; Draw the second line
G92 E0 ; Reset Extruder
G1 Z2.0 F3000 ; Move Z Axis up little to prevent scratching of Heat Bed
G1 X5 Y20 Z0.3 F5000.0 ; Move over to prevent blob squish
G92 E0
G92 E0
G1 F1500 E-6
;LAYER_COUNT:175
;LAYER:0
M107
M204 S500
M205 X8 Y8
G0 F7500 X126.32 Y104.907 Z0.2
;TYPE:SKIRT
G1 F1500 E0
G1 X126.834 Y104.927 E0.01625
G1 X127.436 Y104.966 E0.03531
G1 X128.334 Y105.065 E0.06386
G1 X129.22 Y105.242 E0.09241
G1 X130.086 Y105.497 E0.12093
G1 X130.927 Y105.827 E0.14948
G1 X131.734 Y106.231 E0.178
G1 X132.504 Y106.704 E0.20655
G1 X133.228 Y107.244 E0.23509
G1 X133.901 Y107.845 E0.2636
G1 X134.519 Y108.504 E0.29214
G1 X135.076 Y109.215 E0.32068
G1 X135.568 Y109.972 E0.34921
G1 X135.991 Y110.77 E0.37775
G1 X136.342 Y111.602 E0.40628
G1 X136.618 Y112.462 E0.43482
G1 X136.817 Y113.343 E0.46336
G1 X136.937 Y114.238 E0.49189
G1 X136.968 Y114.727 E0.50737
G1 X137 Y115.612 E0.53535
G1 X137.004 Y115.987 E0.5472
G1 X137.004 Y119.284 E0.65138
G1 X136.995 Y119.965 E0.6729
G1 X136.943 Y120.866 E0.70141
G1 X136.812 Y121.76 E0.72996
G1 X136.602 Y122.638 E0.75849
G1 X136.315 Y123.495 E0.78704
G1 X135.954 Y124.322 E0.81556
G1 X135.52 Y125.115 E0.84412
G1 X135.019 Y125.866 E0.87265
G1 X134.453 Y126.569 E0.90116
G1 X133.826 Y127.22 E0.92972
G1 X133.145 Y127.813 E0.95825
G1 X132.414 Y128.343 E0.98678
G1 X131.639 Y128.807 E1.01532
G1 X130.826 Y129.2 E1.04386
G1 X129.982 Y129.52 E1.07238
G1 X129.064 Y129.775 E1.10248
G1 X128.836 Y129.827 E1.10987
G1 X127.948 Y129.988 E1.13839
G1 X126.944 Y130.075 E1.17023
G1 X126.456 Y130.093 E1.18566
G1 X126.08 Y130.1 E1.19754
G1 X111.711 Y130.099 E1.65156
G1 X111.013 Y130.089 E1.67362
G1 X110.111 Y130.036 E1.70217
G1 X109.218 Y129.904 E1.73069
G1 X108.34 Y129.693 E1.75922
G1 X107.484 Y129.405 E1.78776
G1 X106.657 Y129.043 E1.81628
G1 X105.865 Y128.608 E1.84483
G1 X105.114 Y128.106 E1.87338
G1 X104.411 Y127.539 E1.90191
G1 X103.761 Y126.912 E1.93045
G1 X103.169 Y126.23 E1.95899
G1 X102.639 Y125.499 E1.98752
G1 X102.177 Y124.723 E2.01605
G1 X101.784 Y123.91 E2.04458
G1 X101.466 Y123.065 E2.07311
G1 X101.223 Y122.195 E2.10165
G1 X101.058 Y121.307 E2.13019
G1 X100.963 Y120.166 E2.16637
G1 X100.95 Y119.558 E2.18558
G1 X100.951 Y115.661 E2.30872
G1 X100.96 Y114.975 E2.3304
G1 X101.012 Y114.074 E2.35891
G1 X101.143 Y113.18 E2.38746
G1 X101.353 Y112.302 E2.41599
G1 X101.64 Y111.445 E2.44454
G1 X102.001 Y110.618 E2.47306
G1 X102.434 Y109.825 E2.5016
G1 X102.936 Y109.074 E2.53015
G1 X103.502 Y108.37 E2.55869
G1 X104.128 Y107.72 E2.5872
G1 X104.809 Y107.127 E2.61573
G1 X105.54 Y106.596 E2.64428
G1 X106.315 Y106.133 E2.67281
G1 X107.128 Y105.739 E2.70135
G1 X107.973 Y105.419 E2.7299
G1 X108.842 Y105.176 E2.75842
G1 X109.73 Y105.01 E2.78696
G1 X110.858 Y104.913 E2.82273
G1 X111.463 Y104.9 E2.84185
G1 X125.52 Y104.9 E3.28601
G0 F1350 X125.828 Y104.9
G0 X126.32 Y104.907
G0 F7500 X126.326 Y104.507
G1 F1500 X126.86 Y104.528 E3.3029
G1 X127.462 Y104.567 E3.32196
G1 X128.378 Y104.667 E3.35108
G1 X129.281 Y104.845 E3.38016
G1 X130.165 Y105.101 E3.40924
G1 X131.024 Y105.433 E3.43834
G1 X131.851 Y105.838 E3.46743
G1 X132.639 Y106.313 E3.4965
G1 X133.383 Y106.855 E3.52559
G1 X134.078 Y107.46 E3.5547
G1 X134.717 Y108.122 E3.58378
G1 X135.296 Y108.838 E3.61287
G1 X135.811 Y109.601 E3.64196
G1 X136.258 Y110.406 E3.67105
G1 X136.634 Y111.246 E3.70013
G1 X136.935 Y112.116 E3.72922
G1 X137.16 Y113.009 E3.75832
G1 X137.306 Y113.918 E3.78741
G1 X137.368 Y114.71 E3.81251
G1 X137.4 Y115.608 E3.8409
G1 X137.404 Y115.987 E3.85288
G1 X137.404 Y119.289 E3.95721
G1 X137.395 Y119.97 E3.97873
G1 X137.343 Y120.889 E4.00781
G1 X137.211 Y121.8 E4.0369
G1 X137.001 Y122.697 E4.06601
G1 X136.714 Y123.571 E4.09508
G1 X136.352 Y124.418 E4.12418
G1 X135.918 Y125.23 E4.15327
G1 X135.415 Y126.001 E4.18236
G1 X134.847 Y126.725 E4.21144
G1 X134.218 Y127.398 E4.24054
G1 X133.533 Y128.014 E4.26965
G1 X132.798 Y128.567 E4.29871
G1 X132.017 Y129.055 E4.32781
G1 X131.197 Y129.473 E4.35689
G1 X130.343 Y129.819 E4.38601
G1 X129.153 Y130.165 E4.42517
G1 X128.925 Y130.217 E4.43256
G1 X128.019 Y130.382 E4.46165
G1 X126.959 Y130.475 E4.49527
G1 X126.471 Y130.493 E4.5107
G1 X126.08 Y130.5 E4.52306
G1 X111.705 Y130.499 E4.97727
G1 X111.007 Y130.489 E4.99933
G1 X110.088 Y130.436 E5.02841
G1 X109.177 Y130.303 E5.0575
G1 X108.281 Y130.092 E5.08659
G1 X107.407 Y129.804 E5.11566
G1 X106.56 Y129.441 E5.14478
G1 X105.749 Y129.006 E5.17386
G1 X104.979 Y128.502 E5.20294
G1 X104.255 Y127.933 E5.23203
G1 X103.583 Y127.303 E5.26114
G1 X102.968 Y126.618 E5.29023
G1 X102.415 Y125.882 E5.31932
G1 X101.928 Y125.101 E5.3484
G1 X101.511 Y124.28 E5.37749
G1 X101.166 Y123.426 E5.4066
G1 X100.897 Y122.546 E5.43567
G1 X100.705 Y121.645 E5.46478
G1 X100.592 Y120.732 E5.49385
G1 X100.563 Y120.177 E5.51141
G1 X100.55 Y119.558 E5.53097
G1 X100.551 Y115.656 E5.65426
G1 X100.56 Y114.97 E5.67594
G1 X100.612 Y114.051 E5.70502
G1 X100.744 Y113.14 E5.73411
G1 X100.954 Y112.243 E5.76322
G1 X101.241 Y111.369 E5.79229
G1 X101.603 Y110.522 E5.82139
G1 X102.037 Y109.71 E5.85048
G1 X102.54 Y108.939 E5.87957
G1 X103.108 Y108.214 E5.90867
G1 X103.736 Y107.542 E5.93773
G1 X104.421 Y106.926 E5.96684
G1 X105.156 Y106.372 E5.99592
G1 X105.937 Y105.884 E6.02502
G1 X106.757 Y105.466 E6.0541
G1 X107.611 Y105.121 E6.08321
G1 X108.491 Y104.85 E6.1123
G1 X109.391 Y104.657 E6.14138
G1 X110.305 Y104.543 E6.17049
G1 X110.846 Y104.514 E6.18761
G1 X111.463 Y104.5 E6.20711
G1 X125.526 Y104.5 E6.65146
G0 F1350 X125.834 Y104.5
G0 X126.326 Y104.507
G0 F7500 X126.331 Y104.107
G1 F1500 X126.886 Y104.129 E6.66901
G1 X127.488 Y104.168 E6.68807
G1 X128.421 Y104.268 E6.71772
G1 X129.341 Y104.448 E6.74734
G1 X130.243 Y104.705 E6.77697
G1 X131.12 Y105.039 E6.80663
G1 X131.965 Y105.445 E6.83625
G1 X132.772 Y105.922 E6.86587
G1 X133.536 Y106.467 E6.89552
G1 X134.251 Y107.074 E6.92516
G1 X134.911 Y107.74 E6.95478
G1 X135.512 Y108.46 E6.98442
G1 X136.05 Y109.228 E7.01404
G1 X136.52 Y110.039 E7.04366
G1 X136.92 Y110.888 E7.07332
G1 X137.246 Y111.767 E7.10294
G1 X137.495 Y112.672 E7.1326
G1 X137.667 Y113.594 E7.16223
G1 X137.768 Y114.694 E7.19713
G1 X137.792 Y115.279 E7.21563
G1 X137.804 Y115.987 E7.23801
G1 X137.804 Y119.294 E7.3425
G1 X137.795 Y119.975 E7.36402
G1 X137.743 Y120.912 E7.39367
G1 X137.611 Y121.84 E7.42329
G1 X137.4 Y122.754 E7.45293
G1 X137.113 Y123.647 E7.48257
G1 X136.75 Y124.512 E7.51221
G1 X136.315 Y125.343 E7.54184
G1 X135.811 Y126.134 E7.57148
G1 X135.241 Y126.879 E7.60112
G1 X134.61 Y127.572 E7.63073
G1 X133.922 Y128.21 E7.66038
G1 X133.182 Y128.786 E7.69001
G1 X132.396 Y129.298 E7.71965
G1 X131.569 Y129.74 E7.74928
G1 X130.708 Y130.111 E7.7789
G1 X129.818 Y130.407 E7.80854
G1 X129.242 Y130.555 E7.82733
G1 X129.014 Y130.607 E7.83472
G1 X128.092 Y130.776 E7.86434
G1 X126.973 Y130.875 E7.89983
G1 X126.485 Y130.893 E7.91526
G1 X126.08 Y130.9 E7.92806
G1 X111.699 Y130.899 E8.38246
G1 X111.001 Y130.889 E8.40452
G1 X110.065 Y130.835 E8.43414
G1 X109.137 Y130.703 E8.46376
G1 X108.223 Y130.491 E8.4934
G1 X107.331 Y130.202 E8.52303
G1 X106.466 Y129.839 E8.55267
G1 X105.636 Y129.403 E8.58229
G1 X104.845 Y128.898 E8.61195
G1 X104.101 Y128.327 E8.64158
G1 X103.408 Y127.695 E8.67122
G1 X102.771 Y127.007 E8.70084
G1 X102.196 Y126.266 E8.73048
G1 X101.685 Y125.48 E8.7601
G1 X101.243 Y124.652 E8.78976
G1 X100.874 Y123.79 E8.81938
G1 X100.579 Y122.9 E8.84901
G1 X100.361 Y121.988 E8.87864
G1 X100.221 Y121.06 E8.90829
G1 X100.163 Y120.188 E8.93591
G1 X100.15 Y119.558 E8.95582
G1 X100.151 Y115.651 E9.07927
G1 X100.16 Y114.965 E9.10094
G1 X100.212 Y114.028 E9.1306
G1 X100.344 Y113.1 E9.16021
G1 X100.555 Y112.186 E9.18985
G1 X100.842 Y111.293 E9.21949
G1 X101.205 Y110.428 E9.24913
G1 X101.64 Y109.597 E9.27877
G1 X102.144 Y108.806 E9.3084
G1 X102.713 Y108.061 E9.33802
G1 X103.344 Y107.367 E9.36766
G1 X104.032 Y106.73 E9.39729
G1 X104.772 Y106.153 E9.42694
G1 X105.558 Y105.642 E9.45656
G1 X106.385 Y105.199 E9.4862
G1 X107.246 Y104.828 E9.51583
G1 X108.136 Y104.532 E9.54546
G1 X109.048 Y104.313 E9.5751
G1 X109.975 Y104.173 E9.60472
G1 X110.835 Y104.114 E9.63196
G1 X111.463 Y104.1 E9.65181
G1 X125.531 Y104.1 E10.09631
G0 F1350 X125.839 Y104.1
G0 X126.331 Y104.107
G1 F1500 E4.09631
;MESH:SmartTemperatureTower_TempFloor_240.stl
G0 F7500 X126.33 Y114.435
G0 X126.331 Y115.5
G0 X112.332 Y116.282
G0 X112.15 Y118.9
;TYPE:WALL-INNER
G1 F1500 E10.09631
G1 X112.15 Y116.1 E10.18479
G1 X125.8 Y116.099 E10.61609
G1 X125.804 Y118.701 E10.6983
G1 X125.804 Y118.9 E10.70459
G1 X125.605 Y118.9 E10.70866
G1 X112.15 Y118.9 E11.1338
G0 F7500 X111.75 Y119.3
G1 F1500 X111.75 Y115.7 E11.24755
G1 X126.2 Y115.699 E11.70413
G1 X126.204 Y119.101 E11.81162
G1 X126.204 Y119.3 E11.81791
G1 X126.005 Y119.3 E11.82198
G1 X111.75 Y119.3 E12.27239
G0 F7500 X111.35 Y119.7
;TYPE:WALL-OUTER
G1 F1500 X111.35 Y115.3 E12.40447
G1 X126.38 Y115.299 E12.85563
G1 X126.599 Y115.313 E12.86222
G1 X126.605 Y119.598 E12.99084
G1 X126.605 Y119.687 E12.99351
G1 X126.563 Y119.692 E12.99478
G1 X126.384 Y119.7 E13.00016
G1 X126.295 Y119.7 E13.00283
G1 X112.15 Y119.7 E13.42743
G0 F1350 X111.35 Y119.7
G0 F7500 X111.35 Y119.3
G0 X111.79 Y119.26
G0 X112.26 Y118.51
G0 X112.54 Y118.51
;TYPE:SKIN
G1 F1500 X112.54 Y116.49 E13.49125
G1 X125.41 Y116.489 E13.89791
G1 X125.414 Y118.51 E13.96176
G1 X113.34 Y118.51 E14.34327
G0 F1350 X112.54 Y118.51
G0 F7500 X112.9 Y118.149
G1 F1500 X113.058 Y118.149 E14.34826
G1 X112.899 Y117.99 E14.35537
G0 F7500 X113.058 Y118.149
G1 F1500 X113.624 Y118.149 E14.37325
G1 X112.899 Y117.424 E14.40565
G1 X112.899 Y116.859 E14.4235
G1 X114.189 Y118.149 E14.48114
G1 X114.755 Y118.149 E14.49903
G1 X113.455 Y116.849 E14.55712
G1 X114.02 Y116.849 E14.57497
G1 X115.321 Y118.149 E14.63308
G1 X115.887 Y118.149 E14.65097
G1 X114.586 Y116.849 E14.70908
G1 X115.152 Y116.849 E14.72696
G1 X116.452 Y118.149 E14.78505
G1 X117.018 Y118.149 E14.80294
G1 X115.718 Y116.849 E14.86103
G1 X116.283 Y116.849 E14.87888
G1 X117.584 Y118.149 E14.93699
G1 X118.149 Y118.149 E14.95485
G1 X116.849 Y116.849 E15.01294
G1 X117.415 Y116.849 E15.03082
G1 X118.715 Y118.149 E15.08891
G1 X119.281 Y118.149 E15.1068
G1 X117.98 Y116.849 E15.16491
G1 X118.546 Y116.849 E15.18279
G1 X119.846 Y118.149 E15.24088
G1 X120.412 Y118.149 E15.25877
G1 X119.112 Y116.849 E15.31686
G1 X119.677 Y116.849 E15.33471
G1 X120.978 Y118.149 E15.39282
G1 X121.543 Y118.149 E15.41068
G1 X120.243 Y116.849 E15.46877
G1 X120.809 Y116.849 E15.48665
G1 X122.109 Y118.149 E15.54474
G1 X122.675 Y118.149 E15.56262
G1 X121.374 Y116.849 E15.62074
G1 X121.94 Y116.849 E15.63862
G1 X123.24 Y118.149 E15.69671
G1 X123.806 Y118.149 E15.7146
G1 X122.506 Y116.849 E15.77269
G1 X123.071 Y116.849 E15.79054
G1 X124.372 Y118.149 E15.84865
G1 X124.937 Y118.149 E15.8665
G1 X123.637 Y116.849 E15.9246
G1 X124.203 Y116.849 E15.94248
G1 X125.051 Y117.697 E15.98037
G1 X125.05 Y117.13 E15.99829
G1 X124.768 Y116.849 E16.01087
G1 X125.049 Y116.849 E16.01975
G0 F7500 X125.049 Y115.909
;MESH:NONMESH
G0 F300 X125.049 Y115.909 Z0.4
G0 F7500 X119.714 Y116
;TIME_ELAPSED:28.737319
;LAYER:1
M140 S60
M106 S85
;TYPE:WALL-INNER
;MESH:SmartTemperatureTower_TempFloor_240.stl
G1 F1632.2 X119.713 Y116.3 E16.02972
G1 X122.308 Y116.3 E16.11603
G1 X122.308 Y116.001 E16.12598
G1 X125.961 Y116.005 E16.24748
G1 X125.961 Y119 E16.34709
G1 X111.949 Y119 E16.81313
G1 X111.948 Y116.199 E16.90629
G1 X111.948 Y116 E16.91291
G1 X112.147 Y116 E16.9172
G1 X119.714 Y116 E17.16887
G0 F8250 X120.114 Y115.9
G1 F1632.2 X121.908 Y115.9 E17.22854
G1 X121.908 Y115.6 E17.23852
G1 X126.361 Y115.606 E17.38663
G1 X126.361 Y119.399 E17.51278
G1 X126.328 Y119.4 E17.51388
G1 X111.549 Y119.4 E18.00543
G1 X111.548 Y115.799 E18.1252
G1 X111.548 Y115.6 E18.13182
G1 X111.747 Y115.6 E18.13611
G1 X120.115 Y115.6 E18.41443
G1 X120.114 Y115.878 E18.42367
G0 F1469 X120.114 Y115.9
G0 F8250 X120.516 Y115.2
;TYPE:WALL-OUTER
G1 F1088.2 X120.515 Y115.5 E18.43315
G1 X121.508 Y115.5 E18.46453
G1 X121.508 Y115.2 E18.47401
G1 X126.552 Y115.206 E18.63338
G1 X126.761 Y115.234 E18.64005
G1 X126.761 Y119.763 E18.78315
G1 X126.638 Y119.784 E18.78709
G1 X126.484 Y119.797 E18.79197
G1 X126.336 Y119.8 E18.79665
G1 X111.149 Y119.8 E19.27652
G1 X111.148 Y115.4 E19.41555
G1 X111.148 Y115.2 E19.42186
G1 X111.348 Y115.2 E19.42596
G1 X120.516 Y115.2 E19.71564
G0 F8250 X120.515 Y115.5
G0 X120.615 Y115.5
G0 X120.615 Y115.94
G0 X119.322 Y116.11
G0 X119.322 Y116.39
;TYPE:SKIN
G1 F1088.2 X119.321 Y116.69 E19.72562
G1 X122.698 Y116.69 E19.83794
G1 X122.698 Y116.391 E19.84788
G1 X125.571 Y116.395 E19.94344
G1 X125.571 Y118.61 E20.01711
G1 X112.339 Y118.61 E20.45721
G1 X112.338 Y116.39 E20.53104
G1 X118.522 Y116.39 E20.73673
G0 F979.3 X119.322 Y116.39
G0 F8250 X119.322 Y116.11
G0 X125.779 Y116.187
G0 X125.851 Y118.249
G0 X125.21 Y118.249
G1 F1088.2 X125.21 Y118.034 E20.74388
G1 X124.995 Y118.249 E20.75399
G1 X124.429 Y118.249 E20.77281
G1 X125.21 Y117.468 E20.80955
G1 X125.21 Y116.903 E20.82834
G1 X123.863 Y118.249 E20.89168
G1 X123.298 Y118.249 E20.91047
G1 X124.793 Y116.753 E20.98081
G1 X124.229 Y116.752 E20.99957
G1 X122.732 Y118.249 E21.06999
G1 X122.166 Y118.249 E21.08881
G1 X123.664 Y116.751 E21.15927
G1 X123.099 Y116.751 E21.17806
G0 F8250 X123.057 Y116.751
G1 F1088.2 X123.057 Y116.793 E21.17946
G0 F8250 X123.057 Y117.049
G1 F1088.2 X122.801 Y117.049 E21.18798
G1 X121.601 Y118.249 E21.24442
G1 X121.035 Y118.249 E21.26325
G1 X122.235 Y117.049 E21.31969
G1 X121.669 Y117.049 E21.33852
G1 X120.469 Y118.249 E21.39496
G1 X119.904 Y118.249 E21.41375
G1 X121.104 Y117.049 E21.4702
G1 X120.538 Y117.049 E21.48902
G1 X119.338 Y118.249 E21.54547
G1 X118.772 Y118.249 E21.56429
G1 X119.972 Y117.049 E21.62073
G1 X119.407 Y117.049 E21.63953
G1 X118.207 Y118.249 E21.69597
G1 X117.641 Y118.249 E21.7148
G1 X118.957 Y116.932 E21.77672
G1 X118.959 Y116.75 E21.78277
G1 X118.575 Y116.749 E21.79555
G1 X117.075 Y118.249 E21.8661
G1 X116.509 Y118.249 E21.88493
G1 X118.009 Y116.749 E21.95548
G1 X117.444 Y116.749 E21.97427
G1 X115.944 Y118.249 E22.04483
G1 X115.378 Y118.249 E22.06365
G1 X116.878 Y116.749 E22.13421
G1 X116.312 Y116.749 E22.15304
G1 X114.812 Y118.249 E22.22359
G1 X114.247 Y118.249 E22.24238
G1 X115.747 Y116.749 E22.31294
G1 X115.181 Y116.749 E22.33176
G1 X113.681 Y118.249 E22.40232
G1 X113.115 Y118.249 E22.42114
G1 X114.615 Y116.749 E22.4917
G1 X114.049 Y116.749 E22.51052
G1 X112.698 Y118.1 E22.57407
G1 X112.698 Y117.535 E22.59286
G1 X113.484 Y116.749 E22.62983
G1 X112.918 Y116.749 E22.64866
G1 X112.698 Y116.969 E22.65901
G1 X112.697 Y116.749 E22.66633
G0 F8250 X112.697 Y115.81
;MESH:NONMESH
G0 F300 X112.697 Y115.81 Z0.6
G0 F8250 X122.589 Y116
;TIME_ELAPSED:41.259065
;LAYER:2
M106 S170
;TYPE:WALL-INNER
;MESH:SmartTemperatureTower_TempFloor_240.stl
G1 F2100.6 X124.042 Y116 E22.71465
G1 X124.043 Y118.801 E22.80781
G1 X124.043 Y119 E22.81443
G1 X123.844 Y119 E22.81872
G1 X111.834 Y119 E23.21817
G1 X111.833 Y116.199 E23.31133
G1 X111.833 Y116 E23.31795
G1 X112.032 Y116 E23.32223
G1 X116.168 Y116 E23.4598
G1 X116.168 Y116.3 E23.46977
G1 X122.368 Y116.3 E23.67599
G0 F1890.5 X122.588 Y116.3
G0 X122.589 Y116
G0 F9000 X122.189 Y115.9
G1 F2100.6 X122.19 Y115.6 E23.68596
G1 X124.442 Y115.6 E23.76087
G1 X124.443 Y119.201 E23.88064
G1 X124.443 Y119.4 E23.88726
G1 X124.244 Y119.4 E23.89154
G1 X111.434 Y119.4 E24.3176
G1 X111.433 Y115.799 E24.43737
G1 X111.433 Y115.6 E24.44399
G1 X111.632 Y115.6 E24.44827
G1 X116.568 Y115.6 E24.61244
G1 X116.568 Y115.9 E24.62242
G1 X121.751 Y115.9 E24.79481
G0 F1890.5 X122.189 Y115.9
