;FLAVOR:Marlin
;TIME:5865
;Filament used: 2.47495m
;Layer height: 0.12
;MINX:93.268
;MINY:84.75
;MINZ:0.12
;MAXX:135.268
;MAXY:135.25
;MAXZ:34.56
;Generated with Cura_SteamEngine 4.7.0
M140 S60
M105
M190 S60
M104 S200
M105
M109 S200
M82 ;absolute extrusion mode
; Ender 3 Custom Start G-code
G92 E0 ; Reset Extruder
G28 ; Home all axes
G1 Z2.0 F3000 ; Move Z Axis up little to prevent scratching of Heat Bed
G1 X0.1 Y20 Z0.3 F5000.0 ; Move to start position
G1 X0.1 Y200.0 Z0.3 F1500.0 E15 ; Draw the first line
G1 X0.4 Y200.0 Z0.3 F5000.0 ; Move to side a little
G1 X0.4 Y20 Z0.3 F1500.0 E30 ; Draw the second line
G92 E0 ; Reset Extruder
G1 Z2.0 F3000 ; Move Z Axis up little to prevent scratching of Heat Bed
G1 X5 Y20 Z0.3 F5000.0 ; Move over to prevent blob squish
G92 E0
G92 E0
G1 F1500 E-6.5
;LAYER_COUNT:291
;LAYER:0
M107
G0 F6000 X96.466 Y88.014 Z0.12
;TYPE:SKIRT
G1 F1500 E0
G1 F1200 X97.154 Y87.377 E0.01871
G1 X97.894 Y86.801 E0.03742
G1 X98.68 Y86.289 E0.05614
G1 X99.507 Y85.847 E0.07486
G1 X100.369 Y85.477 E0.09358
G1 X101.259 Y85.181 E0.11229
G1 X102.171 Y84.963 E0.13101
G1 X103.098 Y84.822 E0.14972
G1 X103.969 Y84.763 E0.16714
G1 X104.29 Y84.754 E0.17355
G1 X104.598 Y84.75 E0.1797
G1 X111.738 Y84.751 E0.32218
G1 X112.882 Y84.767 E0.34502
G1 X115.522 Y84.767 E0.3977
G1 X116.229 Y84.752 E0.41181
G1 X116.5 Y84.75 E0.41722
G1 X123.719 Y84.751 E0.56128
G1 X124.417 Y84.761 E0.57521
G1 X125.353 Y84.815 E0.59392
G1 X126.281 Y84.947 E0.61263
G1 X127.195 Y85.159 E0.63135
G1 X128.087 Y85.448 E0.65006
G1 X128.952 Y85.811 E0.66879
G1 X129.782 Y86.247 E0.68749
G1 X130.573 Y86.752 E0.70622
G1 X131.317 Y87.323 E0.72494
G1 X132.01 Y87.955 E0.74366
G1 X132.647 Y88.643 E0.76237
G1 X133.222 Y89.384 E0.78108
G1 X133.733 Y90.17 E0.79979
G1 X134.175 Y90.998 E0.81852
G1 X134.544 Y91.86 E0.83724
G1 X134.839 Y92.75 E0.85595
G1 X135.057 Y93.662 E0.87466
G1 X135.197 Y94.59 E0.89339
G1 X135.255 Y95.451 E0.91061
G1 X135.264 Y95.771 E0.917
G1 X135.268 Y96.08 E0.92316
G1 X135.267 Y104.171 E1.08463
G1 X135.26 Y104.659 E1.09437
G1 X135.26 Y107.278 E1.14663
G1 X135.265 Y107.543 E1.15192
G1 X135.268 Y107.989 E1.16082
G1 X135.267 Y116.176 E1.3242
G1 X135.257 Y116.898 E1.33861
G1 X135.204 Y117.835 E1.35734
G1 X135.071 Y118.763 E1.37605
G1 X134.86 Y119.677 E1.39477
G1 X134.572 Y120.569 E1.41348
G1 X134.209 Y121.434 E1.4322
G1 X133.773 Y122.265 E1.45092
G1 X133.269 Y123.055 E1.46962
G1 X132.699 Y123.8 E1.48834
G1 X132.067 Y124.493 E1.50706
G1 X131.644 Y124.898 E1.51875
G1 X131.42 Y125.101 E1.52478
G1 X129.539 Y126.855 E1.57611
G1 X127.754 Y128.617 E1.62616
G1 X126.008 Y130.441 E1.67655
G1 X125.673 Y130.811 E1.68651
G1 X124.816 Y131.733 E1.71163
G1 X124.149 Y132.392 E1.73034
G1 X123.428 Y132.991 E1.74905
G1 X122.658 Y133.527 E1.76777
G1 X121.846 Y133.996 E1.78648
G1 X120.996 Y134.393 E1.8052
G1 X120.116 Y134.717 E1.82392
G1 X119.212 Y134.965 E1.84262
G1 X118.289 Y135.134 E1.86135
G1 X117.067 Y135.237 E1.88582
G1 X116.743 Y135.246 E1.89229
G1 X116.438 Y135.25 E1.89838
G1 X107.722 Y135.249 E2.07232
G1 X107.023 Y135.239 E2.08627
G1 X106.086 Y135.185 E2.105
G1 X105.158 Y135.053 E2.1237
G1 X104.244 Y134.841 E2.14243
G1 X103.352 Y134.552 E2.16114
G1 X102.487 Y134.189 E2.17986
G1 X101.657 Y133.753 E2.19857
G1 X100.867 Y133.248 E2.21728
G1 X100.122 Y132.677 E2.23601
G1 X99.429 Y132.045 E2.25473
G1 X98.792 Y131.357 E2.27344
G1 X98.217 Y130.616 E2.29216
G1 X97.706 Y129.83 E2.31086
G1 X97.264 Y129.002 E2.3296
G1 X96.814 Y127.922 E2.35294
G1 X96.472 Y126.96 E2.37332
G1 X95.564 Y124.508 E2.4255
G1 X94.615 Y122.149 E2.47624
G1 X94.129 Y120.988 E2.50136
G1 X93.804 Y120.108 E2.52008
G1 X93.556 Y119.204 E2.53879
G1 X93.385 Y118.282 E2.5575
G1 X93.281 Y117.049 E2.58219
G1 X93.272 Y116.725 E2.58866
G1 X93.268 Y116.42 E2.59475
G1 X93.269 Y108.315 E2.75649
G1 X93.276 Y107.836 E2.76605
G1 X93.276 Y105.222 E2.81822
G1 X93.271 Y104.957 E2.82351
G1 X93.268 Y104.511 E2.83241
G1 X93.269 Y96.275 E2.99677
G1 X93.278 Y95.61 E3.01004
G1 X93.331 Y94.674 E3.02875
G1 X93.463 Y93.745 E3.04747
G1 X93.674 Y92.831 E3.06619
G1 X93.962 Y91.939 E3.0849
G1 X94.325 Y91.074 E3.10362
G1 X94.76 Y90.243 E3.12234
G1 X95.264 Y89.453 E3.14104
G1 X95.834 Y88.708 E3.15976
G1 X96.466 Y88.014 E3.17849
G0 F6000 X96.857 Y88.189
G1 F1200 X97.542 Y87.573 E3.19687
G1 X98.278 Y87.02 E3.21524
G1 X99.059 Y86.532 E3.23362
G1 X99.879 Y86.114 E3.25199
G1 X100.733 Y85.769 E3.27037
G1 X101.613 Y85.499 E3.28874
G1 X102.513 Y85.307 E3.3071
G1 X103.427 Y85.193 E3.32548
G1 X103.98 Y85.163 E3.33654
G1 X104.301 Y85.154 E3.34294
G1 X104.598 Y85.15 E3.34887
G1 X111.584 Y85.15 E3.48829
G1 X112.876 Y85.167 E3.51407
G1 X115.531 Y85.167 E3.56705
G1 X116.232 Y85.152 E3.58105
G1 X116.503 Y85.15 E3.58645
G1 X123.713 Y85.151 E3.73034
G1 X124.411 Y85.161 E3.74427
G1 X125.33 Y85.214 E3.76264
G1 X126.241 Y85.347 E3.78101
G1 X127.137 Y85.558 E3.79938
G1 X128.011 Y85.846 E3.81775
G1 X128.858 Y86.209 E3.83614
G1 X129.669 Y86.644 E3.8545
G1 X130.439 Y87.148 E3.87287
G1 X131.163 Y87.717 E3.89124
G1 X131.835 Y88.347 E3.90962
G1 X132.45 Y89.032 E3.928
G1 X133.003 Y89.768 E3.94637
G1 X133.49 Y90.549 E3.96473
G1 X133.907 Y91.37 E3.98311
G1 X134.252 Y92.224 E4.00149
G1 X134.521 Y93.104 E4.01985
G1 X134.713 Y94.005 E4.03824
G1 X134.826 Y94.918 E4.0566
G1 X134.855 Y95.462 E4.06747
G1 X134.864 Y95.782 E4.07386
G1 X134.868 Y96.08 E4.07981
G1 X134.867 Y104.165 E4.24115
G1 X134.86 Y104.653 E4.25089
G1 X134.86 Y107.287 E4.30345
G1 X134.865 Y107.546 E4.30862
G1 X134.868 Y107.992 E4.31752
G1 X134.867 Y116.171 E4.48075
G1 X134.857 Y116.893 E4.49515
G1 X134.804 Y117.812 E4.51352
G1 X134.672 Y118.723 E4.53189
G1 X134.461 Y119.619 E4.55026
G1 X134.173 Y120.494 E4.56865
G1 X133.811 Y121.34 E4.58701
G1 X133.376 Y122.152 E4.60539
G1 X132.873 Y122.922 E4.62375
G1 X132.304 Y123.647 E4.64214
G1 X131.375 Y124.601 E4.66871
G1 X131.161 Y124.794 E4.67446
G1 X129.268 Y126.56 E4.72613
G1 X127.467 Y128.338 E4.77663
G1 X125.705 Y130.178 E4.82747
G1 X125.283 Y130.644 E4.84002
G1 X124.524 Y131.46 E4.86226
G1 X123.868 Y132.107 E4.88065
G1 X123.158 Y132.694 E4.89903
G1 X122.401 Y133.217 E4.91739
G1 X121.601 Y133.672 E4.93576
G1 X120.764 Y134.056 E4.95413
G1 X119.897 Y134.367 E4.97252
G1 X119.007 Y134.601 E4.99088
G1 X118.1 Y134.756 E5.00924
G1 X117.056 Y134.837 E5.03014
G1 X116.732 Y134.846 E5.03661
G1 X116.438 Y134.85 E5.04248
G1 X107.727 Y134.849 E5.21631
G1 X107.028 Y134.839 E5.23026
G1 X106.109 Y134.786 E5.24863
G1 X105.198 Y134.653 E5.26701
G1 X104.302 Y134.442 E5.28538
G1 X103.428 Y134.154 E5.30374
G1 X102.582 Y133.791 E5.32211
G1 X101.77 Y133.356 E5.3405
G1 X101 Y132.852 E5.35886
G1 X100.276 Y132.283 E5.37724
G1 X99.604 Y131.654 E5.39561
G1 X98.989 Y130.968 E5.41399
G1 X98.436 Y130.232 E5.43236
G1 X97.949 Y129.451 E5.45073
G1 X97.532 Y128.63 E5.46911
G1 X97.191 Y127.788 E5.48724
G1 X96.828 Y126.766 E5.50888
G1 X95.947 Y124.387 E5.55951
G1 X94.994 Y122.02 E5.61043
G1 X94.498 Y120.834 E5.63608
G1 X94.18 Y119.97 E5.65445
G1 X93.938 Y119.081 E5.67284
G1 X93.774 Y118.176 E5.69119
G1 X93.681 Y117.038 E5.71398
G1 X93.672 Y116.714 E5.72045
G1 X93.668 Y116.42 E5.72632
G1 X93.669 Y108.321 E5.88794
G1 X93.676 Y107.842 E5.8975
G1 X93.676 Y105.213 E5.94996
G1 X93.671 Y104.954 E5.95513
G1 X93.668 Y104.508 E5.96403
G1 X93.669 Y96.281 E6.12821
G1 X93.678 Y95.616 E6.14149
G1 X93.73 Y94.696 E6.15987
G1 X93.862 Y93.785 E6.17824
G1 X94.073 Y92.889 E6.19661
G1 X94.36 Y92.014 E6.21499
G1 X94.723 Y91.168 E6.23336
G1 X95.157 Y90.356 E6.25174
G1 X95.66 Y89.585 E6.27011
G1 X96.229 Y88.861 E6.28848
G1 X96.857 Y88.189 E6.30684
G0 F6000 X97.249 Y88.367
G1 F1200 X97.93 Y87.774 E6.32486
G1 X98.662 Y87.244 E6.34289
G1 X99.437 Y86.781 E6.36091
G1 X100.25 Y86.388 E6.37893
G1 X101.095 Y86.068 E6.39696
G1 X101.964 Y85.825 E6.41497
G1 X102.852 Y85.659 E6.433
G1 X103.991 Y85.563 E6.45581
G1 X104.312 Y85.554 E6.46221
G1 X104.598 Y85.55 E6.46792
G1 X111.584 Y85.55 E6.60734
G1 X112.871 Y85.567 E6.63302
G1 X115.495 Y85.567 E6.68539
G1 X116.086 Y85.554 E6.69718
G1 X116.506 Y85.55 E6.70557
G1 X123.707 Y85.551 E6.84927
G1 X124.405 Y85.561 E6.8632
G1 X125.307 Y85.614 E6.88123
G1 X126.2 Y85.746 E6.89925
G1 X127.078 Y85.957 E6.91727
G1 X127.934 Y86.245 E6.93529
G1 X128.761 Y86.607 E6.9533
G1 X129.553 Y87.042 E6.97134
G1 X130.304 Y87.544 E6.98936
G1 X131.007 Y88.111 E7.00739
G1 X131.657 Y88.738 E7.02541
G1 X132.249 Y89.42 E7.04343
G1 X132.779 Y90.151 E7.06145
G1 X133.241 Y90.927 E7.07947
G1 X133.634 Y91.74 E7.09749
G1 X133.952 Y92.585 E7.11551
G1 X134.195 Y93.455 E7.13354
G1 X134.36 Y94.343 E7.15156
G1 X134.455 Y95.473 E7.17419
G1 X134.464 Y95.793 E7.18058
G1 X134.468 Y96.08 E7.18631
G1 X134.467 Y104.159 E7.34753
G1 X134.46 Y104.647 E7.35727
G1 X134.46 Y107.296 E7.41014
G1 X134.465 Y107.548 E7.41517
G1 X134.468 Y107.994 E7.42407
G1 X134.467 Y116.165 E7.58713
G1 X134.457 Y116.887 E7.60154
G1 X134.405 Y117.789 E7.61957
G1 X134.273 Y118.682 E7.63758
G1 X134.062 Y119.56 E7.6556
G1 X133.775 Y120.417 E7.67364
G1 X133.413 Y121.244 E7.69166
G1 X132.979 Y122.036 E7.70968
G1 X132.477 Y122.787 E7.7277
G1 X131.91 Y123.49 E7.74573
G1 X131.107 Y124.305 E7.76856
G1 X130.869 Y124.521 E7.77497
G1 X128.979 Y126.284 E7.82655
G1 X127.198 Y128.042 E7.87649
G1 X125.421 Y129.898 E7.92777
G1 X124.99 Y130.372 E7.94056
G1 X124.231 Y131.188 E7.9628
G1 X123.587 Y131.821 E7.98082
G1 X122.89 Y132.395 E7.99884
G1 X122.144 Y132.905 E8.01687
G1 X121.357 Y133.347 E8.03488
G1 X120.533 Y133.718 E8.05292
G1 X119.68 Y134.015 E8.07094
G1 X118.804 Y134.234 E8.08896
G1 X117.912 Y134.376 E8.10698
G1 X117.045 Y134.437 E8.12433
G1 X116.721 Y134.446 E8.1308
G1 X116.438 Y134.45 E8.13645
G1 X107.733 Y134.449 E8.31016
G1 X107.034 Y134.439 E8.32411
G1 X106.133 Y134.386 E8.34213
G1 X105.239 Y134.254 E8.36016
G1 X104.361 Y134.043 E8.37818
G1 X103.505 Y133.755 E8.3962
G1 X102.678 Y133.393 E8.41422
G1 X101.886 Y132.959 E8.43224
G1 X101.135 Y132.456 E8.45028
G1 X100.432 Y131.889 E8.4683
G1 X99.782 Y131.262 E8.48633
G1 X99.19 Y130.58 E8.50435
G1 X98.661 Y129.849 E8.52236
G1 X98.198 Y129.073 E8.54039
G1 X97.806 Y128.26 E8.5584
G1 X97.568 Y127.654 E8.57139
G1 X97.205 Y126.632 E8.59304
G1 X96.321 Y124.247 E8.6438
G1 X95.352 Y121.838 E8.69561
G1 X94.867 Y120.679 E8.72069
G1 X94.556 Y119.832 E8.73869
G1 X94.321 Y118.96 E8.75671
G1 X94.164 Y118.07 E8.77475
G1 X94.081 Y117.027 E8.79563
G1 X94.072 Y116.703 E8.8021
G1 X94.068 Y116.42 E8.80775
G1 X94.069 Y108.327 E8.96925
G1 X94.076 Y107.848 E8.97881
G1 X94.076 Y105.204 E9.03157
G1 X94.071 Y104.952 E9.0366
G1 X94.068 Y104.506 E9.04551
G1 X94.069 Y96.286 E9.20954
G1 X94.078 Y95.621 E9.22282
G1 X94.13 Y94.719 E9.24085
G1 X94.262 Y93.826 E9.25886
G1 X94.472 Y92.948 E9.27688
G1 X94.759 Y92.091 E9.29491
G1 X95.121 Y91.264 E9.31293
G1 X95.554 Y90.472 E9.33094
G1 X96.056 Y89.721 E9.34897
G1 X96.623 Y89.017 E9.36701
G1 X97.249 Y88.367 E9.38502
G1 F1500 E2.88502
;MESH:calicat.stl
G0 F6000 X103.615 Y105.403
G0 X104.682 Y107.085
G0 X104.682 Y108.164
G0 X105.45 Y115.568
G0 X112.196 Y116.322
G0 X112.196 Y119.678
G0 X108.059 Y119.678
G0 X108.172 Y123.25
;TYPE:WALL-INNER
G1 F1500 E9.38502
G1 F1200 X108.171 Y120.449 E9.44091
G1 X108.171 Y120.25 E9.44488
G1 X108.37 Y120.25 E9.44745
G1 X112.768 Y120.25 E9.53522
G1 X112.768 Y115.75 E9.62502
G1 X105.268 Y115.75 E9.77469
G1 X105.268 Y108.75 E9.91439
G1 X111.268 Y108.75 E10.03412
G1 X111.268 Y113.75 E10.1339
G1 X117.268 Y113.75 E10.25364
G1 X117.268 Y108.75 E10.35342
G1 X123.268 Y108.75 E10.47316
G1 X123.268 Y115.75 E10.61285
G1 X115.768 Y115.75 E10.76252
G1 X115.768 Y123.25 E10.91219
G1 X108.172 Y123.25 E11.06378
G0 F6000 X107.772 Y123.65
G1 F1200 X107.771 Y120.049 E11.13564
G1 X107.771 Y119.85 E11.13961
G1 X107.97 Y119.85 E11.14218
G1 X112.368 Y119.85 E11.22995
G1 X112.368 Y116.15 E11.30378
G1 X104.868 Y116.15 E11.45345
G1 X104.868 Y108.35 E11.60911
G1 X111.668 Y108.35 E11.74481
G1 X111.668 Y113.35 E11.84459
G1 X116.868 Y113.35 E11.94836
G1 X116.868 Y108.35 E12.04814
G1 X123.668 Y108.35 E12.18385
G1 X123.668 Y116.15 E12.3395
G1 X116.168 Y116.15 E12.48917
G1 X116.168 Y123.65 E12.63884
G1 X107.772 Y123.65 E12.8064
G0 F6000 X107.372 Y124.05
;TYPE:WALL-OUTER
G1 F1200 X107.371 Y119.45 E12.89819
G1 X111.968 Y119.45 E12.98993
G1 X111.968 Y116.55 E13.0478
G1 X104.468 Y116.55 E13.19748
G1 X104.468 Y107.95 E13.3691
G1 X112.068 Y107.95 E13.52076
G1 X112.068 Y112.95 E13.62054
G1 X116.468 Y112.95 E13.70835
G1 X116.468 Y107.95 E13.80813
G1 X124.068 Y107.95 E13.9598
G1 X124.068 Y116.55 E14.13142
G1 X116.568 Y116.55 E14.28109
G1 X116.568 Y124.05 E14.43076
G1 X107.372 Y124.05 E14.61428
G0 F6000 X107.642 Y123.78
G0 X108.562 Y123.14
G0 X108.562 Y122.86
;TYPE:SKIN
G1 F1200 X108.561 Y120.64 E14.65858
G1 X113.158 Y120.64 E14.75032
G1 X113.158 Y115.36 E14.85569
G1 X105.658 Y115.36 E15.00536
G1 X105.658 Y109.14 E15.12948
G1 X110.878 Y109.14 E15.23365
G1 X110.878 Y114.14 E15.33343
G1 X117.658 Y114.14 E15.46874
G1 X117.658 Y109.14 E15.56852
G1 X122.878 Y109.14 E15.67269
G1 X122.878 Y115.36 E15.79681
G1 X115.378 Y115.36 E15.94649
G1 X115.378 Y122.86 E16.09616
G1 X108.562 Y122.86 E16.23218
G0 F6000 X109.122 Y122.699
G1 F1200 X108.721 Y122.298 E16.24349
G0 F6000 X108.721 Y121.731
G1 F1200 X109.688 Y122.699 E16.2708
G0 F6000 X110.254 Y122.699
G1 F1200 X108.72 Y121.165 E16.31409
G0 F6000 X108.919 Y120.799
G1 F1200 X110.819 Y122.699 E16.36771
G0 F6000 X111.385 Y122.699
G1 F1200 X109.485 Y120.799 E16.42134
G0 F6000 X110.051 Y120.799
G1 F1200 X111.951 Y122.699 E16.47496
G0 F6000 X112.516 Y122.699
G1 F1200 X110.616 Y120.799 E16.52858
G0 F6000 X111.182 Y120.799
G1 F1200 X113.082 Y122.699 E16.5822
G0 F6000 X113.648 Y122.699
G1 F1200 X111.748 Y120.799 E16.63582
G0 F6000 X112.314 Y120.799
G1 F1200 X114.214 Y122.699 E16.68945
G0 F6000 X114.779 Y122.699
G1 F1200 X112.879 Y120.799 E16.74307
G0 F6000 X113.318 Y120.672
G1 F1200 X115.218 Y122.572 E16.79669
G0 F6000 X115.218 Y122.006
G1 F1200 X113.318 Y120.106 E16.85031
G0 F6000 X113.318 Y119.54
G1 F1200 X115.218 Y121.44 E16.90393
G0 F6000 X115.218 Y120.874
G1 F1200 X113.318 Y118.974 E16.95756
G0 F6000 X113.318 Y118.409
G1 F1200 X115.218 Y120.309 E17.01118
G0 F6000 X115.218 Y119.743
G1 F1200 X113.318 Y117.843 E17.0648
G0 F6000 X113.318 Y117.277
G1 F1200 X115.218 Y119.177 E17.11842
G0 F6000 X115.218 Y118.612
G1 F1200 X113.318 Y116.712 E17.17205
G0 F6000 X113.318 Y116.146
G1 F1200 X115.218 Y118.046 E17.22567
G0 F6000 X115.218 Y117.48
G1 F1200 X113.318 Y115.58 E17.27929
G0 F6000 X112.936 Y115.199
G1 F1200 X112.036 Y114.299 E17.30469
G0 F6000 X111.471 Y114.299
G1 F1200 X112.37 Y115.199 E17.33008
G0 F6000 X111.804 Y115.199
G1 F1200 X110.905 Y114.299 E17.35546
G0 F6000 X110.718 Y114.112
G1 F1200 X105.906 Y109.3 E17.49127
G0 F6000 X105.817 Y109.777
G1 F1200 X111.239 Y115.199 E17.64429
G0 F6000 X110.673 Y115.199
G1 F1200 X105.817 Y110.343 E17.78133
G0 F6000 X105.817 Y110.908
G1 F1200 X110.107 Y115.199 E17.90242
G0 F6000 X109.542 Y115.199
G1 F1200 X105.817 Y111.474 E18.00755
G0 F6000 X105.817 Y112.04
G1 F1200 X108.976 Y115.199 E18.0967
G0 F6000 X108.41 Y115.199
G1 F1200 X105.817 Y112.606 E18.16988
G0 F6000 X105.817 Y113.171
G1 F1200 X107.845 Y115.199 E18.22712
G0 F6000 X107.279 Y115.199
G1 F1200 X105.817 Y113.737 E18.26838
G0 F6000 X105.817 Y114.303
G1 F1200 X106.713 Y115.199 E18.29366
G0 F6000 X106.148 Y115.199
G1 F1200 X105.817 Y114.868 E18.30301
G0 F6000 X105.378 Y114.868
G0 X105.45 Y108.932
G0 X111.086 Y108.932
G0 X111.158 Y113.546
G0 X110.718 Y113.546
G1 F1200 X106.471 Y109.3 E18.42285
G0 F6000 X107.037 Y109.3
G1 F1200 X110.718 Y112.98 E18.52672
G0 F6000 X110.718 Y112.415
G1 F1200 X107.603 Y109.3 E18.61464
G0 F6000 X108.168 Y109.3
G1 F1200 X110.718 Y111.849 E18.68659
G0 F6000 X110.718 Y111.283
G1 F1200 X108.734 Y109.3 E18.74257
G0 F6000 X109.3 Y109.3
G1 F1200 X110.718 Y110.718 E18.78259
G0 F6000 X110.718 Y110.152
G1 F1200 X109.866 Y109.3 E18.80663
G0 F6000 X110.431 Y109.3
G1 F1200 X110.718 Y109.586 E18.81472
G0 F6000 X111.158 Y109.586
G0 X111.84 Y113.178
G0 X112.602 Y113.86
G0 X112.602 Y114.299
G1 F1200 X115.218 Y116.915 E18.88855
G0 F6000 X115.218 Y116.349
G1 F1200 X113.168 Y114.299 E18.9464
G0 F6000 X113.733 Y114.299
G1 F1200 X115.218 Y115.783 E18.9883
