;FLAVOR:Marlin
;TIME:3825
;Filament used: 2.55215m
;Layer height: 0.16
;MINX:93.268
;MINY:84.75
;MINZ:0.2
;MAXX:135.268
;MAXY:135.25
;MAXZ:34.44
;Generated with Cura_SteamEngine 4.7.0
M140 S60
M105
M190 S60
M104 S200
M105
M109 S200
M82 ;absolute extrusion mode
; Ender 3 Custom Start G-code
G92 E0 ; Reset Extruder
G28 ; Home all axes
G1 Z2.0 F3000 ; Move Z Axis up little to prevent scratching of Heat Bed
G1 X0.1 Y20 Z0.3 F5000.0 ; Move to start position
G1 X0.1 Y200.0 Z0.3 F1500.0 E15 ; Draw the first line
G1 X0.4 Y200.0 Z0.3 F5000.0 ; Move to side a little
G1 X0.4 Y20 Z0.3 F1500.0 E30 ; Draw the second line
G92 E0 ; Reset Extruder
G1 Z2.0 F3000 ; Move Z Axis up little to prevent scratching of Heat Bed
G1 X5 Y20 Z0.3 F5000.0 ; Move over to prevent blob squish
G92 E0
G92 E0
G1 F1500 E-6.5
;LAYER_COUNT:184
;LAYER:0
M107
G0 F6000 X96.466 Y88.014 Z0.2
;TYPE:SKIRT
G1 F1500 E0
G1 F1200 X97.154 Y87.377 E0.03119
G1 X97.894 Y86.801 E0.06237
G1 X98.68 Y86.289 E0.09357
G1 X99.507 Y85.847 E0.12476
G1 X100.369 Y85.477 E0.15596
G1 X101.259 Y85.181 E0.18716
G1 X102.171 Y84.963 E0.21835
G1 X103.098 Y84.822 E0.24953
G1 X103.969 Y84.763 E0.27857
G1 X104.29 Y84.754 E0.28925
G1 X104.598 Y84.75 E0.29949
G1 X111.738 Y84.751 E0.53697
G1 X112.882 Y84.767 E0.57503
G1 X115.522 Y84.767 E0.66283
G1 X116.229 Y84.752 E0.68635
G1 X116.5 Y84.75 E0.69537
G1 X123.719 Y84.751 E0.93547
G1 X124.417 Y84.761 E0.95869
G1 X125.353 Y84.815 E0.98987
G1 X126.281 Y84.947 E1.02105
G1 X127.195 Y85.159 E1.05225
G1 X128.087 Y85.448 E1.08344
G1 X128.952 Y85.811 E1.11464
G1 X129.782 Y86.247 E1.14582
G1 X130.573 Y86.752 E1.17704
G1 X131.317 Y87.323 E1.20823
G1 X132.01 Y87.955 E1.23943
G1 X132.647 Y88.643 E1.27061
G1 X133.222 Y89.384 E1.30181
G1 X133.733 Y90.17 E1.33299
G1 X134.175 Y90.998 E1.36421
G1 X134.544 Y91.86 E1.39539
G1 X134.839 Y92.75 E1.42658
G1 X135.057 Y93.662 E1.45777
G1 X135.197 Y94.59 E1.48898
G1 X135.255 Y95.451 E1.51768
G1 X135.264 Y95.771 E1.52833
G1 X135.268 Y96.08 E1.53861
G1 X135.267 Y104.171 E1.80772
G1 X135.26 Y104.659 E1.82395
G1 X135.26 Y107.278 E1.91106
G1 X135.265 Y107.543 E1.91987
G1 X135.268 Y107.989 E1.93471
G1 X135.267 Y116.176 E2.20701
G1 X135.257 Y116.898 E2.23102
G1 X135.204 Y117.835 E2.26224
G1 X135.071 Y118.763 E2.29342
G1 X134.86 Y119.677 E2.32462
G1 X134.572 Y120.569 E2.35579
G1 X134.209 Y121.434 E2.38699
G1 X133.773 Y122.265 E2.41821
G1 X133.269 Y123.055 E2.44937
G1 X132.699 Y123.8 E2.48057
G1 X132.067 Y124.493 E2.51177
G1 X131.644 Y124.898 E2.53125
G1 X131.42 Y125.101 E2.5413
G1 X129.539 Y126.855 E2.62684
G1 X127.754 Y128.617 E2.71026
G1 X126.008 Y130.441 E2.79425
G1 X125.673 Y130.811 E2.81085
G1 X124.816 Y131.733 E2.85271
G1 X124.149 Y132.392 E2.8839
G1 X123.428 Y132.991 E2.91508
G1 X122.658 Y133.527 E2.94628
G1 X121.846 Y133.996 E2.97747
G1 X120.996 Y134.393 E3.00867
G1 X120.116 Y134.717 E3.03986
G1 X119.212 Y134.965 E3.07104
G1 X118.289 Y135.134 E3.10225
G1 X117.067 Y135.237 E3.14304
G1 X116.743 Y135.246 E3.15382
G1 X116.438 Y135.25 E3.16396
G1 X107.582 Y135.249 E3.45851
G1 X106.883 Y135.239 E3.48177
G1 X105.946 Y135.185 E3.51298
G1 X105.018 Y135.053 E3.54416
G1 X104.104 Y134.841 E3.57537
G1 X103.212 Y134.552 E3.60655
G1 X102.347 Y134.189 E3.63775
G1 X101.517 Y133.753 E3.66894
G1 X100.727 Y133.248 E3.70012
G1 X99.982 Y132.677 E3.73134
G1 X99.289 Y132.045 E3.76254
G1 X98.652 Y131.357 E3.79372
G1 X98.077 Y130.616 E3.82492
G1 X97.566 Y129.83 E3.8561
G1 X97.124 Y129.002 E3.88732
G1 X96.712 Y128.027 E3.92252
G1 X96.6 Y127.711 E3.93367
G1 X95.787 Y125.313 E4.01789
G1 X94.923 Y122.978 E4.1007
G1 X94.228 Y121.254 E4.16252
G1 X94.011 Y120.691 E4.18259
G1 X93.712 Y119.802 E4.21378
G1 X93.49 Y118.891 E4.24497
G1 X93.346 Y117.964 E4.27617
G1 X93.283 Y117.083 E4.30555
G1 X93.273 Y116.759 E4.31633
G1 X93.268 Y116.42 E4.32761
G1 X93.269 Y108.315 E4.59718
G1 X93.276 Y107.836 E4.61312
G1 X93.276 Y105.222 E4.70006
G1 X93.271 Y104.957 E4.70887
G1 X93.268 Y104.511 E4.72371
G1 X93.269 Y96.275 E4.99764
G1 X93.278 Y95.61 E5.01976
G1 X93.331 Y94.674 E5.05094
G1 X93.463 Y93.745 E5.08215
G1 X93.674 Y92.831 E5.11335
G1 X93.962 Y91.939 E5.14452
G1 X94.325 Y91.074 E5.17572
G1 X94.76 Y90.243 E5.20692
G1 X95.264 Y89.453 E5.23809
G1 X95.834 Y88.708 E5.26929
G1 X96.466 Y88.014 E5.30051
G0 F6000 X96.857 Y88.189
G1 F1200 X97.542 Y87.573 E5.33115
G1 X98.278 Y87.02 E5.36177
G1 X99.059 Y86.532 E5.3924
G1 X99.879 Y86.114 E5.42301
G1 X100.733 Y85.769 E5.45364
G1 X101.613 Y85.499 E5.48426
G1 X102.513 Y85.307 E5.51487
G1 X103.427 Y85.193 E5.5455
G1 X103.98 Y85.163 E5.56392
G1 X104.301 Y85.154 E5.5746
G1 X104.598 Y85.15 E5.58448
G1 X111.584 Y85.15 E5.81684
G1 X112.876 Y85.167 E5.85981
G1 X115.531 Y85.167 E5.94812
G1 X116.232 Y85.152 E5.97144
G1 X116.503 Y85.15 E5.98045
G1 X123.713 Y85.151 E6.22026
G1 X124.411 Y85.161 E6.24348
G1 X125.33 Y85.214 E6.27409
G1 X126.241 Y85.347 E6.30472
G1 X127.137 Y85.558 E6.33533
G1 X128.011 Y85.846 E6.36594
G1 X128.858 Y86.209 E6.39659
G1 X129.669 Y86.644 E6.4272
G1 X130.439 Y87.148 E6.45781
G1 X131.163 Y87.717 E6.48843
G1 X131.835 Y88.347 E6.51907
G1 X132.45 Y89.032 E6.54969
G1 X133.003 Y89.768 E6.58031
G1 X133.49 Y90.549 E6.61092
G1 X133.907 Y91.37 E6.64155
G1 X134.252 Y92.224 E6.67218
G1 X134.521 Y93.104 E6.70279
G1 X134.713 Y94.005 E6.73343
G1 X134.826 Y94.918 E6.76403
G1 X134.855 Y95.462 E6.78214
G1 X134.864 Y95.782 E6.79279
G1 X134.868 Y96.08 E6.8027
G1 X134.867 Y104.165 E7.07161
G1 X134.86 Y104.653 E7.08785
G1 X134.86 Y107.287 E7.17545
G1 X134.865 Y107.546 E7.18407
G1 X134.868 Y107.992 E7.1989
G1 X134.867 Y116.171 E7.47094
G1 X134.857 Y116.893 E7.49495
G1 X134.804 Y117.812 E7.52557
G1 X134.672 Y118.723 E7.55619
G1 X134.461 Y119.619 E7.5868
G1 X134.173 Y120.494 E7.61744
G1 X133.811 Y121.34 E7.64805
G1 X133.376 Y122.152 E7.67869
G1 X132.873 Y122.922 E7.70928
G1 X132.304 Y123.647 E7.73993
G1 X131.375 Y124.601 E7.78422
G1 X131.161 Y124.794 E7.7938
G1 X129.268 Y126.56 E7.87991
G1 X127.467 Y128.338 E7.96408
G1 X125.705 Y130.178 E8.04882
G1 X125.283 Y130.644 E8.06973
G1 X124.524 Y131.46 E8.10679
G1 X123.868 Y132.107 E8.13744
G1 X123.158 Y132.694 E8.16808
G1 X122.401 Y133.217 E8.19868
G1 X121.601 Y133.672 E8.22929
G1 X120.764 Y134.056 E8.25992
G1 X119.897 Y134.367 E8.29056
G1 X119.007 Y134.601 E8.32116
G1 X118.1 Y134.756 E8.35177
G1 X117.056 Y134.837 E8.3866
G1 X116.732 Y134.846 E8.39738
G1 X116.438 Y134.85 E8.40716
G1 X107.587 Y134.849 E8.70154
G1 X106.888 Y134.839 E8.72479
G1 X105.969 Y134.786 E8.75541
G1 X105.058 Y134.653 E8.78603
G1 X104.162 Y134.442 E8.81665
G1 X103.288 Y134.154 E8.84725
G1 X102.442 Y133.791 E8.87787
G1 X101.63 Y133.356 E8.90851
G1 X100.86 Y132.852 E8.93912
G1 X100.136 Y132.283 E8.96975
G1 X99.464 Y131.654 E9.00036
G1 X98.849 Y130.968 E9.031
G1 X98.296 Y130.232 E9.06162
G1 X97.809 Y129.451 E9.09224
G1 X97.392 Y128.63 E9.12286
G1 X97.088 Y127.889 E9.1495
G1 X96.979 Y127.583 E9.16031
G1 X96.169 Y125.194 E9.24421
G1 X95.288 Y122.815 E9.32858
G1 X94.599 Y121.104 E9.38993
G1 X94.384 Y120.548 E9.40976
G1 X94.091 Y119.675 E9.44039
G1 X93.875 Y118.78 E9.47101
G1 X93.738 Y117.869 E9.50165
G1 X93.683 Y117.071 E9.52826
G1 X93.673 Y116.747 E9.53904
G1 X93.668 Y116.42 E9.54992
G1 X93.669 Y108.321 E9.81929
G1 X93.676 Y107.842 E9.83522
G1 X93.676 Y105.213 E9.92266
G1 X93.671 Y104.954 E9.93128
G1 X93.668 Y104.508 E9.94611
G1 X93.669 Y96.281 E10.21974
G1 X93.678 Y95.616 E10.24186
G1 X93.73 Y94.696 E10.27251
G1 X93.862 Y93.785 E10.30313
G1 X94.073 Y92.889 E10.33375
G1 X94.36 Y92.014 E10.36437
G1 X94.723 Y91.168 E10.39499
G1 X95.157 Y90.356 E10.42562
G1 X95.66 Y89.585 E10.45623
G1 X96.229 Y88.861 E10.48686
G1 X96.857 Y88.189 E10.51745
G0 F6000 X97.249 Y88.367
G1 F1200 X97.93 Y87.774 E10.54749
G1 X98.662 Y87.244 E10.57754
G1 X99.437 Y86.781 E10.60757
G1 X100.25 Y86.388 E10.6376
G1 X101.095 Y86.068 E10.66766
G1 X101.964 Y85.825 E10.69767
G1 X102.852 Y85.659 E10.72772
G1 X103.991 Y85.563 E10.76573
G1 X104.312 Y85.554 E10.77641
G1 X104.598 Y85.55 E10.78593
G1 X111.584 Y85.55 E11.01828
G1 X112.871 Y85.567 E11.06109
G1 X115.495 Y85.567 E11.14837
G1 X116.086 Y85.554 E11.16803
G1 X116.506 Y85.55 E11.182
G1 X123.707 Y85.551 E11.4215
G1 X124.405 Y85.561 E11.44472
G1 X125.307 Y85.614 E11.47477
G1 X126.2 Y85.746 E11.5048
G1 X127.078 Y85.957 E11.53483
G1 X127.934 Y86.245 E11.56487
G1 X128.761 Y86.607 E11.5949
G1 X129.553 Y87.042 E11.62495
G1 X130.304 Y87.544 E11.655
G1 X131.007 Y88.111 E11.68504
G1 X131.657 Y88.738 E11.71507
G1 X132.249 Y89.42 E11.74511
G1 X132.779 Y90.151 E11.77514
G1 X133.241 Y90.927 E11.80518
G1 X133.634 Y91.74 E11.83521
G1 X133.952 Y92.585 E11.86524
G1 X134.195 Y93.455 E11.89529
G1 X134.36 Y94.343 E11.92533
G1 X134.455 Y95.473 E11.96304
G1 X134.464 Y95.793 E11.97369
G1 X134.468 Y96.08 E11.98324
G1 X134.467 Y104.159 E12.25195
G1 X134.46 Y104.647 E12.26818
G1 X134.46 Y107.296 E12.35628
G1 X134.465 Y107.548 E12.36467
G1 X134.468 Y107.994 E12.3795
G1 X134.467 Y116.165 E12.65127
G1 X134.457 Y116.887 E12.67529
G1 X134.405 Y117.789 E12.70534
G1 X134.273 Y118.682 E12.73536
G1 X134.062 Y119.56 E12.7654
G1 X133.775 Y120.417 E12.79546
G1 X133.413 Y121.244 E12.82548
G1 X132.979 Y122.036 E12.85552
G1 X132.477 Y122.787 E12.88556
G1 X131.91 Y123.49 E12.9156
G1 X131.107 Y124.305 E12.95366
G1 X130.869 Y124.521 E12.96435
G1 X128.979 Y126.284 E13.05031
G1 X127.198 Y128.042 E13.13355
G1 X125.421 Y129.898 E13.21901
G1 X124.99 Y130.372 E13.24032
G1 X124.231 Y131.188 E13.27738
G1 X123.587 Y131.821 E13.30742
G1 X122.89 Y132.395 E13.33745
G1 X122.144 Y132.905 E13.3675
G1 X121.357 Y133.347 E13.39753
G1 X120.533 Y133.718 E13.42758
G1 X119.68 Y134.015 E13.45762
G1 X118.804 Y134.234 E13.48766
G1 X117.912 Y134.376 E13.5177
G1 X117.045 Y134.437 E13.5466
G1 X116.721 Y134.446 E13.55739
G1 X116.438 Y134.45 E13.5668
G1 X107.593 Y134.449 E13.86098
G1 X106.894 Y134.439 E13.88424
G1 X105.993 Y134.386 E13.91426
G1 X105.099 Y134.254 E13.94431
G1 X104.221 Y134.043 E13.97435
G1 X103.365 Y133.755 E14.00438
G1 X102.538 Y133.393 E14.03441
G1 X101.746 Y132.959 E14.06445
G1 X100.995 Y132.456 E14.09451
G1 X100.292 Y131.889 E14.12455
G1 X99.642 Y131.262 E14.15459
G1 X99.05 Y130.58 E14.18463
G1 X98.521 Y129.849 E14.21464
G1 X98.058 Y129.073 E14.24469
G1 X97.666 Y128.26 E14.27471
G1 X97.463 Y127.751 E14.29294
G1 X97.358 Y127.455 E14.30338
G1 X96.548 Y125.064 E14.38735
G1 X95.663 Y122.675 E14.47208
G1 X94.97 Y120.955 E14.53376
G1 X94.757 Y120.404 E14.55341
G1 X94.471 Y119.547 E14.58346
G1 X94.261 Y118.669 E14.61348
G1 X94.13 Y117.775 E14.64354
G1 X94.083 Y117.059 E14.6674
G1 X94.073 Y116.735 E14.67818
G1 X94.068 Y116.42 E14.68866
G1 X94.069 Y108.327 E14.95784
G1 X94.076 Y107.848 E14.97377
G1 X94.076 Y105.204 E15.06171
G1 X94.071 Y104.952 E15.07009
G1 X94.068 Y104.506 E15.08493
G1 X94.069 Y96.286 E15.35832
G1 X94.078 Y95.621 E15.38044
G1 X94.13 Y94.719 E15.4105
G1 X94.262 Y93.826 E15.44052
G1 X94.472 Y92.948 E15.47055
G1 X94.759 Y92.091 E15.5006
G1 X95.121 Y91.264 E15.53063
G1 X95.554 Y90.472 E15.56065
G1 X96.056 Y89.721 E15.5907
G1 X96.623 Y89.017 E15.62076
G1 X97.249 Y88.367 E15.65078
G1 F1500 E9.15078
;MESH:calicat.stl
G0 F6000 X103.615 Y105.403
G0 X104.682 Y107.085
G0 X104.682 Y108.164
G0 X105.45 Y115.568
G0 X112.196 Y116.322
G0 X112.196 Y119.678
G0 X107.915 Y120.494
G0 X108.032 Y123.25
;TYPE:WALL-INNER
G1 F1500 E15.65078
G1 F1200 X108.031 Y120.449 E15.74394
G1 X108.031 Y120.25 E15.75056
G1 X108.23 Y120.25 E15.75484
G1 X112.768 Y120.25 E15.90577
G1 X112.768 Y115.75 E16.05545
G1 X105.268 Y115.75 E16.3049
G1 X105.268 Y108.75 E16.53772
G1 X111.268 Y108.75 E16.73728
G1 X111.268 Y113.75 E16.90358
G1 X117.268 Y113.75 E17.10314
G1 X117.268 Y108.75 E17.26944
G1 X123.268 Y108.75 E17.469
G1 X123.268 Y115.75 E17.70182
G1 X115.768 Y115.75 E17.95127
G1 X115.768 Y123.25 E18.20072
G1 X108.032 Y123.25 E18.45802
G0 F6000 X107.632 Y123.65
G1 F1200 X107.631 Y120.049 E18.57779
G1 X107.631 Y119.85 E18.58441
G1 X107.83 Y119.85 E18.5887
G1 X112.368 Y119.85 E18.73963
G1 X112.368 Y116.15 E18.86269
G1 X104.868 Y116.15 E19.11214
G1 X104.868 Y108.35 E19.37157
G1 X111.668 Y108.35 E19.59774
G1 X111.668 Y113.35 E19.76404
G1 X116.868 Y113.35 E19.93699
G1 X116.868 Y108.35 E20.1033
G1 X123.668 Y108.35 E20.32946
G1 X123.668 Y116.15 E20.58889
G1 X116.168 Y116.15 E20.83834
G1 X116.168 Y123.65 E21.0878
G1 X107.632 Y123.65 E21.3717
G0 F6000 X107.232 Y124.05
;TYPE:WALL-OUTER
G1 F1200 X107.231 Y119.45 E21.5247
G1 X111.968 Y119.45 E21.68225
G1 X111.968 Y116.55 E21.77871
G1 X104.468 Y116.55 E22.02816
G1 X104.468 Y107.95 E22.3142
G1 X112.068 Y107.95 E22.56697
G1 X112.068 Y112.95 E22.73327
G1 X116.468 Y112.95 E22.87962
G1 X116.468 Y107.95 E23.04592
G1 X124.068 Y107.95 E23.2987
G1 X124.068 Y116.55 E23.58473
G1 X116.568 Y116.55 E23.83418
G1 X116.568 Y124.05 E24.08364
G1 X107.232 Y124.05 E24.39415
G0 F6000 X107.502 Y123.78
G0 X108.422 Y123.14
G0 X108.422 Y122.86
;TYPE:SKIN
G1 F1200 X108.421 Y120.64 E24.46799
G1 X113.158 Y120.64 E24.62554
G1 X113.158 Y115.36 E24.80116
G1 X105.658 Y115.36 E25.05061
G1 X105.658 Y109.14 E25.25749
G1 X110.878 Y109.14 E25.4311
G1 X110.878 Y114.14 E25.5974
G1 X117.658 Y114.14 E25.82291
G1 X117.658 Y109.14 E25.98921
G1 X122.878 Y109.14 E26.16283
G1 X122.878 Y115.36 E26.3697
G1 X115.378 Y115.36 E26.61916
G1 X115.378 Y122.86 E26.86861
G1 X108.422 Y122.86 E27.09996
G0 F6000 X109.122 Y122.699
G1 F1200 X108.581 Y122.158 E27.12541
G0 F6000 X108.581 Y121.591
G1 F1200 X109.688 Y122.699 E27.1775
G0 F6000 X110.254 Y122.699
G1 F1200 X108.58 Y121.025 E27.25624
G0 F6000 X108.919 Y120.799
G1 F1200 X110.819 Y122.699 E27.34561
G0 F6000 X111.385 Y122.699
G1 F1200 X109.485 Y120.799 E27.43498
G0 F6000 X110.051 Y120.799
G1 F1200 X111.951 Y122.699 E27.52435
G0 F6000 X112.516 Y122.699
G1 F1200 X110.616 Y120.799 E27.61372
G0 F6000 X111.182 Y120.799
G1 F1200 X113.082 Y122.699 E27.70309
G0 F6000 X113.648 Y122.699
G1 F1200 X111.748 Y120.799 E27.79247
G0 F6000 X112.314 Y120.799
G1 F1200 X114.214 Y122.699 E27.88184
G0 F6000 X114.779 Y122.699
G1 F1200 X112.879 Y120.799 E27.97121
G0 F6000 X113.318 Y120.672
G1 F1200 X115.218 Y122.572 E28.06058
G0 F6000 X115.218 Y122.006
G1 F1200 X113.318 Y120.106 E28.14995
G0 F6000 X113.318 Y119.54
G1 F1200 X115.218 Y121.44 E28.23932
G0 F6000 X115.218 Y120.874
G1 F1200 X113.318 Y118.974 E28.32869
G0 F6000 X113.318 Y118.409
G1 F1200 X115.218 Y120.309 E28.41806
G0 F6000 X115.218 Y119.743
G1 F1200 X113.318 Y117.843 E28.50743
G0 F6000 X113.318 Y117.277
G1 F1200 X115.218 Y119.177 E28.5968
G0 F6000 X115.218 Y118.612
G1 F1200 X113.318 Y116.712 E28.68617
G0 F6000 X113.318 Y116.146
G1 F1200 X115.218 Y118.046 E28.77554
G0 F6000 X115.218 Y117.48
G1 F1200 X113.318 Y115.58 E28.86491
G0 F6000 X112.936 Y115.199
G1 F1200 X112.036 Y114.299 E28.90724
G0 F6000 X111.471 Y114.299
G1 F1200 X112.37 Y115.199 E28.94955
G0 F6000 X111.804 Y115.199
G1 F1200 X110.905 Y114.299 E28.99186
G0 F6000 X110.718 Y114.112
G1 F1200 X105.906 Y109.3 E29.2182
G0 F6000 X105.817 Y109.777
G1 F1200 X111.239 Y115.199 E29.47324
G0 F6000 X110.673 Y115.199
G1 F1200 X105.817 Y110.343 E29.70165
G0 F6000 X105.817 Y110.908
G1 F1200 X110.107 Y115.199 E29.90346
G0 F6000 X109.542 Y115.199
G1 F1200 X105.817 Y111.474 E30.07867
G0 F6000 X105.817 Y112.04
G1 F1200 X108.976 Y115.199 E30.22726
G0 F6000 X108.41 Y115.199
G1 F1200 X105.817 Y112.606 E30.34923
G0 F6000 X105.817 Y113.171
G1 F1200 X107.845 Y115.199 E30.44462
G0 F6000 X107.279 Y115.199
G1 F1200 X105.817 Y113.737 E30.51339
G0 F6000 X105.817 Y114.303
G1 F1200 X106.713 Y115.199 E30.55553
G0 F6000 X106.148 Y115.199
G1 F1200 X105.817 Y114.868 E30.5711
G0 F6000 X105.378 Y114.868
G0 X105.45 Y108.932
G0 X111.086 Y108.932
G0 X111.158 Y113.546
G0 X110.718 Y113.546
G1 F1200 X106.471 Y109.3 E30.77084
G0 F6000 X107.037 Y109.3
G1 F1200 X110.718 Y112.98 E30.94396
G0 F6000 X110.718 Y112.415
G1 F1200 X107.603 Y109.3 E31.09048
G0 F6000 X108.168 Y109.3
G1 F1200 X110.718 Y111.849 E31.2104
G0 F6000 X110.718 Y111.283
G1 F1200 X108.734 Y109.3 E31.3037
G0 F6000 X109.3 Y109.3
G1 F1200 X110.718 Y110.718 E31.3704
G0 F6000 X110.718 Y110.152
G1 F1200 X109.866 Y109.3 E31.41048
G0 F6000 X110.431 Y109.3
G1 F1200 X110.718 Y109.586 E31.42395
G0 F6000 X111.158 Y109.586
G0 X111.84 Y113.178
