;FLAVOR:Marlin
;TIME:3054
;Filament used: 2.11656m
;Layer height: 0.2
;MINX:93.268
;MINY:84.75
;MINZ:0.2
;MAXX:135.268
;MAXY:135.25
;MAXZ:34.6
;Generated with Cura_SteamEngine 4.7.0
M140 S60
M105
M190 S60
M104 S200
M105
M109 S200
M82 ;absolute extrusion mode
; Ender 3 Custom Start G-code
G92 E0 ; Reset Extruder
G28 ; Home all axes
G1 Z2.0 F3000 ; Move Z Axis up little to prevent scratching of Heat Bed
G1 X0.1 Y20 Z0.3 F5000.0 ; Move to start position
G1 X0.1 Y200.0 Z0.3 F1500.0 E15 ; Draw the first line
G1 X0.4 Y200.0 Z0.3 F5000.0 ; Move to side a little
G1 X0.4 Y20 Z0.3 F1500.0 E30 ; Draw the second line
G92 E0 ; Reset Extruder
G1 Z2.0 F3000 ; Move Z Axis up little to prevent scratching of Heat Bed
G1 X5 Y20 Z0.3 F5000.0 ; Move over to prevent blob squish
G92 E0
G92 E0
G1 F1500 E-6.5
;LAYER_COUNT:175
;LAYER:0
M107
G0 F6000 X96.466 Y88.014 Z0.2
;TYPE:SKIRT
G1 F1500 E0
G1 F1200 X97.154 Y87.377 E0.03119
G1 X97.894 Y86.801 E0.06237
G1 X98.68 Y86.289 E0.09357
G1 X99.507 Y85.847 E0.12476
G1 X100.369 Y85.477 E0.15596
G1 X101.259 Y85.181 E0.18716
G1 X102.171 Y84.963 E0.21835
G1 X103.098 Y84.822 E0.24953
G1 X103.969 Y84.763 E0.27857
G1 X104.29 Y84.754 E0.28925
G1 X104.598 Y84.75 E0.29949
G1 X111.738 Y84.751 E0.53697
G1 X112.882 Y84.767 E0.57503
G1 X115.522 Y84.767 E0.66283
G1 X116.229 Y84.752 E0.68635
G1 X116.5 Y84.75 E0.69537
G1 X123.719 Y84.751 E0.93547
G1 X124.417 Y84.761 E0.95869
G1 X125.353 Y84.815 E0.98987
G1 X126.281 Y84.947 E1.02105
G1 X127.195 Y85.159 E1.05225
G1 X128.087 Y85.448 E1.08344
G1 X128.952 Y85.811 E1.11464
G1 X129.782 Y86.247 E1.14582
G1 X130.573 Y86.752 E1.17704
G1 X131.317 Y87.323 E1.20823
G1 X132.01 Y87.955 E1.23943
G1 X132.647 Y88.643 E1.27061
G1 X133.222 Y89.384 E1.30181
G1 X133.733 Y90.17 E1.33299
G1 X134.175 Y90.998 E1.36421
G1 X134.544 Y91.86 E1.39539
G1 X134.839 Y92.75 E1.42658
G1 X135.057 Y93.662 E1.45777
G1 X135.197 Y94.59 E1.48898
G1 X135.255 Y95.451 E1.51768
G1 X135.264 Y95.771 E1.52833
G1 X135.268 Y96.08 E1.53861
G1 X135.267 Y104.171 E1.80772
G1 X135.26 Y104.659 E1.82395
G1 X135.26 Y107.278 E1.91106
G1 X135.265 Y107.543 E1.91987
G1 X135.268 Y107.989 E1.93471
G1 X135.267 Y116.176 E2.20701
G1 X135.257 Y116.898 E2.23102
G1 X135.204 Y117.835 E2.26224
G1 X135.071 Y118.763 E2.29342
G1 X134.86 Y119.677 E2.32462
G1 X134.572 Y120.569 E2.35579
G1 X134.209 Y121.434 E2.38699
G1 X133.773 Y122.265 E2.41821
G1 X133.269 Y123.055 E2.44937
G1 X132.699 Y123.8 E2.48057
G1 X132.067 Y124.493 E2.51177
G1 X131.644 Y124.898 E2.53125
G1 X131.42 Y125.101 E2.5413
G1 X129.539 Y126.855 E2.62684
G1 X127.754 Y128.617 E2.71026
G1 X126.008 Y130.441 E2.79425
G1 X125.673 Y130.811 E2.81085
G1 X124.816 Y131.733 E2.85271
G1 X124.149 Y132.392 E2.8839
G1 X123.428 Y132.991 E2.91508
G1 X122.658 Y133.527 E2.94628
G1 X121.846 Y133.996 E2.97747
G1 X120.996 Y134.393 E3.00867
G1 X120.116 Y134.717 E3.03986
G1 X119.212 Y134.965 E3.07104
G1 X118.289 Y135.134 E3.10225
G1 X117.067 Y135.237 E3.14304
G1 X116.743 Y135.246 E3.15382
G1 X116.438 Y135.25 E3.16396
G1 X107.677 Y135.249 E3.45536
G1 X106.996 Y135.239 E3.47801
G1 X106.06 Y135.185 E3.50919
G1 X105.132 Y135.052 E3.54037
G1 X104.218 Y134.84 E3.57158
G1 X103.326 Y134.551 E3.60276
G1 X102.462 Y134.187 E3.63395
G1 X101.631 Y133.751 E3.66516
G1 X100.841 Y133.245 E3.69636
G1 X100.097 Y132.675 E3.72754
G1 X99.404 Y132.043 E3.75873
G1 X98.691 Y131.262 E3.7939
G1 X98.657 Y131.221 E3.79568
G1 X98.089 Y130.474 E3.82689
G1 X97.588 Y129.681 E3.85809
G1 X97.155 Y128.849 E3.88928
G1 X96.754 Y127.869 E3.9245
G1 X96.344 Y126.707 E3.96548
G1 X96.24 Y126.4 E3.97626
G1 X95.386 Y124.09 E4.05818
G1 X94.38 Y121.588 E4.14787
G1 X94.123 Y120.971 E4.1701
G1 X93.8 Y120.09 E4.20131
G1 X93.552 Y119.186 E4.23249
G1 X93.383 Y118.263 E4.2637
G1 X93.281 Y117.049 E4.30422
G1 X93.272 Y116.729 E4.31486
G1 X93.268 Y116.42 E4.32514
G1 X93.269 Y108.315 E4.59472
G1 X93.276 Y107.836 E4.61065
G1 X93.276 Y105.222 E4.69759
G1 X93.271 Y104.957 E4.70641
G1 X93.268 Y104.511 E4.72124
G1 X93.269 Y96.275 E4.99517
G1 X93.278 Y95.61 E5.01729
G1 X93.331 Y94.674 E5.04847
G1 X93.463 Y93.745 E5.07968
G1 X93.674 Y92.831 E5.11088
G1 X93.962 Y91.939 E5.14206
G1 X94.325 Y91.074 E5.17326
G1 X94.76 Y90.243 E5.20445
G1 X95.264 Y89.453 E5.23562
G1 X95.834 Y88.708 E5.26682
G1 X96.466 Y88.014 E5.29804
G0 F6000 X96.857 Y88.189
G1 F1200 X97.542 Y87.573 E5.32868
G1 X98.278 Y87.02 E5.3593
G1 X99.059 Y86.532 E5.38993
G1 X99.879 Y86.114 E5.42054
G1 X100.733 Y85.769 E5.45118
G1 X101.613 Y85.499 E5.48179
G1 X102.513 Y85.307 E5.5124
G1 X103.427 Y85.193 E5.54304
G1 X103.98 Y85.163 E5.56146
G1 X104.301 Y85.154 E5.57214
G1 X104.598 Y85.15 E5.58202
G1 X111.584 Y85.15 E5.81437
G1 X112.876 Y85.167 E5.85735
G1 X115.531 Y85.167 E5.94565
G1 X116.232 Y85.152 E5.96897
G1 X116.503 Y85.15 E5.97799
G1 X123.713 Y85.151 E6.21779
G1 X124.411 Y85.161 E6.24101
G1 X125.33 Y85.214 E6.27163
G1 X126.241 Y85.347 E6.30225
G1 X127.137 Y85.558 E6.33287
G1 X128.011 Y85.846 E6.36347
G1 X128.858 Y86.209 E6.39412
G1 X129.669 Y86.644 E6.42473
G1 X130.439 Y87.148 E6.45534
G1 X131.163 Y87.717 E6.48597
G1 X131.835 Y88.347 E6.5166
G1 X132.45 Y89.032 E6.54722
G1 X133.003 Y89.768 E6.57784
G1 X133.49 Y90.549 E6.60845
G1 X133.907 Y91.37 E6.63908
G1 X134.252 Y92.224 E6.66972
G1 X134.521 Y93.104 E6.70032
G1 X134.713 Y94.005 E6.73096
G1 X134.826 Y94.918 E6.76156
G1 X134.855 Y95.462 E6.77968
G1 X134.864 Y95.782 E6.79033
G1 X134.868 Y96.08 E6.80024
G1 X134.867 Y104.165 E7.06915
G1 X134.86 Y104.653 E7.08538
G1 X134.86 Y107.287 E7.17299
G1 X134.865 Y107.546 E7.1816
G1 X134.868 Y107.992 E7.19644
G1 X134.867 Y116.171 E7.46847
G1 X134.857 Y116.893 E7.49249
G1 X134.804 Y117.812 E7.5231
G1 X134.672 Y118.723 E7.55372
G1 X134.461 Y119.619 E7.58434
G1 X134.173 Y120.494 E7.61498
G1 X133.811 Y121.34 E7.64558
G1 X133.376 Y122.152 E7.67622
G1 X132.873 Y122.922 E7.70681
G1 X132.304 Y123.647 E7.73746
G1 X131.375 Y124.601 E7.78175
G1 X131.161 Y124.794 E7.79134
G1 X129.268 Y126.56 E7.87744
G1 X127.467 Y128.338 E7.96162
G1 X125.705 Y130.178 E8.04635
G1 X125.283 Y130.644 E8.06726
G1 X124.524 Y131.46 E8.10433
G1 X123.868 Y132.107 E8.13497
G1 X123.158 Y132.694 E8.16561
G1 X122.401 Y133.217 E8.19622
G1 X121.601 Y133.672 E8.22683
G1 X120.764 Y134.056 E8.25745
G1 X119.897 Y134.367 E8.28809
G1 X119.007 Y134.601 E8.3187
G1 X118.1 Y134.756 E8.3493
G1 X117.056 Y134.837 E8.38413
G1 X116.732 Y134.846 E8.39491
G1 X116.438 Y134.85 E8.40469
G1 X107.683 Y134.849 E8.69588
G1 X107.002 Y134.839 E8.71853
G1 X106.083 Y134.785 E8.74915
G1 X105.172 Y134.652 E8.77977
G1 X104.276 Y134.441 E8.81039
G1 X103.402 Y134.152 E8.84101
G1 X102.556 Y133.789 E8.87163
G1 X101.745 Y133.354 E8.90224
G1 X100.974 Y132.85 E8.93287
G1 X100.251 Y132.28 E8.96349
G1 X99.579 Y131.651 E8.99411
G1 X98.999 Y131.006 E9.02296
G1 X98.965 Y130.965 E9.02473
G1 X98.408 Y130.232 E9.05535
G1 X97.918 Y129.453 E9.08596
G1 X97.496 Y128.634 E9.1166
G1 X97.131 Y127.735 E9.14887
G1 X96.723 Y126.579 E9.18965
G1 X96.619 Y126.27 E9.20049
G1 X95.745 Y123.907 E9.28429
G1 X94.787 Y121.525 E9.36968
G1 X94.492 Y120.817 E9.39519
G1 X94.176 Y119.953 E9.42579
G1 X93.935 Y119.064 E9.45643
G1 X93.772 Y118.158 E9.48704
G1 X93.681 Y117.038 E9.52442
G1 X93.672 Y116.718 E9.53507
G1 X93.668 Y116.42 E9.54498
G1 X93.669 Y108.321 E9.81435
G1 X93.676 Y107.842 E9.83029
G1 X93.676 Y105.213 E9.91773
G1 X93.671 Y104.954 E9.92634
G1 X93.668 Y104.508 E9.94118
G1 X93.669 Y96.281 E10.21481
G1 X93.678 Y95.616 E10.23693
G1 X93.73 Y94.696 E10.26758
G1 X93.862 Y93.785 E10.29819
G1 X94.073 Y92.889 E10.32881
G1 X94.36 Y92.014 E10.35944
G1 X94.723 Y91.168 E10.39006
G1 X95.157 Y90.356 E10.42068
G1 X95.66 Y89.585 E10.4513
G1 X96.229 Y88.861 E10.48192
G1 X96.857 Y88.189 E10.51252
G0 F6000 X97.249 Y88.367
G1 F1200 X97.93 Y87.774 E10.54255
G1 X98.662 Y87.244 E10.57261
G1 X99.437 Y86.781 E10.60263
G1 X100.25 Y86.388 E10.63267
G1 X101.095 Y86.068 E10.66272
G1 X101.964 Y85.825 E10.69273
G1 X102.852 Y85.659 E10.72278
G1 X103.991 Y85.563 E10.7608
G1 X104.312 Y85.554 E10.77148
G1 X104.598 Y85.55 E10.78099
G1 X111.584 Y85.55 E11.01335
G1 X112.871 Y85.567 E11.05616
G1 X115.495 Y85.567 E11.14343
G1 X116.086 Y85.554 E11.16309
G1 X116.506 Y85.55 E11.17706
G1 X123.707 Y85.551 E11.41657
G1 X124.405 Y85.561 E11.43979
G1 X125.307 Y85.614 E11.46984
G1 X126.2 Y85.746 E11.49986
G1 X127.078 Y85.957 E11.5299
G1 X127.934 Y86.245 E11.55993
G1 X128.761 Y86.607 E11.58996
G1 X129.553 Y87.042 E11.62001
G1 X130.304 Y87.544 E11.65006
G1 X131.007 Y88.111 E11.6801
G1 X131.657 Y88.738 E11.71014
G1 X132.249 Y89.42 E11.74017
G1 X132.779 Y90.151 E11.7702
G1 X133.241 Y90.927 E11.80024
G1 X133.634 Y91.74 E11.83028
G1 X133.952 Y92.585 E11.86031
G1 X134.195 Y93.455 E11.89035
G1 X134.36 Y94.343 E11.92039
G1 X134.455 Y95.473 E11.95811
G1 X134.464 Y95.793 E11.96875
G1 X134.468 Y96.08 E11.9783
G1 X134.467 Y104.159 E12.24701
G1 X134.46 Y104.647 E12.26324
G1 X134.46 Y107.296 E12.35135
G1 X134.465 Y107.548 E12.35973
G1 X134.468 Y107.994 E12.37457
G1 X134.467 Y116.165 E12.64633
G1 X134.457 Y116.887 E12.67035
G1 X134.405 Y117.789 E12.7004
G1 X134.273 Y118.682 E12.73042
G1 X134.062 Y119.56 E12.76046
G1 X133.775 Y120.417 E12.79052
G1 X133.413 Y121.244 E12.82054
G1 X132.979 Y122.036 E12.85058
G1 X132.477 Y122.787 E12.88063
G1 X131.91 Y123.49 E12.91067
G1 X131.107 Y124.305 E12.94872
G1 X130.869 Y124.521 E12.95941
G1 X128.979 Y126.284 E13.04537
G1 X127.198 Y128.042 E13.12861
G1 X125.421 Y129.898 E13.21407
G1 X124.99 Y130.372 E13.23538
G1 X124.231 Y131.188 E13.27245
G1 X123.587 Y131.821 E13.30248
G1 X122.89 Y132.395 E13.33251
G1 X122.144 Y132.905 E13.36257
G1 X121.357 Y133.347 E13.39259
G1 X120.533 Y133.718 E13.42264
G1 X119.68 Y134.015 E13.45269
G1 X118.804 Y134.234 E13.48272
G1 X117.912 Y134.376 E13.51276
G1 X117.045 Y134.437 E13.54167
G1 X116.721 Y134.446 E13.55245
G1 X116.438 Y134.45 E13.56186
G1 X107.689 Y134.449 E13.85286
G1 X107.008 Y134.439 E13.87551
G1 X106.107 Y134.386 E13.90553
G1 X105.213 Y134.253 E13.93559
G1 X104.335 Y134.042 E13.96562
G1 X103.479 Y133.754 E13.99566
G1 X102.652 Y133.391 E14.0257
G1 X101.861 Y132.956 E14.05573
G1 X101.11 Y132.454 E14.08577
G1 X100.408 Y131.887 E14.11578
G1 X99.758 Y131.26 E14.14582
G1 X99.306 Y130.751 E14.16846
G1 X99.272 Y130.71 E14.17023
G1 X98.727 Y129.99 E14.20027
G1 X98.248 Y129.225 E14.23029
G1 X97.838 Y128.42 E14.26034
G1 X97.508 Y127.602 E14.28967
G1 X97.102 Y126.452 E14.33024
G1 X96.997 Y126.141 E14.34115
G1 X96.115 Y123.756 E14.42573
G1 X95.13 Y121.306 E14.51356
G1 X94.862 Y120.663 E14.53673
G1 X94.552 Y119.815 E14.56676
G1 X94.318 Y118.943 E14.59678
G1 X94.162 Y118.053 E14.62684
G1 X94.081 Y117.027 E14.66107
G1 X94.072 Y116.707 E14.67172
G1 X94.068 Y116.42 E14.68126
G1 X94.069 Y108.327 E14.95044
G1 X94.076 Y107.848 E14.96637
G1 X94.076 Y105.204 E15.05431
G1 X94.071 Y104.952 E15.06269
G1 X94.068 Y104.506 E15.07753
G1 X94.069 Y96.286 E15.35093
G1 X94.078 Y95.621 E15.37305
G1 X94.13 Y94.719 E15.4031
G1 X94.262 Y93.826 E15.43312
G1 X94.472 Y92.948 E15.46315
G1 X94.759 Y92.091 E15.49321
G1 X95.121 Y91.264 E15.52323
G1 X95.554 Y90.472 E15.55325
G1 X96.056 Y89.721 E15.5833
G1 X96.623 Y89.017 E15.61336
G1 X97.249 Y88.367 E15.64338
G1 F1500 E9.14338
;MESH:calicat.stl
G0 F6000 X103.615 Y105.403
G0 X104.682 Y107.085
G0 X104.682 Y108.164
G0 X105.05 Y115.968
G0 X112.196 Y116.322
G0 X112.196 Y119.678
G0 X107.559 Y119.678
G0 X107.732 Y123.65
;TYPE:WALL-INNER
G1 F1500 E15.64338
G1 F1200 X107.731 Y120.049 E15.76315
G1 X107.731 Y119.85 E15.76977
G1 X107.93 Y119.85 E15.77405
G1 X112.368 Y119.85 E15.92166
G1 X112.368 Y116.15 E16.04472
G1 X104.868 Y116.15 E16.29417
G1 X104.868 Y108.35 E16.5536
G1 X111.668 Y108.35 E16.77977
G1 X111.668 Y113.35 E16.94607
G1 X116.868 Y113.35 E17.11902
G1 X116.868 Y108.35 E17.28532
G1 X123.668 Y108.35 E17.51149
G1 X123.668 Y116.15 E17.77092
G1 X116.168 Y116.15 E18.02037
G1 X116.168 Y123.65 E18.26982
G1 X107.732 Y123.65 E18.55041
G0 F6000 X107.332 Y124.05
;TYPE:WALL-OUTER
G1 F1200 X107.331 Y119.45 E18.7034
G1 X111.968 Y119.45 E18.85763
G1 X111.968 Y116.55 E18.95408
G1 X104.468 Y116.55 E19.20353
G1 X104.468 Y107.95 E19.48957
G1 X112.068 Y107.95 E19.74235
G1 X112.068 Y112.95 E19.90865
G1 X116.468 Y112.95 E20.05499
G1 X116.468 Y107.95 E20.2213
G1 X124.068 Y107.95 E20.47407
G1 X124.068 Y116.55 E20.76011
G1 X116.568 Y116.55 E21.00956
G1 X116.568 Y124.05 E21.25901
G1 X107.332 Y124.05 E21.5662
G0 F6000 X107.602 Y123.78
G0 X108.122 Y123.54
G0 X108.122 Y123.26
;TYPE:SKIN
G1 F1200 X108.121 Y120.24 E21.66665
G1 X112.758 Y120.24 E21.82087
G1 X112.758 Y115.76 E21.96988
G1 X105.258 Y115.76 E22.21933
G1 X105.258 Y108.74 E22.45282
G1 X111.278 Y108.74 E22.65304
G1 X111.278 Y113.74 E22.81934
G1 X117.258 Y113.74 E23.01824
G1 X117.258 Y108.74 E23.18454
G1 X123.278 Y108.74 E23.38477
G1 X123.278 Y115.76 E23.61825
G1 X115.778 Y115.76 E23.8677
G1 X115.778 Y123.26 E24.11715
G1 X108.122 Y123.26 E24.37179
G0 F6000 X108.39 Y123.098
G1 F1200 X108.281 Y122.989 E24.37692
G0 F6000 X108.281 Y122.423
G1 F1200 X108.956 Y123.098 E24.40867
G0 F6000 X109.522 Y123.098
G1 F1200 X108.281 Y121.857 E24.46704
G0 F6000 X108.28 Y121.291
G1 F1200 X110.088 Y123.098 E24.55206
G0 F6000 X110.653 Y123.098
G1 F1200 X108.28 Y120.725 E24.66368
G0 F6000 X108.519 Y120.399
G1 F1200 X111.219 Y123.098 E24.79066
G0 F6000 X111.785 Y123.098
G1 F1200 X109.085 Y120.399 E24.91763
G0 F6000 X109.651 Y120.399
G1 F1200 X112.35 Y123.098 E25.04459
G0 F6000 X112.916 Y123.098
G1 F1200 X110.216 Y120.399 E25.17156
G0 F6000 X110.782 Y120.399
G1 F1200 X113.482 Y123.098 E25.29854
G0 F6000 X114.047 Y123.098
G1 F1200 X111.348 Y120.399 E25.42549
G0 F6000 X111.913 Y120.399
G1 F1200 X114.613 Y123.098 E25.55247
G0 F6000 X115.179 Y123.098
G1 F1200 X112.479 Y120.399 E25.67944
G0 F6000 X112.917 Y120.271
G1 F1200 X115.618 Y122.972 E25.80649
G0 F6000 X115.618 Y122.406
G1 F1200 X112.917 Y119.706 E25.93351
G0 F6000 X112.917 Y119.14
G1 F1200 X115.618 Y121.84 E26.06054
G0 F6000 X115.618 Y121.275
G1 F1200 X112.917 Y118.574 E26.18758
G0 F6000 X112.917 Y118.009
G1 F1200 X115.618 Y120.709 E26.31461
G0 F6000 X115.618 Y120.143
G1 F1200 X112.917 Y117.443 E26.44163
G0 F6000 X112.917 Y116.877
G1 F1200 X115.618 Y119.578 E26.56868
G0 F6000 X115.617 Y119.011
G1 F1200 X112.917 Y116.311 E26.69568
G0 F6000 X112.917 Y115.746
G1 F1200 X115.617 Y118.446 E26.82268
G0 F6000 X115.617 Y117.88
G1 F1200 X111.637 Y113.9 E27.00988
G0 F6000 X112.202 Y113.9
G1 F1200 X115.617 Y117.314 E27.17049
G0 F6000 X115.617 Y116.748
G1 F1200 X112.768 Y113.9 E27.30448
G0 F6000 X113.334 Y113.9
G1 F1200 X115.617 Y116.183 E27.41186
G0 F6000 X115.617 Y115.617
G1 F1200 X113.9 Y113.9 E27.49262
G0 F6000 X114.465 Y113.9
G1 F1200 X116.165 Y115.599 E27.57256
G0 F6000 X116.731 Y115.599
G1 F1200 X115.031 Y113.9 E27.6525
G0 F6000 X115.597 Y113.9
G1 F1200 X117.296 Y115.599 E27.73242
G0 F6000 X117.862 Y115.599
G1 F1200 X116.162 Y113.9 E27.81236
G0 F6000 X116.728 Y113.9
G1 F1200 X118.428 Y115.599 E27.8923
G0 F6000 X118.994 Y115.599
G1 F1200 X117.294 Y113.9 E27.97224
G0 F6000 X117.417 Y113.457
G1 F1200 X119.559 Y115.599 E28.07299
G0 F6000 X120.125 Y115.599
G1 F1200 X117.417 Y112.891 E28.20037
G0 F6000 X117.417 Y112.326
G1 F1200 X120.691 Y115.599 E28.35434
G0 F6000 X121.256 Y115.599
G1 F1200 X117.417 Y111.76 E28.53492
G0 F6000 X117.417 Y111.194
G1 F1200 X121.822 Y115.599 E28.74211
G0 F6000 X122.388 Y115.599
G1 F1200 X117.417 Y110.628 E28.97593
G0 F6000 X117.417 Y110.063
G1 F1200 X122.953 Y115.599 E29.23633
G0 F6000 X123.117 Y115.198
G1 F1200 X117.417 Y109.497 E29.50446
G0 F6000 X117.417 Y108.931
G1 F1200 X123.117 Y114.632 E29.7726
G0 F6000 X123.117 Y114.066
G1 F1200 X117.951 Y108.9 E30.01559
G0 F6000 X118.516 Y108.9
G1 F1200 X123.117 Y113.501 E30.23201
G0 F6000 X123.117 Y112.935
G1 F1200 X119.082 Y108.9 E30.4218
G0 F6000 X119.648 Y108.9
G1 F1200 X123.117 Y112.369 E30.58497
G0 F6000 X123.117 Y111.804
G1 F1200 X120.213 Y108.9 E30.72157
G0 F6000 X120.779 Y108.9
G1 F1200 X123.117 Y111.238 E30.83154
G0 F6000 X123.117 Y110.672
G1 F1200 X121.345 Y108.9 E30.91489
G0 F6000 X121.91 Y108.9
G1 F1200 X123.117 Y110.107 E30.97166
G0 F6000 X123.117 Y109.541
G1 F1200 X122.476 Y108.9 E31.00181
G0 F6000 X123.042 Y108.9
G1 F1200 X123.117 Y108.975 E31.00534
