;FLAVOR:Marlin
;TIME:2658
;Filament used: 2.35479m
;Layer height: 0.28
;MINX:93.268
;MINY:84.75
;MINZ:0.28
;MAXX:135.268
;MAXY:135.25
;MAXZ:34.72
;Generated with Cura_SteamEngine 4.7.0
M140 S60
M105
M190 S60
M104 S200
M105
M109 S200
M82 ;absolute extrusion mode
; Ender 3 Custom Start G-code
G92 E0 ; Reset Extruder
G28 ; Home all axes
G1 Z2.0 F3000 ; Move Z Axis up little to prevent scratching of Heat Bed
G1 X0.1 Y20 Z0.3 F5000.0 ; Move to start position
G1 X0.1 Y200.0 Z0.3 F1500.0 E15 ; Draw the first line
G1 X0.4 Y200.0 Z0.3 F5000.0 ; Move to side a little
G1 X0.4 Y20 Z0.3 F1500.0 E30 ; Draw the second line
G92 E0 ; Reset Extruder
G1 Z2.0 F3000 ; Move Z Axis up little to prevent scratching of Heat Bed
G1 X5 Y20 Z0.3 F5000.0 ; Move over to prevent blob squish
G92 E0
G92 E0
G1 F1500 E-6.5
;LAYER_COUNT:125
;LAYER:0
M107
G0 F6000 X96.466 Y88.014 Z0.28
;TYPE:SKIRT
G1 F1500 E0
G1 F1200 X97.154 Y87.377 E0.04366
G1 X97.894 Y86.801 E0.08732
G1 X98.68 Y86.289 E0.131
G1 X99.507 Y85.847 E0.17467
G1 X100.369 Y85.477 E0.21835
G1 X101.259 Y85.181 E0.26202
G1 X102.171 Y84.963 E0.30568
G1 X103.098 Y84.822 E0.34935
G1 X103.969 Y84.763 E0.39
G1 X104.29 Y84.754 E0.40495
G1 X104.598 Y84.75 E0.41929
G1 X111.738 Y84.751 E0.75176
G1 X112.882 Y84.767 E0.80504
G1 X115.522 Y84.767 E0.92796
G1 X116.229 Y84.752 E0.96089
G1 X116.5 Y84.75 E0.97351
G1 X123.719 Y84.751 E1.30966
G1 X124.417 Y84.761 E1.34216
G1 X125.353 Y84.815 E1.38582
G1 X126.281 Y84.947 E1.42947
G1 X127.195 Y85.159 E1.47316
G1 X128.087 Y85.448 E1.51682
G1 X128.952 Y85.811 E1.5605
G1 X129.782 Y86.247 E1.60415
G1 X130.573 Y86.752 E1.64785
G1 X131.317 Y87.323 E1.69152
G1 X132.01 Y87.955 E1.7352
G1 X132.647 Y88.643 E1.77886
G1 X133.222 Y89.384 E1.82253
G1 X133.733 Y90.17 E1.86618
G1 X134.175 Y90.998 E1.90989
G1 X134.544 Y91.86 E1.95355
G1 X134.839 Y92.75 E1.99721
G1 X135.057 Y93.662 E2.04087
G1 X135.197 Y94.59 E2.08457
G1 X135.255 Y95.451 E2.12476
G1 X135.264 Y95.771 E2.13966
G1 X135.268 Y96.08 E2.15405
G1 X135.267 Y104.171 E2.5308
G1 X135.26 Y104.659 E2.55353
G1 X135.26 Y107.278 E2.67548
G1 X135.265 Y107.543 E2.68782
G1 X135.268 Y107.989 E2.70859
G1 X135.267 Y116.176 E3.08981
G1 X135.257 Y116.898 E3.12343
G1 X135.204 Y117.835 E3.16713
G1 X135.071 Y118.763 E3.21079
G1 X134.86 Y119.677 E3.25447
G1 X134.572 Y120.569 E3.29811
G1 X134.209 Y121.434 E3.34179
G1 X133.773 Y122.265 E3.38549
G1 X133.269 Y123.055 E3.42912
G1 X132.699 Y123.8 E3.4728
G1 X132.067 Y124.493 E3.51648
G1 X131.644 Y124.898 E3.54375
G1 X131.42 Y125.101 E3.55782
G1 X129.539 Y126.855 E3.67758
G1 X127.754 Y128.617 E3.79437
G1 X126.008 Y130.441 E3.91194
G1 X125.673 Y130.811 E3.93519
G1 X124.816 Y131.733 E3.9938
G1 X124.149 Y132.392 E4.03746
G1 X123.428 Y132.991 E4.08111
G1 X122.658 Y133.527 E4.12479
G1 X121.846 Y133.996 E4.16846
G1 X120.996 Y134.393 E4.21214
G1 X120.116 Y134.717 E4.25581
G1 X119.212 Y134.965 E4.29946
G1 X118.289 Y135.134 E4.34315
G1 X117.067 Y135.237 E4.40025
G1 X116.743 Y135.246 E4.41535
G1 X116.438 Y135.25 E4.42955
G1 X107.642 Y135.249 E4.83913
G1 X106.943 Y135.239 E4.87168
G1 X106.006 Y135.185 E4.91538
G1 X105.078 Y135.053 E4.95903
G1 X104.164 Y134.841 E5.00272
G1 X103.272 Y134.552 E5.04638
G1 X102.407 Y134.189 E5.09006
G1 X101.577 Y133.753 E5.13372
G1 X100.787 Y133.248 E5.17738
G1 X100.042 Y132.677 E5.22108
G1 X99.349 Y132.045 E5.26476
G1 X98.712 Y131.357 E5.30841
G1 X98.137 Y130.616 E5.35209
G1 X97.626 Y129.83 E5.39574
G1 X97.184 Y129.002 E5.43945
G1 X96.853 Y128.239 E5.47817
G1 X96.712 Y127.862 E5.49692
G1 X96.442 Y127.095 E5.53478
G1 X96.071 Y125.996 E5.58879
G1 X95.204 Y123.651 E5.70521
G1 X94.235 Y121.243 E5.82607
G1 X94.121 Y120.969 E5.83989
G1 X93.798 Y120.088 E5.88359
G1 X93.551 Y119.183 E5.92727
G1 X93.382 Y118.261 E5.97091
G1 X93.281 Y117.049 E6.02755
G1 X93.272 Y116.726 E6.04259
G1 X93.268 Y116.42 E6.05684
G1 X93.269 Y108.315 E6.43424
G1 X93.276 Y107.836 E6.45655
G1 X93.276 Y105.222 E6.57827
G1 X93.271 Y104.957 E6.59061
G1 X93.268 Y104.511 E6.61138
G1 X93.269 Y96.275 E6.99488
G1 X93.278 Y95.61 E7.02585
G1 X93.331 Y94.674 E7.0695
G1 X93.463 Y93.745 E7.1132
G1 X93.674 Y92.831 E7.15688
G1 X93.962 Y91.939 E7.20052
G1 X94.325 Y91.074 E7.2442
G1 X94.76 Y90.243 E7.28788
G1 X95.264 Y89.453 E7.33151
G1 X95.834 Y88.708 E7.37519
G1 X96.466 Y88.014 E7.4189
G0 F6000 X96.857 Y88.189
G1 F1200 X97.542 Y87.573 E7.4618
G1 X98.278 Y87.02 E7.50466
G1 X99.059 Y86.532 E7.54755
G1 X99.879 Y86.114 E7.5904
G1 X100.733 Y85.769 E7.63329
G1 X101.613 Y85.499 E7.67615
G1 X102.513 Y85.307 E7.719
G1 X103.427 Y85.193 E7.76189
G1 X103.98 Y85.163 E7.78768
G1 X104.301 Y85.154 E7.80263
G1 X104.598 Y85.15 E7.81647
G1 X111.584 Y85.15 E8.14176
G1 X112.876 Y85.167 E8.20193
G1 X115.531 Y85.167 E8.32556
G1 X116.232 Y85.152 E8.35821
G1 X116.503 Y85.15 E8.37083
G1 X123.713 Y85.151 E8.70655
G1 X124.411 Y85.161 E8.73906
G1 X125.33 Y85.214 E8.78192
G1 X126.241 Y85.347 E8.82479
G1 X127.137 Y85.558 E8.86765
G1 X128.011 Y85.846 E8.9105
G1 X128.858 Y86.209 E8.95341
G1 X129.669 Y86.644 E8.99627
G1 X130.439 Y87.148 E9.03912
G1 X131.163 Y87.717 E9.082
G1 X131.835 Y88.347 E9.12489
G1 X132.45 Y89.032 E9.16775
G1 X133.003 Y89.768 E9.21062
G1 X133.49 Y90.549 E9.25348
G1 X133.907 Y91.37 E9.29636
G1 X134.252 Y92.224 E9.33924
G1 X134.521 Y93.104 E9.38209
G1 X134.713 Y94.005 E9.42499
G1 X134.826 Y94.918 E9.46783
G1 X134.855 Y95.462 E9.49319
G1 X134.864 Y95.782 E9.5081
G1 X134.868 Y96.08 E9.52198
G1 X134.867 Y104.165 E9.89845
G1 X134.86 Y104.653 E9.92117
G1 X134.86 Y107.287 E10.04382
G1 X134.865 Y107.546 E10.05589
G1 X134.868 Y107.992 E10.07665
G1 X134.867 Y116.171 E10.4575
G1 X134.857 Y116.893 E10.49113
G1 X134.804 Y117.812 E10.53399
G1 X134.672 Y118.723 E10.57685
G1 X134.461 Y119.619 E10.61971
G1 X134.173 Y120.494 E10.66261
G1 X133.811 Y121.34 E10.70546
G1 X133.376 Y122.152 E10.74835
G1 X132.873 Y122.922 E10.79118
G1 X132.304 Y123.647 E10.83409
G1 X131.375 Y124.601 E10.8961
G1 X131.161 Y124.794 E10.90952
G1 X129.268 Y126.56 E11.03006
G1 X127.467 Y128.338 E11.14791
G1 X125.705 Y130.178 E11.26653
G1 X125.283 Y130.644 E11.29581
G1 X124.524 Y131.46 E11.3477
G1 X123.868 Y132.107 E11.3906
G1 X123.158 Y132.694 E11.4335
G1 X122.401 Y133.217 E11.47634
G1 X121.601 Y133.672 E11.5192
G1 X120.764 Y134.056 E11.56208
G1 X119.897 Y134.367 E11.60497
G1 X119.007 Y134.601 E11.64782
G1 X118.1 Y134.756 E11.69067
G1 X117.056 Y134.837 E11.73942
G1 X116.732 Y134.846 E11.75452
G1 X116.438 Y134.85 E11.76821
G1 X107.647 Y134.849 E12.17755
G1 X106.948 Y134.839 E12.21011
G1 X106.029 Y134.786 E12.25297
G1 X105.118 Y134.653 E12.29584
G1 X104.222 Y134.442 E12.3387
G1 X103.348 Y134.154 E12.38155
G1 X102.502 Y133.791 E12.42442
G1 X101.69 Y133.356 E12.46731
G1 X100.92 Y132.852 E12.51016
G1 X100.196 Y132.283 E12.55304
G1 X99.524 Y131.654 E12.5959
G1 X98.909 Y130.968 E12.6388
G1 X98.356 Y130.232 E12.68167
G1 X97.869 Y129.451 E12.72453
G1 X97.452 Y128.63 E12.7674
G1 X97.225 Y128.094 E12.79451
G1 X97.089 Y127.729 E12.81265
G1 X96.821 Y126.967 E12.85026
G1 X96.449 Y125.865 E12.90442
G1 X95.574 Y123.499 E13.02188
G1 X94.604 Y121.089 E13.14285
G1 X94.49 Y120.815 E13.15667
G1 X94.174 Y119.95 E13.19955
G1 X93.934 Y119.062 E13.24238
G1 X93.771 Y118.155 E13.28529
G1 X93.681 Y117.038 E13.33747
G1 X93.672 Y116.715 E13.35252
G1 X93.668 Y116.42 E13.36626
G1 X93.669 Y108.321 E13.74338
G1 X93.676 Y107.842 E13.76569
G1 X93.676 Y105.213 E13.8881
G1 X93.671 Y104.954 E13.90017
G1 X93.668 Y104.508 E13.92093
G1 X93.669 Y96.281 E14.30402
G1 X93.678 Y95.616 E14.33499
G1 X93.73 Y94.696 E14.37789
G1 X93.862 Y93.785 E14.42076
G1 X94.073 Y92.889 E14.46362
G1 X94.36 Y92.014 E14.5065
G1 X94.723 Y91.168 E14.54937
G1 X95.157 Y90.356 E14.59224
G1 X95.66 Y89.585 E14.6351
G1 X96.229 Y88.861 E14.67798
G1 X96.857 Y88.189 E14.72081
G0 F6000 X97.249 Y88.367
G1 F1200 X97.93 Y87.774 E14.76286
G1 X98.662 Y87.244 E14.80494
G1 X99.437 Y86.781 E14.84697
G1 X100.25 Y86.388 E14.88902
G1 X101.095 Y86.068 E14.9311
G1 X101.964 Y85.825 E14.97311
G1 X102.852 Y85.659 E15.01518
G1 X103.991 Y85.563 E15.0684
G1 X104.312 Y85.554 E15.08336
G1 X104.598 Y85.55 E15.09667
G1 X111.584 Y85.55 E15.42197
G1 X112.871 Y85.567 E15.4819
G1 X115.495 Y85.567 E15.60409
G1 X116.086 Y85.554 E15.63161
G1 X116.506 Y85.55 E15.65117
G1 X123.707 Y85.551 E15.98648
G1 X124.405 Y85.561 E16.01899
G1 X125.307 Y85.614 E16.06106
G1 X126.2 Y85.746 E16.10309
G1 X127.078 Y85.957 E16.14514
G1 X127.934 Y86.245 E16.1872
G1 X128.761 Y86.607 E16.22923
G1 X129.553 Y87.042 E16.27131
G1 X130.304 Y87.544 E16.31337
G1 X131.007 Y88.111 E16.35542
G1 X131.657 Y88.738 E16.39748
G1 X132.249 Y89.42 E16.43953
G1 X132.779 Y90.151 E16.48157
G1 X133.241 Y90.927 E16.52363
G1 X133.634 Y91.74 E16.56567
G1 X133.952 Y92.585 E16.60771
G1 X134.195 Y93.455 E16.64978
G1 X134.36 Y94.343 E16.69183
G1 X134.455 Y95.473 E16.74464
G1 X134.464 Y95.793 E16.75954
G1 X134.468 Y96.08 E16.77291
G1 X134.467 Y104.159 E17.1491
G1 X134.46 Y104.647 E17.17183
G1 X134.46 Y107.296 E17.29517
G1 X134.465 Y107.548 E17.30691
G1 X134.468 Y107.994 E17.32768
G1 X134.467 Y116.165 E17.70815
G1 X134.457 Y116.887 E17.74178
G1 X134.405 Y117.789 E17.78385
G1 X134.273 Y118.682 E17.82588
G1 X134.062 Y119.56 E17.86793
G1 X133.775 Y120.417 E17.91001
G1 X133.413 Y121.244 E17.95205
G1 X132.979 Y122.036 E17.9941
G1 X132.477 Y122.787 E18.03616
G1 X131.91 Y123.49 E18.07822
G1 X131.107 Y124.305 E18.1315
G1 X130.869 Y124.521 E18.14646
G1 X128.979 Y126.284 E18.26681
G1 X127.198 Y128.042 E18.38334
G1 X125.421 Y129.898 E18.50299
G1 X124.99 Y130.372 E18.53282
G1 X124.231 Y131.188 E18.58471
G1 X123.587 Y131.821 E18.62676
G1 X122.89 Y132.395 E18.6688
G1 X122.144 Y132.905 E18.71088
G1 X121.357 Y133.347 E18.75291
G1 X120.533 Y133.718 E18.79499
G1 X119.68 Y134.015 E18.83705
G1 X118.804 Y134.234 E18.87909
G1 X117.912 Y134.376 E18.92115
G1 X117.045 Y134.437 E18.96162
G1 X116.721 Y134.446 E18.97672
G1 X116.438 Y134.45 E18.98989
G1 X107.653 Y134.449 E19.39896
G1 X106.954 Y134.439 E19.43151
G1 X106.053 Y134.386 E19.47354
G1 X105.159 Y134.254 E19.51562
G1 X104.281 Y134.043 E19.55767
G1 X103.425 Y133.755 E19.59972
G1 X102.598 Y133.393 E19.64176
G1 X101.806 Y132.959 E19.68381
G1 X101.055 Y132.456 E19.7259
G1 X100.352 Y131.889 E19.76795
G1 X99.702 Y131.262 E19.81001
G1 X99.11 Y130.58 E19.85206
G1 X98.581 Y129.849 E19.89407
G1 X98.118 Y129.073 E19.93615
G1 X97.598 Y127.948 E19.99386
G1 X97.466 Y127.595 E20.01141
G1 X97.2 Y126.839 E20.04873
G1 X96.831 Y125.747 E20.1024
G1 X95.944 Y123.348 E20.2215
G1 X94.929 Y120.826 E20.34809
G1 X94.86 Y120.661 E20.35642
G1 X94.55 Y119.813 E20.39846
G1 X94.317 Y118.94 E20.44053
G1 X94.161 Y118.051 E20.48256
G1 X94.081 Y117.027 E20.53039
G1 X94.072 Y116.704 E20.54543
G1 X94.068 Y116.42 E20.55866
G1 X94.069 Y108.327 E20.9355
G1 X94.076 Y107.848 E20.95781
G1 X94.076 Y105.204 E21.08092
G1 X94.071 Y104.952 E21.09266
G1 X94.068 Y104.506 E21.11343
G1 X94.069 Y96.286 E21.49619
G1 X94.078 Y95.621 E21.52716
G1 X94.13 Y94.719 E21.56923
G1 X94.262 Y93.826 E21.61126
G1 X94.472 Y92.948 E21.6533
G1 X94.759 Y92.091 E21.69538
G1 X95.121 Y91.264 E21.73742
G1 X95.554 Y90.472 E21.77945
G1 X96.056 Y89.721 E21.82151
G1 X96.623 Y89.017 E21.8636
G1 X97.249 Y88.367 E21.90562
G1 F1500 E15.40562
;MESH:calicat.stl
G0 F6000 X103.615 Y105.403
G0 X104.682 Y107.085
G0 X104.682 Y108.164
G0 X105.05 Y115.968
G0 X112.196 Y116.322
G0 X112.196 Y119.678
G0 X107.519 Y119.678
G0 X107.692 Y123.65
;TYPE:WALL-INNER
G1 F1500 E21.90562
G1 F1200 X107.691 Y120.049 E22.0733
G1 X107.691 Y119.85 E22.08257
G1 X107.89 Y119.85 E22.08856
G1 X112.368 Y119.85 E22.29707
G1 X112.368 Y116.15 E22.46936
G1 X104.868 Y116.15 E22.81859
G1 X104.868 Y108.35 E23.18179
G1 X111.668 Y108.35 E23.49843
G1 X111.668 Y113.35 E23.73125
G1 X116.868 Y113.35 E23.97339
G1 X116.868 Y108.35 E24.20621
G1 X123.668 Y108.35 E24.52284
G1 X123.668 Y116.15 E24.88604
G1 X116.168 Y116.15 E25.23528
G1 X116.168 Y123.65 E25.58451
G1 X107.692 Y123.65 E25.97918
G0 F6000 X107.292 Y124.05
;TYPE:WALL-OUTER
G1 F1200 X107.291 Y119.45 E26.19338
G1 X111.968 Y119.45 E26.41116
G1 X111.968 Y116.55 E26.5462
G1 X104.468 Y116.55 E26.89543
G1 X104.468 Y107.95 E27.29588
G1 X112.068 Y107.95 E27.64977
G1 X112.068 Y112.95 E27.88259
G1 X116.468 Y112.95 E28.08747
G1 X116.468 Y107.95 E28.32029
G1 X124.068 Y107.95 E28.67418
G1 X124.068 Y116.55 E29.07463
G1 X116.568 Y116.55 E29.42386
G1 X116.568 Y124.05 E29.7731
G1 X107.292 Y124.05 E30.20502
G0 F6000 X107.562 Y123.78
G0 X108.082 Y123.54
G0 X108.082 Y123.26
;TYPE:SKIN
G1 F1200 X108.081 Y120.24 E30.34565
G1 X112.758 Y120.24 E30.56343
G1 X112.758 Y115.76 E30.77204
G1 X105.258 Y115.76 E31.12127
G1 X105.258 Y108.74 E31.44815
G1 X111.278 Y108.74 E31.72847
G1 X111.278 Y113.74 E31.96129
G1 X117.258 Y113.74 E32.23974
G1 X117.258 Y108.74 E32.47256
G1 X123.278 Y108.74 E32.75288
G1 X123.278 Y115.76 E33.07976
G1 X115.778 Y115.76 E33.42899
G1 X115.778 Y123.26 E33.77822
G1 X108.082 Y123.26 E34.13658
G0 F6000 X108.391 Y123.099
G1 F1200 X108.241 Y122.948 E34.14649
G0 F6000 X108.241 Y122.383
G1 F1200 X108.957 Y123.099 E34.19364
G0 F6000 X109.523 Y123.099
G1 F1200 X108.241 Y121.817 E34.27806
G0 F6000 X108.241 Y121.251
G1 F1200 X110.088 Y123.099 E34.39972
G0 F6000 X110.654 Y123.099
G1 F1200 X108.241 Y120.686 E34.55862
G0 F6000 X108.519 Y120.399
G1 F1200 X111.22 Y123.099 E34.73645
G0 F6000 X111.785 Y123.099
G1 F1200 X109.085 Y120.399 E34.91425
G0 F6000 X109.651 Y120.399
G1 F1200 X112.351 Y123.099 E35.09205
G0 F6000 X112.917 Y123.099
G1 F1200 X110.216 Y120.399 E35.26989
G0 F6000 X110.782 Y120.399
G1 F1200 X113.482 Y123.099 E35.44769
G0 F6000 X114.048 Y123.099
G1 F1200 X111.348 Y120.399 E35.62549
G0 F6000 X111.913 Y120.399
G1 F1200 X114.614 Y123.099 E35.80332
G0 F6000 X115.179 Y123.099
G1 F1200 X112.479 Y120.399 E35.98112
G0 F6000 X112.917 Y120.271
G1 F1200 X115.618 Y122.972 E36.15898
G0 F6000 X115.618 Y122.406
G1 F1200 X112.917 Y119.706 E36.33682
G0 F6000 X112.917 Y119.14
G1 F1200 X115.618 Y121.84 E36.51465
G0 F6000 X115.618 Y121.275
G1 F1200 X112.917 Y118.574 E36.69251
G0 F6000 X112.917 Y118.009
G1 F1200 X115.618 Y120.709 E36.87035
G0 F6000 X115.618 Y120.143
G1 F1200 X112.917 Y117.443 E37.04818
G0 F6000 X112.917 Y116.877
G1 F1200 X115.618 Y119.578 E37.22604
G0 F6000 X115.617 Y119.011
G1 F1200 X112.917 Y116.311 E37.40384
G0 F6000 X112.917 Y115.746
G1 F1200 X115.617 Y118.446 E37.58164
G0 F6000 X115.617 Y117.88
G1 F1200 X111.637 Y113.9 E37.84373
G0 F6000 X112.202 Y113.9
G1 F1200 X115.617 Y117.314 E38.06858
G0 F6000 X115.617 Y116.748
G1 F1200 X112.768 Y113.9 E38.25616
G0 F6000 X113.334 Y113.9
G1 F1200 X115.617 Y116.183 E38.4065
G0 F6000 X115.617 Y115.617
G1 F1200 X113.9 Y113.9 E38.51957
G0 F6000 X114.465 Y113.9
G1 F1200 X116.165 Y115.599 E38.63148
G0 F6000 X116.731 Y115.599
G1 F1200 X115.031 Y113.9 E38.7434
G0 F6000 X115.597 Y113.9
G1 F1200 X117.296 Y115.599 E38.85528
G0 F6000 X117.862 Y115.599
G1 F1200 X116.162 Y113.9 E38.9672
G0 F6000 X116.728 Y113.9
G1 F1200 X118.428 Y115.599 E39.07911
G0 F6000 X118.994 Y115.599
G1 F1200 X117.294 Y113.9 E39.19103
G0 F6000 X117.417 Y113.457
G1 F1200 X119.559 Y115.599 E39.33208
G0 F6000 X120.125 Y115.599
G1 F1200 X117.417 Y112.891 E39.51041
G0 F6000 X117.417 Y112.326
G1 F1200 X120.691 Y115.599 E39.72597
G0 F6000 X121.256 Y115.599
G1 F1200 X117.417 Y111.76 E39.97878
G0 F6000 X117.417 Y111.194
G1 F1200 X121.822 Y115.599 E40.26885
G0 F6000 X122.388 Y115.599
G1 F1200 X117.417 Y110.628 E40.5962
G0 F6000 X117.417 Y110.063
G1 F1200 X122.953 Y115.599 E40.96076
G0 F6000 X123.117 Y115.198
G1 F1200 X117.417 Y109.497 E41.33615
G0 F6000 X117.417 Y108.931
G1 F1200 X123.117 Y114.632 E41.71153
G0 F6000 X123.117 Y114.066
G1 F1200 X117.951 Y108.9 E42.05172
G0 F6000 X118.516 Y108.9
G1 F1200 X123.117 Y113.501 E42.35471
G0 F6000 X123.117 Y112.935
G1 F1200 X119.082 Y108.9 E42.62042
G0 F6000 X119.648 Y108.9
G1 F1200 X123.117 Y112.369 E42.84886
G0 F6000 X123.117 Y111.804
G1 F1200 X120.213 Y108.9 E43.04009
G0 F6000 X120.779 Y108.9
G1 F1200 X123.117 Y111.238 E43.19405
G0 F6000 X123.117 Y110.672
G1 F1200 X121.345 Y108.9 E43.31074
G0 F6000 X121.91 Y108.9
G1 F1200 X123.117 Y110.107 E43.39023
G0 F6000 X123.117 Y109.541
G1 F1200 X122.476 Y108.9 E43.43244
G0 F6000 X123.042 Y108.9
