;FLAVOR:Marlin
;TIME:12164
;Filament used: 8.7423m
;Layer height: 0.28
;MINX:74
;MINY:74
;MINZ:0.28
;MAXX:161
;MAXY:161
;MAXZ:59.08
;Generated with Cura_SteamEngine 4.6.2
M140 S60
M105
M190 S60
M104 S200
M105
M109 S200
M82 ;absolute extrusion mode
; Ender 3 Custom Start G-code
G92 E0 ; Reset Extruder
G28 ; Home all axes
G1 Z2.0 F3000 ; Move Z Axis up little to prevent scratching of Heat Bed
G1 X0.1 Y20 Z0.3 F5000.0 ; Move to start position
G1 X0.1 Y200.0 Z0.3 F1500.0 E15 ; Draw the first line
G1 X0.4 Y200.0 Z0.3 F5000.0 ; Move to side a little
G1 X0.4 Y20 Z0.3 F1500.0 E30 ; Draw the second line
G92 E0 ; Reset Extruder
G1 Z2.0 F3000 ; Move Z Axis up little to prevent scratching of Heat Bed
G1 X5 Y20 Z0.3 F5000.0 ; Move over to prevent blob squish
G92 E0
G92 E0
G1 F1500 E-6.5
;LAYER_COUNT:211
;LAYER:0
M107
G0 F6000 X150.137 Y74.811 Z0.28
;TYPE:SKIRT
G1 F1500 E0
G1 F1200 X151.039 Y74.864 E0.04207
G1 X151.932 Y74.996 E0.08411
G1 X152.81 Y75.207 E0.12615
G1 X153.666 Y75.495 E0.16821
G1 X154.493 Y75.857 E0.21025
G1 X155.285 Y76.292 E0.25232
G1 X156.036 Y76.794 E0.29438
G1 X156.739 Y77.361 E0.33644
G1 X157.389 Y77.988 E0.37849
G1 X157.981 Y78.67 E0.42054
G1 X158.511 Y79.401 E0.46259
G1 X158.973 Y80.177 E0.50464
G1 X159.366 Y80.99 E0.54669
G1 X159.684 Y81.835 E0.58873
G1 X159.927 Y82.705 E0.63079
G1 X160.092 Y83.593 E0.67285
G1 X160.187 Y84.723 E0.72565
G1 X160.2 Y85.33 E0.75392
G1 X160.2 Y149.264 E3.73096
G1 X160.19 Y150.117 E3.77068
G1 X160.139 Y151.019 E3.81275
G1 X160.008 Y151.913 E3.85482
G1 X159.799 Y152.791 E3.89684
G1 X159.513 Y153.648 E3.93891
G1 X159.152 Y154.476 E3.98097
G1 X158.72 Y155.268 E4.02298
G1 X158.219 Y156.02 E4.06506
G1 X157.653 Y156.724 E4.10712
G1 X157.028 Y157.375 E4.14914
G1 X156.347 Y157.969 E4.19122
G1 X155.616 Y158.5 E4.23329
G1 X154.842 Y158.964 E4.27531
G1 X154.029 Y159.358 E4.31738
G1 X153.185 Y159.678 E4.35941
G1 X152.315 Y159.923 E4.4015
G1 X151.428 Y160.089 E4.44352
G1 X150.277 Y160.187 E4.4973
G1 X149.67 Y160.2 E4.52558
G1 X85.707 Y160.2 E7.50396
G1 X84.877 Y160.19 E7.54261
G1 X83.976 Y160.139 E7.58463
G1 X83.082 Y160.007 E7.62671
G1 X82.204 Y159.798 E7.66874
G1 X81.347 Y159.511 E7.71082
G1 X80.52 Y159.15 E7.75284
G1 X79.727 Y158.717 E7.79491
G1 X78.976 Y158.216 E7.83695
G1 X78.272 Y157.65 E7.87901
G1 X77.621 Y157.024 E7.92106
G1 X77.028 Y156.343 E7.96311
G1 X76.498 Y155.612 E8.00516
G1 X76.034 Y154.837 E8.04722
G1 X75.64 Y154.024 E8.08928
G1 X75.32 Y153.18 E8.13131
G1 X75.076 Y152.31 E8.17339
G1 X74.91 Y151.422 E8.21545
G1 X74.813 Y150.267 E8.26942
G1 X74.8 Y149.658 E8.29779
G1 X74.8 Y85.674 E11.27715
G1 X74.81 Y84.871 E11.31455
G1 X74.862 Y83.969 E11.35662
G1 X74.994 Y83.076 E11.39865
G1 X75.204 Y82.198 E11.44069
G1 X75.491 Y81.341 E11.48277
G1 X75.853 Y80.514 E11.52481
G1 X76.286 Y79.722 E11.56684
G1 X76.788 Y78.971 E11.6089
G1 X77.355 Y78.267 E11.65099
G1 X77.981 Y77.617 E11.69301
G1 X78.662 Y77.024 E11.73506
G1 X79.394 Y76.494 E11.77714
G1 X80.169 Y76.031 E11.81918
G1 X80.982 Y75.638 E11.86123
G1 X81.827 Y75.318 E11.9033
G1 X82.696 Y75.075 E11.94532
G1 X83.584 Y74.909 E11.98738
G1 X84.723 Y74.813 E12.04061
G1 X85.33 Y74.8 E12.06888
G1 X149.293 Y74.8 E15.04726
G1 X149.439 Y74.801 E15.05406
G1 X150.137 Y74.811 E15.08657
G0 F6000 X150.143 Y74.411
G1 F1200 X151.062 Y74.464 E15.12943
G1 X151.973 Y74.597 E15.1723
G1 X152.869 Y74.808 E15.21516
G1 X153.743 Y75.096 E15.25801
G1 X154.59 Y75.459 E15.30092
G1 X155.401 Y75.894 E15.34377
G1 X156.171 Y76.398 E15.38663
G1 X156.895 Y76.967 E15.4295
G1 X157.567 Y77.597 E15.47239
G1 X158.182 Y78.282 E15.51526
G1 X158.735 Y79.018 E15.55813
G1 X159.222 Y79.799 E15.60099
G1 X159.639 Y80.62 E15.64386
G1 X159.984 Y81.474 E15.68675
G1 X160.253 Y82.354 E15.7296
G1 X160.445 Y83.255 E15.7725
G1 X160.558 Y84.168 E15.81533
G1 X160.587 Y84.712 E15.8407
G1 X160.6 Y85.33 E15.86948
G1 X160.6 Y149.264 E18.84652
G1 X160.59 Y150.122 E18.88647
G1 X160.539 Y151.041 E18.92933
G1 X160.408 Y151.953 E18.97223
G1 X160.198 Y152.849 E19.01509
G1 X159.912 Y153.724 E19.05795
G1 X159.551 Y154.571 E19.10082
G1 X159.117 Y155.383 E19.14369
G1 X158.615 Y156.155 E19.18657
G1 X158.047 Y156.88 E19.22946
G1 X157.419 Y157.553 E19.27232
G1 X156.735 Y158.169 E19.31518
G1 X156 Y158.723 E19.35804
G1 X155.22 Y159.212 E19.40091
G1 X154.4 Y159.631 E19.44379
G1 X153.547 Y159.977 E19.48665
G1 X152.667 Y160.248 E19.52953
G1 X151.767 Y160.441 E19.57239
G1 X150.853 Y160.556 E19.61528
G1 X150.288 Y160.587 E19.64163
G1 X149.67 Y160.6 E19.67041
G1 X85.707 Y160.6 E22.6488
G1 X84.872 Y160.59 E22.68768
G1 X83.953 Y160.538 E22.73054
G1 X83.042 Y160.407 E22.7734
G1 X82.146 Y160.197 E22.81625
G1 X81.271 Y159.91 E22.85913
G1 X80.424 Y159.548 E22.90202
G1 X79.612 Y159.114 E22.94489
G1 X78.841 Y158.612 E22.98773
G1 X78.116 Y158.044 E23.03062
G1 X77.443 Y157.415 E23.07351
G1 X76.828 Y156.731 E23.11634
G1 X76.274 Y155.996 E23.1592
G1 X75.786 Y155.215 E23.20208
G1 X75.367 Y154.395 E23.24496
G1 X75.021 Y153.542 E23.28783
G1 X74.751 Y152.662 E23.33069
G1 X74.558 Y151.761 E23.37359
G1 X74.444 Y150.848 E23.41644
G1 X74.413 Y150.277 E23.44306
G1 X74.4 Y149.658 E23.47189
G1 X74.4 Y85.674 E26.45126
G1 X74.41 Y84.866 E26.48888
G1 X74.462 Y83.946 E26.53179
G1 X74.594 Y83.035 E26.57465
G1 X74.805 Y82.139 E26.61752
G1 X75.092 Y81.264 E26.6604
G1 X75.455 Y80.418 E26.70326
G1 X75.889 Y79.606 E26.74613
G1 X76.392 Y78.835 E26.789
G1 X76.961 Y78.111 E26.83188
G1 X77.589 Y77.439 E26.87471
G1 X78.274 Y76.823 E26.9176
G1 X79.01 Y76.27 E26.96047
G1 X79.791 Y75.782 E27.00335
G1 X80.611 Y75.364 E27.04621
G1 X81.465 Y75.019 E27.0891
G1 X82.345 Y74.749 E27.13196
G1 X83.245 Y74.557 E27.17481
G1 X84.159 Y74.443 E27.2177
G1 X84.712 Y74.413 E27.24349
G1 X85.33 Y74.4 E27.27227
G1 X149.293 Y74.4 E30.25066
G1 X149.445 Y74.401 E30.25773
G1 X150.143 Y74.411 E30.29024
G0 F6000 X150.149 Y74.011
G1 F1200 X151.085 Y74.065 E30.3339
G1 X152.013 Y74.197 E30.37754
G1 X152.927 Y74.409 E30.42123
G1 X153.819 Y74.698 E30.46489
G1 X154.684 Y75.061 E30.50857
G1 X155.514 Y75.497 E30.55223
G1 X156.305 Y76.002 E30.59593
G1 X157.049 Y76.573 E30.6396
G1 X157.742 Y77.205 E30.68327
G1 X158.379 Y77.893 E30.72693
G1 X158.954 Y78.634 E30.7706
G1 X159.465 Y79.42 E30.81426
G1 X159.907 Y80.248 E30.85796
G1 X160.276 Y81.11 E30.90162
G1 X160.571 Y82 E30.94528
G1 X160.789 Y82.912 E30.98895
G1 X160.929 Y83.84 E31.03265
G1 X160.987 Y84.701 E31.07283
G1 X161 Y85.33 E31.10213
G1 X161 Y149.264 E34.07916
G1 X160.99 Y150.127 E34.11935
G1 X160.939 Y151.064 E34.16304
G1 X160.807 Y151.992 E34.20669
G1 X160.598 Y152.906 E34.25035
G1 X160.311 Y153.799 E34.29402
G1 X159.949 Y154.665 E34.33773
G1 X159.515 Y155.496 E34.38138
G1 X159.011 Y156.287 E34.42506
G1 X158.442 Y157.032 E34.46871
G1 X157.811 Y157.727 E34.51242
G1 X157.124 Y158.365 E34.55608
G1 X156.385 Y158.942 E34.59973
G1 X155.599 Y159.454 E34.64341
G1 X154.773 Y159.897 E34.68706
G1 X153.911 Y160.269 E34.73077
G1 X153.022 Y160.565 E34.7744
G1 X152.11 Y160.785 E34.81809
G1 X151.183 Y160.926 E34.86175
G1 X150.299 Y160.987 E34.90301
G1 X149.67 Y161 E34.93231
G1 X85.707 Y161 E37.91069
G1 X84.867 Y160.99 E37.94981
G1 X83.931 Y160.938 E37.99346
G1 X83.002 Y160.806 E38.03715
G1 X82.088 Y160.596 E38.08082
G1 X81.195 Y160.309 E38.1245
G1 X80.33 Y159.946 E38.16818
G1 X79.499 Y159.512 E38.21183
G1 X78.708 Y159.008 E38.25551
G1 X77.963 Y158.438 E38.29918
G1 X77.269 Y157.807 E38.34286
G1 X76.632 Y157.12 E38.38649
G1 X76.055 Y156.38 E38.43018
G1 X75.543 Y155.594 E38.47386
G1 X75.1 Y154.767 E38.51754
G1 X74.729 Y153.906 E38.5612
G1 X74.433 Y153.016 E38.60487
G1 X74.214 Y152.104 E38.64855
G1 X74.073 Y151.177 E38.69221
G1 X74.013 Y150.288 E38.7337
G1 X74 Y149.658 E38.76304
G1 X74 Y85.674 E41.7424
G1 X74.01 Y84.86 E41.78031
G1 X74.063 Y83.924 E41.82396
G1 X74.195 Y82.995 E41.86766
G1 X74.406 Y82.081 E41.91134
G1 X74.694 Y81.189 E41.95498
G1 X75.057 Y80.324 E41.99866
G1 X75.492 Y79.493 E42.04234
G1 X75.996 Y78.703 E42.08597
G1 X76.566 Y77.958 E42.12965
G1 X77.198 Y77.264 E42.17336
G1 X77.886 Y76.627 E42.21702
G1 X78.626 Y76.051 E42.26068
G1 X79.412 Y75.539 E42.30436
G1 X80.239 Y75.097 E42.34803
G1 X81.101 Y74.727 E42.39171
G1 X81.991 Y74.431 E42.43538
G1 X82.903 Y74.213 E42.47904
G1 X83.83 Y74.072 E42.52271
G1 X84.701 Y74.013 E42.56336
G1 X85.33 Y74 E42.59265
G1 X149.293 Y74 E45.57104
G1 X149.451 Y74.001 E45.57839
G1 X150.149 Y74.011 E45.6109
G1 F1500 E39.1109
;MESH:3D_printer_test_mini.STL
G0 F6000 X149.19 Y84.335
G0 X149.19 Y85.81
G0 X149.218 Y149.218
G0 X85.6 Y149.4
;TYPE:WALL-INNER
G1 F1500 E45.6109
G1 F1200 X85.6 Y85.6 E48.58169
G1 X149.4 Y85.6 E51.55249
G1 X149.4 Y149.4 E54.52328
G1 X85.6 Y149.4 E57.49408
G0 F6000 X85.2 Y149.8
;TYPE:WALL-OUTER
G1 F1200 X85.2 Y85.2 E60.50213
G1 X149.8 Y85.2 E63.51017
G1 X149.8 Y149.8 E66.51822
G1 X85.2 Y149.8 E69.52627
G0 F6000 X85.47 Y149.53
G0 X85.71 Y149.01
G0 X85.99 Y149.01
;TYPE:SKIN
G1 F1200 X85.99 Y85.99 E72.46074
G1 X149.01 Y85.99 E75.39522
G1 X149.01 Y149.01 E78.32969
G1 X85.99 Y149.01 E81.26417
G0 F6000 X86.624 Y148.849
G1 F1200 X86.149 Y148.375 E81.29541
G0 F6000 X86.149 Y147.809
G1 F1200 X87.189 Y148.849 E81.3639
G0 F6000 X87.755 Y148.849
G1 F1200 X86.149 Y147.243 E81.46966
G0 F6000 X86.149 Y146.677
G1 F1200 X88.321 Y148.849 E81.61269
G0 F6000 X88.886 Y148.849
G1 F1200 X86.149 Y146.112 E81.79292
G0 F6000 X86.149 Y145.546
G1 F1200 X89.452 Y148.849 E82.01043
G0 F6000 X90.018 Y148.849
G1 F1200 X86.149 Y144.98 E82.26521
G0 F6000 X86.149 Y144.415
G1 F1200 X90.583 Y148.849 E82.5572
G0 F6000 X91.149 Y148.849
G1 F1200 X86.149 Y143.849 E82.88646
G0 F6000 X86.149 Y143.283
G1 F1200 X91.715 Y148.849 E83.25299
G0 F6000 X92.28 Y148.849
G1 F1200 X86.149 Y142.718 E83.65672
G0 F6000 X86.149 Y142.152
G1 F1200 X92.846 Y148.849 E84.09773
G0 F6000 X93.412 Y148.849
G1 F1200 X86.149 Y141.586 E84.57601
G0 F6000 X86.149 Y141.021
G1 F1200 X93.978 Y148.849 E85.09153
G0 F6000 X94.543 Y148.849
G1 F1200 X86.149 Y140.455 E85.64429
G0 F6000 X86.149 Y139.889
G1 F1200 X95.109 Y148.849 E86.23432
G0 F6000 X95.675 Y148.849
G1 F1200 X86.149 Y139.324 E86.86159
G0 F6000 X86.149 Y138.758
G1 F1200 X96.24 Y148.849 E87.5261
G0 F6000 X96.806 Y148.849
G1 F1200 X86.149 Y138.192 E88.22789
G0 F6000 X86.149 Y137.627
G1 F1200 X97.372 Y148.849 E88.96691
G0 F6000 X97.937 Y148.849
G1 F1200 X86.149 Y137.061 E89.74317
G0 F6000 X86.149 Y136.495
G1 F1200 X98.503 Y148.849 E90.5567
G0 F6000 X99.069 Y148.849
G1 F1200 X86.149 Y135.929 E91.4075
G0 F6000 X86.149 Y135.364
G1 F1200 X99.634 Y148.849 E92.29551
G0 F6000 X100.2 Y148.849
G1 F1200 X86.149 Y134.798 E93.2208
G0 F6000 X86.149 Y134.232
G1 F1200 X100.766 Y148.849 E94.18335
G0 F6000 X101.331 Y148.849
G1 F1200 X86.149 Y133.667 E95.18311
G0 F6000 X86.149 Y133.101
G1 F1200 X101.897 Y148.849 E96.22014
G0 F6000 X102.463 Y148.849
G1 F1200 X86.149 Y132.535 E97.29445
G0 F6000 X86.149 Y131.97
G1 F1200 X103.028 Y148.849 E98.40596
G0 F6000 X103.594 Y148.849
G1 F1200 X86.149 Y131.404 E99.55474
G0 F6000 X86.149 Y130.838
G1 F1200 X104.16 Y148.849 E100.7408
G0 F6000 X104.726 Y148.849
G1 F1200 X86.149 Y130.273 E101.96409
G0 F6000 X86.149 Y129.707
G1 F1200 X105.291 Y148.849 E103.22462
G0 F6000 X105.857 Y148.849
G1 F1200 X86.149 Y129.141 E104.52243
G0 F6000 X86.149 Y128.576
G1 F1200 X106.423 Y148.849 E105.85747
G0 F6000 X106.988 Y148.849
G1 F1200 X86.149 Y128.01 E107.22976
G0 F6000 X86.149 Y127.444
G1 F1200 X107.554 Y148.849 E108.63931
G0 F6000 X108.12 Y148.849
G1 F1200 X86.149 Y126.878 E110.08614
G0 F6000 X86.149 Y126.313
G1 F1200 X108.685 Y148.849 E111.57018
G0 F6000 X109.251 Y148.849
G1 F1200 X86.149 Y125.747 E113.09148
G0 F6000 X86.149 Y125.181
G1 F1200 X109.817 Y148.849 E114.65006
G0 F6000 X110.382 Y148.849
G1 F1200 X86.149 Y124.616 E116.24585
G0 F6000 X86.149 Y124.05
G1 F1200 X110.948 Y148.849 E117.8789
G0 F6000 X111.514 Y148.849
G1 F1200 X86.149 Y123.484 E119.54923
G0 F6000 X86.149 Y122.919
G1 F1200 X112.079 Y148.849 E121.25676
G0 F6000 X112.645 Y148.849
G1 F1200 X86.149 Y122.353 E123.00157
G0 F6000 X86.149 Y121.787
G1 F1200 X113.211 Y148.849 E124.78365
G0 F6000 X113.777 Y148.849
G1 F1200 X86.149 Y121.222 E126.60297
G0 F6000 X86.149 Y120.656
G1 F1200 X114.342 Y148.849 E128.45953
G0 F6000 X114.908 Y148.849
G1 F1200 X86.149 Y120.09 E130.35336
G0 F6000 X86.149 Y119.525
G1 F1200 X115.474 Y148.849 E132.28442
G0 F6000 X116.039 Y148.849
G1 F1200 X86.149 Y118.959 E134.25273
G0 F6000 X86.149 Y118.393
G1 F1200 X116.605 Y148.849 E136.25831
G0 F6000 X117.171 Y148.849
G1 F1200 X86.149 Y117.828 E138.30113
G0 F6000 X86.149 Y117.262
G1 F1200 X117.736 Y148.849 E140.38119
G0 F6000 X118.302 Y148.849
G1 F1200 X86.149 Y116.696 E142.49852
G0 F6000 X86.149 Y116.13
G1 F1200 X118.868 Y148.849 E144.65312
G0 F6000 X119.433 Y148.849
G1 F1200 X86.149 Y115.565 E146.84493
G0 F6000 X86.149 Y114.999
G1 F1200 X119.999 Y148.849 E149.07401
G0 F6000 X120.565 Y148.849
G1 F1200 X86.149 Y114.433 E151.34036
G0 F6000 X86.149 Y113.868
G1 F1200 X121.13 Y148.849 E153.64392
G0 F6000 X121.696 Y148.849
G1 F1200 X86.149 Y113.302 E155.98475
G0 F6000 X86.149 Y112.736
G1 F1200 X122.262 Y148.849 E158.36285
G0 F6000 X122.827 Y148.849
G1 F1200 X86.149 Y112.171 E160.77816
G0 F6000 X86.149 Y111.605
G1 F1200 X123.393 Y148.849 E163.23074
G0 F6000 X123.959 Y148.849
G1 F1200 X86.149 Y111.039 E165.7206
G0 F6000 X86.149 Y110.474
G1 F1200 X124.525 Y148.849 E168.24769
G0 F6000 X125.09 Y148.849
G1 F1200 X86.149 Y109.908 E170.81202
G0 F6000 X86.149 Y109.342
G1 F1200 X125.656 Y148.849 E173.41362
G0 F6000 X126.222 Y148.849
G1 F1200 X86.149 Y108.777 E176.05246
G0 F6000 X86.149 Y108.211
G1 F1200 X126.787 Y148.849 E178.72855
G0 F6000 X127.353 Y148.849
G1 F1200 X86.149 Y107.645 E181.4419
G0 F6000 X86.149 Y107.08
G1 F1200 X127.919 Y148.849 E184.19249
G0 F6000 X128.484 Y148.849
G1 F1200 X86.149 Y106.514 E186.98033
G0 F6000 X86.149 Y105.948
G1 F1200 X129.05 Y148.849 E189.80543
G0 F6000 X129.616 Y148.849
G1 F1200 X86.149 Y105.382 E192.66781
G0 F6000 X86.149 Y104.817
G1 F1200 X130.181 Y148.849 E195.56739
G0 F6000 X130.747 Y148.849
G1 F1200 X86.149 Y104.251 E198.50424
G0 F6000 X86.149 Y103.685
G1 F1200 X131.313 Y148.849 E201.47837
G0 F6000 X131.878 Y148.849
G1 F1200 X86.149 Y103.12 E204.4897
G0 F6000 X86.149 Y102.554
G1 F1200 X132.444 Y148.849 E207.53831
G0 F6000 X133.01 Y148.849
G1 F1200 X86.149 Y101.988 E210.62418
G0 F6000 X86.149 Y101.423
G1 F1200 X133.576 Y148.849 E213.7473
G0 F6000 X134.141 Y148.849
G1 F1200 X86.149 Y100.857 E216.90765
G0 F6000 X86.149 Y100.291
G1 F1200 X134.707 Y148.849 E220.10528
G0 F6000 X135.273 Y148.849
G1 F1200 X86.149 Y99.726 E223.34015
G0 F6000 X86.149 Y99.16
G1 F1200 X135.838 Y148.849 E226.61225
G0 F6000 X136.404 Y148.849
G1 F1200 X86.149 Y98.594 E229.92163
G0 F6000 X86.149 Y98.029
G1 F1200 X136.97 Y148.849 E233.26825
G0 F6000 X137.535 Y148.849
G1 F1200 X86.149 Y97.463 E236.6521
G0 F6000 X86.149 Y96.897
G1 F1200 X138.101 Y148.849 E240.07323
G0 F6000 X138.667 Y148.849
G1 F1200 X86.149 Y96.331 E243.53163
G0 F6000 X86.149 Y95.766
G1 F1200 X139.232 Y148.849 E247.02724
G0 F6000 X139.798 Y148.849
G1 F1200 X86.149 Y95.2 E250.56012
G0 F6000 X86.149 Y94.634
G1 F1200 X140.364 Y148.849 E254.13027
G0 F6000 X140.929 Y148.849
G1 F1200 X86.149 Y94.069 E257.73762
G0 F6000 X86.149 Y93.503
G1 F1200 X141.495 Y148.849 E261.38225
G0 F6000 X142.061 Y148.849
G1 F1200 X86.149 Y92.937 E265.06415
G0 F6000 X86.149 Y92.372
G1 F1200 X142.626 Y148.849 E268.78326
G0 F6000 X143.192 Y148.849
G1 F1200 X86.149 Y91.806 E272.53964
G0 F6000 X86.149 Y91.24
G1 F1200 X143.758 Y148.849 E276.33329
G0 F6000 X144.324 Y148.849
G1 F1200 X86.149 Y90.675 E280.16418
G0 F6000 X86.149 Y90.109
G1 F1200 X144.889 Y148.849 E284.03231
G0 F6000 X145.455 Y148.849
G1 F1200 X86.149 Y89.543 E287.93771
G0 F6000 X86.149 Y88.978
G1 F1200 X146.021 Y148.849 E291.88035
G0 F6000 X146.586 Y148.849
G1 F1200 X86.149 Y88.412 E295.86023
G0 F6000 X86.149 Y87.846
G1 F1200 X147.152 Y148.849 E299.87738
G0 F6000 X147.718 Y148.849
G1 F1200 X86.149 Y87.281 E303.93177
G0 F6000 X86.149 Y86.715
G1 F1200 X148.283 Y148.849 E308.0234
G0 F6000 X148.849 Y148.849
G1 F1200 X86.149 Y86.149 E312.1523
G0 F6000 X86.716 Y86.15
G1 F1200 X148.849 Y148.283 E316.24387
G0 F6000 X148.849 Y147.718
G1 F1200 X87.281 Y86.15 E320.29823
