;FLAVOR:Marlin
;TIME:2455
;Filament used: 1.59808m
;Layer height: 0.2
;MINX:59.809
;MINY:59.808
;MINZ:0.2
;MAXX:160.214
;MAXY:160.213
;MAXZ:6
;Generated with Cura_SteamEngine 4.7.0
M140 S60
M105
M190 S60
M104 S200
M105
M109 S200
M82 ;absolute extrusion mode
; Ender 3 Custom Start G-code
G92 E0 ; Reset Extruder
G28 ; Home all axes
G1 Z2.0 F3000 ; Move Z Axis up little to prevent scratching of Heat Bed
G1 X0.1 Y20 Z0.3 F5000.0 ; Move to start position
G1 X0.1 Y200.0 Z0.3 F1500.0 E15 ; Draw the first line
G1 X0.4 Y200.0 Z0.3 F5000.0 ; Move to side a little
G1 X0.4 Y20 Z0.3 F1500.0 E30 ; Draw the second line
G92 E0 ; Reset Extruder
G1 Z2.0 F3000 ; Move Z Axis up little to prevent scratching of Heat Bed
G1 X5 Y20 Z0.3 F5000.0 ; Move over to prevent blob squish
G92 E0
G92 E0
G1 F1500 E-6.5
;LAYER_COUNT:30
;LAYER:0
M107
M204 S500
M205 X8 Y8
G0 F6000 X86.144 Y67.802 Z0.2
;TYPE:SKIRT
G1 F1500 E0
G1 F1200 X86.965 Y66.851 E0.04179
G1 X87.618 Y66.176 E0.07302
G1 X87.743 Y66.049 E0.07895
G1 X89.175 Y64.617 E0.14631
G1 X89.695 Y64.112 E0.17042
G1 X89.905 Y63.914 E0.18002
G1 X90.058 Y63.773 E0.18694
G1 X90.461 Y63.419 E0.20478
G1 X90.655 Y63.257 E0.21318
G1 X91.231 Y62.808 E0.23747
G1 X91.529 Y62.591 E0.24973
G1 X92.286 Y62.086 E0.28
G1 X92.567 Y61.915 E0.29094
G1 X93.741 Y61.294 E0.33512
G1 X94.215 Y61.079 E0.35243
G1 X94.607 Y60.911 E0.36661
G1 X94.791 Y60.836 E0.37322
G1 X95.984 Y60.427 E0.41517
G1 X96.249 Y60.353 E0.42432
G1 X96.64 Y60.252 E0.43775
G1 X97.019 Y60.161 E0.45071
G1 X98.307 Y59.932 E0.49422
G1 X98.529 Y59.906 E0.50166
G1 X98.919 Y59.867 E0.51469
G1 X99.313 Y59.835 E0.52784
G1 X100.66 Y59.808 E0.57265
G1 X101.069 Y59.825 E0.58627
G1 X101.414 Y59.845 E0.59776
G1 X101.674 Y59.864 E0.60643
G1 X102.908 Y60.025 E0.64782
G1 X103.2 Y60.08 E0.65771
G1 X103.55 Y60.152 E0.66959
G1 X103.64 Y60.172 E0.67266
G1 X104.059 Y60.274 E0.687
G1 X104.332 Y60.346 E0.69639
G1 X105.45 Y60.705 E0.73545
G1 X105.856 Y60.86 E0.7499
G1 X106.36 Y61.067 E0.76802
G1 X106.567 Y61.158 E0.77554
G1 X107.723 Y61.75 E0.81874
G1 X108.071 Y61.955 E0.83217
G1 X108.295 Y62.091 E0.84089
G1 X108.517 Y62.229 E0.84958
G1 X109.529 Y62.939 E0.8907
G1 X109.748 Y63.112 E0.89998
G1 X110.169 Y63.463 E0.91821
G1 X110.344 Y63.616 E0.92594
G1 X110.742 Y63.981 E0.94391
G1 X111.455 Y64.669 E0.97686
G1 X111.595 Y64.807 E0.9834
G1 X113.884 Y67.097 E1.09109
G1 X114.451 Y67.682 E1.11819
G1 X114.607 Y67.847 E1.12574
G1 X114.886 Y68.147 E1.13937
G1 X115.101 Y68.385 E1.15003
G1 X115.529 Y68.873 E1.17162
G1 X116.084 Y69.559 E1.20097
G1 X116.437 Y70.031 E1.22057
G1 X116.643 Y70.31 E1.23211
G1 X116.928 Y70.71 E1.24844
G1 X117.287 Y71.247 E1.26993
G1 X117.447 Y71.502 E1.27994
G1 X117.586 Y71.73 E1.28882
G1 X117.791 Y72.079 E1.30229
G1 X118.142 Y72.696 E1.32589
G1 X118.428 Y73.232 E1.3461
G1 X118.545 Y73.467 E1.35483
G1 X118.674 Y73.735 E1.36473
G1 X118.792 Y73.989 E1.37404
G1 X118.891 Y74.209 E1.38206
G1 X119.157 Y74.816 E1.40411
G1 X119.387 Y75.382 E1.42443
G1 X119.483 Y75.639 E1.43355
G1 X119.577 Y75.901 E1.44281
G1 X119.646 Y76.101 E1.44985
G1 X119.718 Y76.319 E1.45748
G1 X119.94 Y77.009 E1.48159
G1 X120.119 Y77.627 E1.50299
G1 X120.181 Y77.867 E1.51123
G1 X120.26 Y78.189 E1.52226
G1 X120.921 Y81.108 E1.62181
G1 X121.539 Y83.522 E1.70469
G1 X122.246 Y85.988 E1.79001
G1 X122.992 Y88.34 E1.87208
G1 X123.83 Y90.744 E1.95675
G1 X124.714 Y93.067 E2.03942
G1 X125.686 Y95.416 E2.12398
G1 X126.718 Y97.725 E2.20809
G1 X127.792 Y99.958 E2.29051
G1 X128.968 Y102.232 E2.37566
G1 X130.167 Y104.401 E2.45809
G1 X131.457 Y106.585 E2.54245
G1 X132.809 Y108.731 E2.62681
G1 X134.188 Y110.791 E2.70926
G1 X135.656 Y112.855 E2.7935
G1 X137.183 Y114.877 E2.87778
G1 X138.736 Y116.819 E2.96048
G1 X140.37 Y118.746 E3.04452
G1 X142.029 Y120.594 E3.12712
G1 X144.604 Y123.274 E3.25073
G1 X156.148 Y134.819 E3.79375
G1 X156.543 Y135.225 E3.81259
G1 X157.199 Y135.963 E3.84543
G1 X157.527 Y136.367 E3.86274
G1 X158.086 Y137.119 E3.8939
G1 X158.58 Y137.917 E3.92512
G1 X158.927 Y138.588 E3.95024
G1 X159.046 Y138.839 E3.95948
G1 X159.542 Y140.072 E4.00369
G1 X159.615 Y140.291 E4.01136
G1 X159.873 Y141.193 E4.04257
G1 X160.083 Y142.321 E4.08073
G1 X160.119 Y142.592 E4.08982
G1 X160.203 Y143.527 E4.12105
G1 X160.214 Y144.192 E4.14317
G1 X160.211 Y144.411 E4.15045
G1 X160.158 Y145.347 E4.18163
G1 X160.039 Y146.204 E4.21041
G1 X159.981 Y146.527 E4.22132
G1 X159.776 Y147.442 E4.25251
G1 X159.362 Y148.68 E4.29593
G1 X159.244 Y148.974 E4.30647
G1 X159.132 Y149.245 E4.31622
G1 X158.726 Y150.091 E4.34743
G1 X158.249 Y150.898 E4.37861
G1 X157.901 Y151.404 E4.39903
G1 X157.67 Y151.72 E4.41205
G1 X157.085 Y152.452 E4.44322
G1 X156.698 Y152.874 E4.46226
G1 X155.988 Y153.607 E4.49621
G1 X153.584 Y156.012 E4.60931
G1 X152.95 Y156.63 E4.63875
G1 X152.287 Y157.225 E4.66838
G1 X152.183 Y157.311 E4.67287
G1 X151.712 Y157.679 E4.69275
G1 X151.501 Y157.835 E4.70148
G1 X150.724 Y158.36 E4.73267
G1 X149.714 Y158.911 E4.77093
G1 X149.524 Y159.002 E4.77794
G1 X148.866 Y159.291 E4.80184
G1 X148.664 Y159.372 E4.80908
G1 X147.779 Y159.683 E4.84028
G1 X146.642 Y159.965 E4.87925
G1 X146.496 Y159.993 E4.88419
G1 X145.721 Y160.113 E4.91027
G1 X145.502 Y160.139 E4.91761
G1 X144.567 Y160.21 E4.9488
G1 X143.942 Y160.213 E4.96958
G1 X143.733 Y160.208 E4.97654
G1 X142.797 Y160.145 E5.00774
G1 X142.082 Y160.043 E5.03176
G1 X141.765 Y159.987 E5.04247
G1 X140.85 Y159.785 E5.07363
G1 X139.539 Y159.346 E5.11962
G1 X139.219 Y159.216 E5.13111
G1 X138.366 Y158.826 E5.1623
G1 X137.549 Y158.365 E5.1935
G1 X136.85 Y157.892 E5.22157
G1 X136.504 Y157.638 E5.23585
G1 X135.772 Y157.051 E5.26706
G1 X135.358 Y156.67 E5.28577
G1 X134.775 Y156.105 E5.31277
G1 X134.652 Y155.984 E5.31851
G1 X123.252 Y144.584 E5.85473
G1 X121.376 Y142.761 E5.94174
G1 X119.507 Y141.044 E6.02615
G1 X117.624 Y139.41 E6.10907
G1 X115.654 Y137.796 E6.19378
G1 X113.693 Y136.28 E6.27622
G1 X111.648 Y134.79 E6.36037
G1 X109.545 Y133.347 E6.4452
G1 X107.451 Y131.994 E6.52812
G1 X105.309 Y130.696 E6.61143
G1 X103.127 Y129.456 E6.6949
G1 X100.88 Y128.262 E6.77953
G1 X98.642 Y127.153 E6.8626
G1 X96.346 Y126.095 E6.94669
G1 X94.002 Y125.095 E7.03145
G1 X91.698 Y124.186 E7.11383
G1 X89.324 Y123.327 E7.1978
G1 X86.94 Y122.541 E7.28129
G1 X84.518 Y121.817 E7.36537
G1 X82.105 Y121.17 E7.44846
G1 X79.053 Y120.459 E7.55269
G1 X79.01 Y120.447 E7.55417
G1 X78.358 Y120.3 E7.5764
G1 X78.135 Y120.247 E7.58402
G1 X77.915 Y120.192 E7.59157
G1 X77.603 Y120.111 E7.60229
G1 X77.018 Y119.942 E7.62254
G1 X76.386 Y119.74 E7.64461
G1 X76.122 Y119.652 E7.65386
G1 X75.85 Y119.557 E7.66345
G1 X75.503 Y119.43 E7.67574
G1 X74.901 Y119.189 E7.6973
G1 X74.146 Y118.861 E7.72468
G1 X73.713 Y118.662 E7.74053
G1 X73.407 Y118.513 E7.75185
G1 X72.817 Y118.203 E7.77402
G1 X72.101 Y117.799 E7.80136
G1 X71.814 Y117.631 E7.81242
G1 X71.404 Y117.383 E7.82836
G1 X70.869 Y117.038 E7.84953
G1 X70.639 Y116.88 E7.85882
G1 X70.407 Y116.717 E7.86825
G1 X70.203 Y116.569 E7.87663
G1 X70.025 Y116.436 E7.88402
G1 X69.507 Y116.044 E7.90562
G1 X69.04 Y115.67 E7.92552
G1 X68.793 Y115.461 E7.93629
G1 X68.539 Y115.24 E7.94748
G1 X68.379 Y115.096 E7.95464
G1 X67.67 Y114.439 E7.98679
G1 X67.475 Y114.254 E7.99573
G1 X67.058 Y113.846 E8.01514
G1 X64.593 Y111.38 E8.13111
G1 X64.117 Y110.89 E8.15383
G1 X63.816 Y110.567 E8.16851
G1 X63.669 Y110.403 E8.17584
G1 X63.37 Y110.055 E8.1911
G1 X63.08 Y109.703 E8.20627
G1 X62.388 Y108.766 E8.24501
G1 X62.293 Y108.622 E8.25075
G1 X61.982 Y108.122 E8.27033
G1 X61.735 Y107.7 E8.2866
G1 X61.144 Y106.537 E8.32998
G1 X61.066 Y106.358 E8.33648
G1 X60.905 Y105.969 E8.35048
G1 X60.733 Y105.529 E8.36619
G1 X60.429 Y104.642 E8.39738
G1 X60.301 Y104.17 E8.41365
G1 X60.244 Y103.94 E8.42153
G1 X60.161 Y103.58 E8.43382
G1 X60.079 Y103.194 E8.44694
G1 X59.94 Y102.394 E8.47395
G1 X59.883 Y101.907 E8.49026
G1 X59.863 Y101.697 E8.49727
G1 X59.824 Y101.155 E8.51535
G1 X59.809 Y100.826 E8.5263
G1 X59.826 Y99.537 E8.56918
G1 X59.874 Y98.869 E8.59145
G1 X59.981 Y97.937 E8.62265
G1 X60.133 Y97.161 E8.64895
G1 X60.277 Y96.543 E8.67006
G1 X60.529 Y95.639 E8.70127
G1 X60.783 Y94.939 E8.72604
G1 X61.022 Y94.344 E8.74737
G1 X61.408 Y93.489 E8.77857
G1 X61.772 Y92.825 E8.80375
G1 X62.097 Y92.278 E8.82491
G1 X62.422 Y91.764 E8.84514
G1 X62.467 Y91.697 E8.84783
G1 X63.028 Y90.935 E8.8793
G1 X63.172 Y90.756 E8.88694
G1 X63.538 Y90.329 E8.90564
G1 X63.536 Y90.328 E8.90572
G1 X63.744 Y90.091 E8.91621
G1 X64.163 Y89.64 E8.93668
G1 X64.763 Y89.029 E8.96516
G1 X66.297 Y87.496 E9.03729
G1 X66.523 Y87.277 E9.04776
G1 X66.787 Y87.03 E9.05979
G1 X67.229 Y86.629 E9.07963
G1 X68.002 Y85.989 E9.11301
G1 X68.101 Y85.914 E9.11714
G1 X70.172 Y84.312 E9.20423
G1 X72.089 Y82.739 E9.28671
G1 X74.012 Y81.069 E9.37142
G1 X75.868 Y79.363 E9.45526
G1 X77.657 Y77.62 E9.53834
G1 X79.397 Y75.83 E9.62137
G1 X81.12 Y73.952 E9.70614
G1 X82.76 Y72.058 E9.78946
G1 X84.348 Y70.119 E9.87282
G1 X85.266 Y68.918 E9.9231
G1 X85.538 Y68.591 E9.93725
G1 X86.144 Y67.802 E9.97034
G0 F6000 X86.462 Y68.046
G1 F1200 X87.253 Y67.129 E10.01062
G1 X87.906 Y66.454 E10.04185
G1 X88.026 Y66.332 E10.04755
G1 X89.454 Y64.904 E10.11471
G1 X89.974 Y64.399 E10.13882
G1 X90.176 Y64.208 E10.14807
G1 X90.329 Y64.067 E10.15499
G1 X90.718 Y63.726 E10.17219
G1 X90.912 Y63.564 E10.1806
G1 X91.466 Y63.131 E10.20399
G1 X91.764 Y62.914 E10.21625
G1 X92.494 Y62.428 E10.24542
G1 X92.775 Y62.257 E10.25636
G1 X93.906 Y61.659 E10.29891
G1 X94.38 Y61.444 E10.31622
G1 X94.758 Y61.281 E10.32991
G1 X94.942 Y61.206 E10.33652
G1 X96.092 Y60.813 E10.37694
G1 X96.357 Y60.739 E10.38609
G1 X96.733 Y60.641 E10.39902
G1 X97.112 Y60.55 E10.41198
G1 X98.354 Y60.329 E10.45394
G1 X98.576 Y60.303 E10.46137
G1 X98.951 Y60.266 E10.47391
G1 X99.345 Y60.234 E10.48705
G1 X100.643 Y60.208 E10.53023
G1 X101.052 Y60.225 E10.54385
G1 X101.385 Y60.244 E10.55494
G1 X101.645 Y60.263 E10.56361
G1 X102.834 Y60.418 E10.60349
G1 X103.126 Y60.473 E10.61338
G1 X103.463 Y60.542 E10.62482
G1 X103.553 Y60.562 E10.62788
G1 X103.957 Y60.66 E10.64171
G1 X104.23 Y60.732 E10.6511
G1 X105.308 Y61.079 E10.68877
G1 X105.714 Y61.234 E10.70322
G1 X106.199 Y61.433 E10.72066
G1 X106.406 Y61.524 E10.72818
G1 X107.52 Y62.095 E10.76981
G1 X107.868 Y62.3 E10.78325
G1 X108.084 Y62.431 E10.79165
G1 X108.306 Y62.569 E10.80034
G1 X109.281 Y63.253 E10.83996
G1 X109.5 Y63.426 E10.84924
G1 X109.906 Y63.764 E10.86681
G1 X110.081 Y63.917 E10.87454
G1 X110.464 Y64.269 E10.89184
G1 X111.177 Y64.957 E10.9248
G1 X111.312 Y65.09 E10.9311
G1 X113.597 Y67.376 E11.0386
G1 X114.164 Y67.961 E11.0657
G1 X114.314 Y68.119 E11.07295
G1 X114.593 Y68.419 E11.08657
G1 X114.8 Y68.649 E11.09686
G1 X115.228 Y69.137 E11.11845
G1 X115.763 Y69.798 E11.14674
G1 X116.006 Y70.125 E11.16029
G1 X116.119 Y70.273 E11.16648
G1 X116.317 Y70.542 E11.17759
G1 X116.602 Y70.942 E11.19393
G1 X116.948 Y71.459 E11.21462
G1 X117.108 Y71.714 E11.22463
G1 X117.242 Y71.934 E11.2332
G1 X117.343 Y72.104 E11.23977
G1 X117.443 Y72.277 E11.24642
G1 X117.794 Y72.894 E11.27003
G1 X118.07 Y73.411 E11.28952
G1 X118.187 Y73.646 E11.29825
G1 X118.311 Y73.904 E11.30777
G1 X118.429 Y74.158 E11.31709
G1 X118.525 Y74.369 E11.3248
G1 X118.791 Y74.976 E11.34684
G1 X119.012 Y75.522 E11.36643
G1 X119.108 Y75.779 E11.37556
G1 X119.198 Y76.031 E11.38446
G1 X119.338 Y76.441 E11.39887
G1 X119.56 Y77.131 E11.42298
G1 X119.732 Y77.727 E11.44361
G1 X119.794 Y77.967 E11.45185
G1 X119.869 Y78.278 E11.46249
G1 X120.526 Y81.182 E11.56152
G1 X121.155 Y83.635 E11.64575
G1 X121.853 Y86.072 E11.73006
G1 X122.619 Y88.488 E11.81436
G1 X123.441 Y90.847 E11.89745
G1 X124.342 Y93.213 E11.98165
G1 X125.315 Y95.565 E12.06631
G1 X126.351 Y97.883 E12.15076
G1 X127.455 Y100.178 E12.23546
G1 X128.597 Y102.387 E12.31817
G1 X129.824 Y104.607 E12.40254
G1 X131.108 Y106.781 E12.48652
G1 X132.471 Y108.945 E12.57158
G1 X133.863 Y111.023 E12.65477
G1 X135.339 Y113.098 E12.73946
G1 X136.867 Y115.123 E12.82383
G1 X138.413 Y117.055 E12.90613
G1 X140.099 Y119.044 E12.99286
G1 X141.726 Y120.857 E13.07388
G1 X144.322 Y123.558 E13.19848
G1 X155.862 Y135.098 E13.74129
G1 X156.257 Y135.504 E13.76013
G1 X156.888 Y136.215 E13.79174
G1 X157.216 Y136.619 E13.80905
G1 X157.765 Y137.358 E13.83967
G1 X158.247 Y138.142 E13.87028
G1 X158.565 Y138.759 E13.89337
G1 X158.684 Y139.01 E13.90261
G1 X159.162 Y140.199 E13.94523
G1 X159.235 Y140.418 E13.95291
G1 X159.488 Y141.303 E13.98352
G1 X159.687 Y142.374 E14.01975
G1 X159.723 Y142.645 E14.02885
G1 X159.804 Y143.562 E14.05947
G1 X159.814 Y144.186 E14.08022
G1 X159.811 Y144.405 E14.08751
G1 X159.758 Y145.324 E14.11812
G1 X159.645 Y146.133 E14.14529
G1 X159.587 Y146.456 E14.15621
G1 X159.385 Y147.355 E14.18685
G1 X158.991 Y148.531 E14.2281
G1 X158.873 Y148.825 E14.23864
G1 X158.764 Y149.088 E14.24811
G1 X158.365 Y149.917 E14.27871
G1 X157.895 Y150.709 E14.30934
G1 X157.578 Y151.168 E14.32789
G1 X157.347 Y151.484 E14.34091
G1 X156.772 Y152.202 E14.37151
G1 X156.411 Y152.596 E14.38928
G1 X155.829 Y153.198 E14.41713
G1 X155.705 Y153.324 E14.42301
G1 X153.198 Y155.831 E14.54093
G1 X152.671 Y156.344 E14.56539
G1 X152.032 Y156.917 E14.59394
G1 X151.928 Y157.003 E14.59843
G1 X151.475 Y157.357 E14.61755
G1 X151.264 Y157.513 E14.62628
G1 X150.5 Y158.028 E14.65692
G1 X149.541 Y158.55 E14.69324
G1 X149.351 Y158.641 E14.70025
G1 X148.717 Y158.919 E14.72327
G1 X148.515 Y159 E14.73051
G1 X147.647 Y159.306 E14.76112
G1 X146.566 Y159.572 E14.79815
G1 X146.42 Y159.6 E14.80309
G1 X145.674 Y159.716 E14.8282
G1 X145.455 Y159.742 E14.83554
G1 X144.537 Y159.811 E14.86616
G1 X143.951 Y159.813 E14.88565
G1 X143.742 Y159.808 E14.8926
G1 X142.824 Y159.746 E14.9232
G1 X142.152 Y159.649 E14.94579
G1 X141.835 Y159.593 E14.95649
G1 X140.936 Y159.394 E14.98712
G1 X139.689 Y158.976 E15.03086
G1 X139.369 Y158.846 E15.04235
G1 X138.532 Y158.462 E15.07298
G1 X137.732 Y158.008 E15.10357
G1 X137.086 Y157.57 E15.12953
G1 X136.74 Y157.316 E15.14381
G1 X136.022 Y156.739 E15.17444
G1 X135.636 Y156.383 E15.19191
G1 X135.053 Y155.818 E15.21891
G1 X123.531 Y144.297 E15.76085
G1 X121.643 Y142.462 E15.84841
G1 X119.794 Y140.763 E15.93193
G1 X117.855 Y139.082 E16.01728
G1 X115.924 Y137.498 E16.10035
G1 X113.928 Y135.955 E16.18427
G1 X111.871 Y134.458 E16.26888
G1 X109.784 Y133.024 E16.3531
G1 X107.67 Y131.659 E16.4368
G1 X105.493 Y130.34 E16.52146
G1 X103.333 Y129.113 E16.60408
G1 X101.039 Y127.893 E16.6905
G1 X98.822 Y126.795 E16.77279
G1 X96.521 Y125.735 E16.85705
G1 X94.17 Y124.731 E16.94207
G1 X91.832 Y123.809 E17.02566
G1 X89.448 Y122.947 E17.10998
G1 X87.075 Y122.164 E17.19309
G1 X84.622 Y121.431 E17.27824
G1 X82.216 Y120.785 E17.3611
G1 X79.143 Y120.07 E17.46604
G1 X79.092 Y120.056 E17.4678
G1 X78.451 Y119.911 E17.48966
G1 X78.228 Y119.858 E17.49728
G1 X78.015 Y119.805 E17.50458
G1 X77.703 Y119.724 E17.5153
G1 X77.14 Y119.561 E17.5348
G1 X76.508 Y119.359 E17.55687
G1 X76.25 Y119.273 E17.56591
G1 X75.988 Y119.181 E17.57515
G1 X75.641 Y119.054 E17.58744
G1 X75.06 Y118.822 E17.60824
G1 X74.305 Y118.494 E17.63562
G1 X73.888 Y118.302 E17.65089
G1 X73.582 Y118.153 E17.66221
G1 X73.014 Y117.855 E17.68355
G1 X72.298 Y117.451 E17.71089
G1 X72.021 Y117.289 E17.72156
G1 X71.611 Y117.041 E17.7375
G1 X71.095 Y116.708 E17.75793
G1 X70.865 Y116.55 E17.76721
G1 X70.642 Y116.393 E17.77628
G1 X70.438 Y116.245 E17.78466
G1 X70.267 Y116.118 E17.79174
G1 X69.749 Y115.726 E17.81335
G1 X69.298 Y115.365 E17.83256
G1 X69.051 Y115.156 E17.84333
G1 X68.807 Y114.943 E17.8541
G1 X68.527 Y114.689 E17.86667
G1 X67.942 Y114.146 E17.89322
G1 X67.754 Y113.967 E17.90185
G1 X67.341 Y113.563 E17.92107
G1 X64.88 Y111.101 E18.03685
G1 X64.404 Y110.611 E18.05957
G1 X64.114 Y110.3 E18.07371
G1 X63.967 Y110.136 E18.08104
G1 X63.679 Y109.801 E18.09573
G1 X63.389 Y109.449 E18.1109
G1 X62.722 Y108.546 E18.14824
G1 X62.627 Y108.402 E18.15398
G1 X62.327 Y107.92 E18.17286
G1 X62.08 Y107.498 E18.18913
G1 X61.511 Y106.377 E18.23094
G1 X61.433 Y106.198 E18.23743
G1 X61.278 Y105.823 E18.25093
G1 X61.106 Y105.383 E18.26664
G1 X60.689 Y104.074 E18.31233
G1 X60.632 Y103.844 E18.32022
G1 X60.552 Y103.497 E18.33206
G1 X60.47 Y103.111 E18.34518
G1 X60.336 Y102.34 E18.37121
G1 X60.281 Y101.869 E18.38698
