;FLAVOR:Marlin
;TIME:2269
;Filament used: 0.759236m
;Layer height: 0.12
;MINX:98.969
;MINY:94.71
;MINZ:0.24
;MAXX:140.28
;MAXY:140.29
;MAXZ:17.93
;Generated with Cura_SteamEngine 4.6.2
M140 S60
M105
M190 S60
M104 S200
M105
M109 S200
M82 ;absolute extrusion mode
; Ender 3 Custom Start G-code
G92 E0 ; Reset Extruder
G28 ; Home all axes
G1 Z2.0 F3000 ; Move Z Axis up little to prevent scratching of Heat Bed
G1 X0.1 Y20 Z0.3 F5000.0 ; Move to start position
G1 X0.1 Y200.0 Z0.3 F1500.0 E15 ; Draw the first line
G1 X0.4 Y200.0 Z0.3 F5000.0 ; Move to side a little
G1 X0.4 Y20 Z0.3 F1500.0 E30 ; Draw the second line
G92 E0 ; Reset Extruder
G1 Z2.0 F3000 ; Move Z Axis up little to prevent scratching of Heat Bed
G1 X5 Y20 Z0.3 F5000.0 ; Move over to prevent blob squish
G92 E0
G92 E0
G1 F1500 E-6
;LAYER_COUNT:145
;LAYER:-7
M107
M204 S500
M205 X8 Y8
G0 F9000 X103.811 Y100.58 Z0.24
;TYPE:SUPPORT-INTERFACE
G1 F1500 E0
G1 F1125 X104.436 Y99.931 E0.07192
G1 X104.561 Y99.811 E0.08575
G1 X105.232 Y99.208 E0.15777
G1 X105.348 Y99.112 E0.16979
G1 X106.06 Y98.562 E0.2416
G1 X106.219 Y98.449 E0.25717
G1 X106.957 Y97.959 E0.32789
G1 X107.083 Y97.883 E0.33963
G1 X107.877 Y97.437 E0.41233
G1 X108.027 Y97.359 E0.42582
G1 X108.842 Y96.976 E0.49771
G1 X108.985 Y96.916 E0.51009
G1 X109.844 Y96.587 E0.58351
G1 X109.994 Y96.535 E0.59618
G1 X110.844 Y96.28 E0.66702
G1 X111.017 Y96.234 E0.68131
G1 X111.912 Y96.033 E0.75453
G1 X112.042 Y96.01 E0.76507
G1 X112.947 Y95.876 E0.8381
G1 X113.116 Y95.858 E0.85167
G1 X114.189 Y95.783 E0.93753
G1 X114.694 Y95.775 E0.97784
G1 X118.632 Y95.776 E1.29219
G1 X119.41 Y95.804 E1.35434
G1 X119.531 Y95.801 E1.364
G1 X119.531 Y95.816 E1.3652
G1 X120.178 Y95.784 E1.4169
G1 X120.694 Y95.775 E1.4581
G1 X124.637 Y95.776 E1.77285
G1 X125.761 Y95.821 E1.86264
G1 X126.678 Y95.923 E1.93629
G1 X126.853 Y95.948 E1.9504
G1 X127.742 Y96.112 E2.02256
G1 X127.865 Y96.14 E2.03263
G1 X128.759 Y96.374 E2.1064
G1 X128.922 Y96.423 E2.11999
G1 X129.764 Y96.71 E2.191
G1 X129.93 Y96.773 E2.20517
G1 X130.733 Y97.114 E2.27481
G1 X130.922 Y97.202 E2.29145
G1 X131.833 Y97.676 E2.37343
G1 X132.612 Y98.151 E2.44626
G1 X132.763 Y98.251 E2.46071
G1 X133.477 Y98.762 E2.5308
G1 X133.625 Y98.875 E2.54567
G1 X134.316 Y99.451 E2.61747
G1 X134.429 Y99.552 E2.62957
G1 X135.078 Y100.177 E2.7015
G1 X135.198 Y100.302 E2.71533
G1 X135.801 Y100.973 E2.78734
G1 X135.897 Y101.089 E2.79936
G1 X136.456 Y101.813 E2.87237
G1 X136.55 Y101.944 E2.88524
G1 X137.05 Y102.698 E2.95746
G1 X137.126 Y102.824 E2.96921
G1 X137.572 Y103.618 E3.0419
G1 X137.65 Y103.768 E3.0554
G1 X138.033 Y104.583 E3.12728
G1 X138.093 Y104.726 E3.13966
G1 X138.422 Y105.585 E3.21309
G1 X138.474 Y105.735 E3.22576
G1 X138.729 Y106.585 E3.2966
G1 X138.775 Y106.758 E3.31089
G1 X138.974 Y107.644 E3.38337
G1 X138.999 Y107.783 E3.39465
G1 X139.132 Y108.682 E3.46719
G1 X139.15 Y108.844 E3.4802
G1 X139.226 Y109.93 E3.5671
G1 X139.234 Y110.431 E3.6071
G1 X139.234 Y114.858 E3.96048
G1 X139.217 Y115.333 E3.99842
G1 X139.219 Y115.747 E4.03147
G1 X139.225 Y115.883 E4.04234
G1 X139.234 Y116.431 E4.08609
G1 X139.234 Y120.861 E4.43971
G1 X139.198 Y121.867 E4.52006
G1 X139.188 Y122.002 E4.53087
G1 X139.086 Y122.919 E4.60452
G1 X139.061 Y123.094 E4.61863
G1 X138.899 Y123.972 E4.6899
G1 X138.869 Y124.106 E4.70086
G1 X138.638 Y124.991 E4.77387
G1 X138.586 Y125.163 E4.78822
G1 X138.31 Y125.975 E4.85667
G1 X138.23 Y126.184 E4.87454
G1 X137.895 Y126.974 E4.94303
G1 X137.814 Y127.149 E4.95843
G1 X137.398 Y127.957 E5.03097
G1 X136.858 Y128.853 E5.11448
G1 X136.758 Y129.004 E5.12894
G1 X136.247 Y129.718 E5.19902
G1 X136.134 Y129.866 E5.21389
G1 X135.558 Y130.557 E5.2857
G1 X135.457 Y130.67 E5.2978
G1 X134.832 Y131.319 E5.36972
G1 X134.707 Y131.439 E5.38355
G1 X134.037 Y132.041 E5.45545
G1 X133.912 Y132.145 E5.46843
G1 X133.483 Y132.476 E5.51168
G1 X132.979 Y132.918 E5.56519
G1 X132.521 Y133.438 E5.62051
G1 X132.387 Y133.61 E5.63791
G1 X131.707 Y134.42 E5.72233
G1 X131.082 Y135.069 E5.79426
G1 X130.957 Y135.189 E5.80809
G1 X130.287 Y135.791 E5.87999
G1 X130.17 Y135.888 E5.89212
G1 X129.458 Y136.438 E5.96394
G1 X129.299 Y136.551 E5.97951
G1 X128.561 Y137.041 E6.05022
G1 X128.435 Y137.117 E6.06197
G1 X127.641 Y137.563 E6.13466
G1 X127.49 Y137.641 E6.14823
G1 X126.676 Y138.024 E6.22004
G1 X126.533 Y138.084 E6.23242
G1 X125.674 Y138.413 E6.30584
G1 X125.524 Y138.465 E6.31852
G1 X124.674 Y138.72 E6.38935
G1 X124.501 Y138.766 E6.40364
G1 X123.606 Y138.967 E6.47687
G1 X123.476 Y138.99 E6.4874
G1 X122.571 Y139.124 E6.56043
G1 X122.403 Y139.142 E6.57392
G1 X121.329 Y139.217 E6.65986
G1 X120.824 Y139.225 E6.70018
G1 X116.013 Y139.224 E7.08421
G1 X114.889 Y139.179 E7.17401
G1 X113.972 Y139.077 E7.24766
G1 X113.797 Y139.052 E7.26177
G1 X112.908 Y138.888 E7.33393
G1 X112.785 Y138.86 E7.344
G1 X111.891 Y138.626 E7.41776
G1 X111.728 Y138.577 E7.43135
G1 X110.886 Y138.29 E7.50236
G1 X110.72 Y138.227 E7.51653
G1 X109.917 Y137.886 E7.58617
G1 X109.728 Y137.798 E7.60281
G1 X108.817 Y137.324 E7.68479
G1 X108.038 Y136.849 E7.75762
G1 X107.887 Y136.749 E7.77208
G1 X107.173 Y136.238 E7.84216
G1 X107.025 Y136.125 E7.85703
G1 X106.334 Y135.549 E7.92884
G1 X106.221 Y135.448 E7.94094
G1 X105.572 Y134.823 E8.01286
G1 X105.452 Y134.698 E8.02669
G1 X104.849 Y134.027 E8.0987
G1 X104.752 Y133.909 E8.1109
G1 X104.194 Y133.187 E8.18373
G1 X104.09 Y133.04 E8.19811
G1 X103.597 Y132.297 E8.26929
G1 X103.524 Y132.176 E8.28057
G1 X103.072 Y131.371 E8.35426
G1 X103 Y131.232 E8.36676
G1 X102.617 Y130.416 E8.43871
G1 X102.552 Y130.262 E8.45206
G1 X102.228 Y129.415 E8.52444
G1 X102.171 Y129.25 E8.53838
G1 X101.923 Y128.423 E8.6073
G1 X101.868 Y128.216 E8.6244
G1 X101.547 Y127.331 E8.69954
G1 X101.235 Y126.667 E8.75811
G1 X101.17 Y126.512 E8.77152
G1 X100.846 Y125.665 E8.84391
G1 X100.789 Y125.5 E8.85785
G1 X100.539 Y124.665 E8.92742
G1 X100.493 Y124.492 E8.94171
G1 X100.291 Y123.591 E9.01542
G1 X100.269 Y123.467 E9.02547
G1 X100.134 Y122.553 E9.09922
G1 X100.117 Y122.393 E9.11207
G1 X100.042 Y121.32 E9.19793
G1 X100.034 Y120.819 E9.23793
G1 X100.034 Y116.389 E9.59155
G1 X100.051 Y115.909 E9.62989
G1 X100.049 Y115.49 E9.66333
G1 X100.042 Y115.322 E9.67676
G1 X100.034 Y114.819 E9.71691
G1 X100.034 Y110.389 E10.07053
G1 X100.07 Y109.383 E10.15089
G1 X100.08 Y109.248 E10.16169
G1 X100.182 Y108.331 E10.23535
G1 X100.207 Y108.156 E10.24946
G1 X100.369 Y107.278 E10.32072
G1 X100.399 Y107.144 E10.33169
G1 X100.63 Y106.259 E10.4047
G1 X100.682 Y106.087 E10.41904
G1 X100.969 Y105.245 E10.49005
G1 X101.032 Y105.079 E10.50422
G1 X101.373 Y104.276 E10.57386
G1 X101.454 Y104.101 E10.58926
G1 X101.935 Y103.176 E10.67248
G1 X102.41 Y102.397 E10.74531
G1 X102.51 Y102.246 E10.75977
G1 X103.021 Y101.532 E10.82985
G1 X103.134 Y101.384 E10.84472
G1 X103.595 Y100.832 E10.90213
G0 F1012.5 X103.71 Y100.693
G0 X103.811 Y100.58
G0 F9000 X104 Y100.383
G1 F1125 X104 Y132.904 E13.49809
G0 F9000 X105.6 Y134.849
G1 F1125 X105.6 Y98.917 E16.36634
G0 F9000 X107.2 Y97.817
G1 F1125 X107.2 Y136.257 E19.43479
G0 F9000 X108.8 Y137.313
G1 F1125 X108.8 Y96.995 E22.65315
G0 F9000 X110.4 Y96.413
G1 F1125 X110.4 Y138.091 E25.98006
G0 F9000 X112 Y138.654
G1 F1125 X112 Y96.017 E29.38353
G0 F9000 X113.6 Y95.824
G1 F1125 X113.6 Y139.015 E32.83123
G0 F9000 X115.2 Y139.191
G1 F1125 X115.2 Y95.776 E36.2968
G0 F9000 X116.8 Y95.776
G1 F1125 X116.8 Y139.224 E39.76501
G0 F9000 X118.4 Y139.224
G1 F1125 X118.4 Y95.776 E43.23321
G0 F9000 X120 Y95.792
G1 F1125 X120 Y139.224 E46.70014
G0 F9000 X121.6 Y139.199
G1 F1125 X121.6 Y95.776 E50.16636
G0 F9000 X123.2 Y95.776
G1 F1125 X123.2 Y139.031 E53.61916
G0 F9000 X124.8 Y138.683
G1 F1125 X124.8 Y95.783 E57.04362
G0 F9000 X126.4 Y95.893
G1 F1125 X126.4 Y138.135 E60.41556
G0 F9000 X128 Y137.362
G1 F1125 X128 Y96.176 E63.7032
G0 F9000 X129.6 Y96.655
G1 F1125 X129.6 Y136.329 E66.87015
G0 F9000 X131.2 Y134.947
G1 F1125 X131.2 Y97.347 E69.87155
G0 F9000 X132.8 Y98.278
G1 F1125 X132.8 Y133.122 E72.65295
G0 F9000 X134.4 Y131.715
G1 F1125 X134.4 Y99.527 E75.22233
G0 F9000 X136 Y101.223
G1 F1125 X136 Y130.027 E77.52159
G0 F9000 X137.6 Y127.565
G1 F1125 X137.6 Y103.672 E79.42883
G1 F1500 E73.42883
G0 F9000 X138.6 Y103.289
G0 X139.421 Y105.216
G0 X139.807 Y106.497
G0 X139.875 Y106.814
G0 X140.21 Y108.754
G0 X139.2 Y109.559
G1 F1500 E79.42883
G1 F1125 X139.2 Y121.812 E80.40692
G1 F1500 E74.40692
G0 F9000 X140.247 Y122.106
G0 X139.94 Y124.191
G0 X139.598 Y125.495
G0 X138.865 Y127.413
G0 X138.247 Y128.618
G0 X137.1 Y130.356
G0 X136.242 Y131.389
G0 X131.686 Y135.965
G0 X130.085 Y137.298
G0 X128.966 Y138.04
G0 X127.101 Y139
G0 X125.842 Y139.481
G0 X123.818 Y140.01
G0 X122.505 Y140.201
G0 X120.831 Y140.29
G0 X114.959 Y140.251
G0 X113.633 Y140.104
G0 X111.606 Y139.652
G0 X110.316 Y139.212
G0 X108.436 Y138.33
G0 X107.277 Y137.621
G0 X105.633 Y136.35
G0 X104.676 Y135.427
G0 X103.343 Y133.826
G0 X102.601 Y132.707
G0 X102.058 Y131.65
G0 X101.406 Y130.246
G0 X102.4 Y129.864
G1 F1500 E80.40692
G1 F1125 X102.4 Y102.413 E82.59818
G0 F9000 X100.8 Y105.74
G1 F1125 X100.8 Y125.531 E84.17798
G1 F1500 E78.17798
G0 F300 X100.8 Y125.531 Z0.42
G0 F9000 X99.847 Y126.034
G0 X101.461 Y130.361
G0 X102.05 Y131.711
G0 X103.072 Y131.37
;TIME_ELAPSED:66.625310
;LAYER:-6
M140 S60
;TYPE:SUPPORT
G1 F1500 E84.17798
G1 F1125 X103.523 Y132.175 E84.23323
G1 X103.597 Y132.296 E84.24172
G1 X104.09 Y133.039 E84.2951
G1 X104.193 Y133.186 E84.30585
G1 X104.751 Y133.908 E84.36048
G1 X104.849 Y134.025 E84.36961
G1 X105.451 Y134.697 E84.42363
G1 X105.571 Y134.821 E84.43396
G1 X106.22 Y135.447 E84.48794
G1 X106.334 Y135.548 E84.49706
G1 X107.025 Y136.124 E84.55092
G1 X107.172 Y136.237 E84.56202
G1 X107.886 Y136.748 E84.61458
G1 X108.038 Y136.848 E84.62547
G1 X108.816 Y137.322 E84.68002
G1 X109.279 Y137.563 E84.71126
G1 X103.056 Y131.34 E85.23814
G1 X103 Y131.231 E85.24548
G1 X102.617 Y130.415 E85.29945
G1 X102.552 Y130.261 E85.30945
G1 X102.227 Y129.414 E85.36377
G1 X102.171 Y129.249 E85.3742
G1 X102.081 Y128.951 E85.39284
G1 X111.695 Y138.565 E86.20682
G1 X111.727 Y138.576 E86.20884
G1 X111.891 Y138.625 E86.21909
G1 X112.784 Y138.858 E86.27434
G1 X112.907 Y138.887 E86.28191
G1 X113.549 Y139.005 E86.32099
G1 X101.256 Y126.712 E87.36179
G1 X101.235 Y126.666 E87.36482
G1 X101.17 Y126.511 E87.37488
G1 X100.846 Y125.664 E87.42918
G1 X100.788 Y125.499 E87.43965
G1 X100.539 Y124.664 E87.49181
G1 X100.508 Y124.55 E87.49889
G1 X115.146 Y139.188 E88.73823
G1 X116.012 Y139.222 E88.79012
G1 X116.595 Y139.222 E88.82502
G1 X100.17 Y122.797 E90.21567
G1 X100.134 Y122.552 E90.23049
G1 X100.117 Y122.392 E90.24013
G1 X100.042 Y121.319 E90.30452
G1 X100.04 Y121.253 E90.30848
G1 X118.009 Y139.222 E91.82985
G1 X119.424 Y139.223 E91.91456
G1 X100.033 Y119.832 E93.55633
G1 X100.033 Y118.418 E93.64098
G1 X120.838 Y139.223 E95.40247
G1 X121.328 Y139.215 E95.43181
G1 X122.185 Y139.156 E95.48324
G1 X100.033 Y117.004 E97.35877
G1 X100.034 Y116.388 E97.39565
G1 X100.05 Y115.908 E97.4244
G1 X100.049 Y115.605 E97.44254
G1 X123.438 Y138.994 E99.4228
G1 X123.475 Y138.989 E99.42504
G1 X123.606 Y138.966 E99.433
G1 X124.5 Y138.764 E99.48787
G1 X124.597 Y138.739 E99.49387
G1 X100.033 Y114.175 E101.57362
G1 X100.033 Y112.761 E101.65827
G1 X125.681 Y138.409 E103.8298
G1 X126.533 Y138.083 E103.88441
G1 X126.676 Y138.023 E103.8937
G1 X126.698 Y138.012 E103.89517
G1 X100.033 Y111.347 E106.1528
G1 X100.033 Y110.388 E106.21021
G1 X100.049 Y109.948 E106.23657
G1 X127.654 Y137.554 E108.57383
G1 X128.434 Y137.116 E108.62739
G1 X128.556 Y137.042 E108.63593
G1 X100.147 Y108.632 E111.04127
G1 X100.181 Y108.33 E111.05946
G1 X100.206 Y108.154 E111.0701
G1 X100.343 Y107.414 E111.11516
G1 X129.404 Y136.475 E113.57565
G1 X129.457 Y136.436 E113.57959
G1 X130.169 Y135.887 E113.63342
G1 X130.202 Y135.859 E113.63601
G1 X100.623 Y106.28 E116.14036
G1 X100.629 Y106.258 E116.14172
G1 X100.682 Y106.085 E116.15255
G1 X100.969 Y105.244 E116.20575
G1 X100.977 Y105.22 E116.20727
G1 X130.95 Y135.193 E118.74498
G1 X130.956 Y135.188 E118.74545
G1 X131.082 Y135.068 E118.75586
G1 X131.65 Y134.478 E118.80489
G1 X101.396 Y104.224 E121.36639
G1 X101.454 Y104.1 E121.37459
G1 X101.874 Y103.289 E121.42927
G1 X132.299 Y133.713 E124.0052
G1 X132.387 Y133.609 E124.01336
G1 X132.521 Y133.437 E124.02641
G1 X132.95 Y132.95 E124.06527
G1 X102.404 Y102.404 E126.65149
G1 X102.409 Y102.396 E126.65205
G1 X102.509 Y102.246 E126.66285
G1 X102.988 Y101.574 E126.71225
G1 X133.712 Y132.298 E129.31354
G1 X133.911 Y132.144 E129.32861
G1 X134.036 Y132.04 E129.33834
G1 X134.474 Y131.646 E129.37361
G1 X103.623 Y100.795 E131.98566
G1 X103.709 Y100.692 E131.99369
G1 X103.81 Y100.58 E132.00272
G1 X104.306 Y100.064 E132.04557
G1 X135.19 Y130.947 E134.66037
G1 X135.456 Y130.67 E134.68336
G1 X135.557 Y130.556 E134.69248
G1 X135.856 Y130.199 E134.72036
G1 X105.038 Y99.381 E137.32961
G1 X105.23 Y99.207 E137.34512
G1 X105.347 Y99.112 E137.35415
G1 X105.819 Y98.748 E137.38983
G1 X136.473 Y129.401 E139.98515
G1 X136.757 Y129.004 E140.01438
G1 X136.857 Y128.853 E140.02522
G1 X137.038 Y128.553 E140.0462
G1 X106.649 Y98.164 E142.61913
G1 X106.956 Y97.959 E142.64123
G1 X107.082 Y97.882 E142.65007
G1 X107.53 Y97.63 E142.68084
G1 X137.554 Y127.654 E145.22287
G1 X137.813 Y127.149 E145.25684
G1 X137.894 Y126.973 E145.26844
G1 X138.011 Y126.697 E145.28639
G1 X108.466 Y97.152 E147.78786
G1 X108.841 Y96.976 E147.81266
G1 X108.984 Y96.915 E147.82197
G1 X109.461 Y96.733 E147.85253
G1 X138.409 Y125.681 E150.30346
G1 X138.585 Y125.162 E150.33627
G1 X138.636 Y124.991 E150.34695
G1 X138.74 Y124.597 E150.37135
G1 X110.519 Y96.377 E152.76068
G1 X110.843 Y96.279 E152.78094
G1 X111.016 Y96.233 E152.79166
G1 X111.648 Y96.092 E152.83043
G1 X138.996 Y123.44 E155.14589
G1 X139.06 Y123.093 E155.16701
G1 X139.085 Y122.919 E155.17754
G1 X139.166 Y122.195 E155.22115
G1 X112.859 Y95.889 E157.44843
G1 X112.946 Y95.875 E157.45371
G1 X113.115 Y95.857 E157.46388
G1 X114.168 Y95.783 E157.52708
G1 X139.233 Y120.848 E159.64924
G1 X139.233 Y119.434 E159.7339
G1 X115.575 Y95.776 E161.73694
G1 X116.989 Y95.776 E161.82159
G1 X139.233 Y118.02 E163.70491
G1 X139.233 Y116.606 E163.78956
G1 X118.403 Y95.776 E165.55317
G1 X118.631 Y95.776 E165.56682
G1 X119.409 Y95.804 E165.61342
G1 X119.53 Y95.8 E165.62067
G1 X119.53 Y95.815 E165.62157
G1 X119.842 Y95.8 E165.64027
G1 X139.222 Y115.18 E167.28111
G1 X139.233 Y114.858 E167.3004
G1 X139.233 Y113.777 E167.36511
G1 X121.231 Y95.775 E168.88928
G1 X122.645 Y95.775 E168.97393
G1 X139.233 Y112.363 E170.37838
G1 X139.233 Y110.949 E170.46304
G1 X124.06 Y95.776 E171.74768
G1 X124.636 Y95.776 E171.78216
G1 X125.51 Y95.811 E171.83453
G1 X139.195 Y109.496 E172.99319
G1 X139.149 Y108.844 E173.03232
G1 X139.131 Y108.681 E173.04214
G1 X139.017 Y107.904 E173.08916
G1 X127.108 Y95.995 E174.09745
G1 X127.74 Y96.112 E174.13593
G1 X127.863 Y96.14 E174.14348
G1 X128.758 Y96.374 E174.19886
G1 X128.921 Y96.422 E174.20904
G1 X128.964 Y96.437 E174.21176
G1 X138.563 Y106.037 E175.02452
G1 X138.472 Y105.735 E175.0434
G1 X138.421 Y105.585 E175.05289
G1 X138.092 Y104.725 E175.10801
G1 X138.032 Y104.583 E175.11724
G1 X137.649 Y103.767 E175.17121
G1 X137.586 Y103.644 E175.17948
G1 X131.384 Y97.443 E175.70454
G1 X131.832 Y97.676 E175.73477
G1 X132.611 Y98.151 E175.7894
G1 X132.762 Y98.251 E175.80024
G1 X133.476 Y98.761 E175.85277
G1 X133.624 Y98.875 E175.86395
G1 X134.315 Y99.451 E175.91781
G1 X134.428 Y99.552 E175.92688
G1 X135.077 Y100.177 E175.98083
G1 X135.197 Y100.301 E175.99116
G1 X135.8 Y100.972 E176.04517
G1 X135.896 Y101.089 E176.05423
G1 X136.455 Y101.812 E176.10894
G1 X136.549 Y101.943 E176.11859
G1 X137.049 Y102.698 E176.17281
G1 X137.125 Y102.823 E176.18157
G1 X137.571 Y103.618 E176.23614
G1 F1500 E170.23614
G0 F300 X137.571 Y103.618 Z0.54
G0 F9000 X138.499 Y103.096
G0 X137.43 Y101.347
G0 X136.602 Y100.272
G0 X135.148 Y98.767
G0 X134.115 Y97.909
G0 X132.377 Y96.762
G0 X131.172 Y96.144
G0 X129.254 Y95.411
G0 X127.95 Y95.069
G0 X126.769 Y94.896
G0 X125.691 Y94.749
G0 X125.273 Y95.6
;TIME_ELAPSED:151.107032
;LAYER:-5
;TYPE:SUPPORT-INTERFACE
G1 F1500 E176.23614
G1 X119.544 Y95.6 E176.35047
G1 X120.692 Y95.574 E176.37338
