;FLAVOR:Marlin
;TIME:5478
;Filament used: 2.61034m
;Layer height: 0.12
;MINX:100.768
;MINY:92.25
;MINZ:0.2
;MAXX:142.768
;MAXY:142.75
;MAXZ:34.64
;Generated with Cura_SteamEngine 4.6.2
M140 S60
M105
M190 S60
M104 S200
M105
M109 S200
M82 ;absolute extrusion mode
; Ender 3 Custom Start G-code
G92 E0 ; Reset Extruder
G28 ; Home all axes
G1 Z2.0 F3000 ; Move Z Axis up little to prevent scratching of Heat Bed
G1 X0.1 Y20 Z0.3 F5000.0 ; Move to start position
G1 X0.1 Y200.0 Z0.3 F1500.0 E15 ; Draw the first line
G1 X0.4 Y200.0 Z0.3 F5000.0 ; Move to side a little
G1 X0.4 Y20 Z0.3 F1500.0 E30 ; Draw the second line
G92 E0 ; Reset Extruder
G1 Z2.0 F3000 ; Move Z Axis up little to prevent scratching of Heat Bed
G1 X5 Y20 Z0.3 F5000.0 ; Move over to prevent blob squish
G92 E0
G92 E0
G1 F1500 E-6
;LAYER_COUNT:291
;LAYER:0
M107
M204 S500
M205 X8 Y8
G0 F7500 X120.371 Y93.067 Z0.2
;TYPE:SKIRT
G1 F1500 E0
G1 X123.058 Y93.067 E0.0849
G1 X124.081 Y93.05 E0.11723
G1 X131.207 Y93.051 E0.34239
G1 X131.905 Y93.061 E0.36445
G1 X132.807 Y93.114 E0.393
G1 X133.7 Y93.246 E0.42152
G1 X134.578 Y93.457 E0.45005
G1 X135.434 Y93.745 E0.47859
G1 X136.261 Y94.107 E0.50711
G1 X137.053 Y94.542 E0.53567
G1 X137.804 Y95.044 E0.56421
G1 X138.507 Y95.611 E0.59275
G1 X139.157 Y96.238 E0.62128
G1 X139.749 Y96.92 E0.64982
G1 X140.279 Y97.651 E0.67835
G1 X140.741 Y98.427 E0.70688
G1 X141.134 Y99.24 E0.73541
G1 X141.452 Y100.085 E0.76394
G1 X141.695 Y100.955 E0.79248
G1 X141.86 Y101.843 E0.82102
G1 X141.955 Y102.973 E0.85685
G1 X141.968 Y103.58 E0.87604
G1 X141.967 Y111.659 E1.13131
G1 X141.96 Y112.134 E1.14632
G1 X141.968 Y115.54 E1.25394
G1 X141.967 Y123.666 E1.5107
G1 X141.957 Y124.383 E1.53336
G1 X141.904 Y125.285 E1.56191
G1 X141.772 Y126.178 E1.59043
G1 X141.562 Y127.056 E1.61895
G1 X141.274 Y127.913 E1.64752
G1 X140.912 Y128.74 E1.67604
G1 X140.478 Y129.532 E1.70458
G1 X139.976 Y130.283 E1.73312
G1 X139.41 Y130.986 E1.76164
G1 X138.683 Y131.73 E1.79451
G1 X138.417 Y131.976 E1.80596
G1 X136.479 Y133.784 E1.8897
G1 X134.698 Y135.542 E1.96877
G1 X132.921 Y137.398 E2.04996
G1 X132.49 Y137.872 E2.07021
G1 X131.731 Y138.688 E2.10542
G1 X131.087 Y139.321 E2.13395
G1 X130.39 Y139.895 E2.16248
G1 X129.644 Y140.405 E2.19104
G1 X128.857 Y140.847 E2.21956
G1 X128.033 Y141.218 E2.24811
G1 X127.18 Y141.515 E2.27665
G1 X126.304 Y141.734 E2.30518
G1 X125.412 Y141.876 E2.33372
G1 X124.545 Y141.937 E2.36118
G1 X123.938 Y141.95 E2.38037
G1 X115.189 Y141.949 E2.65681
G1 X114.508 Y141.939 E2.67833
G1 X113.607 Y141.886 E2.70685
G1 X112.713 Y141.753 E2.73541
G1 X111.835 Y141.542 E2.76394
G1 X110.979 Y141.254 E2.79247
G1 X110.152 Y140.891 E2.82101
G1 X109.361 Y140.456 E2.84954
G1 X108.61 Y139.954 E2.87808
G1 X107.908 Y139.387 E2.90659
G1 X107.258 Y138.76 E2.93513
G1 X106.666 Y138.077 E2.96369
G1 X106.136 Y137.346 E2.99222
G1 X105.674 Y136.57 E3.02075
G1 X105.282 Y135.756 E3.0493
G1 X105.1 Y135.3 E3.06481
G1 X104.602 Y133.952 E3.11022
G1 X104.497 Y133.641 E3.12059
G1 X103.615 Y131.256 E3.20094
G1 X102.636 Y128.821 E3.28386
G1 X102.37 Y128.186 E3.30562
G1 X102.058 Y127.339 E3.33414
G1 X101.823 Y126.467 E3.36267
G1 X101.665 Y125.577 E3.39123
G1 X101.583 Y124.559 E3.4235
G1 X101.568 Y123.92 E3.4437
G1 X101.569 Y115.827 E3.69941
G1 X101.576 Y115.362 E3.71411
G1 X101.568 Y111.96 E3.8216
G1 X101.569 Y103.786 E4.07988
G1 X101.578 Y103.121 E4.10089
G1 X101.63 Y102.219 E4.12944
G1 X101.762 Y101.326 E4.15796
G1 X101.972 Y100.448 E4.18649
G1 X102.259 Y99.591 E4.21504
G1 X102.621 Y98.764 E4.24357
G1 X103.054 Y97.972 E4.27209
G1 X103.556 Y97.221 E4.30063
G1 X104.123 Y96.517 E4.32919
G1 X104.749 Y95.867 E4.35771
G1 X105.43 Y95.274 E4.38624
G1 X106.162 Y94.744 E4.4148
G1 X106.937 Y94.281 E4.44332
G1 X107.75 Y93.888 E4.47185
G1 X108.595 Y93.568 E4.5004
G1 X109.464 Y93.325 E4.52891
G1 X110.352 Y93.159 E4.55746
G1 X111.491 Y93.063 E4.59357
G1 X112.098 Y93.05 E4.61276
G1 X119.227 Y93.051 E4.83801
G1 X119.571 Y93.056 E4.84889
G0 F1350 X120.371 Y93.067
G0 F7500 X120.376 Y92.667
G1 F1500 X123.051 Y92.667 E4.93341
G1 X124.081 Y92.65 E4.96596
G1 X131.213 Y92.651 E5.19131
G1 X131.911 Y92.661 E5.21336
G1 X132.83 Y92.714 E5.24245
G1 X133.741 Y92.847 E5.27154
G1 X134.637 Y93.058 E5.30063
G1 X135.511 Y93.346 E5.3297
G1 X136.358 Y93.709 E5.35882
G1 X137.169 Y94.144 E5.3879
G1 X137.939 Y94.648 E5.41698
G1 X138.663 Y95.217 E5.44607
G1 X139.335 Y95.847 E5.47518
G1 X139.95 Y96.532 E5.50427
G1 X140.503 Y97.268 E5.53335
G1 X140.99 Y98.049 E5.56244
G1 X141.407 Y98.87 E5.59153
G1 X141.752 Y99.724 E5.62063
G1 X142.021 Y100.604 E5.64971
G1 X142.213 Y101.505 E5.67882
G1 X142.326 Y102.418 E5.70789
G1 X142.355 Y102.962 E5.7251
G1 X142.368 Y103.58 E5.74463
G1 X142.367 Y111.665 E6.00009
G1 X142.36 Y112.139 E6.01507
G1 X142.368 Y115.539 E6.1225
G1 X142.367 Y123.672 E6.37948
G1 X142.357 Y124.389 E6.40214
G1 X142.304 Y125.308 E6.43123
G1 X142.172 Y126.219 E6.46031
G1 X141.961 Y127.115 E6.4894
G1 X141.673 Y127.99 E6.5185
G1 X141.31 Y128.836 E6.54759
G1 X140.876 Y129.647 E6.57665
G1 X140.372 Y130.418 E6.60576
G1 X139.804 Y131.142 E6.63484
G1 X138.955 Y132.023 E6.67349
G1 X138.689 Y132.269 E6.68494
G1 X136.768 Y134.06 E6.76793
G1 X134.967 Y135.838 E6.84789
G1 X133.205 Y137.678 E6.92839
G1 X132.783 Y138.144 E6.94826
G1 X132.024 Y138.96 E6.98347
G1 X131.368 Y139.607 E7.01258
G1 X130.658 Y140.194 E7.04169
G1 X129.901 Y140.717 E7.07076
G1 X129.101 Y141.172 E7.09984
G1 X128.264 Y141.556 E7.12894
G1 X127.397 Y141.867 E7.15804
G1 X126.507 Y142.101 E7.18712
G1 X125.6 Y142.256 E7.21619
G1 X124.556 Y142.337 E7.24928
G1 X123.938 Y142.35 E7.26881
G1 X115.183 Y142.349 E7.54545
G1 X114.502 Y142.339 E7.56697
G1 X113.583 Y142.285 E7.59605
G1 X112.672 Y142.152 E7.62514
G1 X111.776 Y141.941 E7.65423
G1 X110.902 Y141.652 E7.68332
G1 X110.056 Y141.289 E7.7124
G1 X109.245 Y140.854 E7.74148
G1 X108.474 Y140.35 E7.77059
G1 X107.751 Y139.78 E7.79968
G1 X107.079 Y139.151 E7.82876
G1 X106.465 Y138.465 E7.85785
G1 X105.912 Y137.729 E7.88694
G1 X105.425 Y136.947 E7.91605
G1 X105.008 Y136.127 E7.94512
G1 X104.725 Y135.44 E7.96859
G1 X104.223 Y134.079 E8.01443
G1 X104.119 Y133.77 E8.02473
G1 X103.245 Y131.407 E8.10434
G1 X102.278 Y129.001 E8.18627
G1 X102.001 Y128.341 E8.20889
G1 X101.682 Y127.477 E8.23799
G1 X101.44 Y126.589 E8.26707
G1 X101.276 Y125.683 E8.29616
G1 X101.183 Y124.571 E8.33142
G1 X101.168 Y123.92 E8.35199
G1 X101.169 Y115.821 E8.6079
G1 X101.176 Y115.357 E8.62256
G1 X101.168 Y111.961 E8.72987
G1 X101.169 Y103.781 E8.98833
G1 X101.178 Y103.116 E9.00935
G1 X101.23 Y102.196 E9.03846
G1 X101.362 Y101.285 E9.06755
G1 X101.573 Y100.389 E9.09663
G1 X101.86 Y99.514 E9.12573
G1 X102.223 Y98.668 E9.15482
G1 X102.657 Y97.856 E9.18391
G1 X103.16 Y97.085 E9.213
G1 X103.729 Y96.361 E9.24209
G1 X104.357 Y95.689 E9.27115
G1 X105.042 Y95.073 E9.30026
G1 X105.778 Y94.52 E9.32935
G1 X106.559 Y94.032 E9.35845
G1 X107.379 Y93.614 E9.38753
G1 X108.233 Y93.269 E9.41663
G1 X109.113 Y92.999 E9.44572
G1 X110.013 Y92.807 E9.4748
G1 X110.927 Y92.693 E9.5039
G1 X111.48 Y92.663 E9.5214
G1 X112.098 Y92.65 E9.54093
G1 X119.232 Y92.651 E9.76634
G1 X119.576 Y92.656 E9.77721
G0 F1350 X120.376 Y92.667
G0 F7500 X120.382 Y92.267
G1 F1500 X123.044 Y92.267 E9.86133
G1 X124.081 Y92.25 E9.8941
G1 X131.219 Y92.251 E10.11964
G1 X131.917 Y92.261 E10.14169
G1 X132.853 Y92.315 E10.17132
G1 X133.781 Y92.447 E10.20093
G1 X134.695 Y92.659 E10.23058
G1 X135.587 Y92.948 E10.26021
G1 X136.452 Y93.311 E10.28985
G1 X137.282 Y93.747 E10.31947
G1 X138.073 Y94.252 E10.34913
G1 X138.817 Y94.823 E10.37876
G1 X139.51 Y95.455 E10.40839
G1 X140.147 Y96.143 E10.43802
G1 X140.722 Y96.884 E10.46766
G1 X141.233 Y97.67 E10.49728
G1 X141.675 Y98.498 E10.52694
G1 X142.044 Y99.36 E10.55656
G1 X142.339 Y100.25 E10.58619
G1 X142.557 Y101.162 E10.61582
G1 X142.697 Y102.09 E10.64547
G1 X142.755 Y102.951 E10.67274
G1 X142.768 Y103.58 E10.69262
G1 X142.767 Y111.671 E10.94827
G1 X142.76 Y112.144 E10.96322
G1 X142.768 Y115.538 E11.07046
G1 X142.767 Y123.677 E11.32763
G1 X142.757 Y124.394 E11.35028
G1 X142.704 Y125.331 E11.37994
G1 X142.571 Y126.259 E11.40956
G1 X142.36 Y127.173 E11.4392
G1 X142.072 Y128.065 E11.46882
G1 X141.708 Y128.93 E11.49847
G1 X141.273 Y129.761 E11.52811
G1 X140.768 Y130.551 E11.55773
G1 X140.198 Y131.296 E11.58737
G1 X139.566 Y131.989 E11.61701
G1 X139.227 Y132.317 E11.63191
G1 X138.961 Y132.563 E11.64336
G1 X137.039 Y134.355 E11.72639
G1 X135.254 Y136.117 E11.80564
G1 X133.508 Y137.941 E11.88542
G1 X133.075 Y138.417 E11.90575
G1 X132.316 Y139.233 E11.94097
G1 X131.649 Y139.892 E11.97059
G1 X130.928 Y140.491 E12.00021
G1 X130.158 Y141.027 E12.02986
G1 X129.346 Y141.496 E12.05948
G1 X128.496 Y141.893 E12.08913
G1 X127.616 Y142.217 E12.11876
G1 X126.712 Y142.465 E12.14838
G1 X125.789 Y142.634 E12.17803
G1 X124.567 Y142.737 E12.21677
G1 X123.938 Y142.75 E12.23665
G1 X115.177 Y142.749 E12.51348
G1 X114.496 Y142.739 E12.535
G1 X113.56 Y142.685 E12.56462
G1 X112.632 Y142.552 E12.59424
G1 X111.718 Y142.34 E12.62389
G1 X110.826 Y142.051 E12.65351
G1 X109.962 Y141.687 E12.68314
G1 X109.131 Y141.251 E12.71279
G1 X108.341 Y140.745 E12.74243
G1 X107.597 Y140.175 E12.77205
G1 X106.904 Y139.543 E12.80168
G1 X106.268 Y138.854 E12.83131
G1 X105.692 Y138.113 E12.86097
G1 X105.182 Y137.326 E12.8906
G1 X104.741 Y136.499 E12.92021
G1 X104.35 Y135.58 E12.95177
G1 X103.96 Y134.533 E12.98707
G1 X103.74 Y133.9 E13.00825
G1 X102.886 Y131.59 E13.08606
G1 X101.866 Y129.053 E13.17246
G1 X101.632 Y128.495 E13.19158
G1 X101.307 Y127.616 E13.22119
G1 X101.058 Y126.711 E13.25085
G1 X100.887 Y125.789 E13.28048
G1 X100.783 Y124.583 E13.31873
G1 X100.773 Y124.257 E13.32903
G1 X100.768 Y123.92 E13.33968
G1 X100.769 Y115.815 E13.59578
G1 X100.776 Y115.352 E13.61041
G1 X100.768 Y111.962 E13.71752
G1 X100.769 Y103.775 E13.97621
G1 X100.778 Y103.11 E13.99722
G1 X100.831 Y102.174 E14.02684
G1 X100.963 Y101.245 E14.05649
G1 X101.174 Y100.331 E14.08613
G1 X101.462 Y99.439 E14.11575
G1 X101.825 Y98.574 E14.14539
G1 X102.26 Y97.743 E14.17503
G1 X102.764 Y96.953 E14.20464
G1 X103.334 Y96.208 E14.23428
G1 X103.966 Y95.514 E14.26393
G1 X104.654 Y94.877 E14.29356
G1 X105.394 Y94.301 E14.32319
G1 X106.18 Y93.789 E14.35283
G1 X107.007 Y93.347 E14.38246
G1 X107.869 Y92.977 E14.4121
G1 X108.759 Y92.681 E14.44173
G1 X109.671 Y92.463 E14.47136
G1 X110.598 Y92.322 E14.50099
G1 X111.469 Y92.263 E14.52857
G1 X112.098 Y92.25 E14.54845
G1 X119.238 Y92.251 E14.77406
G1 X119.582 Y92.256 E14.78493
G0 F1350 X120.382 Y92.267
G1 F1500 E8.78493
;MESH:calicat.stl
G0 F7500 X124.182 Y102.585
G0 X124.182 Y103.664
G0 X124.768 Y111.25
;TYPE:WALL-INNER
G1 F1500 E14.78493
G1 X124.768 Y104.25 E15.00611
G1 X130.768 Y104.25 E15.19569
G1 X130.768 Y111.25 E15.41687
G1 X125.568 Y111.25 E15.58117
G0 F1350 X124.768 Y111.25
G0 F7500 X124.368 Y111.65
G1 F1500 X124.368 Y103.85 E15.82763
G1 X131.168 Y103.85 E16.04249
G1 X131.168 Y111.65 E16.28895
G1 X125.168 Y111.65 E16.47853
G0 F1350 X124.368 Y111.65
G0 F7500 X123.968 Y112.05
;TYPE:WALL-OUTER
G1 F1500 X123.968 Y103.45 E16.73668
G1 X131.568 Y103.45 E16.96481
G1 X131.568 Y112.05 E17.22296
G1 X124.768 Y112.05 E17.42708
G0 F1350 X123.968 Y112.05
G0 F7500 X123.968 Y111.65
G0 X124.408 Y111.61
G0 X124.878 Y110.86
G0 X125.158 Y110.86
;TYPE:SKIN
G1 F1500 X125.158 Y104.64 E17.62361
G1 X130.378 Y104.64 E17.78855
G1 X130.378 Y110.86 E17.98508
G1 X125.958 Y110.86 E18.12474
G0 F1350 X125.158 Y110.86
G1 F1500 E12.12474
G0 F7500 X124.878 Y110.86
G0 X124.978 Y108.5
G0 X127.518 Y108.5
G1 F1500 E18.12474
G1 X127.518 Y107 E18.17214
G1 X128.018 Y107 E18.18794
G1 X128.018 Y108.5 E18.23533
G1 X127.703 Y108.5 E18.24529
G0 F1350 X127.518 Y108.5
G0 F7500 X127.118 Y108.9
G1 F1500 X127.118 Y106.6 E18.31796
G1 X128.418 Y106.6 E18.35904
G1 X128.418 Y108.9 E18.43171
G1 X127.48 Y108.9 E18.46135
G0 F1350 X127.118 Y108.9
G0 F7500 X126.718 Y109.3
G1 F1500 X126.718 Y106.2 E18.5593
G1 X128.818 Y106.2 E18.62565
G1 X128.818 Y109.3 E18.7236
G1 X127.258 Y109.3 E18.7729
G0 F1350 X126.718 Y109.3
G0 F7500 X126.318 Y109.7
G1 F1500 X126.318 Y105.8 E18.89612
G1 X129.218 Y105.8 E18.98776
G1 X129.218 Y109.7 E19.11098
G1 X127.036 Y109.7 E19.17993
G0 F1350 X126.318 Y109.7
G0 F7500 X125.918 Y110.1
G1 F1500 X125.918 Y105.4 E19.32844
G1 X129.618 Y105.4 E19.44535
G1 X129.618 Y110.1 E19.59385
G1 X126.718 Y110.1 E19.68548
G0 F1350 X125.918 Y110.1
G0 F7500 X125.518 Y110.5
G1 F1500 X125.518 Y105 E19.85927
G1 X130.018 Y105 E20.00145
G1 X130.018 Y110.5 E20.17524
G1 X126.318 Y110.5 E20.29215
G0 F1350 X125.518 Y110.5
G1 F1500 E14.29215
G0 F7500 X124.878 Y110.5
G0 X127.84 Y111.04
G0 X127.84 Y108.324
;TYPE:SKIN
G1 F1500 E20.29215
G1 X127.692 Y108.176 E20.29545
G0 F7500 X127.842 Y108.043
G1 F1500 X127.692 Y107.893 E20.29881
G0 F7500 X127.842 Y107.76
G1 F1500 X127.692 Y107.61 E20.30216
G0 F7500 X127.842 Y107.477
G1 F1500 X127.692 Y107.327 E20.30551
G1 F1500 E14.30551
G0 F7500 X123.103 Y107.327
G0 X120.433 Y107.327
G0 X119.348 Y107.327
G0 X118.586 Y111.068
G0 X112.768 Y111.25
;TYPE:WALL-INNER
G1 F1500 E20.30551
G1 X112.768 Y104.25 E20.52669
G1 X118.768 Y104.25 E20.71627
G1 X118.768 Y111.25 E20.93745
G1 X113.568 Y111.25 E21.10176
G0 F1350 X112.768 Y111.25
G0 F7500 X112.368 Y111.65
G1 F1500 X112.368 Y103.85 E21.34821
G1 X119.168 Y103.85 E21.56307
G1 X119.168 Y111.65 E21.80953
G1 X113.168 Y111.65 E21.99912
G0 F1350 X112.368 Y111.65
G0 F7500 X111.968 Y112.05
;TYPE:WALL-OUTER
G1 F1500 X111.968 Y103.45 E22.25726
G1 X119.568 Y103.45 E22.4854
G1 X119.568 Y112.05 E22.74354
G1 X112.768 Y112.05 E22.94766
G0 F1350 X111.968 Y112.05
G0 F7500 X111.968 Y111.65
G0 X112.408 Y111.61
G0 X112.878 Y110.86
G0 X113.158 Y110.86
;TYPE:SKIN
G1 F1500 X113.158 Y104.64 E23.1442
G1 X118.378 Y104.64 E23.30913
G1 X118.378 Y110.86 E23.50567
G1 X113.958 Y110.86 E23.64533
G0 F1350 X113.158 Y110.86
G1 F1500 E17.64533
G0 F7500 X112.878 Y110.86
G0 X112.978 Y108.5
G0 X115.518 Y108.5
G1 F1500 E23.64533
G1 X115.518 Y107 E23.69272
G1 X116.018 Y107 E23.70852
G1 X116.018 Y108.5 E23.75592
G1 X115.703 Y108.5 E23.76587
G0 F1350 X115.518 Y108.5
G0 F7500 X115.118 Y108.9
G1 F1500 X115.118 Y106.6 E23.83854
G1 X116.418 Y106.6 E23.87962
G1 X116.418 Y108.9 E23.95229
G1 X115.48 Y108.9 E23.98193
G0 F1350 X115.118 Y108.9
G0 F7500 X114.718 Y109.3
G1 F1500 X114.718 Y106.2 E24.07988
G1 X116.818 Y106.2 E24.14623
G1 X116.818 Y109.3 E24.24419
G1 X115.258 Y109.3 E24.29348
G0 F1350 X114.718 Y109.3
G0 F7500 X114.318 Y109.7
G1 F1500 X114.318 Y105.8 E24.41671
G1 X117.218 Y105.8 E24.50834
G1 X117.218 Y109.7 E24.63157
G1 X115.036 Y109.7 E24.70051
G0 F1350 X114.318 Y109.7
G0 F7500 X113.918 Y110.1
G1 F1500 X113.918 Y105.4 E24.84902
G1 X117.618 Y105.4 E24.96593
G1 X117.618 Y110.1 E25.11443
G1 X114.718 Y110.1 E25.20607
G0 F1350 X113.918 Y110.1
G0 F7500 X113.518 Y110.5
G1 F1500 X113.518 Y105 E25.37985
G1 X118.018 Y105 E25.52204
G1 X118.018 Y110.5 E25.69582
G1 X114.318 Y110.5 E25.81273
G0 F1350 X113.518 Y110.5
G1 F1500 E19.81273
G0 F7500 X112.878 Y110.5
G0 X112.978 Y108.205
G0 X115.842 Y108.205
;TYPE:SKIN
G1 F1500 E25.81273
G1 X115.691 Y108.055 E25.81609
G0 F7500 X115.842 Y107.922
G1 F1500 X115.691 Y107.772 E25.81946
G0 F7500 X115.842 Y107.64
G1 F1500 X115.691 Y107.489 E25.82283
G0 F7500 X115.842 Y107.357
G1 F1500 X115.691 Y107.206 E25.8262
G1 F1500 E19.8262
G0 F7500 X111.103 Y107.206
G0 X111.115 Y112.903
G0 X115.691 Y114.585
G0 X115.691 Y115.67
G0 X112.95 Y116.432
G0 X112.95 Y123.068
G0 X119.411 Y123.074
G0 X120.459 Y125.161
G0 X120.45 Y127.932
G0 X115.813 Y127.932
G0 X115.814 Y130.568
G0 X123.268 Y130.75
;TYPE:WALL-INNER
G1 F1500 E25.8262
G1 X115.632 Y130.75 E26.06748
G1 X115.631 Y127.949 E26.15598
G1 X115.631 Y127.75 E26.16227
G1 X115.83 Y127.75 E26.16634
G1 X120.268 Y127.75 E26.30657
G1 X120.268 Y123.25 E26.44875
G1 X112.768 Y123.25 E26.68573
G1 X112.768 Y116.25 E26.90691
G1 X118.768 Y116.25 E27.09649
G1 X118.768 Y121.25 E27.25448
G1 X124.768 Y121.25 E27.44406
G1 X124.768 Y116.25 E27.60205
G1 X130.768 Y116.25 E27.79163
G1 X130.768 Y123.25 E28.01281
G1 X123.268 Y123.25 E28.24979
G1 X123.268 Y129.95 E28.46149
G0 F1350 X123.268 Y130.75
G0 F7500 X123.668 Y131.15
G1 F1500 X115.232 Y131.15 E28.72804
G1 X115.231 Y127.549 E28.84183
