;FLAVOR:Marlin
;TIME:2570
;Filament used: 1.3287m
;Layer height: 0.2
;MINX:79.707
;MINY:94.8
;MINZ:0.2
;MAXX:145.38
;MAXY:125.196
;MAXZ:17
;Generated with Cura_SteamEngine 4.7.0
M140 S60
M105
M190 S60
M104 S200
M105
M109 S200
M82 ;absolute extrusion mode
; Ender 3 Custom Start G-code
G92 E0 ; Reset Extruder
G28 ; Home all axes
G1 Z2.0 F3000 ; Move Z Axis up little to prevent scratching of Heat Bed
G1 X0.1 Y20 Z0.3 F5000.0 ; Move to start position
G1 X0.1 Y200.0 Z0.3 F1500.0 E15 ; Draw the first line
G1 X0.4 Y200.0 Z0.3 F5000.0 ; Move to side a little
G1 X0.4 Y20 Z0.3 F1500.0 E30 ; Draw the second line
G92 E0 ; Reset Extruder
G1 Z2.0 F3000 ; Move Z Axis up little to prevent scratching of Heat Bed
G1 X5 Y20 Z0.3 F5000.0 ; Move over to prevent blob squish
G92 E0
G92 E0
G1 F1500 E-6.5
;LAYER_COUNT:85
;LAYER:0
M107
G0 F6000 X84.799 Y99.137 Z0.2
;TYPE:SKIRT
G1 F1500 E0
G1 F1200 X85.643 Y98.471 E0.03576
G1 X85.897 Y98.29 E0.04613
G1 X86.591 Y97.834 E0.07375
G1 X86.725 Y97.753 E0.07896
G1 X86.985 Y97.601 E0.08898
G1 X87.362 Y97.387 E0.10339
G1 X88.092 Y97.007 E0.13077
G1 X88.274 Y96.921 E0.13746
G1 X88.756 Y96.708 E0.15499
G1 X89.139 Y96.549 E0.16878
G1 X89.864 Y96.277 E0.19454
G1 X90.079 Y96.205 E0.20208
G1 X90.911 Y95.963 E0.2309
G1 X91.621 Y95.786 E0.25524
G1 X92.843 Y95.553 E0.29661
G1 X93.313 Y95.491 E0.31238
G1 X93.697 Y95.448 E0.32523
G1 X94.616 Y95.36 E0.35594
G1 X96.739 Y95.185 E0.42679
G1 X98.75 Y95.052 E0.49382
G1 X98.949 Y95.04 E0.50045
G1 X102.043 Y94.893 E0.60347
G1 X104.184 Y94.83 E0.67471
G1 X104.412 Y94.825 E0.6823
G1 X107.459 Y94.8 E0.78365
G1 X107.673 Y94.801 E0.79076
G1 X109.619 Y94.823 E0.85549
G1 X109.826 Y94.827 E0.86238
G1 X112.848 Y94.918 E0.96294
G1 X113.058 Y94.926 E0.96993
G1 X114.968 Y95.02 E1.03353
G1 X115.189 Y95.033 E1.04089
G1 X118.244 Y95.245 E1.14275
G1 X118.45 Y95.262 E1.14962
G1 X120.284 Y95.424 E1.21086
G1 X120.501 Y95.445 E1.21811
G1 X123.537 Y95.774 E1.31968
G1 X123.753 Y95.8 E1.32691
G1 X125.677 Y96.047 E1.39143
G1 X125.883 Y96.075 E1.39835
G1 X128.829 Y96.51 E1.49739
G1 X129.042 Y96.544 E1.50457
G1 X130.997 Y96.872 E1.5705
G1 X131.209 Y96.909 E1.57766
G1 X133.588 Y97.356 E1.65817
G1 X135.426 Y97.673 E1.7202
G1 X136.172 Y97.813 E1.74545
G1 X137.086 Y98.026 E1.77666
G1 X137.977 Y98.317 E1.80784
G1 X138.841 Y98.682 E1.83903
G1 X139.671 Y99.119 E1.87023
G1 X140.46 Y99.626 E1.90142
G1 X141.203 Y100.198 E1.93261
G1 X141.895 Y100.831 E1.9638
G1 X142.494 Y101.478 E1.99313
G1 X142.64 Y101.649 E2.00061
G1 X143.218 Y102.388 E2.03181
G1 X143.731 Y103.173 E2.063
G1 X144.175 Y103.999 E2.09419
G1 X144.547 Y104.86 E2.12539
G1 X144.833 Y105.707 E2.15512
G1 X144.911 Y105.974 E2.16438
G1 X145.135 Y106.885 E2.19558
G1 X145.263 Y107.66 E2.2217
G1 X145.268 Y107.699 E2.22301
G1 X145.355 Y108.877 E2.2623
G1 X145.378 Y110.02 E2.30032
G1 X145.38 Y110.288 E2.30924
G1 X145.377 Y110.704 E2.32307
G1 X145.371 Y110.994 E2.33272
G1 X145.347 Y111.528 E2.3505
G1 X145.173 Y112.885 E2.396
G1 X145.121 Y113.156 E2.40518
G1 X144.905 Y114.069 E2.43639
G1 X144.612 Y114.96 E2.46758
G1 X144.236 Y115.84 E2.49941
G1 X144.118 Y116.086 E2.50848
G1 X143.677 Y116.914 E2.53969
G1 X143.167 Y117.701 E2.57088
G1 X142.591 Y118.442 E2.60209
G1 X141.955 Y119.131 E2.63328
G1 X141.262 Y119.763 E2.66448
G1 X140.518 Y120.334 E2.69567
G1 X139.993 Y120.68 E2.71658
G1 X139.901 Y120.737 E2.72018
G1 X139.084 Y121.196 E2.75135
G1 X138.23 Y121.584 E2.78255
G1 X137.346 Y121.899 E2.81376
G1 X136.439 Y122.136 E2.84494
G1 X135.966 Y122.228 E2.86097
G1 X135.395 Y122.326 E2.88024
G1 X132.992 Y122.77 E2.96151
G1 X130.932 Y123.14 E3.03113
G1 X130.742 Y123.172 E3.03753
G1 X127.729 Y123.659 E3.13905
G1 X127.514 Y123.692 E3.14628
G1 X125.534 Y123.972 E3.21279
G1 X125.324 Y123.999 E3.21983
G1 X122.384 Y124.357 E3.31834
G1 X122.176 Y124.381 E3.32531
G1 X120.216 Y124.582 E3.39084
G1 X119.995 Y124.602 E3.39822
G1 X116.388 Y124.898 E3.51859
G1 X115.524 Y124.961 E3.5474
G1 X115.241 Y124.978 E3.55683
G1 X114.076 Y125.032 E3.59562
G1 X110.582 Y125.157 E3.71191
G1 X110.375 Y125.162 E3.7188
G1 X108.478 Y125.194 E3.7819
G1 X108.263 Y125.196 E3.78905
G1 X105.232 Y125.188 E3.88986
G1 X105.014 Y125.185 E3.89711
G1 X103.055 Y125.141 E3.96229
G1 X102.843 Y125.134 E3.96934
G1 X99.576 Y124.997 E4.0781
G1 X97.868 Y124.898 E4.135
G1 X95.266 Y124.704 E4.22178
G1 X94.443 Y124.635 E4.24925
G1 X94.129 Y124.607 E4.25974
G1 X93.886 Y124.582 E4.26786
G1 X93.443 Y124.531 E4.2827
G1 X93.077 Y124.483 E4.29497
G1 X92.492 Y124.39 E4.31467
G1 X92.229 Y124.341 E4.32357
G1 X91.788 Y124.249 E4.33856
G1 X91.238 Y124.123 E4.35732
G1 X90.299 Y123.864 E4.38972
G1 X90.111 Y123.803 E4.39629
G1 X89.658 Y123.645 E4.41225
G1 X89.342 Y123.527 E4.42347
G1 X88.545 Y123.193 E4.45221
G1 X88.12 Y122.995 E4.46781
G1 X87.385 Y122.619 E4.49527
G1 X86.973 Y122.388 E4.51098
G1 X86.045 Y121.805 E4.54743
G1 X85.655 Y121.532 E4.56326
G1 X84.755 Y120.83 E4.60122
G1 X84.574 Y120.673 E4.60919
G1 X84.144 Y120.279 E4.62859
G1 X84.087 Y120.224 E4.63122
G1 X83.717 Y119.849 E4.64875
G1 X83.507 Y119.626 E4.65893
G1 X82.977 Y119.02 E4.68571
G1 X82.778 Y118.775 E4.69621
G1 X82.403 Y118.286 E4.71671
G1 X82.241 Y118.062 E4.7259
G1 X81.724 Y117.28 E4.75708
G1 X81.342 Y116.588 E4.78337
G1 X81.114 Y116.138 E4.80015
G1 X80.571 Y114.878 E4.84578
G1 X80.552 Y114.825 E4.84765
G1 X80.347 Y114.192 E4.86978
G1 X80.233 Y113.801 E4.88333
G1 X80.047 Y113.074 E4.90829
G1 X79.982 Y112.777 E4.9184
G1 X79.829 Y111.911 E4.94765
G1 X79.823 Y111.867 E4.94913
G1 X79.745 Y111.087 E4.9752
G1 X79.727 Y110.807 E4.98453
G1 X79.71 Y110.476 E4.99556
G1 X79.707 Y110.388 E4.99848
G1 X79.73 Y109.214 E5.03754
G1 X79.749 Y108.953 E5.04624
G1 X79.786 Y108.545 E5.05987
G1 X79.819 Y108.246 E5.06987
G1 X79.962 Y107.319 E5.10107
G1 X80.074 Y106.814 E5.11828
G1 X80.159 Y106.47 E5.13006
G1 X80.402 Y105.63 E5.15915
G1 X80.498 Y105.342 E5.16924
G1 X80.839 Y104.453 E5.20091
G1 X80.884 Y104.349 E5.20468
G1 X81.272 Y103.543 E5.23443
G1 X81.466 Y103.179 E5.24815
G1 X81.944 Y102.367 E5.27949
G1 X81.968 Y102.33 E5.28096
G1 X82.406 Y101.704 E5.30637
G1 X82.679 Y101.341 E5.32148
G1 X83.226 Y100.67 E5.35027
G1 X83.317 Y100.567 E5.35484
G1 X84.086 Y99.78 E5.39144
G1 X84.357 Y99.529 E5.40372
G1 X84.604 Y99.307 E5.41477
G1 X84.799 Y99.137 E5.42337
G0 F6000 X85.061 Y99.439
G1 F1200 X85.876 Y98.797 E5.45788
G1 X86.13 Y98.616 E5.46825
G1 X86.798 Y98.177 E5.49484
G1 X86.932 Y98.096 E5.50005
G1 X87.182 Y97.949 E5.50969
G1 X87.559 Y97.735 E5.52411
G1 X88.263 Y97.369 E5.5505
G1 X88.445 Y97.283 E5.5572
G1 X88.91 Y97.077 E5.57411
G1 X89.293 Y96.918 E5.58791
G1 X89.991 Y96.657 E5.61269
G1 X90.206 Y96.585 E5.62023
G1 X91.008 Y96.351 E5.64802
G1 X91.718 Y96.174 E5.67236
G1 X92.896 Y95.95 E5.71224
G1 X93.366 Y95.888 E5.72801
G1 X93.735 Y95.846 E5.74036
G1 X94.649 Y95.759 E5.7709
G1 X96.772 Y95.584 E5.84175
G1 X96.949 Y95.571 E5.84765
G1 X98.777 Y95.451 E5.90858
G1 X98.968 Y95.44 E5.91494
G1 X102.062 Y95.293 E6.01797
G1 X102.259 Y95.285 E6.02452
G1 X104.196 Y95.229 E6.08898
G1 X104.415 Y95.225 E6.09626
G1 X107.462 Y95.2 E6.19761
G1 X107.669 Y95.201 E6.20449
G1 X109.615 Y95.223 E6.26922
G1 X109.814 Y95.227 E6.27584
G1 X112.836 Y95.318 E6.3764
G1 X113.038 Y95.326 E6.38312
G1 X114.948 Y95.42 E6.44673
G1 X115.161 Y95.432 E6.45382
G1 X118.216 Y95.644 E6.55568
G1 X118.415 Y95.66 E6.56232
G1 X120.249 Y95.822 E6.62355
G1 X120.458 Y95.843 E6.63054
G1 X123.494 Y96.172 E6.73211
G1 X123.702 Y96.196 E6.73907
G1 X125.626 Y96.443 E6.80359
G1 X125.824 Y96.471 E6.81024
G1 X128.77 Y96.906 E6.90929
G1 X128.976 Y96.938 E6.91622
G1 X130.931 Y97.266 E6.98215
G1 X131.135 Y97.302 E6.98904
G1 X133.512 Y97.749 E7.06949
G1 X135.358 Y98.067 E7.13179
G1 X136.098 Y98.206 E7.15684
G1 X136.994 Y98.416 E7.18744
G1 X137.869 Y98.703 E7.21807
G1 X138.715 Y99.065 E7.24868
G1 X139.527 Y99.499 E7.2793
G1 X140.299 Y100.002 E7.30995
G1 X141.023 Y100.57 E7.34055
G1 X141.696 Y101.199 E7.37119
G1 X142.189 Y101.738 E7.39549
G1 X142.335 Y101.909 E7.40297
G1 X142.902 Y102.635 E7.4336
G1 X143.404 Y103.407 E7.46423
G1 X143.837 Y104.219 E7.49484
G1 X144.198 Y105.066 E7.52546
G1 X144.449 Y105.82 E7.55189
G1 X144.527 Y106.087 E7.56115
G1 X144.746 Y106.981 E7.59176
G1 X144.866 Y107.711 E7.61636
G1 X144.871 Y107.75 E7.61767
G1 X144.955 Y108.885 E7.65553
G1 X144.978 Y110.028 E7.69355
G1 X144.98 Y110.286 E7.70213
G1 X144.977 Y110.695 E7.71574
G1 X144.971 Y110.985 E7.72538
G1 X144.948 Y111.502 E7.7426
G1 X144.78 Y112.81 E7.78646
G1 X144.728 Y113.081 E7.79563
G1 X144.515 Y113.976 E7.82623
G1 X144.226 Y114.85 E7.85685
G1 X143.875 Y115.667 E7.88643
G1 X143.757 Y115.913 E7.8955
G1 X143.324 Y116.725 E7.92611
G1 X142.821 Y117.497 E7.95675
G1 X142.253 Y118.222 E7.98739
G1 X141.625 Y118.894 E8.01798
G1 X140.94 Y119.51 E8.04862
G1 X140.205 Y120.064 E8.07923
G1 X139.783 Y120.34 E8.096
G1 X139.691 Y120.397 E8.0996
G1 X138.888 Y120.847 E8.13022
G1 X138.049 Y121.226 E8.16084
G1 X137.18 Y121.531 E8.19147
G1 X135.899 Y121.834 E8.23525
G1 X135.333 Y121.931 E8.25435
G1 X132.921 Y122.376 E8.33593
G1 X130.861 Y122.746 E8.40554
G1 X130.678 Y122.777 E8.41172
G1 X127.665 Y123.264 E8.51323
G1 X127.458 Y123.296 E8.5202
G1 X125.478 Y123.576 E8.58671
G1 X125.275 Y123.602 E8.59351
G1 X122.335 Y123.96 E8.69202
G1 X122.135 Y123.983 E8.69872
G1 X120.175 Y124.184 E8.76425
G1 X119.962 Y124.203 E8.77136
G1 X116.359 Y124.499 E8.8916
G1 X115.495 Y124.562 E8.92041
G1 X115.222 Y124.578 E8.92951
G1 X114.062 Y124.632 E8.96813
G1 X110.568 Y124.757 E9.08442
G1 X110.368 Y124.762 E9.09107
G1 X108.471 Y124.794 E9.15417
G1 X108.264 Y124.796 E9.16106
G1 X105.233 Y124.788 E9.26187
G1 X105.023 Y124.785 E9.26886
G1 X103.064 Y124.741 E9.33403
G1 X102.86 Y124.735 E9.34082
G1 X99.771 Y124.606 E9.44365
G1 X97.892 Y124.498 E9.50625
G1 X97.713 Y124.486 E9.51221
G1 X95.299 Y124.305 E9.59273
G1 X94.479 Y124.236 E9.6201
G1 X94.165 Y124.208 E9.63058
G1 X93.93 Y124.185 E9.63844
G1 X93.697 Y124.159 E9.64624
G1 X93.129 Y124.086 E9.66528
G1 X92.566 Y123.997 E9.68424
G1 X92.303 Y123.948 E9.69314
G1 X91.877 Y123.859 E9.70761
G1 X91.327 Y123.733 E9.72638
G1 X90.423 Y123.484 E9.75757
G1 X90.235 Y123.423 E9.76414
G1 X89.798 Y123.27 E9.77954
G1 X89.482 Y123.152 E9.79076
G1 X88.714 Y122.83 E9.81846
G1 X88.289 Y122.632 E9.83405
G1 X87.581 Y122.27 E9.8605
G1 X87.169 Y122.039 E9.87621
G1 X86.274 Y121.477 E9.91136
G1 X85.884 Y121.204 E9.92719
G1 X85.017 Y120.527 E9.96378
G1 X84.836 Y120.37 E9.97175
G1 X84.422 Y119.991 E9.99042
G1 X84.365 Y119.936 E9.99305
G1 X84.008 Y119.575 E10.00994
G1 X83.798 Y119.352 E10.02013
G1 X83.287 Y118.768 E10.04594
G1 X83.088 Y118.523 E10.05643
G1 X82.727 Y118.052 E10.07617
G1 X82.565 Y117.828 E10.08537
G1 X82.058 Y117.059 E10.116
G1 X81.698 Y116.407 E10.14077
G1 X81.47 Y115.957 E10.15755
G1 X80.948 Y114.743 E10.2015
G1 X80.929 Y114.69 E10.20338
G1 X80.731 Y114.08 E10.22471
G1 X80.617 Y113.689 E10.23825
G1 X80.438 Y112.988 E10.26232
G1 X80.373 Y112.691 E10.27243
G1 X80.225 Y111.857 E10.3006
G1 X80.219 Y111.813 E10.30208
G1 X80.144 Y111.061 E10.32721
G1 X80.126 Y110.781 E10.33655
G1 X80.11 Y110.462 E10.34717
G1 X80.107 Y110.374 E10.3501
G1 X80.129 Y109.243 E10.38772
G1 X80.148 Y108.982 E10.39643
G1 X80.184 Y108.589 E10.40955
G1 X80.217 Y108.29 E10.41956
G1 X80.358 Y107.38 E10.45019
G1 X80.462 Y106.91 E10.4662
G1 X80.547 Y106.566 E10.47798
G1 X80.782 Y105.757 E10.506
G1 X80.878 Y105.469 E10.5161
G1 X81.206 Y104.612 E10.54662
G1 X81.251 Y104.508 E10.55039
G1 X81.625 Y103.731 E10.57907
G1 X81.819 Y103.367 E10.59279
G1 X82.28 Y102.585 E10.62298
G1 X82.304 Y102.548 E10.62445
G1 X82.725 Y101.945 E10.64891
G1 X82.998 Y101.582 E10.66401
G1 X83.526 Y100.935 E10.69179
G1 X83.617 Y100.832 E10.69636
G1 X84.358 Y100.073 E10.73164
G1 X84.629 Y99.822 E10.74393
G1 X84.866 Y99.609 E10.75453
G1 X85.061 Y99.439 E10.76313
G0 F6000 X85.324 Y99.741
G1 F1200 X86.108 Y99.122 E10.79635
G1 X86.362 Y98.941 E10.80673
G1 X87.004 Y98.519 E10.83228
G1 X87.138 Y98.438 E10.83749
G1 X87.38 Y98.296 E10.84682
G1 X87.757 Y98.082 E10.86124
G1 X88.434 Y97.731 E10.8866
G1 X88.616 Y97.645 E10.8933
G1 X89.063 Y97.447 E10.90956
G1 X89.446 Y97.288 E10.92335
G1 X90.118 Y97.036 E10.94722
G1 X90.333 Y96.964 E10.95476
G1 X91.105 Y96.739 E10.98151
G1 X91.815 Y96.562 E11.00585
G1 X92.948 Y96.347 E11.0442
G1 X93.418 Y96.285 E11.05997
G1 X93.774 Y96.244 E11.07189
G1 X94.682 Y96.157 E11.10223
G1 X96.805 Y95.982 E11.17308
G1 X98.803 Y95.85 E11.23968
G1 X98.987 Y95.839 E11.24581
G1 X102.081 Y95.692 E11.34883
G1 X102.27 Y95.685 E11.35512
G1 X104.207 Y95.629 E11.41957
G1 X104.418 Y95.625 E11.42659
G1 X107.465 Y95.6 E11.52794
G1 X107.664 Y95.601 E11.53456
G1 X109.61 Y95.623 E11.59929
G1 X109.802 Y95.627 E11.60567
G1 X112.824 Y95.718 E11.70623
G1 X113.018 Y95.725 E11.71269
G1 X114.928 Y95.819 E11.77629
G1 X115.133 Y95.831 E11.78312
G1 X118.188 Y96.043 E11.88497
G1 X120.213 Y96.221 E11.95259
G1 X120.415 Y96.24 E11.95933
G1 X123.451 Y96.569 E12.0609
G1 X123.651 Y96.593 E12.0676
G1 X125.575 Y96.84 E12.13212
G1 X125.766 Y96.866 E12.13853
G1 X128.712 Y97.301 E12.23758
G1 X128.91 Y97.333 E12.24425
G1 X130.865 Y97.661 E12.31018
G1 X131.061 Y97.695 E12.3168
G1 X133.436 Y98.141 E12.39717
G1 X135.29 Y98.461 E12.45975
G1 X136.024 Y98.599 E12.48459
G1 X136.903 Y98.806 E12.51462
G1 X137.76 Y99.09 E12.54465
G1 X138.589 Y99.448 E12.57469
G1 X139.383 Y99.879 E12.60473
G1 X140.135 Y100.378 E12.63475
G1 X140.841 Y100.941 E12.66479
G1 X141.494 Y101.565 E12.69483
G1 X141.885 Y101.998 E12.71423
G1 X142.031 Y102.169 E12.72171
G1 X142.587 Y102.881 E12.75176
G1 X143.077 Y103.639 E12.78178
G1 X143.498 Y104.438 E12.81181
G1 X143.847 Y105.271 E12.84185
G1 X144.065 Y105.932 E12.865
G1 X144.143 Y106.199 E12.87425
G1 X144.357 Y107.076 E12.90428
G1 X144.469 Y107.762 E12.9274
G1 X144.474 Y107.801 E12.92871
G1 X144.555 Y108.893 E12.96513
G1 X144.578 Y110.036 E13.00315
G1 X144.58 Y110.284 E13.0114
G1 X144.577 Y110.687 E13.0248
G1 X144.571 Y110.977 E13.03445
G1 X144.548 Y111.476 E13.05106
G1 X144.387 Y112.734 E13.09325
G1 X144.335 Y113.005 E13.10243
G1 X144.126 Y113.884 E13.13248
G1 X143.84 Y114.74 E13.16249
G1 X143.515 Y115.494 E13.1898
G1 X143.397 Y115.74 E13.19888
G1 X142.97 Y116.537 E13.22895
G1 X142.475 Y117.292 E13.25898
G1 X141.916 Y118.001 E13.28901
G1 X141.295 Y118.657 E13.31905
G1 X140.619 Y119.256 E13.34909
G1 X139.572 Y120 E13.39181
G1 X139.48 Y120.057 E13.39541
G1 X138.692 Y120.498 E13.42545
G1 X137.868 Y120.868 E13.45549
G1 X137.015 Y121.163 E13.48551
G1 X135.831 Y121.439 E13.52594
G1 X135.271 Y121.535 E13.54484
G1 X132.85 Y121.982 E13.62672
G1 X130.79 Y122.352 E13.69634
G1 X130.615 Y122.382 E13.70224
G1 X127.602 Y122.869 E13.80376
G1 X127.402 Y122.9 E13.81049
G1 X125.422 Y123.18 E13.877
G1 X125.227 Y123.205 E13.88354
G1 X122.287 Y123.563 E13.98204
G1 X122.095 Y123.585 E13.98847
G1 X120.135 Y123.786 E14.054
G1 X119.929 Y123.805 E14.06088
G1 X116.33 Y124.1 E14.18099
G1 X115.466 Y124.163 E14.2098
G1 X115.204 Y124.179 E14.21853
G1 X114.163 Y124.228 E14.25319
G1 X110.361 Y124.363 E14.37973
G1 X108.464 Y124.395 E14.44283
G1 X108.265 Y124.396 E14.44945
G1 X105.234 Y124.388 E14.55026
G1 X105.032 Y124.385 E14.55698
G1 X103.073 Y124.341 E14.62215
G1 X102.876 Y124.335 E14.62871
G1 X99.787 Y124.206 E14.73154
G1 X99.623 Y124.198 E14.737
G1 X97.915 Y124.099 E14.79391
G1 X95.333 Y123.906 E14.88002
G1 X94.514 Y123.838 E14.90736
G1 X94.2 Y123.81 E14.91784
G1 X93.975 Y123.787 E14.92536
G1 X93.742 Y123.761 E14.93316
G1 X93.547 Y123.737 E14.9397
G1 X93.181 Y123.689 E14.95197
G1 X92.639 Y123.603 E14.97023
G1 X92.376 Y123.554 E14.97912
G1 X91.966 Y123.469 E14.99305
G1 X91.416 Y123.343 E15.01182
G1 X90.546 Y123.103 E15.04183
G1 X90.358 Y123.042 E15.04841
G1 X89.938 Y122.896 E15.0632
G1 X89.622 Y122.778 E15.07442
G1 X88.883 Y122.468 E15.10107
G1 X88.458 Y122.27 E15.11667
G1 X87.777 Y121.921 E15.14212
G1 X87.365 Y121.69 E15.15783
G1 X86.504 Y121.149 E15.19165
G1 X86.114 Y120.876 E15.20748
G1 X85.279 Y120.225 E15.2427
G1 X85.098 Y120.068 E15.25067
G1 X84.699 Y119.703 E15.26865
G1 X84.642 Y119.648 E15.27129
G1 X84.299 Y119.301 E15.28751
G1 X84.089 Y119.078 E15.2977
G1 X83.598 Y118.516 E15.32252
G1 X83.399 Y118.271 E15.33302
G1 X83.051 Y117.817 E15.35205
