;FLAVOR:Marlin
;TIME:4710
;Filament used: 2.20661m
;Layer height: 0.12
;MINX:97.679
;MINY:98.595
;MINZ:0.2
;MAXX:135.884
;MAXY:137.058
;MAXZ:37.16
;Generated with Cura_SteamEngine 4.6.2
M140 S60
M105
M190 S60
M104 S200
M105
M109 S200
M82 ;absolute extrusion mode
; Ender 3 Custom Start G-code
G92 E0 ; Reset Extruder
G28 ; Home all axes
G1 Z2.0 F3000 ; Move Z Axis up little to prevent scratching of Heat Bed
G1 X0.1 Y20 Z0.3 F5000.0 ; Move to start position
G1 X0.1 Y200.0 Z0.3 F1500.0 E15 ; Draw the first line
G1 X0.4 Y200.0 Z0.3 F5000.0 ; Move to side a little
G1 X0.4 Y20 Z0.3 F1500.0 E30 ; Draw the second line
G92 E0 ; Reset Extruder
G1 Z2.0 F3000 ; Move Z Axis up little to prevent scratching of Heat Bed
G1 X5 Y20 Z0.3 F5000.0 ; Move over to prevent blob squish
G92 E0
G92 E0
G1 F1500 E-6
;LAYER_COUNT:309
;LAYER:0
M107
M204 S500
M205 X8 Y8
G0 F7500 X123.277 Y99.455 Z0.2
;TYPE:SKIRT
G1 F1500 E0
G1 X124.17 Y99.588 E0.02853
G1 X125.048 Y99.799 E0.05706
G1 X125.904 Y100.086 E0.08559
G1 X126.731 Y100.449 E0.11412
G1 X127.523 Y100.883 E0.14266
G1 X128.274 Y101.386 E0.17122
G1 X128.977 Y101.953 E0.19976
G1 X129.627 Y102.58 E0.22829
G1 X130.219 Y103.262 E0.25683
G1 X130.748 Y103.993 E0.28534
G1 X131.211 Y104.769 E0.31389
G1 X131.603 Y105.582 E0.34241
G1 X131.848 Y106.209 E0.36368
G1 X132.084 Y106.879 E0.38613
G1 X132.971 Y109.275 E0.46685
G1 X134.08 Y112.052 E0.56134
G1 X134.378 Y112.904 E0.58986
G1 X134.599 Y113.78 E0.6184
G1 X134.695 Y114.322 E0.6358
G1 X134.855 Y115.399 E0.6702
G1 X134.94 Y116.057 E0.69116
G1 X135.019 Y116.724 E0.71239
G1 X135.086 Y117.625 E0.74093
G1 X135.072 Y118.528 E0.76947
G1 X135.024 Y119.082 E0.78704
G1 X134.895 Y120.193 E0.82238
G1 X134.812 Y120.821 E0.84239
G1 X134.714 Y121.495 E0.86391
G1 X134.544 Y122.382 E0.89245
G1 X134.297 Y123.25 E0.92097
G1 X134.112 Y123.762 E0.93817
G1 X133.719 Y124.756 E0.97194
G1 X133.461 Y125.376 E0.99316
G1 X133.183 Y126.022 E1.01538
G1 X132.79 Y126.835 E1.04391
G1 X132.326 Y127.61 E1.07246
G1 X132.011 Y128.061 E1.08984
G1 X131.385 Y128.903 E1.12299
G1 X130.943 Y129.479 E1.14593
G1 X130.537 Y129.992 E1.1666
G1 X129.946 Y130.675 E1.19514
G1 X129.297 Y131.302 E1.22365
G1 X128.91 Y131.628 E1.23964
G1 X128.025 Y132.333 E1.27539
G1 X127.481 Y132.749 E1.29703
G1 X126.935 Y133.154 E1.31851
G1 X126.186 Y133.66 E1.34707
G1 X125.396 Y134.097 E1.3756
G1 X124.937 Y134.311 E1.3916
G1 X123.9 Y134.761 E1.42732
G1 X123.342 Y134.992 E1.4464
G1 X122.673 Y135.258 E1.46915
G1 X121.819 Y135.554 E1.49771
G1 X120.943 Y135.774 E1.52625
G1 X120.415 Y135.867 E1.54319
G1 X119.365 Y136.023 E1.57673
G1 X118.658 Y136.116 E1.59926
G1 X117.991 Y136.194 E1.62048
G1 X117.09 Y136.259 E1.64902
G1 X116.187 Y136.244 E1.67756
G1 X115.662 Y136.199 E1.69421
G1 X114.558 Y136.072 E1.72932
G1 X113.945 Y135.99 E1.74886
G1 X113.257 Y135.891 E1.77083
G1 X112.37 Y135.723 E1.79935
G1 X111.501 Y135.477 E1.82789
G1 X110.973 Y135.286 E1.84563
G1 X109.896 Y134.86 E1.88222
G1 X109.361 Y134.637 E1.90054
G1 X108.719 Y134.361 E1.92262
G1 X107.906 Y133.968 E1.95115
G1 X107.131 Y133.504 E1.97969
G1 X106.682 Y133.19 E1.997
G1 X105.802 Y132.537 E2.03163
G1 X105.281 Y132.136 E2.0524
G1 X104.755 Y131.722 E2.07355
G1 X104.071 Y131.133 E2.10207
G1 X103.442 Y130.485 E2.13061
G1 X103.075 Y130.049 E2.14862
G1 X102.422 Y129.223 E2.18189
G1 X101.981 Y128.647 E2.20481
G1 X101.585 Y128.114 E2.22579
G1 X101.079 Y127.366 E2.25432
G1 X100.642 Y126.576 E2.28285
G1 X100.419 Y126.099 E2.29949
G1 X99.972 Y125.067 E2.33502
G1 X99.737 Y124.5 E2.35442
G1 X99.48 Y123.855 E2.37635
G1 X99.184 Y123.002 E2.40488
G1 X98.963 Y122.126 E2.43343
G1 X98.869 Y121.596 E2.45044
G1 X98.709 Y120.514 E2.485
G1 X98.62 Y119.833 E2.5067
G1 X98.543 Y119.18 E2.52747
G1 X98.477 Y118.28 E2.55599
G1 X98.491 Y117.377 E2.58452
G1 X98.539 Y116.828 E2.60194
G1 X98.668 Y115.714 E2.63737
G1 X98.757 Y115.046 E2.65866
G1 X98.85 Y114.409 E2.679
G1 X99.02 Y113.522 E2.70754
G1 X99.268 Y112.654 E2.73606
G1 X99.453 Y112.144 E2.75321
G1 X99.992 Y110.776 E2.79967
G1 X100.702 Y108.996 E2.86022
G1 X101.747 Y106.122 E2.95684
G1 X102.093 Y105.288 E2.98537
G1 X102.512 Y104.488 E3.01391
G1 X102.999 Y103.728 E3.04243
G1 X103.552 Y103.014 E3.07097
G1 X104.166 Y102.351 E3.09952
G1 X104.836 Y101.746 E3.12804
G1 X105.557 Y101.202 E3.15658
G1 X106.323 Y100.724 E3.18511
G1 X107.129 Y100.316 E3.21365
G1 X107.967 Y99.98 E3.24218
G1 X108.832 Y99.72 E3.27072
G1 X109.717 Y99.538 E3.29927
G1 X110.614 Y99.434 E3.3278
G1 X111.143 Y99.411 E3.34453
G1 X112.211 Y99.396 E3.37828
G1 X112.865 Y99.405 E3.39895
G1 X115.499 Y99.48 E3.48221
G1 X118.014 Y99.48 E3.56168
G1 X119.675 Y99.429 E3.61418
G1 X121.89 Y99.395 E3.68418
G1 X122.375 Y99.402 E3.69951
G1 X122.478 Y99.409 E3.70277
G0 F1350 X123.277 Y99.455
G0 F7500 X123.3 Y99.055
G1 F1500 X124.211 Y99.188 E3.73186
G1 X125.107 Y99.4 E3.76095
G1 X125.982 Y99.688 E3.79006
G1 X126.828 Y100.051 E3.81914
G1 X127.639 Y100.486 E3.84822
G1 X128.409 Y100.99 E3.8773
G1 X129.133 Y101.559 E3.9064
G1 X129.805 Y102.188 E3.93548
G1 X130.42 Y102.874 E3.96459
G1 X130.973 Y103.61 E3.99368
G1 X131.459 Y104.391 E4.02275
G1 X131.877 Y105.212 E4.05186
G1 X132.225 Y106.076 E4.08129
G1 X132.436 Y106.676 E4.10138
G1 X133.359 Y109.17 E4.18541
G1 X134.451 Y111.903 E4.2784
G1 X134.756 Y112.772 E4.3075
G1 X134.983 Y113.664 E4.33659
G1 X135.091 Y114.262 E4.35579
G1 X135.251 Y115.347 E4.39044
G1 X135.337 Y116.01 E4.41156
G1 X135.416 Y116.677 E4.43279
G1 X135.485 Y117.595 E4.46188
G1 X135.473 Y118.516 E4.49098
G1 X135.421 Y119.128 E4.51039
G1 X135.292 Y120.246 E4.54595
G1 X135.208 Y120.878 E4.56609
G1 X135.11 Y121.552 E4.58761
G1 X134.938 Y122.457 E4.61672
G1 X134.688 Y123.343 E4.64581
G1 X134.484 Y123.908 E4.66479
G1 X134.088 Y124.909 E4.6988
G1 X133.829 Y125.534 E4.72018
G1 X133.551 Y126.18 E4.7424
G1 X133.15 Y127.009 E4.7715
G1 X132.68 Y127.8 E4.80057
G1 X132.332 Y128.299 E4.81979
G1 X131.703 Y129.146 E4.85313
G1 X131.257 Y129.727 E4.87627
G1 X130.851 Y130.24 E4.89694
G1 X130.249 Y130.937 E4.92604
G1 X129.588 Y131.578 E4.95514
G1 X129.159 Y131.94 E4.97287
G1 X128.269 Y132.65 E5.00885
G1 X127.719 Y133.071 E5.03073
G1 X127.173 Y133.476 E5.05221
G1 X126.41 Y133.991 E5.0813
G1 X125.606 Y134.439 E5.11038
G1 X125.097 Y134.678 E5.12815
G1 X124.054 Y135.131 E5.16408
G1 X123.489 Y135.364 E5.18339
G1 X122.82 Y135.63 E5.20614
G1 X121.951 Y135.933 E5.23521
G1 X121.058 Y136.159 E5.26432
G1 X120.475 Y136.263 E5.28303
G1 X119.418 Y136.42 E5.3168
G1 X118.704 Y136.513 E5.33955
G1 X118.037 Y136.591 E5.36077
G1 X117.119 Y136.658 E5.38985
G1 X116.198 Y136.646 E5.41895
G1 X115.618 Y136.596 E5.43735
G1 X114.505 Y136.469 E5.47274
G1 X113.888 Y136.386 E5.49241
G1 X113.2 Y136.287 E5.51438
G1 X112.296 Y136.116 E5.54345
G1 X111.409 Y135.868 E5.57255
G1 X110.826 Y135.658 E5.59213
G1 X109.742 Y135.229 E5.62896
G1 X109.203 Y135.004 E5.64742
G1 X108.561 Y134.728 E5.6695
G1 X107.732 Y134.328 E5.69858
G1 X106.941 Y133.858 E5.72766
G1 X106.444 Y133.512 E5.74679
G1 X105.558 Y132.854 E5.78166
G1 X105.034 Y132.45 E5.80257
G1 X104.508 Y132.036 E5.82372
G1 X103.81 Y131.436 E5.8528
G1 X103.167 Y130.778 E5.88187
G1 X102.762 Y130.298 E5.90172
G1 X102.104 Y129.467 E5.93521
G1 X101.66 Y128.886 E5.95831
G1 X101.264 Y128.353 E5.97929
G1 X100.748 Y127.59 E6.0084
G1 X100.3 Y126.786 E6.03748
G1 X100.053 Y126.259 E6.05587
G1 X99.603 Y125.221 E6.09162
G1 X99.366 Y124.648 E6.11121
G1 X99.109 Y124.003 E6.13315
G1 X98.806 Y123.133 E6.16226
G1 X98.579 Y122.241 E6.19134
G1 X98.474 Y121.655 E6.21015
G1 X98.312 Y120.566 E6.24494
G1 X98.223 Y119.88 E6.2668
G1 X98.146 Y119.227 E6.28757
G1 X98.078 Y118.309 E6.31666
G1 X98.09 Y117.389 E6.34573
G1 X98.142 Y116.782 E6.36498
G1 X98.271 Y115.662 E6.4006
G1 X98.361 Y114.989 E6.42206
G1 X98.454 Y114.352 E6.4424
G1 X98.627 Y113.447 E6.47151
G1 X98.877 Y112.561 E6.5006
G1 X99.081 Y111.997 E6.51955
G1 X99.62 Y110.629 E6.56601
G1 X100.334 Y108.838 E6.62693
G1 X101.371 Y105.986 E6.72282
G1 X101.723 Y105.135 E6.75191
G1 X102.148 Y104.318 E6.78101
G1 X102.642 Y103.541 E6.81011
G1 X103.201 Y102.81 E6.83918
G1 X103.822 Y102.13 E6.86828
G1 X104.499 Y101.506 E6.89737
G1 X105.228 Y100.944 E6.92646
G1 X106.003 Y100.447 E6.95555
G1 X106.818 Y100.019 E6.98463
G1 X107.667 Y99.663 E7.01372
G1 X108.544 Y99.382 E7.04282
G1 X109.442 Y99.179 E7.07191
G1 X110.354 Y99.054 E7.101
G1 X111.136 Y99.011 E7.12574
G1 X111.889 Y98.997 E7.14954
G1 X112.216 Y98.996 E7.15987
G1 X112.877 Y99.005 E7.18076
G1 X115.511 Y99.08 E7.26402
G1 X118.002 Y99.08 E7.34273
G1 X119.668 Y99.029 E7.3954
G1 X121.896 Y98.995 E7.4658
G1 X122.381 Y99.002 E7.48113
G1 X122.501 Y99.009 E7.48493
G0 F1350 X123.3 Y99.055
G0 F7500 X123.323 Y98.656
G1 F1500 X124.251 Y98.789 E7.51455
G1 X125.165 Y99 E7.54419
G1 X126.057 Y99.289 E7.57381
G1 X126.922 Y99.653 E7.60347
G1 X127.752 Y100.089 E7.63309
G1 X128.543 Y100.594 E7.66274
G1 X129.287 Y101.165 E7.69238
G1 X129.98 Y101.797 E7.72201
G1 X130.616 Y102.485 E7.75162
G1 X131.192 Y103.226 E7.78127
G1 X131.703 Y104.012 E7.81089
G1 X132.144 Y104.84 E7.84054
G1 X132.602 Y105.943 E7.87827
G1 X132.817 Y106.551 E7.89865
G1 X133.722 Y108.998 E7.98109
G1 X134.823 Y111.755 E8.07489
G1 X135.133 Y112.64 E8.10452
G1 X135.367 Y113.548 E8.13415
G1 X135.486 Y114.203 E8.15518
G1 X135.648 Y115.295 E8.19006
G1 X135.735 Y115.963 E8.21135
G1 X135.814 Y116.63 E8.23257
G1 X135.884 Y117.565 E8.2622
G1 X135.875 Y118.503 E8.29184
G1 X135.819 Y119.173 E8.31308
G1 X135.689 Y120.298 E8.34886
G1 X135.604 Y120.936 E8.3692
G1 X135.506 Y121.61 E8.39072
G1 X135.331 Y122.531 E8.42034
G1 X135.079 Y123.435 E8.44999
G1 X134.856 Y124.055 E8.47081
G1 X134.458 Y125.062 E8.50503
G1 X134.196 Y125.692 E8.52659
G1 X133.918 Y126.338 E8.54881
G1 X133.511 Y127.183 E8.57844
G1 X133.033 Y127.99 E8.60808
G1 X132.654 Y128.537 E8.62911
G1 X132.021 Y129.389 E8.66264
G1 X131.571 Y129.975 E8.68599
G1 X131.165 Y130.488 E8.70666
G1 X130.552 Y131.198 E8.7363
G1 X129.881 Y131.854 E8.76595
G1 X129.409 Y132.253 E8.78548
G1 X128.513 Y132.967 E8.82168
G1 X127.957 Y133.392 E8.84379
G1 X127.411 Y133.797 E8.86527
G1 X126.635 Y134.323 E8.89489
G1 X125.817 Y134.781 E8.92451
G1 X125.257 Y135.044 E8.94406
G1 X124.207 Y135.5 E8.98023
G1 X123.637 Y135.736 E8.99973
G1 X122.968 Y136.002 E9.02248
G1 X122.083 Y136.311 E9.05209
G1 X121.174 Y136.543 E9.08174
G1 X120.534 Y136.659 E9.10229
G1 X119.47 Y136.816 E9.13627
G1 X118.751 Y136.911 E9.15919
G1 X118.084 Y136.989 E9.18041
G1 X117.148 Y137.058 E9.21006
G1 X116.211 Y137.047 E9.23967
G1 X115.573 Y136.994 E9.2599
G1 X114.452 Y136.865 E9.29555
G1 X113.831 Y136.782 E9.31535
G1 X113.143 Y136.683 E9.33731
G1 X112.222 Y136.51 E9.36692
G1 X111.318 Y136.259 E9.39657
G1 X110.68 Y136.03 E9.41798
G1 X109.589 Y135.598 E9.45506
G1 X109.045 Y135.372 E9.47367
G1 X108.403 Y135.096 E9.49575
G1 X107.558 Y134.689 E9.52539
G1 X106.751 Y134.212 E9.55501
G1 X106.206 Y133.833 E9.57598
G1 X105.314 Y133.171 E9.61108
G1 X104.787 Y132.765 E9.6321
G1 X104.261 Y132.351 E9.65325
G1 X103.549 Y131.74 E9.6829
G1 X102.892 Y131.071 E9.71253
G1 X102.449 Y130.547 E9.73421
G1 X101.787 Y129.71 E9.76793
G1 X101.339 Y129.124 E9.79123
G1 X100.943 Y128.591 E9.81221
G1 X100.417 Y127.815 E9.84184
G1 X99.958 Y126.997 E9.87147
G1 X99.686 Y126.418 E9.89169
G1 X99.233 Y125.374 E9.92764
G1 X98.994 Y124.796 E9.94741
G1 X98.737 Y124.151 E9.96935
G1 X98.428 Y123.265 E9.99899
G1 X98.194 Y122.357 E10.02862
G1 X98.078 Y121.715 E10.04924
G1 X97.915 Y120.618 E10.08428
G1 X97.826 Y119.927 E10.10629
G1 X97.749 Y119.274 E10.12707
G1 X97.679 Y118.339 E10.15669
G1 X97.689 Y117.401 E10.18633
G1 X97.744 Y116.737 E10.20739
G1 X97.875 Y115.61 E10.24324
G1 X97.965 Y114.931 E10.26488
G1 X98.058 Y114.294 E10.28522
G1 X98.233 Y113.372 E10.31487
G1 X98.486 Y112.469 E10.3445
G1 X98.709 Y111.851 E10.36526
G1 X99.248 Y110.483 E10.41172
G1 X99.963 Y108.689 E10.47274
G1 X100.996 Y105.849 E10.56823
G1 X101.353 Y104.982 E10.59786
G1 X101.784 Y104.149 E10.62749
G1 X102.284 Y103.355 E10.65714
G1 X102.849 Y102.607 E10.68676
G1 X103.477 Y101.91 E10.7164
G1 X104.161 Y101.269 E10.74602
G1 X104.897 Y100.688 E10.77565
G1 X105.681 Y100.172 E10.80531
G1 X106.505 Y99.725 E10.83493
G1 X107.365 Y99.35 E10.86457
G1 X108.253 Y99.049 E10.8942
G1 X109.164 Y98.825 E10.92384
G1 X110.09 Y98.679 E10.95346
G1 X111.129 Y98.611 E10.98636
G1 X111.882 Y98.597 E11.01016
G1 X112.221 Y98.596 E11.02087
G1 X112.888 Y98.605 E11.04195
G1 X115.522 Y98.68 E11.12521
G1 X118.021 Y98.68 E11.20417
G1 X119.661 Y98.629 E11.25601
G1 X121.551 Y98.596 E11.31574
G1 X121.902 Y98.595 E11.32683
G1 X122.387 Y98.602 E11.34216
G1 X122.524 Y98.61 E11.34649
G0 F1350 X123.323 Y98.656
G1 F1500 E5.34649
;MESH:hellokitty897cm_fixed.stl
G0 F7500 X121.82 Y108.926
G0 X121.82 Y110.005
G0 X121.236 Y112.043
;TYPE:WALL-INNER
G1 F1500 E11.34649
G1 X121.236 Y112.213 E11.35186
G1 X121.237 Y112.496 E11.36081
G1 X121.815 Y112.931 E11.38366
G1 X122.94 Y114.397 E11.44205
G1 X123.652 Y116.117 E11.50087
G1 X123.894 Y117.955 E11.55945
G1 X123.651 Y119.792 E11.618
G1 X122.937 Y121.518 E11.67702
G1 X121.815 Y122.98 E11.73525
G1 X120.339 Y124.113 E11.79404
G1 X118.619 Y124.825 E11.85286
G1 X116.782 Y125.067 E11.91141
G1 X114.942 Y124.826 E11.97004
G1 X113.224 Y124.114 E12.0288
G1 X111.752 Y122.985 E12.08742
G1 X110.623 Y121.513 E12.14603
G1 X109.911 Y119.793 E12.20485
G1 X109.669 Y117.955 E12.26343
G1 X109.912 Y116.118 E12.32198
G1 X110.626 Y114.392 E12.381
G1 X111.744 Y112.935 E12.43903
G1 X112.318 Y112.498 E12.46182
G1 X112.318 Y112.22 E12.47061
G1 X112.318 Y112.044 E12.47617
G1 X112.689 Y112.22 E12.48481
G1 X113.226 Y111.796 E12.50643
G1 X114.943 Y111.085 E12.56515
G1 X116.781 Y110.843 E12.62373
G1 X118.623 Y111.085 E12.68243
G1 X120.336 Y111.795 E12.74102
G1 X120.868 Y112.214 E12.76242
G1 X121.236 Y112.043 E12.77097
G0 F7500 X120.923 Y111.748
G1 F1500 X121.341 Y111.554 E12.78553
G1 X121.595 Y111.436 E12.79438
G1 X121.61 Y110.878 E12.81202
G1 X121.616 Y110.191 E12.83373
G1 X121.634 Y110.191 E12.83429
G1 X121.634 Y110.877 E12.83545
G1 X121.635 Y111.435 E12.83691
G1 X121.635 Y111.715 E12.8424
G1 X121.637 Y112.296 E12.86076
G1 X122.098 Y112.643 E12.87899
G1 X123.29 Y114.196 E12.94085
G1 X124.042 Y116.012 E13.00295
G1 X124.298 Y117.955 E13.06488
G1 X124.041 Y119.897 E13.12677
G1 X123.288 Y121.716 E13.18898
G1 X123.254 Y121.76 E13.19074
G1 X122.132 Y123.222 E13.24897
G1 X122.098 Y123.267 E13.25075
G1 X120.54 Y124.463 E13.31281
G1 X118.724 Y125.215 E13.37491
G1 X116.782 Y125.471 E13.43681
G1 X114.838 Y125.216 E13.49876
G1 X113.023 Y124.464 E13.56083
G1 X111.467 Y123.27 E13.62281
G1 X110.273 Y121.714 E13.68478
G1 X109.521 Y119.898 E13.74688
G1 X109.265 Y117.955 E13.80881
G1 X109.522 Y116.013 E13.8707
G1 X110.275 Y114.194 E13.93291
G1 X110.309 Y114.15 E13.93467
G1 X111.427 Y112.693 E13.9927
G1 X111.462 Y112.647 E13.99452
G1 X111.477 Y112.636 E13.99511
G1 X111.918 Y112.3 E14.01263
G1 X111.919 Y111.775 E14.02922
G1 X111.919 Y111.583 E14.03528
G1 X111.919 Y111.431 E14.04009
G1 X111.926 Y110.191 E14.07927
G1 X111.948 Y110.191 E14.07996
G1 X111.961 Y111.431 E14.0831
G1 X111.985 Y111.442
G1 X112.158 Y111.524 E14.08758
G1 X112.636 Y111.752 E14.10432
G1 X113.022 Y111.447 E14.11986
G1 X114.838 Y110.695 E14.18197
G1 X116.781 Y110.439 E14.24389
G1 X118.728 Y110.695 E14.30594
G1 X120.387 Y111.383 E14.36269
G0 F1350 X120.54 Y111.446
G0 X120.923 Y111.748
G1 F1500 E8.36269
G0 F7500 X121.381 Y111.37
G0 X121.764 Y110.061
G0 X122.034 Y109.791
;TYPE:WALL-OUTER
G1 F1500 E14.36269
G1 X122.037 Y112.096 E14.43188
G1 X122.381 Y112.355 E14.4448
G1 X123.64 Y113.995 E14.50687
G1 X124.432 Y115.907 E14.56899
G1 X124.702 Y117.955 E14.631
G1 X124.431 Y120.002 E14.69298
G1 X123.639 Y121.914 E14.7551
G1 X122.381 Y123.554 E14.81714
G1 X120.741 Y124.813 E14.8792
G1 X118.829 Y125.605 E14.94133
G1 X116.782 Y125.875 E15.0033
G1 X114.734 Y125.606 E15.06531
G1 X112.822 Y124.814 E15.12743
G1 X111.182 Y123.555 E15.18949
G1 X109.923 Y121.915 E15.25155
G1 X109.131 Y120.003 E15.31367
G1 X108.861 Y117.955 E15.37568
G1 X109.132 Y115.908 E15.43766
G1 X109.924 Y113.996 E15.49979
G1 X111.182 Y112.356 E15.56183
G1 X111.239 Y112.315 E15.56394
G1 X111.518 Y112.102 E15.57447
G1 X111.519 Y111.581 E15.59011
G1 X111.528 Y109.791 E15.64384
