;FLAVOR:Marlin
;TIME:683
;Filament used: 0.201613m
;Layer height: 0.12
;MINX:92.672
;MINY:84.879
;MINZ:0.12
;MAXX:127.448
;MAXY:135.199
;MAXZ:2.52
;Generated with Cura_SteamEngine 4.7.0
M140 S60
M105
M190 S60
M104 S200
M105
M109 S200
M82 ;absolute extrusion mode
; Ender 3 Custom Start G-code
G92 E0 ; Reset Extruder
G28 ; Home all axes
G1 Z2.0 F3000 ; Move Z Axis up little to prevent scratching of Heat Bed
G1 X0.1 Y20 Z0.3 F5000.0 ; Move to start position
G1 X0.1 Y200.0 Z0.3 F1500.0 E15 ; Draw the first line
G1 X0.4 Y200.0 Z0.3 F5000.0 ; Move to side a little
G1 X0.4 Y20 Z0.3 F1500.0 E30 ; Draw the second line
G92 E0 ; Reset Extruder
G1 Z2.0 F3000 ; Move Z Axis up little to prevent scratching of Heat Bed
G1 X5 Y20 Z0.3 F5000.0 ; Move over to prevent blob squish
G92 E0
G92 E0
G1 F1500 E-6.5
;LAYER_COUNT:21
;LAYER:0
M107
M204 S500
M205 X8 Y8
G0 F6000 X101.579 Y88.842 Z0.12
;TYPE:SKIRT
G1 F1500 E0
G1 F1200 X102.217 Y88.155 E0.01871
G1 X102.911 Y87.524 E0.03743
G1 X103.657 Y86.955 E0.05615
G1 X104.448 Y86.452 E0.07486
G1 X105.279 Y86.017 E0.09358
G1 X106.144 Y85.655 E0.11229
G1 X107.037 Y85.368 E0.13101
G1 X107.951 Y85.159 E0.14972
G1 X108.88 Y85.027 E0.16844
G1 X109.456 Y84.986 E0.17997
G1 X110.318 Y84.948 E0.19719
G1 X111.598 Y84.908 E0.22274
G1 X111.842 Y84.897 E0.22762
G1 X112.355 Y84.879 E0.23786
G1 X113.293 Y84.886 E0.25658
G1 X114.227 Y84.973 E0.2753
G1 X115.15 Y85.139 E0.29401
G1 X116.055 Y85.383 E0.31272
G1 X116.937 Y85.704 E0.33145
G1 X117.788 Y86.098 E0.35016
G1 X118.602 Y86.564 E0.36888
G1 X119.374 Y87.097 E0.3876
G1 X120.097 Y87.694 E0.40632
G1 X120.767 Y88.35 E0.42503
G1 X121.379 Y89.061 E0.44375
G1 X121.927 Y89.821 E0.46245
G1 X122.409 Y90.626 E0.48117
G1 X122.821 Y91.469 E0.4999
G1 X123.119 Y92.229 E0.51619
G1 X124.026 Y94.727 E0.56922
G1 X124.968 Y97.112 E0.62039
G1 X125.955 Y99.418 E0.67045
G1 X126.224 Y100.004 E0.68332
G1 X126.31 Y100.196 E0.68752
G1 X126.529 Y100.698 E0.69845
G1 X126.867 Y101.572 E0.71715
G1 X127.13 Y102.473 E0.73588
G1 X127.314 Y103.392 E0.75458
G1 X127.42 Y104.324 E0.7733
G1 X127.447 Y105.011 E0.78702
G1 X127.448 Y105.14 E0.7896
G1 X127.44 Y105.636 E0.79949
G1 X127.42 Y106.164 E0.81004
G1 X127.347 Y107.656 E0.83985
G1 X127.292 Y108.54 E0.85752
G1 X127.193 Y109.472 E0.87623
G1 X127.085 Y110.08 E0.88855
G1 X126.886 Y111.038 E0.90808
G1 X126.522 Y112.721 E0.94244
G1 X126.065 Y115.164 E0.99204
G1 X125.666 Y117.691 E1.04309
G1 X125.344 Y120.189 E1.09336
G1 X125.093 Y122.697 E1.14366
G1 X124.924 Y124.994 E1.18962
G1 X124.816 Y125.926 E1.20834
G1 X124.628 Y126.845 E1.22706
G1 X124.363 Y127.744 E1.24576
G1 X124.022 Y128.618 E1.26449
G1 X123.608 Y129.46 E1.28321
G1 X123.124 Y130.263 E1.30192
G1 X122.573 Y131.022 E1.32064
G1 X121.959 Y131.731 E1.33936
G1 X121.288 Y132.386 E1.35807
G1 X120.563 Y132.981 E1.37679
G1 X119.789 Y133.512 E1.39552
G1 X118.974 Y133.975 E1.41422
G1 X118.122 Y134.367 E1.43294
G1 X117.24 Y134.685 E1.45165
G1 X116.333 Y134.927 E1.47038
G1 X115.41 Y135.09 E1.48909
G1 X114.686 Y135.163 E1.50361
G1 X114.626 Y135.167 E1.50481
G1 X114.046 Y135.19 E1.51639
G1 X113.756 Y135.194 E1.52218
G1 X113.445 Y135.194 E1.52839
G1 X111.988 Y135.173 E1.55746
G1 X111.236 Y135.152 E1.57248
G1 X108.666 Y135.15 E1.62376
G1 X107.173 Y135.184 E1.65357
G1 X106.915 Y135.192 E1.65872
G1 X106.675 Y135.197 E1.66351
G1 X106.457 Y135.199 E1.66786
G1 X106.183 Y135.198 E1.67333
G1 X105.484 Y135.187 E1.68728
G1 X104.548 Y135.132 E1.70599
G1 X103.619 Y134.998 E1.72472
G1 X102.706 Y134.785 E1.74343
G1 X101.814 Y134.495 E1.76215
G1 X100.95 Y134.13 E1.78086
G1 X100.12 Y133.693 E1.79958
G1 X99.331 Y133.187 E1.81829
G1 X98.587 Y132.615 E1.83702
G1 X97.895 Y131.982 E1.85573
G1 X97.259 Y131.293 E1.87444
G1 X96.685 Y130.552 E1.89315
G1 X96.175 Y129.764 E1.91188
G1 X95.735 Y128.936 E1.93059
G1 X95.366 Y128.074 E1.94931
G1 X95.012 Y126.962 E1.97259
G1 X94.937 Y126.667 E1.97867
G1 X94.371 Y124.362 E2.02603
G1 X93.694 Y121.908 E2.07684
G1 X93.389 Y120.911 E2.09764
G1 X93.107 Y119.943 E2.11776
G1 X92.883 Y119.032 E2.13648
G1 X92.738 Y118.105 E2.15521
G1 X92.672 Y117.17 E2.17391
G1 X92.686 Y116.232 E2.19263
G1 X92.822 Y115.033 E2.21671
G1 X93.041 Y113.738 E2.24292
G1 X93.432 Y111.21 E2.29397
G1 X93.743 Y108.739 E2.34367
G1 X94.084 Y105 E2.4186
G1 X94.122 Y104.646 E2.4257
G1 X94.164 Y104.307 E2.43252
G1 X94.377 Y103.123 E2.45653
G1 X94.667 Y101.903 E2.48155
G1 X94.793 Y101.403 E2.49184
G1 X94.997 Y100.636 E2.50768
G1 X95.283 Y99.725 E2.52674
G1 X95.573 Y98.925 E2.54372
G1 X95.661 Y98.69 E2.54873
G1 X95.94 Y97.961 E2.5643
G1 X96.174 Y97.37 E2.57699
G1 X96.557 Y96.513 E2.59572
G1 X97.068 Y95.488 E2.61858
G1 X97.327 Y94.985 E2.62987
G1 X97.728 Y94.229 E2.64694
G1 X98.182 Y93.451 E2.66492
G1 X98.605 Y92.793 E2.68053
G1 X99.13 Y92.001 E2.69949
G1 X99.615 Y91.29 E2.71667
G1 X99.965 Y90.807 E2.72857
G1 X100.086 Y90.649 E2.73254
G1 X100.271 Y90.414 E2.73851
G1 X100.592 Y90.019 E2.74867
G1 X101.148 Y89.348 E2.76606
G1 X101.579 Y88.842 E2.77932
G0 F6000 X101.884 Y89.102
G1 F1200 X102.51 Y88.427 E2.7977
G1 X103.193 Y87.81 E2.81606
G1 X103.927 Y87.254 E2.83444
G1 X104.707 Y86.764 E2.85282
G1 X105.526 Y86.344 E2.87119
G1 X106.378 Y85.996 E2.88956
G1 X107.258 Y85.723 E2.90794
G1 X108.157 Y85.528 E2.9263
G1 X109.474 Y85.386 E2.95274
G1 X110.33 Y85.348 E2.96983
G1 X111.594 Y85.309 E2.99507
G1 X111.856 Y85.297 E3.0003
G1 X112.369 Y85.279 E3.01055
G1 X113.29 Y85.286 E3.02893
G1 X114.206 Y85.374 E3.04729
G1 X115.112 Y85.541 E3.06568
G1 X115.999 Y85.785 E3.08404
G1 X116.862 Y86.106 E3.10241
G1 X117.694 Y86.5 E3.12078
G1 X118.489 Y86.966 E3.13917
G1 X119.24 Y87.498 E3.15754
G1 X119.942 Y88.093 E3.1759
G1 X120.59 Y88.748 E3.19429
G1 X121.178 Y89.456 E3.21266
G1 X121.703 Y90.212 E3.23102
G1 X122.161 Y91.011 E3.2494
G1 X122.547 Y91.847 E3.26778
G1 X122.76 Y92.411 E3.27981
G1 X123.649 Y94.863 E3.33186
G1 X124.592 Y97.25 E3.38308
G1 X125.59 Y99.581 E3.43368
G1 X125.861 Y100.171 E3.44663
G1 X125.944 Y100.355 E3.45066
G1 X126.163 Y100.857 E3.46159
G1 X126.494 Y101.717 E3.47998
G1 X126.749 Y102.601 E3.49834
G1 X126.927 Y103.504 E3.51671
G1 X127.025 Y104.42 E3.53509
G1 X127.047 Y105.014 E3.54696
G1 X127.048 Y105.143 E3.54953
G1 X127.041 Y105.621 E3.55907
G1 X127.026 Y106.022 E3.56708
G1 X126.939 Y107.785 E3.6023
G1 X126.893 Y108.515 E3.6169
G1 X126.795 Y109.43 E3.63526
G1 X126.694 Y109.998 E3.64678
G1 X126.515 Y110.862 E3.66439
G1 X126.13 Y112.638 E3.70065
G1 X125.663 Y115.135 E3.75134
G1 X125.272 Y117.614 E3.80143
G1 X124.948 Y120.131 E3.85207
G1 X124.694 Y122.668 E3.90295
G1 X124.525 Y124.965 E3.94892
G1 X124.418 Y125.879 E3.96728
G1 X124.232 Y126.781 E3.98566
G1 X123.968 Y127.663 E4.00403
G1 X123.628 Y128.519 E4.02241
G1 X123.216 Y129.342 E4.04078
G1 X122.734 Y130.126 E4.05915
G1 X122.185 Y130.866 E4.07753
G1 X121.575 Y131.555 E4.0959
G1 X120.907 Y132.188 E4.11426
G1 X120.186 Y132.761 E4.13264
G1 X119.419 Y133.27 E4.15101
G1 X118.61 Y133.71 E4.16939
G1 X117.766 Y134.078 E4.18776
G1 X116.894 Y134.371 E4.20612
G1 X115.999 Y134.588 E4.2245
G1 X114.659 Y134.764 E4.25147
G1 X114.599 Y134.768 E4.25267
G1 X114.04 Y134.79 E4.26383
G1 X113.75 Y134.794 E4.26962
G1 X113.451 Y134.794 E4.27559
G1 X111.842 Y134.77 E4.3077
G1 X111.212 Y134.752 E4.32028
G1 X108.657 Y134.75 E4.37127
G1 X107.161 Y134.784 E4.40113
G1 X106.903 Y134.792 E4.40628
G1 X106.671 Y134.797 E4.41091
G1 X106.453 Y134.799 E4.41526
G1 X106.189 Y134.798 E4.42053
G1 X105.49 Y134.787 E4.43448
G1 X104.571 Y134.732 E4.45285
G1 X103.66 Y134.598 E4.47123
G1 X102.765 Y134.386 E4.48958
G1 X101.891 Y134.096 E4.50796
G1 X101.045 Y133.732 E4.52634
G1 X100.234 Y133.296 E4.54472
G1 X99.464 Y132.791 E4.56309
G1 X98.741 Y132.221 E4.58146
G1 X98.07 Y131.591 E4.59983
G1 X97.457 Y130.905 E4.61819
G1 X96.905 Y130.168 E4.63657
G1 X96.419 Y129.386 E4.65494
G1 X96.003 Y128.564 E4.67333
G1 X95.659 Y127.71 E4.6917
G1 X95.399 Y126.861 E4.70942
G1 X95.325 Y126.572 E4.71537
G1 X94.749 Y124.224 E4.76362
G1 X94.08 Y121.798 E4.81384
G1 X93.773 Y120.799 E4.83469
G1 X93.491 Y119.831 E4.85482
G1 X93.272 Y118.937 E4.87318
G1 X93.132 Y118.027 E4.89156
G1 X93.071 Y117.108 E4.90994
G1 X93.09 Y116.188 E4.9283
G1 X93.216 Y115.1 E4.95016
G1 X93.436 Y113.8 E4.97647
G1 X93.831 Y111.25 E5.02796
G1 X94.143 Y108.768 E5.07789
G1 X94.483 Y105.036 E5.15267
G1 X94.519 Y104.695 E5.15951
G1 X94.561 Y104.356 E5.16633
G1 X94.766 Y103.216 E5.18944
G1 X95.019 Y102.148 E5.21135
G1 X95.181 Y101.501 E5.22466
G1 X95.383 Y100.739 E5.24039
G1 X95.659 Y99.861 E5.25876
G1 X95.947 Y99.065 E5.27565
G1 X96.312 Y98.108 E5.29609
G1 X96.546 Y97.517 E5.30877
G1 X96.915 Y96.691 E5.32683
G1 X97.424 Y95.671 E5.34958
G1 X97.744 Y95.052 E5.36348
G1 X98.081 Y94.417 E5.37783
G1 X98.519 Y93.667 E5.39516
G1 X98.849 Y93.152 E5.40737
G1 X98.939 Y93.014 E5.41066
G1 X99.464 Y92.222 E5.42962
G1 X99.946 Y91.515 E5.44669
G1 X100.282 Y91.05 E5.45814
G1 X100.403 Y90.892 E5.46211
G1 X100.581 Y90.666 E5.46785
G1 X100.828 Y90.361 E5.47569
G1 X101.356 Y89.723 E5.49221
G1 X101.884 Y89.102 E5.50848
G0 F6000 X102.188 Y89.361
G1 F1200 X102.804 Y88.7 E5.52651
G1 X103.475 Y88.096 E5.54453
G1 X104.197 Y87.554 E5.56254
G1 X104.965 Y87.078 E5.58057
G1 X105.771 Y86.672 E5.59858
G1 X106.611 Y86.338 E5.61662
G1 X107.476 Y86.08 E5.63464
G1 X108.361 Y85.9 E5.65266
G1 X109.492 Y85.785 E5.67535
G1 X110.2 Y85.753 E5.68949
G1 X111.644 Y85.707 E5.71832
G1 X111.87 Y85.696 E5.72284
G1 X112.383 Y85.678 E5.73308
G1 X113.286 Y85.687 E5.7511
G1 X114.185 Y85.775 E5.76913
G1 X115.073 Y85.942 E5.78716
G1 X115.942 Y86.187 E5.80518
G1 X116.786 Y86.508 E5.8232
G1 X117.598 Y86.903 E5.84122
G1 X118.373 Y87.368 E5.85925
G1 X119.103 Y87.899 E5.87727
G1 X119.783 Y88.493 E5.89529
G1 X120.408 Y89.145 E5.91331
G1 X120.973 Y89.849 E5.93132
G1 X121.474 Y90.601 E5.94936
G1 X121.906 Y91.394 E5.96738
G1 X122.367 Y92.502 E5.99133
G1 X123.277 Y95.009 E6.04455
G1 X124.224 Y97.406 E6.09598
G1 X125.23 Y99.757 E6.14702
G1 X125.577 Y100.515 E6.16365
G1 X125.796 Y101.017 E6.17458
G1 X126.12 Y101.86 E6.1926
G1 X126.368 Y102.729 E6.21064
G1 X126.539 Y103.616 E6.22867
G1 X126.63 Y104.514 E6.24668
G1 X126.647 Y105.017 E6.25672
G1 X126.648 Y105.146 E6.2593
G1 X126.641 Y105.606 E6.26848
G1 X126.621 Y106.124 E6.27882
G1 X126.54 Y107.759 E6.31149
G1 X126.494 Y108.489 E6.32609
G1 X126.397 Y109.387 E6.34411
G1 X126.302 Y109.917 E6.35486
G1 X126.104 Y110.869 E6.37426
G1 X125.738 Y112.559 E6.40877
G1 X125.27 Y115.064 E6.45962
G1 X124.879 Y117.543 E6.50971
G1 X124.549 Y120.107 E6.5613
G1 X124.295 Y122.635 E6.612
G1 X124.126 Y124.936 E6.65804
G1 X124.02 Y125.832 E6.67605
G1 X123.835 Y126.716 E6.69407
G1 X123.573 Y127.581 E6.71211
G1 X123.235 Y128.418 E6.73012
G1 X122.824 Y129.222 E6.74814
G1 X122.344 Y129.987 E6.76616
G1 X121.798 Y130.707 E6.7842
G1 X121.191 Y131.375 E6.80221
G1 X120.527 Y131.987 E6.82023
G1 X119.811 Y132.538 E6.83826
G1 X119.049 Y133.023 E6.85628
G1 X118.248 Y133.439 E6.8743
G1 X117.413 Y133.783 E6.89232
G1 X116.55 Y134.051 E6.91035
G1 X115.668 Y134.242 E6.92836
G1 X114.632 Y134.364 E6.94918
G1 X114.572 Y134.368 E6.95038
G1 X114.035 Y134.39 E6.9611
G1 X113.745 Y134.394 E6.96689
G1 X113.457 Y134.394 E6.97264
G1 X111.854 Y134.37 E7.00463
G1 X111.224 Y134.352 E7.01721
G1 X108.648 Y134.35 E7.06862
G1 X107.139 Y134.384 E7.09874
G1 X106.89 Y134.392 E7.10371
G1 X106.668 Y134.397 E7.10814
G1 X106.45 Y134.399 E7.11249
G1 X106.196 Y134.398 E7.11756
G1 X105.497 Y134.387 E7.13151
G1 X104.595 Y134.333 E7.14954
G1 X103.702 Y134.199 E7.16756
G1 X102.824 Y133.987 E7.18559
G1 X101.968 Y133.698 E7.20362
G1 X101.142 Y133.334 E7.22163
G1 X100.35 Y132.899 E7.23966
G1 X99.601 Y132.395 E7.25768
G1 X98.898 Y131.828 E7.2757
G1 X98.249 Y131.2 E7.29373
G1 X97.658 Y130.517 E7.31175
G1 X97.13 Y129.785 E7.32976
G1 X96.668 Y129.008 E7.3478
G1 X96.277 Y128.194 E7.36582
G1 X95.959 Y127.349 E7.38384
G1 X95.787 Y126.76 E7.39608
G1 X95.714 Y126.477 E7.40192
G1 X95.146 Y124.16 E7.44952
G1 X94.459 Y121.67 E7.50107
G1 X94.157 Y120.687 E7.52159
G1 X93.875 Y119.719 E7.54171
G1 X93.661 Y118.841 E7.55975
G1 X93.526 Y117.949 E7.57775
G1 X93.47 Y117.047 E7.59579
G1 X93.494 Y116.144 E7.61381
G1 X93.611 Y115.166 E7.63347
G1 X93.821 Y113.921 E7.65867
G1 X94.229 Y111.29 E7.7118
G1 X94.539 Y108.826 E7.76136
G1 X94.881 Y105.072 E7.83658
G1 X94.916 Y104.744 E7.84317
G1 X94.958 Y104.405 E7.84998
G1 X95.156 Y103.308 E7.87223
G1 X95.443 Y102.099 E7.89703
G1 X95.604 Y101.465 E7.91008
G1 X95.77 Y100.842 E7.92295
G1 X96.035 Y99.997 E7.94062
G1 X96.322 Y99.205 E7.95743
G1 X96.408 Y98.975 E7.96233
G1 X96.684 Y98.255 E7.97772
G1 X96.918 Y97.664 E7.9904
G1 X97.273 Y96.87 E8.00776
G1 X97.78 Y95.855 E8.0304
G1 X98.097 Y95.239 E8.04423
G1 X98.434 Y94.604 E8.05857
G1 X98.856 Y93.883 E8.07524
G1 X99.272 Y93.235 E8.09061
G1 X99.797 Y92.443 E8.10957
G1 X100.276 Y91.741 E8.12653
G1 X100.6 Y91.293 E8.13757
G1 X100.721 Y91.135 E8.14154
G1 X100.892 Y90.918 E8.14705
G1 X101.208 Y90.529 E8.15705
G1 X101.757 Y89.867 E8.17422
G1 X102.188 Y89.361 E8.18748
G1 F1500 E1.68748
;MESH:fish.stl
G0 F6000 X105.973 Y100.772
G0 X106.79 Y101.552
G0 X106.338 Y105.454
G0 X109.192 Y106.212
G0 X109.192 Y111.474
G0 X106.217 Y112.231
G0 X105.45 Y114.938
G0 X109.353 Y119.329
;TYPE:WALL-INNER
G1 F1500 E8.18748
G1 F1200 X109.333 Y119.304 E8.18812
G1 X109.304 Y119.268 E8.18904
G1 X109.204 Y119.144 E8.19222
G1 X108.06 Y117.733 E8.22847
G1 X107.473 Y116.481 E8.25607
G1 X107.377 Y116.389 E8.25872
G1 X106.139 Y114.978 E8.29618
G1 X105.506 Y115.121 E8.30913
G1 X105.179 Y115.194 E8.31582
G1 X105.271 Y114.871 E8.31964
G1 X105.661 Y113.516 E8.34777
G1 X106.153 Y113.365 E8.35805
G1 X106.035 Y112.266 E8.3801
G1 X106.012 Y112.047 E8.3845
G1 X106.232 Y112.047 E8.38726
G1 X106.233 Y112.047 E8.38728
G1 X109.764 Y112.046 E8.45774
G1 X109.764 Y105.64 E8.58558
G1 X106.355 Y105.64 E8.65361
G1 X106.354 Y105.64 E8.65363
G1 X106.099 Y105.64 E8.65872
G1 X106.161 Y105.392 E8.66181
G1 X106.578 Y103.747 E8.69568
G1 X107.321 Y101.787 E8.73751
G1 X107.449 Y101.537 E8.74311
G1 X108.299 Y99.887 E8.78015
G1 X109.497 Y98.078 E8.82345
G1 X110.021 Y97.445 E8.83985
G1 X110.053 Y97.477 E8.84075
G1 X112.04 Y97.042 E8.88134
G1 X112.273 Y97.867 E8.89845
G1 X112.687 Y99.839 E8.93866
G1 X112.975 Y101.885 E8.9799
G1 X113.126 Y103.993 E9.02207
G1 X113.174 Y104.766 E9.03753
G1 X115.425 Y105.741 E9.08648
G1 X115.329 Y107.714 E9.1259
G1 X115.13 Y108.541 E9.14287
G1 X114.294 Y112.05 E9.21486
G1 X114.242 Y112.271 E9.21939
G1 X114.03 Y112.189 E9.22222
G1 X112.679 Y111.666 E9.25113
G1 X112.48 Y111.589 E9.25539
G1 X112.418 Y111.793 E9.25808
G1 X112.125 Y112.742 E9.2779
G1 X111.783 Y113.896 E9.30192
G1 X111.101 Y115.741 E9.34118
G1 X110.286 Y117.561 E9.38097
G1 X109.524 Y119.008 E9.41361
G1 X109.45 Y119.149 E9.41608
G1 X109.391 Y119.256 E9.41754
G1 X109.353 Y119.329 E9.41826
G0 F6000 X109.527 Y119.931
G0 X110.863 Y122.313
G1 F1200 X110.097 Y122.038 E9.4345
G1 X110.095 Y122.037 E9.43454
G1 X109.647 Y121.875 E9.44405
G1 X108.597 Y122.335 E9.46693
G1 X107.955 Y122.616 E9.48091
G1 X108.353 Y122.039 E9.48817
G1 X109.177 Y120.845 E9.51712
G1 X109.178 Y120.844 E9.51715
G1 X109.318 Y120.64 E9.52208
G1 X109.486 Y120.822 E9.52509
G1 X110.31 Y121.714 E9.54932
G1 X110.311 Y121.715 E9.54935
G1 X110.863 Y122.313 E9.5577
G0 F6000 X112.266 Y123.244
G1 F1200 X111.499 Y122.968 E9.57397
G1 X109.661 Y122.305 E9.61296
G1 X108.116 Y122.981 E9.64662
G1 X106.828 Y123.545 E9.67468
G1 X109.258 Y120.024 E9.76005
G1 X109.324 Y119.928 E9.76238
G1 X109.323 Y119.927 E9.7624
G1 X107.719 Y117.948 E9.81324
G1 X107.143 Y116.719 E9.84033
G1 X107.088 Y116.667 E9.84184
G1 X105.995 Y115.42 E9.87493
G1 X105.3 Y115.576 E9.88914
G1 X105.037 Y116.495 E9.90822
G1 X104.637 Y116.426 E9.91632
G1 X104.419 Y116.389 E9.92073
G1 X104.48 Y116.176 E9.92351
G1 X105.337 Y113.198 E9.98535
G1 X105.543 Y113.135 E9.98965
G1 X105.72 Y113.08 E9.99335
G1 X105.589 Y111.867 E10.01769
G1 X105.566 Y111.647 E10.02211
G1 X105.787 Y111.647 E10.02488
G1 X105.788 Y111.647 E10.0249
G1 X109.364 Y111.646 E10.09626
G1 X109.364 Y106.04 E10.20814
G1 X105.705 Y106.04 E10.28116
G1 X105.673 Y106.04 E10.2818
G1 X105.635 Y106.04 E10.28255
G1 X105.635 Y105.985 E10.28317
G1 X105.673 Y105.692 E10.28758
G1 X105.68 Y105.661 E10.28818
