;FLAVOR:Marlin
;TIME:5061
;Filament used: 3.44533m
;Layer height: 0.2
;MINX:2.553
;MINY:24.235
;MINZ:0.2
;MAXX:232.444
;MAXY:210.775
;MAXZ:5.4
;Generated with Cura_SteamEngine 4.6.2
M140 S60
M105
M190 S60
M104 S200
M105
M109 S200
M82 ;absolute extrusion mode
; Ender 3 Custom Start G-code
G92 E0 ; Reset Extruder
G28 ; Home all axes
G1 Z2.0 F3000 ; Move Z Axis up little to prevent scratching of Heat Bed
G1 X0.1 Y20 Z0.3 F5000.0 ; Move to start position
G1 X0.1 Y200.0 Z0.3 F1500.0 E15 ; Draw the first line
G1 X0.4 Y200.0 Z0.3 F5000.0 ; Move to side a little
G1 X0.4 Y20 Z0.3 F1500.0 E30 ; Draw the second line
G92 E0 ; Reset Extruder
G1 Z2.0 F3000 ; Move Z Axis up little to prevent scratching of Heat Bed
G1 X5 Y20 Z0.3 F5000.0 ; Move over to prevent blob squish
G92 E0
G92 E0
G1 F1500 E-6
;LAYER_COUNT:27
;LAYER:0
M107
M204 S500
M205 X8 Y8
G0 F7500 X136.431 Y29.478 Z0.2
;TYPE:SKIRT
G1 F1500 E0
G1 X138.392 Y29.343 E0.06211
G1 X140.766 Y29.156 E0.13735
G1 X142.663 Y28.987 E0.19753
G1 X145.224 Y28.735 E0.27884
G1 X146.937 Y28.551 E0.33328
G1 X149.525 Y28.246 E0.41562
G1 X151.361 Y28.01 E0.47411
G1 X153.849 Y27.666 E0.55347
G1 X155.619 Y27.404 E0.61
G1 X158.186 Y26.998 E0.69212
G1 X159.971 Y26.698 E0.74931
G1 X162.549 Y26.238 E0.83206
G1 X164.35 Y25.898 E0.88997
G1 X167.247 Y25.323 E0.98329
G1 X167.905 Y25.202 E1.00443
G1 X168.8 Y25.078 E1.03298
G1 X169.702 Y25.034 E1.06152
G1 X170.604 Y25.07 E1.09004
G1 X171.5 Y25.185 E1.11858
G1 X172.382 Y25.379 E1.14712
G1 X173.243 Y25.651 E1.17565
G1 X174.077 Y25.997 E1.20418
G1 X174.877 Y26.416 E1.23271
G1 X175.637 Y26.904 E1.26125
G1 X176.351 Y27.458 E1.28981
G1 X177.013 Y28.072 E1.31834
G1 X177.618 Y28.743 E1.34688
G1 X178.161 Y29.464 E1.3754
G1 X178.639 Y30.231 E1.40396
G1 X179.046 Y31.036 E1.43246
G1 X179.316 Y31.694 E1.45493
G1 X180.26 Y34.246 E1.54091
G1 X181.2 Y36.592 E1.62076
G1 X182.197 Y38.886 E1.6998
G1 X183.281 Y41.205 E1.78068
G1 X184.441 Y43.51 E1.86222
G1 X185.636 Y45.727 E1.9418
G1 X186.899 Y47.92 E2.02176
G1 X188.245 Y50.111 E2.10301
G1 X189.612 Y52.203 E2.18197
G1 X191.079 Y54.31 E2.26309
G1 X192.58 Y56.345 E2.34299
G1 X194.154 Y58.355 E2.42366
G1 X195.76 Y60.292 E2.50316
G1 X197.45 Y62.216 E2.58408
G1 X199.18 Y64.078 E2.66439
G1 X200.943 Y65.87 E2.74382
G1 X202.789 Y67.642 E2.82467
G1 X204.681 Y69.359 E2.9054
G1 X206.585 Y70.992 E2.98465
G1 X208.573 Y72.6 E3.06544
G1 X210.587 Y74.137 E3.1455
G1 X212.65 Y75.624 E3.22585
G1 X214.768 Y77.059 E3.30669
G1 X216.883 Y78.406 E3.38592
G1 X219.077 Y79.718 E3.46669
G1 X221.284 Y80.955 E3.54663
G1 X223.568 Y82.151 E3.62809
G1 X225.237 Y82.974 E3.68689
G1 X225.863 Y83.275 E3.70884
G1 X226.659 Y83.701 E3.73737
G1 X227.414 Y84.197 E3.76591
G1 X228.122 Y84.757 E3.79443
G1 X228.778 Y85.378 E3.82298
G1 X229.376 Y86.055 E3.85152
G1 X229.913 Y86.781 E3.88005
G1 X230.382 Y87.553 E3.90859
G1 X230.782 Y88.362 E3.93711
G1 X231.109 Y89.204 E3.96565
G1 X231.36 Y90.072 E3.9942
G1 X231.533 Y90.958 E4.02272
G1 X231.627 Y91.857 E4.05128
G1 X231.641 Y92.76 E4.07982
G1 X231.575 Y93.66 E4.10833
G1 X231.361 Y94.859 E4.14682
G1 X231.131 Y95.806 E4.17761
G1 X228.824 Y104.737 E4.46906
G1 X228.642 Y105.401 E4.49082
G1 X228.377 Y106.228 E4.51826
G1 X228.001 Y107.239 E4.55234
G1 X227.602 Y108.223 E4.58589
G1 X227.503 Y108.451 E4.59375
G1 X227.377 Y108.728 E4.60336
G1 X227.062 Y109.396 E4.6267
G1 X226.717 Y110.097 E4.65138
G1 X226.471 Y110.57 E4.66823
G1 X226.345 Y110.8 E4.67652
G1 X225.932 Y111.526 E4.70291
G1 X225.453 Y112.328 E4.73242
G1 X225.177 Y112.764 E4.74873
G1 X224.768 Y113.375 E4.77196
G1 X224.331 Y114.007 E4.79624
G1 X224.006 Y114.455 E4.81373
G1 X223.829 Y114.688 E4.82297
G1 X223.359 Y115.286 E4.847
G1 X222.942 Y115.803 E4.86799
G1 X222.596 Y116.213 E4.88494
G1 X222.416 Y116.417 E4.89354
G1 X221.884 Y117.001 E4.9185
G1 X221.384 Y117.533 E4.94157
G1 X220.768 Y118.151 E4.96914
G1 X220.269 Y118.621 E4.9908
G1 X219.492 Y119.327 E5.02397
G1 X219.064 Y119.69 E5.0417
G1 X218.53 Y120.125 E5.06347
G1 X217.939 Y120.591 E5.08725
G1 X217.511 Y120.913 E5.10417
G1 X217.3 Y121.065 E5.11239
G1 X216.702 Y121.483 E5.13544
G1 X215.647 Y122.183 E5.17545
G1 X215.364 Y122.357 E5.18594
G1 X214.688 Y122.756 E5.21075
G1 X213.894 Y123.204 E5.23955
G1 X213.005 Y123.676 E5.27136
G1 X206.969 Y126.762 E5.48556
G1 X204.862 Y127.781 E5.55951
G1 X198.091 Y130.89 E5.79493
G1 X195.984 Y131.802 E5.86747
G1 X189.078 Y134.628 E6.10325
G1 X186.917 Y135.458 E6.17639
G1 X186.516 Y135.603 E6.18986
G1 X184.066 Y136.527 E6.2726
G1 X181.724 Y137.487 E6.35258
G1 X179.41 Y138.513 E6.43256
G1 X177.112 Y139.61 E6.51302
G1 X174.826 Y140.782 E6.59419
G1 X172.63 Y141.987 E6.67333
G1 X170.428 Y143.279 E6.754
G1 X168.266 Y144.63 E6.83456
G1 X166.181 Y146.017 E6.91368
G1 X164.054 Y147.52 E6.99597
G1 X162.068 Y149.009 E7.0744
G1 X160.064 Y150.603 E7.15531
G1 X158.115 Y152.245 E7.23584
G1 X156.244 Y153.914 E7.31506
G1 X154.38 Y155.673 E7.39604
G1 X152.575 Y157.477 E7.47667
G1 X150.846 Y159.304 E7.55615
G1 X149.144 Y161.209 E7.63687
G1 X147.502 Y163.155 E7.71732
G1 X145.925 Y165.134 E7.79728
G1 X144.408 Y167.153 E7.87708
G1 X142.939 Y169.226 E7.95736
G1 X141.523 Y171.352 E8.03807
G1 X140.168 Y173.515 E8.11871
G1 X138.886 Y175.697 E8.19868
G1 X137.678 Y177.893 E8.27787
G1 X136.504 Y180.177 E8.35901
G1 X135.408 Y182.466 E8.4392
G1 X134.371 Y184.799 E8.51987
G1 X133.41 Y187.136 E8.59972
G1 X132.498 Y189.545 E8.68111
G1 X131.68 Y191.914 E8.7603
G1 X130.92 Y194.327 E8.84023
G1 X130.232 Y196.751 E8.91985
G1 X129.588 Y199.281 E9.00234
G1 X129.442 Y199.915 E9.0229
G1 X129.302 Y200.465 E9.04083
G1 X129.04 Y201.33 E9.06939
G1 X128.725 Y202.12 E9.09626
G1 X128.427 Y202.785 E9.11928
G1 X128.022 Y203.592 E9.14781
G1 X127.654 Y204.2 E9.17027
G1 X127.529 Y204.391 E9.17748
G1 X127.257 Y204.785 E9.19261
G1 X126.948 Y205.212 E9.20926
G1 X126.387 Y205.919 E9.23778
G1 X125.977 Y206.364 E9.2569
G1 X125.798 Y206.547 E9.26499
G1 X125.491 Y206.848 E9.27857
G1 X125.126 Y207.191 E9.2944
G1 X124.441 Y207.78 E9.32295
G1 X123.707 Y208.306 E9.35148
G1 X122.929 Y208.764 E9.38
G1 X122.114 Y209.153 E9.40854
G1 X121.267 Y209.467 E9.43708
G1 X120.396 Y209.706 E9.46562
G1 X119.507 Y209.866 E9.49416
G1 X118.41 Y209.954 E9.52893
G1 X117.727 Y209.972 E9.55052
G1 X117.312 Y209.975 E9.56364
G1 X116.753 Y209.967 E9.5813
G1 X115.851 Y209.914 E9.60985
G1 X114.958 Y209.782 E9.63837
G1 X114.08 Y209.571 E9.6669
G1 X113.224 Y209.283 E9.69544
G1 X112.397 Y208.921 E9.72397
G1 X111.605 Y208.486 E9.75252
G1 X110.854 Y207.984 E9.78106
G1 X110.14 Y207.407 E9.81007
G1 X109.391 Y206.731 E9.84195
G1 X108.761 Y206.085 E9.87046
G1 X108.191 Y205.386 E9.89896
G1 X107.666 Y204.673 E9.92693
G1 X107.52 Y204.463 E9.93502
G1 X107.038 Y203.699 E9.96356
G1 X106.66 Y202.971 E9.98948
G1 X106.387 Y202.382 E10.00999
G1 X106.241 Y202.049 E10.02148
G1 X105.916 Y201.206 E10.05003
G1 X105.695 Y200.456 E10.07473
G1 X105.414 Y199.34 E10.11109
G1 X105.136 Y198.167 E10.14918
G1 X104.468 Y195.667 E10.23095
G1 X103.749 Y193.253 E10.31053
G1 X102.953 Y190.831 E10.39109
G1 X102.099 Y188.463 E10.47063
G1 X101.158 Y186.066 E10.55199
G1 X100.17 Y183.748 E10.63161
G1 X99.109 Y181.44 E10.71187
G1 X97.977 Y179.149 E10.79262
G1 X96.8 Y176.929 E10.87201
G1 X95.546 Y174.716 E10.95238
G1 X94.217 Y172.519 E11.03352
G1 X92.85 Y170.395 E11.11333
G1 X91.43 Y168.323 E11.19269
G1 X89.924 Y166.251 E11.27363
G1 X88.357 Y164.222 E11.35463
G1 X86.779 Y162.291 E11.43343
G1 X85.092 Y160.342 E11.51488
G1 X83.386 Y158.481 E11.59465
G1 X81.608 Y156.649 E11.67531
G1 X79.816 Y154.902 E11.75439
G1 X77.921 Y153.159 E11.83574
G1 X75.991 Y151.482 E11.91653
G1 X74.051 Y149.888 E11.99587
G1 X72.053 Y148.34 E12.07573
G1 X69.987 Y146.832 E12.15655
G1 X67.903 Y145.399 E12.23646
G1 X65.75 Y144.005 E12.31751
G1 X63.609 Y142.704 E12.39667
G1 X61.395 Y141.444 E12.47716
G1 X59.137 Y140.24 E12.55801
G1 X56.871 Y139.114 E12.63796
G1 X54.557 Y138.045 E12.71851
G1 X52.23 Y137.048 E12.7985
G1 X49.835 Y136.101 E12.87987
G1 X47.905 Y135.392 E12.94484
G1 X45.725 Y134.55 E13.01868
G1 X38.816 Y131.719 E13.2546
G1 X36.712 Y130.802 E13.32712
G1 X29.947 Y127.691 E13.56239
G1 X27.834 Y126.664 E13.63663
G1 X21.773 Y123.561 E13.85178
G1 X21.005 Y123.149 E13.87931
G1 X20.001 Y122.573 E13.91589
G1 X19.072 Y122.004 E13.95031
G1 X18.657 Y121.73 E13.96602
G1 X18.011 Y121.283 E13.99084
G1 X17.194 Y120.693 E14.02269
G1 X16.762 Y120.36 E14.03992
G1 X16.17 Y119.881 E14.06398
G1 X15.431 Y119.258 E14.09452
G1 X14.965 Y118.841 E14.11428
G1 X14.426 Y118.333 E14.13769
G1 X13.954 Y117.876 E14.15844
G1 X13.534 Y117.45 E14.17735
G1 X13.346 Y117.252 E14.18597
G1 X12.841 Y116.7 E14.20961
G1 X12.206 Y115.981 E14.23992
G1 X12.059 Y115.807 E14.24712
G1 X11.853 Y115.554 E14.25743
G1 X11.383 Y114.958 E14.28141
G1 X10.933 Y114.37 E14.30481
G1 X10.619 Y113.94 E14.32163
G1 X10.459 Y113.711 E14.33046
G1 X10.035 Y113.081 E14.35445
G1 X9.474 Y112.213 E14.38711
G1 X9.194 Y111.748 E14.40426
G1 X8.818 Y111.089 E14.42823
G1 X8.337 Y110.205 E14.46003
G1 X8.117 Y109.768 E14.47549
G1 X7.781 Y109.064 E14.50014
G1 X7.285 Y107.957 E14.53847
G1 X7.172 Y107.679 E14.54795
G1 X6.875 Y106.918 E14.57376
G1 X6.64 Y106.282 E14.59519
G1 X6.37 Y105.44 E14.62312
G1 X6.119 Y104.52 E14.65326
G1 X3.803 Y95.547 E14.94607
G1 X3.642 Y94.887 E14.96754
G1 X3.467 Y94.001 E14.99607
G1 X3.371 Y93.103 E15.02461
G1 X3.355 Y92.2 E15.05314
G1 X3.418 Y91.299 E15.08168
G1 X3.562 Y90.408 E15.1102
G1 X3.783 Y89.532 E15.13875
G1 X4.081 Y88.68 E15.16727
G1 X4.454 Y87.857 E15.19582
G1 X4.897 Y87.07 E15.22435
G1 X5.409 Y86.326 E15.25289
G1 X5.984 Y85.63 E15.28142
G1 X6.619 Y84.988 E15.30995
G1 X7.308 Y84.404 E15.33849
G1 X8.046 Y83.883 E15.36703
G1 X9.096 Y83.294 E15.40507
G1 X10.112 Y82.801 E15.44075
G1 X12.413 Y81.643 E15.52215
G1 X14.624 Y80.453 E15.60148
G1 X16.841 Y79.175 E15.68234
G1 X18.995 Y77.852 E15.76221
G1 X21.133 Y76.454 E15.84293
G1 X23.216 Y75.006 E15.92308
G1 X25.257 Y73.501 E16.00321
G1 X27.278 Y71.92 E16.08429
G1 X29.221 Y70.309 E16.16404
G1 X31.117 Y68.644 E16.24377
G1 X32.969 Y66.923 E16.32365
G1 X34.801 Y65.122 E16.40482
G1 X36.553 Y63.299 E16.48471
G1 X38.275 Y61.402 E16.56567
G1 X39.913 Y59.492 E16.64517
G1 X41.516 Y57.513 E16.72564
G1 X43.047 Y55.509 E16.80533
G1 X44.535 Y53.44 E16.88585
G1 X45.966 Y51.328 E16.96646
G1 X47.335 Y49.181 E17.04692
G1 X48.638 Y47.003 E17.12711
G1 X49.872 Y44.802 E17.20684
G1 X51.063 Y42.528 E17.28795
G1 X52.178 Y40.245 E17.36823
G1 X53.216 Y37.958 E17.44759
G1 X54.207 Y35.602 E17.52835
G1 X55.525 Y32.127 E17.64578
G1 X55.639 Y31.808 E17.65648
G1 X55.98 Y30.972 E17.68501
G1 X56.393 Y30.169 E17.71354
G1 X56.876 Y29.406 E17.74208
G1 X57.425 Y28.688 E17.77064
G1 X58.034 Y28.022 E17.79915
G1 X58.7 Y27.412 E17.82769
G1 X59.418 Y26.864 E17.85623
G1 X60.181 Y26.381 E17.88476
G1 X60.984 Y25.968 E17.91329
G1 X61.82 Y25.627 E17.94182
G1 X62.684 Y25.361 E17.97038
G1 X63.567 Y25.173 E17.99891
G1 X64.464 Y25.064 E18.02746
G1 X65.366 Y25.035 E18.05598
G1 X66.268 Y25.085 E18.08452
G1 X67.069 Y25.198 E18.11008
G1 X67.818 Y25.335 E18.13414
G1 X70.666 Y25.901 E18.22589
G1 X72.525 Y26.251 E18.28566
G1 X75.039 Y26.7 E18.36635
G1 X76.88 Y27.01 E18.42534
G1 X79.332 Y27.397 E18.50378
G1 X81.084 Y27.656 E18.55974
G1 X83.652 Y28.011 E18.64165
G1 X85.453 Y28.242 E18.69902
G1 X88.035 Y28.547 E18.78117
G1 X89.804 Y28.738 E18.83739
G1 X92.337 Y28.987 E18.91781
G1 X94.233 Y29.156 E18.97796
G1 X96.608 Y29.343 E19.05323
G1 X98.569 Y29.478 E19.11534
G1 X101.026 Y29.623 E19.19311
G1 X103 Y29.72 E19.25556
G1 X105.361 Y29.812 E19.33022
G1 X107.314 Y29.869 E19.39195
G1 X110.221 Y29.926 E19.48382
G1 X111.284 Y29.966 E19.51744
G1 X111.864 Y30.002 E19.5358
G1 X114.445 Y30.126 E19.61744
G1 X116.975 Y30.175 E19.6974
G1 X119.547 Y30.151 E19.77867
G1 X122.058 Y30.058 E19.85807
G1 X122.497 Y30.031 E19.87196
G1 X124.313 Y29.937 E19.92942
G1 X124.649 Y29.928 E19.94004
G1 X127.688 Y29.869 E20.03608
G1 X129.639 Y29.812 E20.09775
G1 X131.996 Y29.72 E20.17229
G1 X133.973 Y29.623 E20.23483
G1 X135.633 Y29.525 E20.28737
G0 F1350 X136.431 Y29.478
G1 F1500 E14.28737
G0 F7500 X171.498 Y24.779
G1 F1500 E20.28737
G1 X172.399 Y24.97 E20.31647
G1 X173.279 Y25.239 E20.34555
G1 X174.133 Y25.583 E20.37464
G1 X174.954 Y25.999 E20.40372
G1 X175.736 Y26.486 E20.43283
G1 X176.472 Y27.038 E20.4619
G1 X177.158 Y27.653 E20.49101
G1 X177.788 Y28.324 E20.52009
G1 X178.357 Y29.047 E20.54916
G1 X178.862 Y29.818 E20.57828
G1 X179.297 Y30.629 E20.60736
G1 X179.691 Y31.556 E20.63919
G1 X180.618 Y34.062 E20.72362
G1 X181.575 Y36.449 E20.80487
G1 X182.584 Y38.771 E20.88487
G1 X183.643 Y41.035 E20.96384
G1 X184.785 Y43.305 E21.04414
G1 X185.985 Y45.532 E21.12407
G1 X187.244 Y47.717 E21.20375
G1 X188.578 Y49.889 E21.28429
G1 X189.958 Y52.001 E21.364
G1 X191.396 Y54.067 E21.44354
G1 X192.902 Y56.107 E21.52366
G1 X194.447 Y58.081 E21.60286
G1 X196.084 Y60.055 E21.68389
G1 X197.725 Y61.923 E21.76246
G1 X199.476 Y63.809 E21.84377
G1 X201.223 Y65.583 E21.92244
G1 X203.071 Y67.358 E22.00341
G1 X204.927 Y69.043 E22.08261
G1 X206.851 Y70.693 E22.1627
G1 X208.839 Y72.3 E22.24347
G1 X210.817 Y73.81 E22.3221
G1 X212.886 Y75.3 E22.40266
G1 X214.961 Y76.706 E22.48186
G1 X217.123 Y78.084 E22.56287
G1 X219.271 Y79.368 E22.64194
G1 X221.472 Y80.602 E22.72167
G1 X223.736 Y81.788 E22.80243
G1 X225.407 Y82.612 E22.8613
G1 X226.036 Y82.914 E22.88335
G1 X226.848 Y83.348 E22.91244
G1 X227.619 Y83.852 E22.94154
G1 X228.343 Y84.42 E22.97062
G1 X229.016 Y85.049 E22.99973
G1 X229.631 Y85.734 E23.02881
G1 X230.184 Y86.469 E23.05788
G1 X230.672 Y87.25 E23.08697
G1 X231.09 Y88.071 E23.11608
G1 X231.435 Y88.924 E23.14516
G1 X231.705 Y89.804 E23.17424
G1 X231.897 Y90.705 E23.20335
G1 X232.011 Y91.618 E23.23242
G1 X232.045 Y92.538 E23.26151
G1 X231.999 Y93.458 E23.29062
G1 X231.873 Y94.37 E23.31971
G1 X231.75 Y94.953 E23.33853
G1 X231.518 Y95.906 E23.36953
G1 X229.21 Y104.843 E23.66117
G1 X229.028 Y105.507 E23.68293
G1 X228.753 Y106.366 E23.71143
G1 X228.372 Y107.388 E23.74589
G1 X227.969 Y108.382 E23.77978
G1 X227.87 Y108.61 E23.78764
G1 X227.739 Y108.899 E23.79766
G1 X227.421 Y109.573 E23.82121
G1 X227.076 Y110.274 E23.8459
G1 X226.824 Y110.757 E23.86311
G1 X226.693 Y110.997 E23.87175
G1 X226.275 Y111.731 E23.89844
G1 X225.796 Y112.533 E23.92796
G1 X225.51 Y112.986 E23.94488
G1 X225.097 Y113.603 E23.96834
G1 X224.66 Y114.235 E23.99262
G1 X224.328 Y114.693 E24.01049
G1 X224.144 Y114.935 E24.0201
G1 X223.671 Y115.537 E24.04429
G1 X223.254 Y116.054 E24.06528
G1 X222.9 Y116.473 E24.08261
G1 X222.712 Y116.686 E24.09159
G1 X222.175 Y117.275 E24.11677
G1 X221.675 Y117.807 E24.13984
G1 X221.255 Y118.234 E24.15876
G1 X221.042 Y118.441 E24.16815
G1 X220.539 Y118.916 E24.19001
G1 X219.753 Y119.63 E24.22356
G1 X219.317 Y120 E24.24163
G1 X218.777 Y120.439 E24.26362
G1 X218.186 Y120.905 E24.2874
G1 X217.749 Y121.234 E24.30468
G1 X217.53 Y121.392 E24.31322
G1 X216.925 Y121.814 E24.33652
G1 X215.862 Y122.52 E24.37684
G1 X215.568 Y122.701 E24.38775
G1 X214.886 Y123.104 E24.41278
G1 X214.082 Y123.557 E24.44194
G1 X213.187 Y124.033 E24.47397
G1 X207.144 Y127.122 E24.68841
G1 X205.029 Y128.145 E24.76265
G1 X198.25 Y131.257 E24.99834
G1 X196.136 Y132.173 E25.07113
G1 X189.222 Y135.001 E25.30717
G1 X187.053 Y135.834 E25.38058
G1 X186.645 Y135.981 E25.39428
G1 X184.222 Y136.896 E25.47612
G1 X181.889 Y137.851 E25.55577
G1 X179.561 Y138.884 E25.63625
G1 X177.259 Y139.983 E25.71685
G1 X175.064 Y141.108 E25.79478
G1 X172.804 Y142.349 E25.87625
G1 X170.637 Y143.621 E25.95565
G1 X168.494 Y144.959 E26.03547
G1 X166.371 Y146.372 E26.11605
G1 X164.318 Y147.822 E26.19547
G1 X162.312 Y149.327 E26.27471
G1 X160.307 Y150.921 E26.35564
G1 X158.41 Y152.519 E26.43401
G1 X156.483 Y154.238 E26.51561
G1 X154.654 Y155.963 E26.59505
G1 X152.884 Y157.733 E26.67414
G1 X151.134 Y159.582 E26.75458
G1 X149.45 Y161.467 E26.83445
G1 X147.819 Y163.4 E26.91436
G1 X146.243 Y165.378 E26.99427
G1 X144.726 Y167.396 E27.07404
G1 X143.25 Y169.481 E27.15476
G1 X141.867 Y171.556 E27.23355
G1 X140.519 Y173.708 E27.31379
G1 X139.239 Y175.887 E27.39364
G1 X138.027 Y178.09 E27.47309
G1 X136.863 Y180.354 E27.55352
G1 X135.757 Y182.665 E27.63448
G1 X134.748 Y184.935 E27.71297
G1 X133.778 Y187.293 E27.79353
