;FLAVOR:Marlin
;TIME:3832
;Filament used: 1.99435m
;Layer height: 0.2
;MINX:41.014
;MINY:79.001
;MINZ:0.2
;MAXX:172.215
;MAXY:140.989
;MAXZ:6.4
;Generated with Cura_SteamEngine 4.7.0
M140 S60
M105
M190 S60
M104 S200
M105
M109 S200
M82 ;absolute extrusion mode
; Ender 3 Custom Start G-code
G92 E0 ; Reset Extruder
G28 ; Home all axes
G1 Z2.0 F3000 ; Move Z Axis up little to prevent scratching of Heat Bed
G1 X0.1 Y20 Z0.3 F5000.0 ; Move to start position
G1 X0.1 Y200.0 Z0.3 F1500.0 E15 ; Draw the first line
G1 X0.4 Y200.0 Z0.3 F5000.0 ; Move to side a little
G1 X0.4 Y20 Z0.3 F1500.0 E30 ; Draw the second line
G92 E0 ; Reset Extruder
G1 Z2.0 F3000 ; Move Z Axis up little to prevent scratching of Heat Bed
G1 X5 Y20 Z0.3 F5000.0 ; Move over to prevent blob squish
G92 E0
G92 E0
G1 F1500 E-6.5
;LAYER_COUNT:32
;LAYER:0
M107
M204 S500
M205 X8 Y8
G0 F6000 X50.459 Y80.52 Z0.2
;TYPE:SKIRT
G1 F1500 E0
G1 F1200 X51.289 Y80.082 E0.03121
G1 X52.152 Y79.716 E0.06239
G1 X53.044 Y79.425 E0.0936
G1 X53.957 Y79.212 E0.12478
G1 X54.885 Y79.076 E0.15598
G1 X55.796 Y79.021 E0.18633
G1 X56.74 Y79.003 E0.21773
G1 X56.95 Y79.001 E0.22472
G1 X79.451 Y79.002 E0.97311
G1 X80.149 Y79.012 E0.99632
G1 X80.757 Y79.038 E1.01656
G1 X81.129 Y79.069 E1.02898
G1 X81.686 Y79.125 E1.0476
G1 X83.43 Y79.323 E1.10598
G1 X85.932 Y79.537 E1.1895
G1 X88.451 Y79.681 E1.27342
G1 X90.936 Y79.752 E1.3561
G1 X93.444 Y79.752 E1.43952
G1 X97 Y79.635 E1.55786
G1 X97.655 Y79.601 E1.57967
G1 X98.012 Y79.588 E1.59155
G1 X99.208 Y79.565 E1.63134
G1 X99.419 Y79.563 E1.63836
G1 X120.977 Y79.564 E2.35538
G1 X121.681 Y79.574 E2.3788
G1 X122.618 Y79.627 E2.41001
G1 X123.546 Y79.76 E2.44119
G1 X124.46 Y79.972 E2.4724
G1 X125.325 Y80.25 E2.50262
G1 X126.667 Y80.744 E2.55018
G1 X126.803 Y80.796 E2.55502
G1 X129.171 Y81.628 E2.6385
G1 X131.584 Y82.4 E2.72277
G1 X134.016 Y83.104 E2.80698
G1 X136.46 Y83.737 E2.89095
G1 X138.84 Y84.282 E2.97216
G1 X141.39 Y84.79 E3.05864
G1 X143.811 Y85.202 E3.14032
G1 X147.492 Y85.698 E3.26385
G1 X148.881 Y85.857 E3.31035
G1 X149.075 Y85.881 E3.31685
G1 X150.152 Y86.077 E3.35326
G1 X150.752 Y86.217 E3.37376
G1 X153.296 Y86.769 E3.46034
G1 X155.248 Y87.134 E3.52639
G1 X155.811 Y87.246 E3.54548
G1 X156.722 Y87.468 E3.57667
G1 X157.611 Y87.767 E3.60786
G1 X158.437 Y88.124 E3.63779
G1 X158.707 Y88.254 E3.64776
G1 X159.042 Y88.422 E3.66022
G1 X159.198 Y88.504 E3.66609
G1 X159.785 Y88.819 E3.68824
G1 X160.143 Y89.02 E3.7019
G1 X160.452 Y89.203 E3.71384
G1 X160.652 Y89.325 E3.72163
G1 X160.865 Y89.458 E3.72999
G1 X161.359 Y89.775 E3.74951
G1 X161.616 Y89.945 E3.75976
G1 X161.833 Y90.093 E3.76849
G1 X162.119 Y90.295 E3.78014
G1 X162.335 Y90.455 E3.78908
G1 X162.865 Y90.855 E3.81117
G1 X163.099 Y91.036 E3.821
G1 X163.277 Y91.178 E3.82858
G1 X163.552 Y91.404 E3.84042
G1 X163.828 Y91.641 E3.85252
G1 X164.298 Y92.059 E3.87344
G1 X164.972 Y92.712 E3.90465
G1 X165.655 Y93.506 E3.93948
G1 X165.748 Y93.625 E3.94451
G1 X166.368 Y94.503 E3.98026
G1 X167.024 Y95.536 E4.02096
G1 X167.071 Y95.602 E4.02365
G1 X168.263 Y97.445 E4.09665
G1 X169.374 Y99.065 E4.16199
G1 X169.448 Y99.176 E4.16643
G1 X169.662 Y99.511 E4.17965
G1 X169.835 Y99.792 E4.19062
G1 X170.292 Y100.611 E4.22182
G1 X170.678 Y101.466 E4.25302
G1 X170.909 Y102.097 E4.27537
G1 X171.094 Y102.655 E4.29492
G1 X171.193 Y102.97 E4.3059
G1 X171.316 Y103.382 E4.3202
G1 X171.399 Y103.674 E4.3303
G1 X171.46 Y103.901 E4.33812
G1 X171.54 Y104.219 E4.34902
G1 X171.613 Y104.527 E4.35955
G1 X171.669 Y104.774 E4.36798
G1 X171.762 Y105.211 E4.38284
G1 X171.823 Y105.519 E4.39328
G1 X171.884 Y105.852 E4.40454
G1 X171.963 Y106.348 E4.42124
G1 X172.052 Y107.001 E4.44316
G1 X172.089 Y107.299 E4.45315
G1 X172.132 Y107.712 E4.46696
G1 X172.146 Y107.866 E4.47211
G1 X172.171 Y108.194 E4.48305
G1 X172.207 Y108.786 E4.50277
G1 X172.215 Y109.97 E4.54215
G1 X172.208 Y110.119 E4.54711
G1 X172.124 Y111.053 E4.5783
G1 X171.938 Y112.078 E4.61295
G1 X171.778 Y112.77 E4.63658
G1 X171.223 Y115.353 E4.72445
G1 X170.814 Y117.541 E4.79848
G1 X170.603 Y118.455 E4.82968
G1 X170.296 Y119.397 E4.86263
G1 X170.163 Y119.75 E4.87518
G1 X169.646 Y120.912 E4.91748
G1 X169.451 Y121.286 E4.93151
G1 X169.164 Y121.814 E4.9515
G1 X169.002 Y122.102 E4.96249
G1 X168.823 Y122.409 E4.97431
G1 X168.574 Y122.815 E4.99015
G1 X168.218 Y123.369 E5.01205
G1 X168.046 Y123.628 E5.02239
G1 X167.923 Y123.808 E5.02964
G1 X167.755 Y124.047 E5.03936
G1 X167.661 Y124.177 E5.0447
G1 X167.513 Y124.377 E5.05297
G1 X167.137 Y124.873 E5.07367
G1 X166.949 Y125.114 E5.08384
G1 X166.77 Y125.337 E5.09335
G1 X166.546 Y125.608 E5.10504
G1 X166.424 Y125.75 E5.11127
G1 X166.02 Y126.212 E5.13168
G1 X165.373 Y126.891 E5.16288
G1 X164.67 Y127.513 E5.1941
G1 X164.277 Y127.817 E5.21062
G1 X164.093 Y127.953 E5.21823
G1 X163.511 Y128.355 E5.24176
G1 X162.554 Y128.97 E5.2796
G1 X161.961 Y129.339 E5.30283
G1 X158.655 Y131.558 E5.43526
G1 X157.856 Y132.05 E5.46646
G1 X157.11 Y132.43 E5.49431
G1 X157.03 Y132.467 E5.49724
G1 X155.988 Y132.886 E5.5346
G1 X155.668 Y132.996 E5.54585
G1 X155.21 Y133.142 E5.56184
G1 X154.584 Y133.327 E5.58355
G1 X154.296 Y133.408 E5.5935
G1 X154.018 Y133.482 E5.60307
G1 X153.655 Y133.572 E5.61551
G1 X153.403 Y133.63 E5.62411
G1 X153.207 Y133.673 E5.63078
G1 X152.752 Y133.769 E5.64625
G1 X152.467 Y133.825 E5.65591
G1 X152.151 Y133.883 E5.6666
G1 X151.653 Y133.963 E5.68337
G1 X151.001 Y134.052 E5.70526
G1 X150.72 Y134.087 E5.71468
G1 X150.566 Y134.104 E5.71983
G1 X150.261 Y134.133 E5.73002
G1 X150.03 Y134.152 E5.73773
G1 X149.775 Y134.17 E5.74623
G1 X149.181 Y134.205 E5.76602
G1 X148.55 Y134.224 E5.78702
G1 X147.298 Y134.226 E5.82866
G1 X144.654 Y134.267 E5.91661
G1 X142.169 Y134.376 E5.99934
G1 X139.658 Y134.558 E6.08308
G1 X137.161 Y134.81 E6.16655
G1 X134.664 Y135.133 E6.25029
G1 X132.17 Y135.527 E6.33427
G1 X129.671 Y135.996 E6.41884
G1 X127.204 Y136.531 E6.5028
G1 X124.812 Y137.122 E6.58475
G1 X122.372 Y137.798 E6.66896
G1 X118.918 Y138.882 E6.78937
G1 X118.242 Y139.109 E6.81308
G1 X117.946 Y139.204 E6.82342
G1 X117.49 Y139.343 E6.83928
G1 X117.184 Y139.432 E6.84988
G1 X116.789 Y139.54 E6.8635
G1 X116.506 Y139.613 E6.87322
G1 X116.049 Y139.725 E6.88887
G1 X115.747 Y139.794 E6.89917
G1 X115.357 Y139.878 E6.91244
G1 X115.05 Y139.94 E6.92286
G1 X114.63 Y140.018 E6.93707
G1 X114.307 Y140.073 E6.94796
G1 X113.83 Y140.147 E6.96402
G1 X113.546 Y140.187 E6.97356
G1 X113.118 Y140.242 E6.98791
G1 X112.788 Y140.28 E6.99896
G1 X112.359 Y140.322 E7.0133
G1 X112.041 Y140.348 E7.02391
G1 X111.619 Y140.377 E7.03798
G1 X111.332 Y140.393 E7.04754
G1 X110.908 Y140.411 E7.06165
G1 X110.597 Y140.42 E7.072
G1 X110.175 Y140.426 E7.08604
G1 X109.854 Y140.426 E7.09671
G1 X109.387 Y140.419 E7.11225
G1 X109.106 Y140.411 E7.1216
G1 X108.712 Y140.395 E7.13471
G1 X108.388 Y140.377 E7.14551
G1 X107.975 Y140.348 E7.15928
G1 X107.693 Y140.325 E7.16869
G1 X107.204 Y140.278 E7.18503
G1 X106.866 Y140.24 E7.19634
G1 X106.505 Y140.194 E7.20844
G1 X106.225 Y140.155 E7.21785
G1 X104.747 Y139.928 E7.26758
G1 X104.209 Y139.837 E7.28573
G1 X101.739 Y139.489 E7.36869
G1 X99.212 Y139.206 E7.45327
G1 X96.684 Y138.994 E7.53764
G1 X94.2 Y138.857 E7.62039
G1 X91.677 Y138.789 E7.70433
G1 X89.155 Y138.793 E7.78822
G1 X86.631 Y138.868 E7.8722
G1 X84.149 Y139.012 E7.95489
G1 X81.624 Y139.231 E8.03919
G1 X79.105 Y139.52 E8.12352
G1 X76.642 Y139.874 E8.20628
G1 X74.122 Y140.31 E8.29134
G1 X73.569 Y140.418 E8.31008
G1 X73.326 Y140.463 E8.3183
G1 X72.237 Y140.651 E8.35506
G1 X71.888 Y140.705 E8.3668
G1 X71.387 Y140.775 E8.38363
G1 X71.107 Y140.811 E8.39302
G1 X70.843 Y140.841 E8.40186
G1 X70.549 Y140.87 E8.41168
G1 X70.283 Y140.893 E8.42056
G1 X70.024 Y140.912 E8.4292
G1 X69.307 Y140.957 E8.45309
G1 X68.98 Y140.973 E8.46398
G1 X68.707 Y140.982 E8.47307
G1 X68.297 Y140.989 E8.48671
G1 X68.02 Y140.989 E8.49592
G1 X67.365 Y140.98 E8.51771
G1 X66.872 Y140.962 E8.53412
G1 X66.003 Y140.911 E8.56307
G1 X65.659 Y140.886 E8.57454
G1 X65.138 Y140.839 E8.59194
G1 X64.551 Y140.77 E8.6116
G1 X63.998 Y140.69 E8.63018
G1 X63.724 Y140.646 E8.63941
G1 X63.208 Y140.558 E8.65682
G1 X62.869 Y140.495 E8.66829
G1 X62.253 Y140.37 E8.6892
G1 X61.741 Y140.254 E8.70666
G1 X61.109 Y140.094 E8.72834
G1 X60.633 Y139.961 E8.74478
G1 X60.013 Y139.774 E8.76632
G1 X59.636 Y139.653 E8.77949
G1 X59.05 Y139.453 E8.80008
G1 X58.638 Y139.303 E8.81466
G1 X57.797 Y138.978 E8.84465
G1 X57.452 Y138.838 E8.85704
G1 X57.135 Y138.703 E8.8685
G1 X56.686 Y138.5 E8.88488
G1 X56.19 Y138.262 E8.90318
G1 X55.834 Y138.083 E8.91644
G1 X55.181 Y137.74 E8.94097
G1 X54.798 Y137.529 E8.95551
G1 X54.117 Y137.136 E8.98166
G1 X53.773 Y136.93 E8.995
G1 X53.28 Y136.621 E9.01435
G1 X53.039 Y136.465 E9.0239
G1 X52.923 Y136.388 E9.02853
G1 X52.421 Y136.034 E9.04896
G1 X51.499 Y135.345 E9.08724
G1 X51.168 Y135.088 E9.10118
G1 X50.813 Y134.801 E9.11636
G1 X50.491 Y134.531 E9.13034
G1 X50.103 Y134.192 E9.14748
G1 X49.81 Y133.926 E9.16064
G1 X49.267 Y133.416 E9.18542
G1 X48.937 Y133.092 E9.2008
G1 X48.523 Y132.669 E9.22048
G1 X48.235 Y132.364 E9.23444
G1 X47.807 Y131.892 E9.25563
G1 X47.513 Y131.554 E9.27053
G1 X47.067 Y131.02 E9.29367
G1 X46.814 Y130.706 E9.30708
G1 X46.384 Y130.151 E9.33043
G1 X46.146 Y129.832 E9.34367
G1 X45.873 Y129.452 E9.35923
G1 X45.739 Y129.261 E9.36699
G1 X45.625 Y129.095 E9.37369
G1 X45.427 Y128.796 E9.38562
G1 X45.34 Y128.66 E9.39099
G1 X45.199 Y128.434 E9.39985
G1 X44.668 Y127.558 E9.43392
G1 X44.516 Y127.298 E9.44394
G1 X44.401 Y127.096 E9.45167
G1 X44.237 Y126.798 E9.46298
G1 X44.086 Y126.511 E9.47377
G1 X43.848 Y126.044 E9.4912
G1 X43.682 Y125.704 E9.50378
G1 X43.406 Y125.113 E9.52548
G1 X43.194 Y124.627 E9.54311
G1 X42.877 Y123.853 E9.57093
G1 X42.766 Y123.571 E9.58101
G1 X42.664 Y123.301 E9.59061
G1 X42.553 Y122.994 E9.60147
G1 X42.44 Y122.661 E9.61317
G1 X42.217 Y121.975 E9.63716
G1 X42.132 Y121.701 E9.6467
G1 X42.073 Y121.502 E9.6536
G1 X41.973 Y121.143 E9.666
G1 X41.881 Y120.782 E9.67839
G1 X41.631 Y119.736 E9.71416
G1 X41.544 Y119.336 E9.72777
G1 X41.462 Y118.916 E9.74201
G1 X41.406 Y118.595 E9.75284
G1 X41.292 Y117.883 E9.77683
G1 X41.247 Y117.571 E9.78731
G1 X41.219 Y117.357 E9.79449
G1 X41.189 Y117.109 E9.8028
G1 X41.14 Y116.63 E9.81881
G1 X41.081 Y115.927 E9.84228
G1 X41.061 Y115.64 E9.85185
G1 X41.042 Y115.306 E9.86297
G1 X41.024 Y114.783 E9.88038
G1 X41.014 Y113.7 E9.9164
G1 X41.018 Y113.307 E9.92947
G1 X41.022 Y113.156 E9.9345
G1 X41.033 Y112.881 E9.94365
G1 X41.062 Y112.353 E9.96124
G1 X41.112 Y111.67 E9.98402
G1 X41.163 Y111.148 E10.00146
G1 X41.255 Y110.39 E10.02686
G1 X41.292 Y110.117 E10.03602
G1 X41.356 Y109.681 E10.05068
G1 X41.387 Y109.483 E10.05734
G1 X41.498 Y108.811 E10.08
G1 X45.049 Y88.753 E10.7575
G1 X45.203 Y87.948 E10.78476
G1 X45.418 Y87.035 E10.81596
G1 X45.711 Y86.144 E10.84715
G1 X46.079 Y85.281 E10.87836
G1 X46.518 Y84.453 E10.90953
G1 X47.027 Y83.665 E10.94073
G1 X47.601 Y82.923 E10.97193
G1 X48.236 Y82.233 E11.00312
G1 X48.927 Y81.599 E11.03431
G1 X49.67 Y81.027 E11.0655
G1 X50.459 Y80.52 E11.09669
G0 F6000 X50.808 Y80.781
G1 F1200 X51.629 Y80.365 E11.1273
G1 X52.483 Y80.022 E11.15791
G1 X53.364 Y79.754 E11.18854
G1 X54.265 Y79.563 E11.21917
G1 X55.178 Y79.451 E11.24977
G1 X55.804 Y79.421 E11.27061
G1 X56.748 Y79.403 E11.30202
G1 X56.95 Y79.401 E11.30874
G1 X79.445 Y79.402 E12.05692
G1 X80.143 Y79.412 E12.08014
G1 X80.729 Y79.437 E12.09965
G1 X81.089 Y79.467 E12.11166
G1 X81.641 Y79.523 E12.13012
G1 X83.387 Y79.721 E12.18856
G1 X85.876 Y79.934 E12.27165
G1 X88.416 Y80.079 E12.35627
G1 X90.96 Y80.152 E12.44092
G1 X93.457 Y80.152 E12.52397
G1 X96.979 Y80.036 E12.64117
G1 X97.675 Y80 E12.66435
G1 X98.019 Y79.988 E12.6758
G1 X99.215 Y79.965 E12.71559
G1 X99.419 Y79.963 E12.72237
G1 X120.972 Y79.964 E13.43923
G1 X121.676 Y79.974 E13.46265
G1 X122.595 Y80.027 E13.49326
G1 X123.506 Y80.16 E13.52388
G1 X124.402 Y80.371 E13.5545
G1 X125.187 Y80.626 E13.58195
G1 X126.678 Y81.175 E13.6348
G1 X129.064 Y82.014 E13.71892
G1 X131.489 Y82.79 E13.8036
G1 X133.877 Y83.481 E13.88629
G1 X136.376 Y84.128 E13.97215
G1 X138.745 Y84.671 E14.05298
G1 X141.316 Y85.183 E14.14017
G1 X143.747 Y85.596 E14.22219
G1 X147.498 Y86.102 E14.34808
G1 X149.023 Y86.278 E14.39913
G1 X150.061 Y86.466 E14.43422
G1 X150.69 Y86.613 E14.4557
G1 X153.243 Y87.167 E14.54259
G1 X155.17 Y87.527 E14.60779
G1 X155.733 Y87.639 E14.62689
G1 X156.627 Y87.857 E14.65749
G1 X157.499 Y88.153 E14.68812
G1 X158.263 Y88.484 E14.71581
G1 X158.533 Y88.614 E14.72578
G1 X158.859 Y88.778 E14.73792
G1 X159.009 Y88.857 E14.74356
G1 X159.596 Y89.172 E14.76571
G1 X159.941 Y89.365 E14.77886
G1 X160.081 Y89.447 E14.78426
G1 X160.444 Y89.667 E14.79838
G1 X160.649 Y89.795 E14.80642
G1 X161.143 Y90.112 E14.82594
G1 X161.391 Y90.276 E14.83583
G1 X161.608 Y90.424 E14.84456
G1 X161.883 Y90.618 E14.85576
G1 X162.095 Y90.774 E14.86451
G1 X162.625 Y91.174 E14.8866
G1 X162.849 Y91.349 E14.89605
G1 X163.195 Y91.627 E14.91081
G1 X163.296 Y91.711 E14.91518
G1 X163.562 Y91.94 E14.92686
G1 X164.032 Y92.358 E14.94778
G1 X164.693 Y92.999 E14.9784
G1 X165.34 Y93.752 E15.01142
G1 X165.433 Y93.871 E15.01644
G1 X166.03 Y94.717 E15.05088
G1 X166.675 Y95.732 E15.09088
G1 X166.735 Y95.819 E15.0944
G1 X167.93 Y97.667 E15.16759
G1 X169.041 Y99.287 E15.23293
G1 X169.115 Y99.398 E15.23736
G1 X169.321 Y99.721 E15.25011
G1 X169.494 Y100.002 E15.26108
G1 X169.943 Y100.806 E15.29171
G1 X170.319 Y101.646 E15.32232
G1 X170.529 Y102.223 E15.34274
G1 X170.714 Y102.781 E15.3623
G1 X170.81 Y103.085 E15.3729
G1 X170.933 Y103.497 E15.3872
G1 X171.013 Y103.778 E15.39692
G1 X171.074 Y104.005 E15.40473
G1 X171.151 Y104.311 E15.41523
G1 X171.224 Y104.619 E15.42576
G1 X171.278 Y104.858 E15.43391
G1 X171.371 Y105.295 E15.44877
G1 X171.43 Y105.591 E15.45881
G1 X171.491 Y105.924 E15.47007
G1 X171.567 Y106.403 E15.4862
G1 X171.656 Y107.056 E15.50812
G1 X171.691 Y107.343 E15.51773
G1 X171.715 Y107.564 E15.52513
G1 X171.747 Y107.902 E15.53642
G1 X171.771 Y108.219 E15.54699
G1 X171.807 Y108.811 E15.56672
G1 X171.815 Y109.951 E15.60464
G1 X171.808 Y110.1 E15.6096
G1 X171.725 Y111.017 E15.64022
G1 X171.548 Y111.988 E15.67305
G1 X171.392 Y112.662 E15.69606
G1 X170.833 Y115.267 E15.78467
G1 X170.421 Y117.468 E15.85915
G1 X170.213 Y118.365 E15.88978
G1 X169.921 Y119.256 E15.92096
G1 X169.788 Y119.609 E15.93351
G1 X169.291 Y120.729 E15.97426
G1 X169.208 Y120.89 E15.98029
G1 X169.099 Y121.095 E15.98801
G1 X168.812 Y121.623 E16.008
G1 X168.656 Y121.9 E16.01857
G1 X168.477 Y122.207 E16.03039
G1 X168.238 Y122.598 E16.04563
G1 X167.882 Y123.152 E16.06754
G1 X167.716 Y123.402 E16.07752
G1 X167.593 Y123.582 E16.08477
G1 X167.431 Y123.813 E16.09415
G1 X167.337 Y123.943 E16.09949
G1 X167.194 Y124.136 E16.10748
G1 X166.818 Y124.632 E16.12818
G1 X166.637 Y124.863 E16.13794
G1 X166.458 Y125.086 E16.14745
G1 X166.24 Y125.35 E16.15884
G1 X166.122 Y125.487 E16.16485
G1 X165.718 Y125.949 E16.18526
G1 X165.083 Y126.615 E16.21587
G1 X164.04 Y127.495 E16.26126
G1 X163.856 Y127.631 E16.26887
G1 X163.295 Y128.018 E16.29154
G1 X162.343 Y128.63 E16.32918
G1 X161.732 Y129.01 E16.35311
G1 X158.43 Y131.226 E16.48538
G1 X157.646 Y131.709 E16.516
G1 X156.942 Y132.067 E16.54227
G1 X156.862 Y132.104 E16.5452
G1 X155.858 Y132.507 E16.58119
G1 X155.538 Y132.617 E16.59244
G1 X155.096 Y132.758 E16.60787
G1 X154.47 Y132.943 E16.62958
G1 X154.193 Y133.021 E16.63915
G1 X153.915 Y133.095 E16.64872
G1 X153.566 Y133.182 E16.66068
G1 X153.124 Y133.282 E16.67576
G1 X152.669 Y133.378 E16.69122
G1 X152.395 Y133.432 E16.70051
G1 X152.079 Y133.49 E16.7112
G1 X151.599 Y133.567 E16.72737
G1 X150.947 Y133.656 E16.74925
G1 X150.676 Y133.689 E16.75833
G1 X150.522 Y133.706 E16.76349
G1 X150.228 Y133.734 E16.77331
G1 X149.997 Y133.753 E16.78102
G1 X149.751 Y133.771 E16.78922
G1 X149.157 Y133.806 E16.80901
G1 X148.55 Y133.824 E16.82921
G1 X147.292 Y133.826 E16.87105
G1 X144.666 Y133.867 E16.9584
G1 X142.124 Y133.978 E17.04303
G1 X139.623 Y134.159 E17.12643
G1 X137.107 Y134.413 E17.21054
G1 X134.622 Y134.735 E17.29388
G1 X132.1 Y135.134 E17.37881
G1 X129.618 Y135.599 E17.4628
G1 X127.095 Y136.147 E17.54867
G1 X124.681 Y136.743 E17.63137
G1 X122.299 Y137.403 E17.71358
