;FLAVOR:Marlin
;TIME:971
;Filament used: 0.481174m
;Layer height: 0.28
;MINX:102.193
;MINY:109.949
;MINZ:0.285
;MAXX:132.284
;MAXY:125.05
;MAXZ:23.805
;Generated with Cura_SteamEngine 4.6.2
M140 S60
M105
M190 S60
M104 S200
M105
M109 S200
M82 ;absolute extrusion mode
; Ender 3 Custom Start G-code
G92 E0 ; Reset Extruder
G28 ; Home all axes
G1 Z2.0 F3000 ; Move Z Axis up little to prevent scratching of Heat Bed
G1 X0.1 Y20 Z0.3 F5000.0 ; Move to start position
G1 X0.1 Y200.0 Z0.3 F1500.0 E15 ; Draw the first line
G1 X0.4 Y200.0 Z0.3 F5000.0 ; Move to side a little
G1 X0.4 Y20 Z0.3 F1500.0 E30 ; Draw the second line
G92 E0 ; Reset Extruder
G1 Z2.0 F3000 ; Move Z Axis up little to prevent scratching of Heat Bed
G1 X5 Y20 Z0.3 F5000.0 ; Move over to prevent blob squish
G92 E0
G92 E0
G1 F1500 E-6
;LAYER_COUNT:85
;LAYER:0
M107
M204 S500
M205 X8 Y8
;MESH:3DBenchy.stl
G0 F7500 X112.566 Y115.813 Z0.285
;TYPE:WALL-INNER
G1 F1500 E0
G1 F1800 X112.537 Y115.78 E0.00198
G1 X112.496 Y115.733 E0.00479
G1 X112.374 Y115.626 E0.01209
G1 X112.241 Y115.537 E0.0193
G1 X112.091 Y115.462 E0.02685
G1 X111.933 Y115.406 E0.0344
G1 X111.714 Y115.359 E0.04448
G1 X111.521 Y115.338 E0.05322
G1 X111.255 Y115.337 E0.0652
G1 X110.984 Y115.371 E0.0775
G1 X110.819 Y115.413 E0.08516
G1 X110.671 Y115.467 E0.09226
G1 X110.525 Y115.538 E0.09957
G1 X110.416 Y115.609 E0.10543
G1 X110.183 Y115.47 E0.11764
G1 X109.946 Y115.423 E0.12852
G1 X108.206 Y115.426 E0.20687
G1 X108.024 Y115.408 E0.2151
G1 X107.887 Y115.407 E0.22127
G1 X107.721 Y115.429 E0.22881
G1 X107.504 Y115.512 E0.23927
G1 X107.332 Y115.66 E0.24949
G1 X107.308 Y115.64 E0.25089
G1 X107.155 Y115.541 E0.2591
G1 X106.947 Y115.443 E0.26945
G1 X106.707 Y115.373 E0.28071
G1 X106.459 Y115.341 E0.29197
G1 X106.336 Y115.336 E0.29751
G1 X106.045 Y115.35 E0.31063
G1 X105.796 Y115.397 E0.32204
G1 X105.55 Y115.481 E0.33374
G1 X105.453 Y115.533 E0.3387
G1 X105.264 Y115.635 E0.34837
G1 X105.121 Y115.749 E0.3566
G1 X105.121 Y115.635 E0.35676
G1 X105.122 Y115.42 E0.36378
G1 X105.125 Y114.963 E0.38436
G1 X105.175 Y114.827 E0.39088
G1 X105.192 Y114.804 E0.39217
G1 X105.237 Y114.768 E0.39476
G1 X105.307 Y114.739 E0.39817
G1 X105.397 Y114.724 E0.40228
G1 X117.49 Y113.985 E0.9478
G1 X118.162 Y114.014 E0.97808
G1 X118.919 Y114.125 E1.01253
G1 X119.851 Y114.384 E1.05609
G1 X120.624 Y114.71 E1.09386
G1 X121.549 Y115.262 E1.14236
G1 X122.159 Y115.756 E1.1777
G1 X122.269 Y115.845 E1.18407
G1 X122.552 Y116.143 E1.20258
G1 X122.27 Y116.143 E1.20628
G1 X122.128 Y116.143 E1.21191
G1 X121.36 Y116.144 E1.24649
G1 X121.217 Y116.162 E1.25298
G1 X121.054 Y116.2 E1.26051
G1 X120.882 Y116.288 E1.26921
G1 X120.78 Y116.215 E1.27486
G1 X120.466 Y116.127 E1.28954
G1 X120.156 Y116.185 E1.30374
G1 X119.945 Y116.325 E1.31515
G1 X119.832 Y116.441 E1.32244
G1 X119.81 Y116.47 E1.32408
G1 X119.799 Y116.485 E1.32491
G1 X119.784 Y116.505 E1.32604
G1 X119.771 Y116.487 E1.32613
G1 X119.755 Y116.466
G1 X119.734 Y116.437 E1.3268
G1 X119.599 Y116.313 E1.33266
G1 X119.416 Y116.212 E1.34207
G1 X119.243 Y116.158 E1.35023
G1 X119.086 Y116.141 E1.35734
G1 X118.901 Y116.147 E1.36567
G1 X118.646 Y116.232 E1.37778
G1 X118.576 Y116.291 E1.3819
G1 X118.356 Y116.17 E1.3932
G1 X118.072 Y116.132 E1.4061
G1 X117.813 Y116.195 E1.41811
G1 X117.616 Y116.313 E1.42845
G1 X117.591 Y116.335 E1.42995
G1 X117.56 Y116.307 E1.43183
G1 X117.408 Y116.212 E1.4399
G1 X117.171 Y116.139 E1.45106
G1 X116.918 Y116.148 E1.46246
G1 X116.718 Y116.21 E1.47189
G1 X116.492 Y116.349 E1.48384
G1 X116.289 Y116.613 E1.49883
G1 X116.232 Y116.882 E1.51121
G1 X116.231 Y116.886 E1.5114
G1 X116.24 Y117.064 E1.51942
G1 X116.25 Y117.11 E1.52154
G1 X116.273 Y117.213 E1.52629
G1 X116.328 Y117.359 E1.53332
G1 X116.38 Y117.458 E1.53835
G1 X116.426 Y117.545 E1.54278
G1 X116.441 Y117.572 E1.54418
G1 X116.524 Y117.715 E1.55162
G1 X116.599 Y117.846 E1.55842
G1 X116.468 Y117.748 E1.55939
G1 X116.353 Y117.689 E1.56053
G1 X116.293 Y117.658 E1.56066
G1 X116.245 Y117.644 E1.56088
G1 X116.105 Y117.603 E1.56565
G1 X115.905 Y117.582 E1.5747
G1 X115.91 Y117.496 E1.57858
G1 X115.901 Y117.227 E1.59053
G1 X115.899 Y117.188 E1.59201
G1 X115.889 Y117.12 E1.5948
G1 X115.861 Y116.946 E1.60204
G1 X115.84 Y116.819 E1.60779
G1 X115.839 Y116.815 E1.60797
G1 X115.733 Y116.486 E1.62354
G1 X115.575 Y116.188 E1.63872
G1 X115.378 Y115.936 E1.65313
G1 X115.218 Y115.791 E1.66285
G1 X115.083 Y115.693 E1.67036
G1 X114.926 Y115.607 E1.67842
G1 X114.654 Y115.51 E1.69142
G1 X114.392 Y115.457 E1.70346
G1 X114.008 Y115.425 E1.72081
G1 X113.298 Y115.418 E1.75278
G1 X113.178 Y115.431 E1.75821
G1 X113.034 Y115.462 E1.76484
G1 X112.875 Y115.525 E1.77254
G1 X112.668 Y115.665 E1.7838
G1 X112.592 Y115.776 E1.7873
G1 X112.581 Y115.791
G1 X112.566 Y115.813
G0 F7500 X112.67 Y118.357
G0 X112.396 Y118.927
G0 X112.031 Y119.221
G0 X111.578 Y119.356
G0 X110.876 Y119.305
G0 X110.452 Y119.061
G0 X110.28 Y118.744
G0 X110.391 Y117.071
G1 F1800 X110.384 Y117.097 E1.78852
G1 X110.358 Y117.186 E1.79269
G1 X110.356 Y117.204 E1.79351
G1 X110.339 Y117.346 E1.79995
G1 X110.351 Y117.558 E1.80951
G1 X110.469 Y117.827 E1.82273
G1 X110.455 Y117.832
G1 X110.432 Y117.841 E1.82385
G1 X110.212 Y117.996 E1.83596
G1 X110.092 Y118.198 E1.84654
G1 X110.05 Y118.268 E1.85022
G1 X110.002 Y118.479 E1.85996
G1 X110.002 Y118.586 E1.86478
G1 X110.002 Y118.653 E1.8678
G1 X110.006 Y118.681 E1.86907
G1 X110.028 Y118.817 E1.87527
G1 X110.084 Y118.976 E1.88286
G1 X110.157 Y119.108 E1.88965
G1 X110.261 Y119.241 E1.89726
G1 X110.386 Y119.351 E1.90475
G1 X110.512 Y119.434 E1.91155
G1 X110.65 Y119.502 E1.91847
G1 X110.805 Y119.556 E1.92586
G1 X111.026 Y119.606 E1.93607
G1 X111.278 Y119.629 E1.94746
G1 X111.602 Y119.616 E1.96206
G1 X111.778 Y119.588 E1.97008
G1 X111.941 Y119.542 E1.97771
G1 X112.149 Y119.453 E1.9879
G1 X112.294 Y119.366 E1.99551
G1 X112.431 Y119.263 E2.00323
G1 X112.541 Y119.152 E2.01026
G1 X112.568 Y119.125 E2.01198
G1 X112.595 Y119.181
G1 X112.61 Y119.21 E2.0121
G1 X112.619 Y119.229
G1 X112.805 Y119.425 E2.02192
G1 X113.045 Y119.534 E2.03379
G1 X113.24 Y119.562 E2.04266
G1 X113.645 Y119.536 E2.06093
G1 X114.136 Y119.535 E2.08304
G1 X114.493 Y119.491 E2.09924
G1 X114.807 Y119.401 E2.11394
G1 X114.981 Y119.308 E2.12283
G1 X115.053 Y119.408 E2.12838
G1 X115.25 Y119.586 E2.14033
G1 X115.431 Y119.686 E2.14964
G1 X115.612 Y119.75 E2.15829
G1 X115.806 Y119.782 E2.16714
G1 X116.001 Y119.778 E2.17592
G1 X116.193 Y119.74 E2.18473
G1 X116.375 Y119.669 E2.19353
G1 X116.539 Y119.567 E2.20223
G1 X116.595 Y119.518 E2.20558
G1 X116.685 Y119.573 E2.21033
G1 X116.882 Y119.635 E2.21962
G1 X117.153 Y119.643 E2.23183
G1 X117.415 Y119.539 E2.24452
G1 X117.548 Y119.431 E2.25224
G1 X117.732 Y119.57 E2.26262
G1 X117.982 Y119.646 E2.27439
G1 X118.049 Y119.647 E2.2774
G1 X118.125 Y119.649 E2.28083
G1 X118.113 Y119.688
G1 X118.109 Y119.698
G1 X118.045 Y119.884 E2.28635
G1 X118.046 Y120.129 E2.29738
G1 X118.087 Y120.303 E2.30543
G1 X118.153 Y120.46 E2.3131
G1 X118.231 Y120.576 E2.31939
G1 X118.247 Y120.6 E2.32069
G1 X118.379 Y120.738 E2.32929
G1 X118.59 Y120.856 E2.34017
G1 X118.716 Y120.887 E2.34602
G1 X118.769 Y120.901 E2.34848
G1 X118.71 Y120.914
G1 X118.598 Y120.926 E2.34882
G1 X118.403 Y120.948 E2.35307
G1 X118.288 Y120.961 E2.35488
G1 X118.26 Y120.964 E2.3561
G1 X117.865 Y121.008 E2.374
G1 X116.994 Y120.998 E2.41322
G1 X105.353 Y120.272 E2.93838
G1 X105.277 Y120.252 E2.94192
G1 X105.214 Y120.215 E2.94521
G1 X105.192 Y120.196 E2.94652
G1 X105.173 Y120.171 E2.94793
G1 X105.142 Y120.108 E2.9511
G1 X105.133 Y120.074 E2.95268
G1 X105.119 Y119.914 E2.95991
G1 X105.119 Y119.493 E2.97887
G1 X105.119 Y119.431 E2.98166
G1 X105.119 Y119.255 E2.98958
G1 X105.119 Y119.216 E2.99134
G1 X105.162 Y119.255
G1 X105.435 Y119.431 E3.00044
G1 X105.492 Y119.454 E3.00297
G1 X105.672 Y119.529 E3.01175
G1 X105.843 Y119.578 E3.01976
G1 X106.047 Y119.615 E3.02909
G1 X106.324 Y119.629 E3.04158
G1 X106.649 Y119.602 E3.05626
G1 X106.884 Y119.544 E3.06716
G1 X107.042 Y119.483 E3.07479
G1 X107.181 Y119.41 E3.08186
G1 X107.311 Y119.324 E3.08887
G1 X107.432 Y119.22 E3.09606
G1 X107.543 Y119.099 E3.10345
G1 X107.634 Y118.966 E3.11071
G1 X107.704 Y118.832 E3.11751
G1 X107.706 Y118.828 E3.11772
G1 X107.766 Y118.667 E3.12545
G1 X107.805 Y118.565 E3.13037
G1 X107.735 Y118.192 E3.14746
G1 X107.652 Y118.07 E3.1541
G1 X107.581 Y117.965 E3.15981
G1 X107.439 Y117.84 E3.16833
G1 X107.281 Y117.748 E3.17656
G1 X107.117 Y117.695 E3.18432
G1 X107.052 Y117.684 E3.18729
G1 X106.965 Y117.671 E3.19125
G1 X106.789 Y117.671 E3.19917
G1 X106.585 Y117.722 E3.20864
G1 X106.332 Y117.869 E3.22182
G1 X106.317 Y117.889 E3.22294
G1 X106.283 Y117.931 E3.22537
G1 X106.221 Y117.918 E3.22823
G1 X106.199 Y117.897 E3.2296
G1 X106.179 Y117.854 E3.23173
G1 X106.154 Y117.761 E3.2343
G1 X106.14 Y117.656 E3.23784
G1 X106.133 Y117.464 E3.24649
G1 X106.147 Y117.251 E3.2561
G1 X106.181 Y117.112 E3.26254
G1 X106.185 Y117.096 E3.26328
G1 X106.206 Y117.057 E3.26528
G1 X106.219 Y117.047 E3.26602
G1 X106.242 Y117.038 E3.26713
G1 X106.265 Y117.051
G1 X106.494 Y117.188 E3.27587
G1 X106.632 Y117.245 E3.2826
G1 X106.775 Y117.287 E3.28931
G1 X106.825 Y117.291 E3.29152
G1 X106.981 Y117.307 E3.29808
G1 X107.066 Y117.287 E3.30184
G1 X107.294 Y117.233 E3.31239
G1 X107.521 Y117.06 E3.32524
G1 X107.544 Y117.03 E3.32694
G1 X107.645 Y117.087 E3.33217
G1 X107.942 Y117.127 E3.34566
G1 X108.042 Y117.115 E3.35019
G1 X108.041 Y117.129
G1 X108.043 Y118.043 E3.39135
G1 X108.043 Y118.191 E3.39729
G1 X108.044 Y118.562 E3.4087
G1 X108.042 Y118.586 E3.40877
G1 X108.026 Y118.764 E3.41453
G1 X108.028 Y118.786
G1 X108.057 Y119.006 E3.42324
G1 X108.059 Y119.01 E3.42344
G1 X108.186 Y119.256 E3.43591
G1 X108.393 Y119.434 E3.4482
G1 X108.578 Y119.512 E3.45724
G1 X108.74 Y119.549 E3.46472
G1 X108.921 Y119.558 E3.47288
G1 X109.185 Y119.511 E3.48495
G1 X109.463 Y119.33 E3.49989
G1 X109.623 Y119.102 E3.51243
G1 X109.696 Y118.884 E3.52278
G1 X109.713 Y118.769 E3.52734
G1 X109.72 Y118.727 E3.52828
G1 X109.722 Y118.646 E3.53076
G1 X109.724 Y118.586 E3.53245
G1 X109.722 Y118.486 E3.53555
G1 X109.717 Y118.276 E3.54322
G1 X109.714 Y118.155 E3.54777
G1 X109.714 Y118.073 E3.55146
G1 X109.716 Y117.103 E3.59513
G1 X109.862 Y117.096 E3.60172
G1 X109.987 Y117.078 E3.6074
G1 X110.005 Y117.076 E3.60809
G1 X110.161 Y117.034 E3.61411
G1 X110.251 Y116.986 E3.61679
G1 X110.278 Y116.972 E3.61682
G1 X110.391 Y117.071 E3.62358
G1 F1500 E-2.37642
G0 F7500 X110.28 Y118.744
G0 X110.452 Y119.061
G0 X110.876 Y119.305
G0 X111.578 Y119.356
G0 X112.141 Y119.155
G0 X112.45 Y118.855
G0 X112.665 Y118.298
G0 X112.659 Y116.109
G0 X112.85 Y116.164
;TYPE:WALL-OUTER
G1 F1500 E3.62358
G1 F1800 X112.846 Y116.254 E3.62744
G1 X112.867 Y116.592 E3.64192
G1 X112.865 Y117.654 E3.68735
G1 X112.865 Y117.822 E3.69454
G1 X112.864 Y117.998 E3.70206
G1 X112.863 Y118.114 E3.70703
G1 X112.862 Y118.229 E3.71194
G1 X112.861 Y118.336 E3.71652
G1 X112.86 Y118.405 E3.71947
G1 X112.859 Y118.553 E3.7258
G1 X112.858 Y118.684 E3.73141
G1 X112.87 Y118.786 E3.7358
G1 X112.894 Y118.882 E3.74003
G1 X112.951 Y118.998 E3.74556
G1 X113.041 Y119.093 E3.75116
G1 X113.158 Y119.146 E3.75665
G1 X113.256 Y119.16 E3.76089
G1 X113.635 Y119.136 E3.77713
G1 X114.111 Y119.135 E3.79749
G1 X114.413 Y119.098 E3.81051
G1 X114.656 Y119.028 E3.82133
G1 X114.849 Y118.924 E3.8307
G1 X114.869 Y118.914 E3.83166
G1 X114.974 Y118.835 E3.83728
G1 X115.04 Y118.775 E3.8411
G1 X115.074 Y118.744 E3.84306
G1 X115.094 Y118.72 E3.8444
G1 X115.15 Y118.653 E3.84813
G1 X115.191 Y118.604 E3.85087
G1 X115.183 Y118.679 E3.85138
G1 X115.187 Y118.733
G1 X115.194 Y118.802 E3.85209
G1 X115.2 Y118.827
G1 X115.225 Y118.921 E3.85486
G1 X115.234 Y118.941 E3.8558
G1 X115.278 Y119.035 E3.86013
G1 X115.353 Y119.14 E3.86565
G1 X115.484 Y119.258 E3.87319
G1 X115.596 Y119.32 E3.87866
G1 X115.712 Y119.361 E3.88393
G1 X115.835 Y119.381 E3.88926
G1 X115.959 Y119.379 E3.89456
G1 X116.08 Y119.355 E3.89984
G1 X116.195 Y119.31 E3.90512
G1 X116.3 Y119.245 E3.9104
G1 X116.393 Y119.163 E3.91571
G1 X116.471 Y119.066 E3.92103
G1 X116.499 Y119.012 E3.92363
G1 X116.524 Y118.965 E3.92591
G1 X116.529 Y118.956 E3.92635
G1 X116.551 Y118.887 E3.92945
G1 X116.566 Y118.84 E3.93156
G1 X116.577 Y118.768 E3.93467
G1 X116.585 Y118.716 E3.93692
G1 X116.584 Y118.68 E3.93846
G1 X116.579 Y118.592 E3.94223
G1 X116.565 Y118.526 E3.94512
G1 X116.552 Y118.472 E3.9475
G1 X116.536 Y118.433 E3.9493
G1 X116.505 Y118.357 E3.95281
G1 X116.438 Y118.253 E3.9581
G1 X116.354 Y118.162 E3.9634
G1 X116.255 Y118.088 E3.96869
G1 X116.144 Y118.031 E3.97402
G1 X116.025 Y117.996 E3.97933
G1 X115.903 Y117.982 E3.98458
G1 X115.799 Y117.988 E3.98904
G1 X115.779 Y117.989 E3.98989
G1 X115.658 Y118.019 E3.99523
G1 X115.618 Y118.037 E3.9971
G1 X115.545 Y118.069 E4.00051
G1 X115.513 Y118.09 E4.00215
G1 X115.443 Y118.138 E4.00578
G1 X115.407 Y118.173 E4.00793
G1 X115.418 Y118.132
G1 X115.444 Y118.041 E4.00885
G1 X115.455 Y118.005
G1 X115.458 Y117.987
G1 X115.466 Y117.938 E4.00982
G1 X115.495 Y117.761 E4.01534
G1 X115.496 Y117.741 E4.0162
G1 X115.51 Y117.492 E4.02687
G1 X115.5 Y117.227 E4.03821
G1 X115.45 Y116.912 E4.05185
G1 X115.363 Y116.642 E4.06399
G1 X115.238 Y116.406 E4.07541
G1 X115.084 Y116.209 E4.08611
G1 X114.966 Y116.102 E4.09292
G1 X114.869 Y116.032 E4.09804
G1 X114.761 Y115.973 E4.1033
G1 X114.547 Y115.896 E4.11303
G1 X114.336 Y115.854 E4.12223
G1 X113.989 Y115.825 E4.13713
G1 X113.317 Y115.818 E4.16587
G1 X113.242 Y115.826 E4.1691
G1 X113.151 Y115.846 E4.17309
G1 X113.062 Y115.881 E4.17718
G1 X112.954 Y115.954 E4.18275
G1 X112.88 Y116.061 E4.18832
G1 X112.85 Y116.164 E4.19291
G0 F7500 X112.846 Y116.254
G0 X112.865 Y116.564
G0 X112.665 Y116.576
G0 X112.753 Y116
G0 X113 Y115.755
G0 X113.311 Y115.679
G0 X114.586 Y115.761
G0 X115.053 Y115.991
G0 X116.524 Y117.139
G0 X116.531 Y116.728
G0 X116.828 Y116.448
G0 X118.085 Y116.398
G0 X122.662 Y116.423
G0 X122.954 Y116.618
G0 X123.057 Y116.952
G0 X122.852 Y118.026
;TYPE:WALL-INNER
G1 F1800 X122.86 Y118.014 E4.19355
G1 X122.866 Y118.005 E4.19404
G1 X122.966 Y117.864 E4.20183
G1 X123.152 Y117.6 E4.21637
G1 X123.225 Y117.468 E4.22316
G1 X123.251 Y117.401 E4.22639
G1 X123.267 Y117.359 E4.22842
G1 X123.28 Y117.327 E4.22997
G1 X123.321 Y117.157 E4.23785
G1 X123.325 Y117.085 E4.24109
G1 X123.355 Y117.135
G1 X123.42 Y117.24 E4.24362
G1 X123.468 Y117.318 E4.24436
G1 X123.565 Y117.475 E4.25025
G1 X123.566 Y117.523 E4.25204
G1 X123.494 Y117.637 E4.25722
G1 X123.414 Y117.764 E4.26253
G1 X123.233 Y118.051 E4.27474
G1 X123.119 Y118.195 E4.28142
G1 X122.95 Y118.064 E4.29105
G1 X122.852 Y118.026 E4.29218
G0 F7500 X123.069 Y116.99
G0 X122.954 Y116.618
G0 X122.662 Y116.423
G0 X116.96 Y116.408
G0 X115.639 Y117.212
G0 X115.493 Y116.592
G0 X115.189 Y116.116
G0 X114.816 Y115.845
G0 X114.001 Y115.686
G0 X113.111 Y115.711
G0 X112.853 Y115.854
G0 X112.712 Y116.143
G0 X112.731 Y118.807
G0 X112.836 Y119.078
G0 X113.121 Y119.283
G0 X118.365 Y119.751
G0 X118.307 Y120.095
G0 X118.452 Y120.435
G0 X118.808 Y120.643
G0 X119.353 Y120.556
G0 X119.75 Y120.274
G0 X120.723 Y119.447
G0 X121.656 Y119.639
G1 F1800 X121.462 Y119.781 E4.303
G1 X121.375 Y119.845 E4.30786
G1 X121.262 Y119.929 E4.3142
G1 X121.216 Y119.953 E4.31654
G1 X120.38 Y120.403 E4.35929
G1 X120.119 Y120.499 E4.37181
G1 X119.99 Y120.546 E4.37799
G1 X119.858 Y120.594 E4.38432
G1 X119.74 Y120.638 E4.38999
G1 X119.843 Y120.554 E4.39049
G1 X119.951 Y120.442 E4.39224
G1 X120.048 Y120.308 E4.39573
G1 X120.084 Y120.242 E4.39664
G1 X120.195 Y120.038 E4.4071
G1 X120.474 Y119.335 E4.44115
G1 X120.513 Y119.225 E4.44641
G1 X120.556 Y119.104 E4.45219
G1 X120.633 Y119.267 E4.45488
G1 X120.776 Y119.45 E4.4623
G1 X121.028 Y119.605 E4.47562
G1 X121.227 Y119.645 E4.48394
G1 X121.274 Y119.647 E4.4846
G1 X121.365 Y119.651 E4.48651
G1 X121.656 Y119.639 E4.4905
G1 F1500 E-1.5095
G0 F7500 X120.953 Y119.252
G0 X120.773 Y118.907
G0 X120.803 Y118.646
G0 X121.036 Y117.45
G0 X120.996 Y117.103
G0 X121.092 Y117.021
G0 X120.917 Y116.963
;TYPE:WALL-OUTER
G1 F1500 E4.4905
G1 F1800 X120.918 Y116.989 E4.49161
G1 X120.922 Y117.058 E4.49457
G1 X120.924 Y117.07 E4.49509
G1 X120.944 Y117.151 E4.49866
