;FLAVOR:Marlin
;TIME:5162
;Filament used: 1.68675m
;Layer height: 0.12
;MINX:88.203
;MINY:106.196
;MINZ:0.12
;MAXX:131.773
;MAXY:113.813
;MAXZ:39.96
;Generated with Cura_SteamEngine 4.7.0
M140 S60
M105
M190 S60
M104 S200
M105
M109 S200
M82 ;absolute extrusion mode
; Ender 3 Custom Start G-code
G92 E0 ; Reset Extruder
G28 ; Home all axes
G1 Z2.0 F3000 ; Move Z Axis up little to prevent scratching of Heat Bed
G1 X0.1 Y20 Z0.3 F5000.0 ; Move to start position
G1 X0.1 Y200.0 Z0.3 F1500.0 E15 ; Draw the first line
G1 X0.4 Y200.0 Z0.3 F5000.0 ; Move to side a little
G1 X0.4 Y20 Z0.3 F1500.0 E30 ; Draw the second line
G92 E0 ; Reset Extruder
G1 Z2.0 F3000 ; Move Z Axis up little to prevent scratching of Heat Bed
G1 X5 Y20 Z0.3 F5000.0 ; Move over to prevent blob squish
G92 E0
G92 E0
G1 F1500 E-6.5
;LAYER_COUNT:333
;LAYER:0
M107
G0 F6000 X88.847 Y106.727 Z0.12
;TYPE:SKIRT
G1 F1500 E0
G1 F1200 X89.142 Y106.489 E0.00756
G1 X89.48 Y106.318 E0.01512
G1 X89.846 Y106.221 E0.02268
G1 X90.12 Y106.2 E0.02816
G1 X96.395 Y106.2 E0.15339
G1 X99.091 Y106.198 E0.20719
G1 X103.401 Y106.2 E0.2932
G1 X109.127 Y106.2 E0.40747
G1 X109.504 Y106.24 E0.41503
G1 X109.591 Y106.268 E0.41686
G1 X109.778 Y106.22 E0.42071
G1 X110.048 Y106.2 E0.42611
G1 X110.521 Y106.201 E0.43555
G1 X110.898 Y106.242 E0.44312
G1 X111.028 Y106.285 E0.44585
G1 X111.264 Y106.237 E0.45066
G1 X111.637 Y106.241 E0.4581
G1 X112.753 Y106.368 E0.48052
G1 X113.02 Y106.333 E0.48589
G1 X113.179 Y106.328 E0.48907
G1 X113.288 Y106.292 E0.49136
G1 X113.659 Y106.211 E0.49894
G1 X113.855 Y106.2 E0.50285
G1 X119.697 Y106.2 E0.61944
G1 X120.795 Y106.196 E0.64135
G1 X123.848 Y106.201 E0.70227
G1 X129.857 Y106.201 E0.82219
G1 X130.234 Y106.241 E0.82976
G1 X130.594 Y106.359 E0.83732
G1 X130.921 Y106.549 E0.84486
G1 X131.13 Y106.728 E0.85036
G1 X131.246 Y106.844 E0.85363
G1 X131.484 Y107.139 E0.86119
G1 X131.655 Y107.477 E0.86875
G1 X131.752 Y107.843 E0.87631
G1 X131.773 Y108.117 E0.88179
G1 X131.773 Y111.881 E0.95691
G1 X131.733 Y112.258 E0.96447
G1 X131.615 Y112.618 E0.97203
G1 X131.425 Y112.945 E0.97958
G1 X131.251 Y113.148 E0.98492
G1 X131.133 Y113.267 E0.98826
G1 X130.839 Y113.507 E0.99583
G1 X130.502 Y113.68 E1.00339
G1 X130.136 Y113.778 E1.01095
G1 X129.855 Y113.8 E1.01658
G1 X124.688 Y113.8 E1.11969
G1 X124.607 Y113.798 E1.12131
G1 X122.906 Y113.722 E1.15529
G1 X122.746 Y113.757 E1.15856
G1 X122.358 Y113.8 E1.16635
G1 X116.654 Y113.802 E1.28018
G1 X115.611 Y113.804 E1.30099
G1 X114.047 Y113.797 E1.3322
G1 X113.994 Y113.805 E1.33327
G1 X113.215 Y113.803 E1.34882
G1 X111.434 Y113.803 E1.38436
G1 X111.057 Y113.763 E1.39193
G1 X110.965 Y113.733 E1.39386
G1 X110.782 Y113.78 E1.39763
G1 X110.512 Y113.8 E1.40303
G1 X110.039 Y113.799 E1.41247
G1 X109.662 Y113.758 E1.42004
G1 X109.585 Y113.733 E1.42165
G1 X109.126 Y113.803 E1.43092
G1 X108.49 Y113.803 E1.44361
G1 X106.212 Y113.793 E1.48907
G1 X103.266 Y113.788 E1.54786
G1 X103.044 Y113.798 E1.5523
G1 X102.963 Y113.8 E1.55391
G1 X96.341 Y113.8 E1.68606
G1 X96.229 Y113.813 E1.68831
G1 X95.826 Y113.8 E1.69636
G1 X90.119 Y113.8 E1.81025
G1 X89.742 Y113.76 E1.81781
G1 X89.382 Y113.642 E1.82537
G1 X89.055 Y113.452 E1.83292
G1 X88.841 Y113.267 E1.83857
G1 X88.725 Y113.15 E1.84185
G1 X88.488 Y112.855 E1.84941
G1 X88.318 Y112.516 E1.85697
G1 X88.223 Y112.149 E1.86454
G1 X88.203 Y111.883 E1.86986
G1 X88.203 Y108.117 E1.94502
G1 X88.243 Y107.74 E1.95258
G1 X88.361 Y107.38 E1.96014
G1 X88.551 Y107.053 E1.96769
G1 X88.73 Y106.844 E1.97318
G1 X88.847 Y106.727 E1.97648
G0 F6000 X89.13 Y107.01
G1 F1200 X89.393 Y106.804 E1.98315
G1 X89.697 Y106.665 E1.98982
G1 X90.12 Y106.6 E1.99836
G1 X96.395 Y106.6 E2.12359
G1 X99.091 Y106.598 E2.17739
G1 X103.401 Y106.6 E2.2634
G1 X109.127 Y106.6 E2.37767
G1 X109.458 Y106.64 E2.38432
G1 X109.579 Y106.685 E2.3869
G1 X109.627 Y106.664 E2.38794
G1 X110.047 Y106.6 E2.39642
G1 X110.52 Y106.601 E2.40586
G1 X110.852 Y106.642 E2.41254
G1 X111.012 Y106.702 E2.41595
G1 X111.245 Y106.642 E2.42075
G1 X111.592 Y106.638 E2.42767
G1 X112.76 Y106.771 E2.45113
G1 X113.072 Y106.73 E2.45741
G1 X113.254 Y106.724 E2.46105
G1 X113.414 Y106.671 E2.46441
G1 X113.855 Y106.6 E2.47332
G1 X119.699 Y106.6 E2.58995
G1 X120.794 Y106.596 E2.6118
G1 X123.847 Y106.601 E2.67273
G1 X129.857 Y106.601 E2.79266
G1 X130.189 Y106.641 E2.79933
G1 X130.501 Y106.758 E2.80598
G1 X130.847 Y107.011 E2.81454
G1 X130.963 Y107.127 E2.81781
G1 X131.169 Y107.39 E2.82448
G1 X131.308 Y107.694 E2.83115
G1 X131.373 Y108.117 E2.83969
G1 X131.373 Y111.881 E2.9148
G1 X131.333 Y112.213 E2.92148
G1 X131.216 Y112.525 E2.92813
G1 X130.967 Y112.867 E2.93657
G1 X130.849 Y112.986 E2.93991
G1 X130.587 Y113.193 E2.94658
G1 X130.284 Y113.333 E2.95324
G1 X129.855 Y113.4 E2.9619
G1 X124.625 Y113.399 E3.06627
G1 X122.871 Y113.32 E3.10131
G1 X122.66 Y113.367 E3.10563
G1 X122.357 Y113.4 E3.11171
G1 X116.654 Y113.402 E3.22552
G1 X115.613 Y113.404 E3.24629
G1 X114.048 Y113.397 E3.27752
G1 X113.995 Y113.405 E3.27859
G1 X113.216 Y113.403 E3.29414
G1 X111.434 Y113.403 E3.3297
G1 X111.102 Y113.363 E3.33637
G1 X110.977 Y113.316 E3.33904
G1 X110.933 Y113.336 E3.34
G1 X110.513 Y113.4 E3.34848
G1 X110.04 Y113.399 E3.35792
G1 X109.708 Y113.358 E3.3646
G1 X109.598 Y113.317 E3.36694
G1 X109.315 Y113.39 E3.37277
G1 X109.126 Y113.403 E3.37655
G1 X108.492 Y113.403 E3.38921
G1 X106.214 Y113.393 E3.43467
G1 X103.27 Y113.388 E3.49342
G1 X103.026 Y113.399 E3.49829
G1 X96.355 Y113.4 E3.63142
G1 X96.242 Y113.413 E3.63369
G1 X95.839 Y113.4 E3.64173
G1 X90.119 Y113.4 E3.75588
G1 X89.787 Y113.36 E3.76256
G1 X89.475 Y113.243 E3.76921
G1 X89.125 Y112.986 E3.77787
G1 X89.009 Y112.869 E3.78116
G1 X88.804 Y112.605 E3.78783
G1 X88.667 Y112.3 E3.7945
G1 X88.603 Y111.883 E3.80292
G1 X88.603 Y108.117 E3.87808
G1 X88.643 Y107.785 E3.88475
G1 X88.76 Y107.473 E3.8914
G1 X89.013 Y107.127 E3.89995
G1 X89.13 Y107.01 E3.90325
G0 F6000 X89.413 Y107.293
G1 F1200 X89.639 Y107.124 E3.90889
G1 X89.903 Y107.024 E3.91452
G1 X90.12 Y107 E3.91888
G1 X96.396 Y107 E4.04412
G1 X99.09 Y106.998 E4.09788
G1 X103.4 Y107 E4.18389
G1 X109.126 Y107 E4.29816
G1 X109.406 Y107.04 E4.30381
G1 X109.577 Y107.117 E4.30755
G1 X109.831 Y107.023 E4.31295
G1 X110.046 Y107 E4.31727
G1 X110.519 Y107.001 E4.32671
G1 X110.798 Y107.041 E4.33233
G1 X110.997 Y107.132 E4.3367
G1 X111.009 Y107.124 E4.33699
G1 X111.279 Y107.041 E4.34262
G1 X111.547 Y107.035 E4.34797
G1 X112.762 Y107.173 E4.37238
G1 X113.123 Y107.126 E4.37964
G1 X113.321 Y107.12 E4.38359
G1 X113.33 Y107.121 E4.38378
G1 X113.54 Y107.051 E4.38819
G1 X113.855 Y107 E4.39456
G1 X119.7 Y107 E4.5112
G1 X120.794 Y106.996 E4.53304
G1 X123.847 Y107.001 E4.59396
G1 X129.857 Y107.001 E4.7139
G1 X130.136 Y107.041 E4.71952
G1 X130.393 Y107.157 E4.72515
G1 X130.564 Y107.294 E4.72952
G1 X130.68 Y107.41 E4.7328
G1 X130.849 Y107.636 E4.73843
G1 X130.949 Y107.9 E4.74406
G1 X130.973 Y108.117 E4.74842
G1 X130.973 Y111.881 E4.82353
G1 X130.933 Y112.16 E4.82916
G1 X130.817 Y112.417 E4.83478
G1 X130.683 Y112.585 E4.83907
G1 X130.565 Y112.704 E4.84242
G1 X130.34 Y112.874 E4.84805
G1 X130.077 Y112.975 E4.85367
G1 X129.855 Y113 E4.85813
G1 X124.643 Y112.999 E4.96214
G1 X122.836 Y112.918 E4.99823
G1 X122.573 Y112.976 E5.00361
G1 X122.357 Y113 E5.00795
G1 X116.653 Y113.002 E5.12177
G1 X115.615 Y113.004 E5.14249
G1 X114.049 Y112.997 E5.17374
G1 X113.996 Y113.005 E5.17481
G1 X113.217 Y113.003 E5.19036
G1 X111.434 Y113.003 E5.22594
G1 X111.155 Y112.963 E5.23156
G1 X110.98 Y112.884 E5.23539
G1 X110.729 Y112.977 E5.24074
G1 X110.514 Y113 E5.24505
G1 X110.041 Y112.999 E5.25449
G1 X109.762 Y112.959 E5.26011
G1 X109.592 Y112.881 E5.26385
G1 X109.551 Y112.908 E5.26483
G1 X109.281 Y112.991 E5.27046
G1 X109.126 Y113.003 E5.27357
G1 X108.494 Y113.003 E5.28618
G1 X106.216 Y112.993 E5.33164
G1 X103.253 Y112.988 E5.39077
G1 X102.963 Y113 E5.39656
G1 X96.37 Y113 E5.52813
G1 X96.255 Y113.013 E5.53044
G1 X95.852 Y113 E5.53849
G1 X90.119 Y113 E5.6529
G1 X89.84 Y112.96 E5.65852
G1 X89.583 Y112.844 E5.66415
G1 X89.409 Y112.704 E5.6686
G1 X89.293 Y112.587 E5.67189
G1 X89.124 Y112.361 E5.67752
G1 X89.026 Y112.096 E5.68316
G1 X89.003 Y111.883 E5.68744
G1 X89.003 Y108.117 E5.76259
G1 X89.043 Y107.838 E5.76822
G1 X89.159 Y107.581 E5.77384
G1 X89.296 Y107.41 E5.77822
G1 X89.413 Y107.293 E5.78152
G0 F6000 X89.696 Y107.576
G1 F1200 X89.875 Y107.452 E5.78586
G1 X90.12 Y107.4 E5.79086
G1 X96.396 Y107.4 E5.91611
G1 X99.09 Y107.398 E5.96987
G1 X103.4 Y107.4 E6.05588
G1 X109.126 Y107.4 E6.17015
G1 X109.341 Y107.44 E6.17451
G1 X109.527 Y107.554 E6.17887
G1 X109.577 Y107.619 E6.1805
G1 X109.622 Y107.574 E6.18177
G1 X109.802 Y107.451 E6.18612
G1 X110.045 Y107.4 E6.19108
G1 X110.518 Y107.401 E6.20052
G1 X110.733 Y107.441 E6.20488
G1 X110.941 Y107.577 E6.20984
G1 X110.99 Y107.626 E6.21122
G1 X111.16 Y107.495 E6.21551
G1 X111.369 Y107.433 E6.21986
G1 X111.502 Y107.433 E6.22251
G1 X112.765 Y107.577 E6.24788
G1 X113.175 Y107.523 E6.25613
G1 X113.294 Y107.519 E6.25851
G1 X113.382 Y107.525 E6.26027
G1 X113.666 Y107.431 E6.26624
G1 X113.855 Y107.4 E6.27006
G1 X119.702 Y107.4 E6.38674
G1 X120.793 Y107.396 E6.40851
G1 X123.846 Y107.401 E6.46944
G1 X129.858 Y107.401 E6.58942
G1 X130.072 Y107.441 E6.59376
G1 X130.281 Y107.577 E6.59874
G1 X130.397 Y107.693 E6.60201
G1 X130.521 Y107.872 E6.60636
G1 X130.573 Y108.117 E6.61135
G1 X130.573 Y111.881 E6.68647
G1 X130.533 Y112.096 E6.69083
G1 X130.399 Y112.303 E6.69575
G1 X130.281 Y112.422 E6.6991
G1 X130.102 Y112.547 E6.70346
G1 X129.855 Y112.6 E6.7085
G1 X124.661 Y112.599 E6.81215
G1 X122.805 Y112.516 E6.84922
G1 X122.487 Y112.586 E6.85572
G1 X122.357 Y112.6 E6.85833
G1 X116.651 Y112.602 E6.9722
G1 X115.616 Y112.604 E6.99286
G1 X114.049 Y112.597 E7.02413
G1 X113.997 Y112.605 E7.02518
G1 X113.218 Y112.603 E7.04072
G1 X111.434 Y112.603 E7.07632
G1 X111.219 Y112.563 E7.08069
G1 X111.033 Y112.45 E7.08503
G1 X110.981 Y112.383 E7.08672
G1 X110.938 Y112.426 E7.08794
G1 X110.758 Y112.549 E7.09229
G1 X110.515 Y112.6 E7.09724
G1 X110.042 Y112.599 E7.10668
G1 X109.827 Y112.559 E7.11105
G1 X109.619 Y112.423 E7.11601
G1 X109.583 Y112.387 E7.11702
G1 X109.573 Y112.404 E7.11742
G1 X109.4 Y112.537 E7.12177
G1 X109.126 Y112.603 E7.1274
G1 X108.495 Y112.603 E7.13999
G1 X106.217 Y112.593 E7.18545
G1 X103.235 Y112.588 E7.24496
G1 X102.963 Y112.6 E7.25039
G1 X96.385 Y112.6 E7.38166
G1 X96.268 Y112.614 E7.38401
G1 X95.834 Y112.6 E7.39268
G1 X90.119 Y112.6 E7.50673
G1 X89.904 Y112.56 E7.51109
G1 X89.693 Y112.422 E7.51612
G1 X89.577 Y112.305 E7.51941
G1 X89.454 Y112.125 E7.52376
G1 X89.403 Y111.883 E7.5287
G1 X89.403 Y108.117 E7.60385
G1 X89.443 Y107.902 E7.60822
G1 X89.579 Y107.693 E7.61319
G1 X89.696 Y107.576 E7.61649
G0 F6000 X89.979 Y107.859
G1 F1200 X90.12 Y107.8 E7.61954
G1 X96.396 Y107.8 E7.74479
G1 X99.09 Y107.798 E7.79855
G1 X103.4 Y107.8 E7.88456
G1 X109.126 Y107.8 E7.99883
G1 X109.245 Y107.839 E8.00133
G1 X109.326 Y108 E8.00493
G1 X109.326 Y112.003 E8.08481
G1 X109.287 Y112.122 E8.08731
G1 X109.126 Y112.203 E8.09091
G1 X108.498 Y112.203 E8.10344
G1 X106.22 Y112.193 E8.1489
G1 X103.24 Y112.188 E8.20837
G1 X102.972 Y112.2 E8.21372
G1 X96.365 Y112.2 E8.34557
G1 X96.339 Y112.207 E8.34611
G1 X96.281 Y112.214 E8.34727
G1 X95.847 Y112.2 E8.35594
G1 X90.119 Y112.2 E8.47025
G1 X89.977 Y112.141 E8.47332
G1 X89.861 Y112.024 E8.4766
G1 X89.803 Y111.883 E8.47965
G1 X89.803 Y108.117 E8.5548
G1 X89.862 Y107.976 E8.55785
G1 X89.979 Y107.859 E8.56115
G0 F6000 X90.203 Y108.2
G1 F1200 X96.315 Y108.2 E8.68313
G1 X96.337 Y108.191 E8.6836
G1 X96.396 Y108.2 E8.68479
G1 X99.09 Y108.198 E8.73855
G1 X104.257 Y108.2 E8.84167
G1 X104.129 Y108.358 E8.84572
G1 X104.113 Y108.381 E8.84628
G1 X104.068 Y108.457 E8.84804
G1 X103.967 Y108.666 E8.85268
G1 X103.956 Y108.695 E8.8533
G1 X103.931 Y108.777 E8.85501
G1 X103.925 Y108.803 E8.85554
G1 X103.888 Y109.032 E8.86017
G1 X103.885 Y109.093 E8.86139
G1 X103.887 Y110.927 E8.89799
G1 X103.891 Y110.978 E8.89901
G1 X103.904 Y111.074 E8.90094
G1 X103.929 Y111.212 E8.90374
G1 X103.935 Y111.236 E8.90423
G1 X103.957 Y111.306 E8.9057
G1 X103.99 Y111.387 E8.90744
G1 X104.072 Y111.551 E8.9111
G1 X104.097 Y111.595 E8.91211
G1 X104.154 Y111.676 E8.91409
G1 X104.248 Y111.791 E8.91705
G1 X103.222 Y111.788 E8.93753
G1 X102.954 Y111.8 E8.94288
G1 X96.341 Y111.8 E9.07485
G1 X96.264 Y111.813 E9.07641
G1 X95.859 Y111.8 E9.0845
G1 X90.203 Y111.8 E9.19737
G1 X90.203 Y108.2 E9.26921
G0 F6000 X90.603 Y108.6
G1 F1200 X96.315 Y108.6 E9.3832
G1 X96.396 Y108.6 E9.38481
G1 X99.09 Y108.598 E9.43858
G1 X103.566 Y108.6 E9.5279
G1 X103.548 Y108.66 E9.52915
G1 X103.53 Y108.739 E9.53077
G1 X103.496 Y108.948 E9.53499
G1 X103.489 Y109.007 E9.53618
G1 X103.485 Y109.093 E9.5379
G1 X103.486 Y110.912 E9.5742
G1 X103.494 Y111.03 E9.57656
G1 X103.504 Y111.106 E9.57809
G1 X103.536 Y111.283 E9.58168
G1 X103.554 Y111.356 E9.58318
G1 X103.564 Y111.389 E9.58386
G1 X103.204 Y111.389 E9.59105
G1 X102.958 Y111.4 E9.59596
G1 X96.341 Y111.4 E9.72801
G1 X96.247 Y111.412 E9.7299
G1 X95.872 Y111.4 E9.73739
G1 X90.603 Y111.4 E9.84254
G1 X90.603 Y108.6 E9.89842
G0 F6000 X91.003 Y109
G1 F1200 X96.315 Y109 E10.00442
G1 X96.396 Y109 E10.00604
G1 X99.09 Y108.998 E10.0598
G1 X103.089 Y109 E10.13961
G1 X103.085 Y109.094 E10.14148
G1 X103.086 Y110.913 E10.17778
G1 X103.089 Y110.993 E10.17938
G1 X102.94 Y111 E10.18236
G1 X96.341 Y111 E10.31405
G1 X96.241 Y111.013 E10.31606
G1 X95.853 Y111 E10.32381
G1 X91.003 Y111 E10.42059
G1 X91.003 Y109 E10.46051
G0 F6000 X91.403 Y109.4
G1 F1200 X96.315 Y109.4 E10.55853
G1 X96.396 Y109.4 E10.56015
G1 X99.091 Y109.398 E10.61393
G1 X102.685 Y109.399 E10.68565
G1 X102.686 Y110.6 E10.70962
G1 X96.341 Y110.6 E10.83624
G1 X96.243 Y110.612 E10.83821
G1 X95.853 Y110.6 E10.846
G1 X91.403 Y110.6 E10.9348
G1 X91.403 Y109.4 E10.95875
G0 F6000 X91.803 Y109.8
G1 F1200 X96.315 Y109.8 E11.04879
G1 X96.396 Y109.8 E11.05041
G1 X99.091 Y109.798 E11.10419
G1 X102.285 Y109.799 E11.16793
G1 X102.286 Y110.2 E11.17593
G1 X96.341 Y110.2 E11.29457
G1 X96.247 Y110.212 E11.29646
G1 X95.853 Y110.2 E11.30433
G1 X91.803 Y110.2 E11.38515
G1 X91.803 Y109.8 E11.39313
G1 F1500 E4.89313
G0 F6000 X104.689 Y107.337
G0 X109.765 Y107.373
G0 X109.726 Y108.117
G1 F1500 E11.39313
G1 F1200 X109.785 Y107.975 E11.3962
G1 X109.903 Y107.858 E11.39952
G1 X110.044 Y107.8 E11.40256
G1 X110.517 Y107.801 E11.412
G1 X110.658 Y107.86 E11.41505
G1 X110.775 Y107.977 E11.41835
G1 X110.834 Y108.118 E11.4214
G1 X110.834 Y111.883 E11.49653
G1 X110.775 Y112.025 E11.4996
G1 X110.657 Y112.142 E11.50292
G1 X110.516 Y112.2 E11.50596
G1 X110.043 Y112.199 E11.5154
G1 X109.902 Y112.14 E11.51845
G1 X109.785 Y112.023 E11.52175
G1 X109.726 Y111.882 E11.5248
G1 X109.726 Y108.117 E11.59994
G0 F6000 X111.234 Y108.029
G1 F1200 X111.273 Y107.91 E11.60244
G1 X111.375 Y107.838 E11.60493
G1 X111.457 Y107.83 E11.60657
G1 X112.772 Y107.979 E11.63298
G1 X113.227 Y107.92 E11.64214
G1 X113.267 Y107.918 E11.64294
G1 X113.432 Y107.929 E11.64624
G1 X113.792 Y107.81 E11.65381
G1 X113.855 Y107.8 E11.65508
G1 X119.704 Y107.8 E11.7718
G1 X120.792 Y107.796 E11.79351
G1 X123.845 Y107.801 E11.85444
G1 X129.857 Y107.801 E11.97442
G1 X129.998 Y107.86 E11.97747
G1 X130.114 Y107.976 E11.98074
G1 X130.173 Y108.117 E11.98379
G1 X130.173 Y111.881 E12.0589
G1 X130.115 Y112.022 E12.06195
G1 X129.997 Y112.141 E12.06529
G1 X129.855 Y112.2 E12.06836
G1 X124.679 Y112.2 E12.17165
G1 X122.765 Y112.114 E12.20989
G1 X122.4 Y112.195 E12.21735
G1 X122.357 Y112.2 E12.21821
G1 X116.651 Y112.202 E12.33208
G1 X115.619 Y112.204 E12.35268
G1 X114.051 Y112.197 E12.38397
G1 X113.998 Y112.205 E12.38504
G1 X113.219 Y112.203 E12.40058
G1 X111.433 Y112.203 E12.43623
G1 X111.315 Y112.164 E12.43871
G1 X111.234 Y112.003 E12.4423
G1 X111.234 Y108.029 E12.52161
G1 F1500 E6.02161
G0 F6000 X111.31 Y107.346
G0 X115.323 Y107.337
G0 X115.933 Y107.719
G0 X115.754 Y108.2
G1 F1500 E12.52161
G1 F1200 X119.704 Y108.2 E12.60043
G1 X120.792 Y108.196 E12.62215
G1 X123.845 Y108.201 E12.68307
G1 X129.773 Y108.201 E12.80137
G1 X129.772 Y111.8 E12.87319
G1 X124.697 Y111.8 E12.97447
G1 X122.758 Y111.713 E13.0132
G1 X122.705 Y111.718 E13.01427
G1 X122.337 Y111.8 E13.02179
