;FLAVOR:Marlin
;TIME:4533
;Filament used: 3.35063m
;Layer height: 0.28
;MINX:74.347
;MINY:98.347
;MINZ:0.285
;MAXX:160.653
;MAXY:136.665
;MAXZ:36.965
;Generated with Cura_SteamEngine 4.6.2
M140 S60
M105
M190 S60
M104 S200
M105
M109 S200
M82 ;absolute extrusion mode
; Ender 3 Custom Start G-code
G92 E0 ; Reset Extruder
G28 ; Home all axes
G1 Z2.0 F3000 ; Move Z Axis up little to prevent scratching of Heat Bed
G1 X0.1 Y20 Z0.3 F5000.0 ; Move to start position
G1 X0.1 Y200.0 Z0.3 F1500.0 E15 ; Draw the first line
G1 X0.4 Y200.0 Z0.3 F5000.0 ; Move to side a little
G1 X0.4 Y20 Z0.3 F1500.0 E30 ; Draw the second line
G92 E0 ; Reset Extruder
G1 Z2.0 F3000 ; Move Z Axis up little to prevent scratching of Heat Bed
G1 X5 Y20 Z0.3 F5000.0 ; Move over to prevent blob squish
G92 E0
G92 E0
G1 F1500 E-6
;LAYER_COUNT:132
;LAYER:0
M107
M204 S500
M205 X8 Y8
;MESH:Single_Car-Stackable_v1.stl
G0 F7500 X79.942 Y132.413 Z0.285
;TYPE:WALL-INNER
G1 F1500 E0
G1 F1800 X114.227 Y132.413 E1.54371
G1 X114.515 Y131.624 E1.58153
G1 X82.426 Y104.683 E3.46807
G1 X79.942 Y104.683 E3.57991
G1 X79.942 Y132.413 E4.82848
G0 F7500 X80.342 Y132.013
;TYPE:WALL-OUTER
G1 F1800 X113.781 Y132.013 E6.25882
G1 X113.947 Y132.013 E6.26592
G1 X114.043 Y131.75 E6.2779
G1 X113.916 Y131.644 E6.28397
G1 X82.28 Y105.083 E8.05089
G1 X80.342 Y105.083 E8.13378
G1 X80.342 Y132.013 E9.2857
G0 F7500 X80.742 Y132.013
G0 X80.742 Y132.453
G1 F1500 E3.2857
G0 F7500 X95.101 Y132.253
G0 X95.101 Y131.148
G0 X117.049 Y128.183
G0 X116.148 Y129.325
G0 X117.038 Y129.786
;TYPE:WALL-INNER
G1 F1500 E9.2857
G1 F1800 X147.776 Y105.489 E11.04987
G1 X147.494 Y104.683 E11.08832
G1 X86.583 Y104.683 E13.83089
G1 X86.301 Y105.489 E13.86934
G1 X113.78 Y127.21 E15.44647
G1 X117.038 Y129.786 E15.63348
G0 F7500 X117.038 Y129.276
;TYPE:WALL-OUTER
G1 F1800 X147.174 Y105.454 E17.27664
G1 X147.304 Y105.352 E17.28371
G1 X147.21 Y105.083 E17.2959
G1 X147.044 Y105.083 E17.30203
G1 X87.033 Y105.083 E19.86897
G1 X86.867 Y105.083 E19.87607
G1 X86.773 Y105.352 E19.88826
G1 X86.903 Y105.454 E19.89436
G1 X114.028 Y126.896 E21.37335
G1 X117.038 Y129.276 E21.53749
G0 F7500 X117.351 Y129.028
G0 X117.623 Y129.374
G1 F1500 E15.53749
G0 F7500 X139.291 Y112.464
G0 X140.828 Y114.297
G0 X152.635 Y104.846
G0 X154.887 Y104.855
G0 X155.059 Y132.413
;TYPE:WALL-INNER
G1 F1500 E21.53749
G1 F1800 X155.059 Y104.683 E22.78605
G1 X152.575 Y104.683 E22.8979
G1 X120.485 Y131.624 E24.78447
G1 X120.773 Y132.413 E24.82229
G1 X155.059 Y132.413 E26.36605
G0 F7500 X154.659 Y132.013
;TYPE:WALL-OUTER
G1 F1800 X154.659 Y105.083 E27.51797
G1 X152.721 Y105.083 E27.60086
G1 X121.084 Y131.644 E29.36782
G1 X120.957 Y131.75 E29.37489
G1 X121.053 Y132.013 E29.38687
G1 X121.219 Y132.013 E29.39296
G1 X154.659 Y132.013 E30.82335
G0 F7500 X154.659 Y131.613
G0 X155.099 Y131.613
G1 F1500 E24.82335
G0 F7500 X155.255 Y132.609
G0 X155.492 Y133.094
G0 X155.702 Y133.304
;TYPE:WALL-INNER
G1 F1500 E30.82335
G1 F1800 X155.702 Y135.4 E30.91772
G1 X79.298 Y135.4 E34.35788
G1 X79.298 Y133.304 E34.45225
G1 X75.6 Y133.304 E34.61876
G1 X75.6 Y99.6 E36.13631
G1 X78.096 Y99.6 E36.2487
G1 X78.096 Y101.694 E36.34298
G1 X156.904 Y101.694 E39.89138
G1 X156.904 Y99.6 E39.98567
G1 X159.4 Y99.6 E40.09805
G1 X159.4 Y133.304 E41.61561
G1 X155.702 Y133.304 E41.78211
G0 F7500 X156.102 Y133.704
;TYPE:WALL-OUTER
G1 F1800 X156.102 Y135.8 E41.87177
G1 X78.898 Y135.8 E45.17414
G1 X78.898 Y133.704 E45.26379
G1 X75.2 Y133.704 E45.42197
G1 X75.2 Y99.2 E46.89787
G1 X78.496 Y99.2 E47.03885
G1 X78.496 Y101.294 E47.12843
G1 X156.504 Y101.294 E50.46519
G1 X156.504 Y99.2 E50.55476
G1 X159.8 Y99.2 E50.69574
G1 X159.8 Y133.704 E52.17164
G1 X156.102 Y133.704 E52.32982
G0 F7500 X156.102 Y134.104
G0 X155.662 Y134.104
G0 X155.312 Y135.01
;TYPE:SKIN
G1 F1800 X79.688 Y135.01 E55.73486
G1 X79.688 Y132.914 E55.82923
G1 X75.99 Y132.914 E55.99574
G1 X75.99 Y99.99 E57.47817
G1 X77.706 Y99.99 E57.55543
G1 X77.706 Y102.084 E57.64972
G1 X157.294 Y102.084 E61.23324
G1 X157.294 Y99.99 E61.32753
G1 X159.01 Y99.99 E61.40479
G1 X159.01 Y132.914 E62.88722
G1 X155.312 Y132.914 E63.05373
G1 X155.312 Y135.01 E63.1481
G1 F1500 E57.1481
G0 F7500 X155.592 Y135.01
G0 X155.492 Y133.094
G0 X155.255 Y132.609
G0 X155.169 Y132.553
G0 X155.449 Y132.803
G1 F1500 E63.1481
G1 F1800 X155.449 Y104.293 E64.43179
G1 X152.433 Y104.293 E64.56759
G1 X120.025 Y131.501 E66.47286
G1 X120.5 Y132.803 E66.53526
G1 X155.449 Y132.803 E68.10887
G1 F1500 E62.10887
G0 F7500 X155.169 Y132.553
G0 X154.887 Y104.855
G0 X152.635 Y104.846
G0 X149.308 Y107.178
G0 X148.005 Y105.556
G0 X147.917 Y105.519
G0 X148.236 Y105.623
G1 F1500 E68.10887
G1 F1800 X147.771 Y104.293 E68.17231
G1 X86.306 Y104.293 E70.93983
G1 X85.841 Y105.623 E71.00327
G1 X113.538 Y127.516 E72.5929
G1 X117.038 Y130.283 E72.79379
G1 X148.236 Y105.623 E74.58434
G1 F1500 E68.58434
G0 F7500 X147.917 Y105.519
G0 X117.038 Y129.531
G0 X117.038 Y128.184
G0 X112.053 Y131.175
G0 X112.237 Y132.583
G0 X114.109 Y132.245
G0 X114.655 Y131.597
G0 X114.975 Y131.501
G1 F1500 E74.58434
G1 F1800 X82.568 Y104.293 E76.48957
G1 X79.552 Y104.293 E76.62537
G1 X79.552 Y132.803 E77.90906
G1 X114.5 Y132.803 E79.48263
G1 X114.975 Y131.501 E79.54503
G1 F1500 E73.54503
G0 F7500 X114.655 Y131.597
G0 X114.506 Y132.261
G0 X116.554 Y133.01
G1 F1500 E79.54503
G1 F1800 X116.712 Y132.576 E79.56583
G1 X117.038 Y132.833 E79.58452
G1 X118.081 Y132.009 E79.64437
G1 X118.446 Y133.01 E79.69234
G1 X116.554 Y133.01 E79.77753
G0 F7500 X115.982 Y133.41
G1 F1800 X116.526 Y131.919 E79.84899
G1 X117.038 Y132.323 E79.87836
G1 X118.267 Y131.352 E79.94888
G1 X119.018 Y133.41 E80.04752
G1 X115.982 Y133.41 E80.18422
G0 F7500 X115.06 Y133.603
G1 F1800 X115.919 Y131.249 E80.29705
G1 X99.023 Y117.063 E81.29039
G1 X117.038 Y131.303 E82.32434
G1 X149.18 Y105.898 E84.16904
G1 X148.339 Y103.493 E84.28376
G1 X85.738 Y103.493 E87.10243
G1 X85.085 Y105.361 E87.19153
G1 X82.86 Y103.493 E87.32234
G1 X78.752 Y103.493 E87.5073
G1 X78.752 Y132.114 E88.79599
G1 X76.79 Y132.114 E88.88433
G1 X76.79 Y100.79 E90.29472
G1 X76.906 Y100.79 E90.29994
G1 X76.906 Y102.884 E90.39423
G1 X158.094 Y102.884 E94.04979
G1 X158.094 Y100.79 E94.14408
G1 X158.21 Y100.79 E94.1493
G1 X158.21 Y132.114 E95.55969
G1 X156.249 Y132.114 E95.64799
G1 X156.249 Y103.493 E96.93667
G1 X152.141 Y103.493 E97.12164
G1 X119.081 Y131.249 E99.06526
G1 X119.94 Y133.603 E99.17808
G1 X154.512 Y133.603 E100.73472
G1 X154.512 Y134.21 E100.76205
G1 X80.488 Y134.21 E104.09505
G1 X80.488 Y133.603 E104.12238
G1 X115.06 Y133.603 E105.67901
G0 F7500 X114.78 Y133.203
G1 F1800 X115.447 Y131.375 E105.76663
G1 X82.714 Y103.893 E107.69104
G1 X79.152 Y103.893 E107.85142
G1 X79.152 Y132.514 E109.14011
G1 X76.39 Y132.514 E109.26447
G1 X76.39 Y100.39 E110.71088
G1 X77.306 Y100.39 E110.75212
G1 X77.306 Y102.484 E110.84641
G1 X157.694 Y102.484 E114.46595
G1 X157.694 Y100.39 E114.56024
G1 X158.61 Y100.39 E114.60148
G1 X158.61 Y132.514 E116.04789
G1 X155.849 Y132.514 E116.17221
G1 X155.849 Y103.893 E117.46089
G1 X152.287 Y103.893 E117.62128
G1 X119.553 Y131.375 E119.54572
G1 X120.22 Y133.203 E119.63333
G1 X154.912 Y133.203 E121.19537
G1 X154.912 Y134.61 E121.25873
G1 X80.088 Y134.61 E124.62774
G1 X80.088 Y133.203 E124.6911
G1 X114.78 Y133.203 E126.25313
G1 F1500 E120.25313
G0 F7500 X114.317 Y132.523
G0 X114.744 Y131.563
G0 X117.038 Y131.813
G1 F1500 E126.25313
G1 F1800 X129.828 Y121.704 E126.98717
G1 X118.609 Y131.123 E127.64674
G1 X119.59 Y133.81 E127.77554
G1 X115.41 Y133.81 E127.96375
G1 X116.34 Y131.262 E128.08588
G1 X117.038 Y131.813 E128.12592
G0 F7500 X117.038 Y130.034
G0 X117.025 Y129.937
G0 X117.038 Y130.793
G1 F1800 X148.708 Y105.761 E129.94353
G1 X148.055 Y103.893 E130.03263
G1 X86.022 Y103.893 E132.82572
G1 X85.369 Y105.761 E132.91482
G1 X113.29 Y127.83 E134.51728
G1 X117.038 Y130.793 E134.7324
G1 F1500 E128.7324
G0 F7500 X117.025 Y129.937
G0 X113.662 Y127.36
G0 X114.563 Y126.218
G0 X108.888 Y128.453
G0 X112.053 Y131.175
G0 X101.912 Y131.202
G0 X88.056 Y136.665
G0 X88.056 Y135.23
G0 X79.48 Y135.218
G0 X79.47 Y133.607
G0 X78.352 Y133.194
G0 X78.352 Y131.714
G1 F1500 E134.7324
G1 F1800 X77.19 Y131.714 E134.78472
G1 X77.19 Y103.284 E136.06481
G1 X78.352 Y103.284 E136.11713
G1 X78.352 Y131.714 E137.39721
G0 F7500 X77.952 Y131.314
G1 F1800 X77.59 Y131.314 E137.41351
G1 X77.59 Y103.684 E138.65758
G1 X77.952 Y103.684 E138.67388
G1 X77.952 Y131.314 E139.91794
G1 F1500 E133.91794
G0 F7500 X81.195 Y131.16
G0 X94.511 Y110.367
G0 X93.609 Y111.509
G0 X86.499 Y105.432
G0 X86.295 Y105.172
G0 X84.898 Y104.682
G1 F1500 E139.91794
G1 F1800 X83.233 Y103.284 E140.01583
G1 X85.387 Y103.284 E140.11282
G1 X84.898 Y104.682 E140.17951
G0 F7500 X84.711 Y104.003
G1 F1800 X84.331 Y103.684 E140.20185
G1 X84.823 Y103.684 E140.224
G1 X84.711 Y104.003 E140.23922
G1 F1500 E134.23922
G0 F7500 X82.619 Y106.496
G0 X89.704 Y106.647
G0 X88.844 Y105.921
G0 X145.232 Y105.921
G0 X142.929 Y107.788
G0 X150.645 Y107.954
G0 X149.722 Y106.856
G0 X150.34 Y106.416
G0 X149.388 Y105.281
G1 F1500 E140.23922
G1 F1800 X148.69 Y103.284 E140.33447
G1 X151.768 Y103.284 E140.47306
G1 X149.388 Y105.281 E140.61295
G0 F7500 X149.575 Y104.602
G1 F1800 X149.254 Y103.684 E140.65674
G1 X150.67 Y103.684 E140.72049
G1 X149.575 Y104.602 E140.78483
G1 F1500 E134.78483
G0 F7500 X149.575 Y100.429
G0 X155.651 Y98.347
G0 X160.653 Y98.347
G0 X160.653 Y134.557
G0 X156.955 Y134.557
G0 X157.049 Y131.314
G1 F1500 E140.78483
G1 F1800 X157.049 Y103.684 E142.0289
G1 X157.41 Y103.684 E142.04515
G1 X157.41 Y131.314 E143.28922
G1 X157.049 Y131.314 E143.30547
G0 F7500 X156.649 Y131.714
G1 F1800 X156.649 Y103.284 E144.58556
G1 X157.81 Y103.284 E144.63783
G1 X157.81 Y131.714 E145.91792
G1 X156.649 Y131.714 E145.9702
G0 F7500 X156.649 Y133.104
G1 F1500 E139.9702
;MESH:NONMESH
G0 F300 X156.649 Y133.104 Z0.565
G0 F7500 X156.649 Y133.194
G0 X155.529 Y133.514
G0 X155.52 Y135.218
G0 X139.344 Y135.23
G0 X139.344 Y136.665
G0 X90.867 Y131.148
G0 X90.867 Y132.583
G0 X79.942 Y132.413
;TIME_ELAPSED:139.804244
;LAYER:1
M140 S60
M106 S85
;TYPE:WALL-INNER
;MESH:Single_Car-Stackable_v1.stl
G1 F1500 E145.9702
G1 F2400 X114.227 Y132.413 E147.56665
G1 X114.515 Y131.624 E147.60576
G1 X82.426 Y104.683 E149.55675
G1 X79.942 Y104.683 E149.67241
G1 X79.942 Y132.413 E150.96364
G0 F8250 X80.342 Y132.013
;TYPE:WALL-OUTER
G1 F1800 X113.781 Y132.013 E152.44285
G1 X113.947 Y132.013 E152.45019
G1 X114.043 Y131.75 E152.46257
G1 X113.916 Y131.644 E152.46885
G1 X82.28 Y105.083 E154.29613
G1 X80.342 Y105.083 E154.38186
G1 X80.342 Y132.013 E155.57314
G0 F8250 X80.742 Y132.013
G0 X80.742 Y132.453
G1 F1500 E149.57314
G0 F8250 X95.101 Y132.253
G0 X95.101 Y131.148
G0 X117.049 Y128.182
G0 X116.135 Y129.34
G0 X117.038 Y129.786
;TYPE:WALL-INNER
G1 F1500 E155.57314
G1 F2400 X147.776 Y105.489 E157.39758
G1 X147.494 Y104.683 E157.43734
G1 X86.583 Y104.683 E160.27361
G1 X86.301 Y105.489 E160.31338
G1 X108.03 Y122.665 E161.6031
G1 X117.038 Y129.786 E162.13778
G0 F8250 X117.038 Y129.276
;TYPE:WALL-OUTER
G1 F1800 X147.174 Y105.454 E163.83708
G1 X147.304 Y105.352 E163.84439
G1 X147.21 Y105.083 E163.85699
G1 X147.044 Y105.083 E163.86333
G1 X87.033 Y105.083 E166.51798
G1 X86.867 Y105.083 E166.52532
G1 X86.773 Y105.352 E166.53793
G1 X86.903 Y105.454 E166.54423
G1 X108.278 Y122.351 E167.74953
G1 X117.038 Y129.276 E168.2435
G0 F8250 X117.351 Y129.028
G0 X117.623 Y129.374
G1 F1500 E162.2435
G0 F8250 X139.291 Y112.464
G0 X140.828 Y114.297
G0 X152.635 Y104.846
G0 X154.887 Y104.855
G0 X155.059 Y132.413
;TYPE:WALL-INNER
G1 F1500 E168.2435
G1 F2400 X155.059 Y104.683 E169.53472
G1 X152.575 Y104.683 E169.65039
G1 X120.485 Y131.624 E171.60141
G1 X120.773 Y132.413 E171.64052
G1 X155.059 Y132.413 E173.23702
G0 F8250 X154.659 Y132.013
;TYPE:WALL-OUTER
G1 F1800 X154.659 Y105.083 E174.4283
G1 X152.721 Y105.083 E174.51403
G1 X121.084 Y131.644 E176.34135
G1 X120.957 Y131.75 E176.34866
G1 X121.053 Y132.013 E176.36105
G1 X121.219 Y132.013 E176.36735
G1 X154.659 Y132.013 E177.8466
G0 F8250 X154.659 Y131.613
G0 X155.099 Y131.613
G1 F1500 E171.8466
G0 F8250 X155.255 Y132.609
G0 X155.492 Y133.094
G0 X155.702 Y133.304
;TYPE:WALL-INNER
G1 F1500 E177.8466
G1 F2400 X155.702 Y135.4 E177.9442
G1 X79.298 Y135.4 E181.50189
G1 X79.298 Y133.304 E181.59949
G1 X75.6 Y133.304 E181.77168
G1 X75.6 Y99.6 E183.34108
G1 X78.096 Y99.6 E183.45731
G1 X78.096 Y101.694 E183.55481
G1 X156.904 Y101.694 E187.22444
G1 X156.904 Y99.6 E187.32195
G1 X159.4 Y99.6 E187.43817
G1 X159.4 Y133.304 E189.00757
G1 X155.702 Y133.304 E189.17977
G0 F8250 X156.102 Y133.704
;TYPE:WALL-OUTER
G1 F1800 X156.102 Y135.8 E189.27249
G1 X78.898 Y135.8 E192.68768
G1 X78.898 Y133.704 E192.7804
G1 X75.2 Y133.704 E192.94398
G1 X75.2 Y99.2 E194.4703
G1 X78.496 Y99.2 E194.6161
G1 X78.496 Y101.294 E194.70873
G1 X156.504 Y101.294 E198.15949
G1 X156.504 Y99.2 E198.25212
G1 X159.8 Y99.2 E198.39793
G1 X159.8 Y133.704 E199.92424
G1 X156.102 Y133.704 E200.08783
G0 F8250 X156.102 Y134.104
G0 X155.662 Y134.104
G0 X155.312 Y135.01
;TYPE:SKIN
G1 F1800 X79.688 Y135.01 E203.6092
G1 X79.688 Y132.914 E203.7068
G1 X75.99 Y132.914 E203.87899
G1 X75.99 Y99.99 E205.41207
G1 X77.706 Y99.99 E205.49198
G1 X77.706 Y102.084 E205.58948
G1 X157.294 Y102.084 E209.29543
G1 X157.294 Y99.99 E209.39294
G1 X159.01 Y99.99 E209.47284
G1 X159.01 Y132.914 E211.00592
G1 X155.312 Y132.914 E211.17811
G1 X155.312 Y135.01 E211.27571
G1 F1500 E205.27571
G0 F8250 X155.592 Y135.01
G0 X155.492 Y133.094
G0 X155.255 Y132.609
G0 X155.169 Y132.553
G0 X155.449 Y132.803
G1 F1500 E211.27571
G1 F1800 X155.449 Y104.293 E212.60326
G1 X152.433 Y104.293 E212.7437
G1 X120.025 Y131.501 E214.71406
G1 X120.5 Y132.803 E214.77859
G1 X155.449 Y132.803 E216.40596
G1 F1500 E210.40596
G0 F8250 X155.169 Y132.553
G0 X154.887 Y104.855
G0 X152.635 Y104.846
G0 X149.308 Y107.178
G0 X148.005 Y105.556
G0 X147.917 Y105.519
G0 X148.236 Y105.623
G1 F1500 E216.40596
G1 F1800 X147.771 Y104.293 E216.47157
G1 X86.306 Y104.293 E219.33364
G1 X85.841 Y105.623 E219.39924
G1 X107.788 Y122.971 E220.7019
G1 X117.038 Y130.283 E221.25094
G1 X148.236 Y105.623 E223.10266
G1 F1500 E217.10266
G0 F8250 X147.917 Y105.519
G0 X117.038 Y129.531
G0 X117.038 Y128.184
G0 X112.053 Y131.175
G0 X112.237 Y132.583
G0 X114.109 Y132.245
G0 X114.655 Y131.597
G0 X114.975 Y131.501
G1 F1500 E223.10266
G1 F1800 X82.568 Y104.293 E225.07299
G1 X79.552 Y104.293 E225.21343
G1 X79.552 Y132.803 E226.54097
G1 X114.5 Y132.803 E228.1683
G1 X114.975 Y131.501 E228.23283
G1 F1500 E222.23283
G0 F8250 X114.655 Y131.597
G0 X114.506 Y132.261
G0 X116.554 Y133.01
G1 F1500 E228.23283
G1 F1800 X116.712 Y132.576 E228.25434
G1 X117.038 Y132.833 E228.27367
G1 X118.081 Y132.009 E228.33556
G1 X118.446 Y133.01 E228.38517
G1 X116.554 Y133.01 E228.47327
G0 F8250 X115.982 Y133.41
G1 F1800 X116.526 Y131.919 E228.54718
G1 X117.038 Y132.323 E228.57755
G1 X118.267 Y131.352 E228.65048
G1 X119.018 Y133.41 E228.75249
G1 X115.982 Y133.41 E228.89386
G0 F8250 X115.06 Y133.603
G1 F1800 X115.919 Y131.249 E229.01054
G1 X99.021 Y117.061 E230.03796
G1 X117.038 Y131.303 E231.10736
G1 X149.18 Y105.898 E233.01508
G1 X148.339 Y103.493 E233.13372
G1 X85.738 Y103.493 E236.04868
G1 X85.085 Y105.361 E236.14083
G1 X82.86 Y103.493 E236.2761
G1 X78.752 Y103.493 E236.46739
G1 X78.752 Y132.114 E237.8001
G1 X76.79 Y132.114 E237.89146
G1 X76.79 Y100.79 E239.35004
G1 X76.906 Y100.79 E239.35544
G1 X76.906 Y102.884 E239.45295
G1 X158.094 Y102.884 E243.2334
G1 X158.094 Y100.79 E243.33091
G1 X158.21 Y100.79 E243.33631
G1 X158.21 Y132.114 E244.79488
G1 X156.249 Y132.114 E244.8862
G1 X156.249 Y103.493 E246.21891
G1 X152.141 Y103.493 E246.4102
G1 X119.081 Y131.249 E248.42022
G1 X119.94 Y133.603 E248.5369
G1 X154.512 Y133.603 E250.14671
G1 X154.512 Y134.21 E250.17498
G1 X80.488 Y134.21 E253.62185
G1 X80.488 Y133.603 E253.65011
G1 X115.06 Y133.603 E255.25993
G0 F8250 X114.78 Y133.203
G1 F1800 X115.447 Y131.375 E255.35054
G1 X82.714 Y103.893 E257.34069
G1 X79.152 Y103.893 E257.50655
G1 X79.152 Y132.514 E258.83927
G1 X76.39 Y132.514 E258.96788
G1 X76.39 Y100.39 E260.4637
G1 X77.306 Y100.39 E260.50636
G1 X77.306 Y102.484 E260.60386
G1 X157.694 Y102.484 E264.34706
