;FLAVOR:Marlin
;TIME:1573
;Filament used: 0.845598m
;Layer height: 0.2
;MINX:46.847
;MINY:59.19
;MINZ:0.2
;MAXX:190.035
;MAXY:195.433
;MAXZ:7.524
;Generated with Cura_SteamEngine 4.6.2
M140 S60
M105
M190 S60
M104 S200
M105
M109 S200
M82 ;absolute extrusion mode
; Ender 3 Custom Start G-code
G92 E0 ; Reset Extruder
G28 ; Home all axes
G1 Z2.0 F3000 ; Move Z Axis up little to prevent scratching of Heat Bed
G1 X0.1 Y20 Z0.3 F5000.0 ; Move to start position
G1 X0.1 Y200.0 Z0.3 F1500.0 E15 ; Draw the first line
G1 X0.4 Y200.0 Z0.3 F5000.0 ; Move to side a little
G1 X0.4 Y20 Z0.3 F1500.0 E30 ; Draw the second line
G92 E0 ; Reset Extruder
G1 Z2.0 F3000 ; Move Z Axis up little to prevent scratching of Heat Bed
G1 X5 Y20 Z0.3 F5000.0 ; Move over to prevent blob squish
G92 E0
G92 E0
G1 F1500 E-6
;LAYER_COUNT:11
;LAYER:0
M107
M204 S500
M205 X8 Y8
G0 F7500 X68.872 Y157.843 Z0.2
;TYPE:SKIRT
G1 F1500 E0
G1 X69.774 Y157.896 E0.02855
G1 X70.667 Y158.028 E0.05707
G1 X71.546 Y158.239 E0.08564
G1 X72.402 Y158.527 E0.11417
G1 X73.229 Y158.889 E0.1427
G1 X74.021 Y159.323 E0.17123
G1 X74.771 Y159.826 E0.19977
G1 X75.748 Y160.643 E0.24001
G1 X76.022 Y160.903 E0.25194
G1 X76.306 Y161.183 E0.26454
G1 X76.726 Y161.614 E0.28356
G1 X77.327 Y162.288 E0.31209
G1 X77.866 Y163.013 E0.34064
G1 X78.339 Y163.782 E0.36917
G1 X78.742 Y164.591 E0.39772
G1 X79.072 Y165.431 E0.42624
G1 X79.326 Y166.298 E0.45479
G1 X79.495 Y167.135 E0.48177
G1 X79.584 Y167.708 E0.50009
G1 X79.875 Y169.843 E0.56817
G1 X80.004 Y170.726 E0.59637
G1 X80.096 Y171.638 E0.62533
G1 X80.115 Y171.98 E0.63615
G1 X80.13 Y172.442 E0.65076
G1 X80.134 Y172.84 E0.66334
G1 X80.133 Y176.422 E0.77652
G1 X80.124 Y177.149 E0.79949
G1 X80.073 Y178.051 E0.82804
G1 X79.942 Y178.945 E0.85659
G1 X79.733 Y179.823 E0.8851
G1 X79.447 Y180.68 E0.91365
G1 X79.086 Y181.508 E0.94219
G1 X78.654 Y182.3 E0.9707
G1 X78.153 Y183.052 E0.99925
G1 X77.587 Y183.756 E1.02779
G1 X76.962 Y184.407 E1.0563
G1 X76.281 Y185.001 E1.08486
G1 X75.55 Y185.532 E1.11341
G1 X74.776 Y185.996 E1.14192
G1 X73.963 Y186.39 E1.17047
G1 X73.119 Y186.71 E1.19899
G1 X72.249 Y186.955 E1.22755
G1 X71.362 Y187.121 E1.25606
G1 X70.211 Y187.219 E1.29256
G1 X69.604 Y187.232 E1.31174
G1 X64.509 Y187.231 E1.47273
G1 X63.811 Y187.222 E1.49479
G1 X62.91 Y187.171 E1.5233
G1 X62.016 Y187.039 E1.55185
G1 X61.138 Y186.83 E1.58037
G1 X60.281 Y186.543 E1.60893
G1 X59.454 Y186.182 E1.63744
G1 X58.661 Y185.749 E1.66599
G1 X57.91 Y185.248 E1.69451
G1 X57.206 Y184.682 E1.72306
G1 X56.555 Y184.056 E1.75159
G1 X55.962 Y183.375 E1.78013
G1 X55.432 Y182.644 E1.80866
G1 X54.968 Y181.869 E1.8372
G1 X54.574 Y181.056 E1.86574
G1 X54.254 Y180.212 E1.89426
G1 X54.01 Y179.342 E1.92281
G1 X53.844 Y178.454 E1.95136
G1 X53.747 Y177.299 E1.98798
G1 X53.731 Y176.456 E2.01462
G1 X53.697 Y174.15 E2.08749
G1 X53.587 Y171.556 E2.16953
G1 X53.545 Y170.798 E2.19352
G1 X53.536 Y170.477 E2.20366
G1 X53.53 Y169.76 E2.22632
G1 X53.534 Y169.47 E2.23548
G1 X53.586 Y168.569 E2.264
G1 X53.718 Y167.675 E2.29255
G1 X53.929 Y166.797 E2.32109
G1 X54.216 Y165.941 E2.34961
G1 X54.578 Y165.114 E2.37814
G1 X55.012 Y164.321 E2.4067
G1 X55.514 Y163.571 E2.43522
G1 X56.08 Y162.867 E2.46376
G1 X56.737 Y162.188 E2.49361
G1 X57.987 Y161.016 E2.54775
G1 X58.505 Y160.554 E2.56969
G1 X59.205 Y159.983 E2.59823
G1 X59.952 Y159.477 E2.62674
G1 X60.742 Y159.038 E2.65529
G1 X61.751 Y158.601 E2.69004
G1 X62.2 Y158.437 E2.70514
G1 X63.064 Y158.175 E2.73367
G1 X63.948 Y157.99 E2.76221
G1 X64.845 Y157.884 E2.79075
G1 X65.392 Y157.858 E2.80805
G1 X66.802 Y157.832 E2.85261
G1 X68.072 Y157.833 E2.89274
G0 F1350 X68.171 Y157.833
G0 X68.872 Y157.843
G0 F7500 X68.878 Y157.443
G1 F1500 X69.797 Y157.496 E2.92182
G1 X70.708 Y157.629 E2.95091
G1 X71.604 Y157.84 E2.98
G1 X72.479 Y158.128 E3.00911
G1 X73.325 Y158.491 E3.03819
G1 X74.136 Y158.926 E3.06727
G1 X74.907 Y159.43 E3.09638
G1 X75.631 Y159.999 E3.12547
G1 X76.023 Y160.353 E3.14216
G1 X76.297 Y160.613 E3.1541
G1 X76.593 Y160.904 E3.16721
G1 X77.013 Y161.335 E3.18623
G1 X77.626 Y162.022 E3.21532
G1 X78.177 Y162.759 E3.2444
G1 X78.663 Y163.541 E3.27349
G1 X79.078 Y164.363 E3.30258
G1 X79.421 Y165.217 E3.33166
G1 X79.688 Y166.098 E3.36075
G1 X79.89 Y167.072 E3.39218
G1 X79.98 Y167.654 E3.41079
G1 X80.266 Y169.755 E3.47779
G1 X80.4 Y170.668 E3.50694
G1 X80.496 Y171.616 E3.53705
G1 X80.515 Y171.958 E3.54787
G1 X80.53 Y172.438 E3.56305
G1 X80.534 Y172.84 E3.57575
G1 X80.533 Y176.427 E3.68909
G1 X80.524 Y177.154 E3.71206
G1 X80.473 Y178.073 E3.74114
G1 X80.342 Y178.985 E3.77026
G1 X80.132 Y179.881 E3.79933
G1 X79.846 Y180.756 E3.82842
G1 X79.485 Y181.603 E3.85751
G1 X79.051 Y182.415 E3.88661
G1 X78.549 Y183.187 E3.9157
G1 X77.981 Y183.912 E3.9448
G1 X77.353 Y184.585 E3.97389
G1 X76.669 Y185.201 E4.00297
G1 X75.934 Y185.755 E4.03205
G1 X75.154 Y186.244 E4.06114
G1 X74.334 Y186.663 E4.09024
G1 X73.481 Y187.009 E4.11932
G1 X72.601 Y187.28 E4.14842
G1 X71.701 Y187.473 E4.1775
G1 X70.787 Y187.588 E4.20661
G1 X70.222 Y187.619 E4.22449
G1 X69.604 Y187.632 E4.24402
G1 X64.504 Y187.631 E4.40517
G1 X63.806 Y187.622 E4.42722
G1 X62.887 Y187.57 E4.45631
G1 X61.976 Y187.439 E4.48539
G1 X61.08 Y187.229 E4.51447
G1 X60.205 Y186.942 E4.54356
G1 X59.358 Y186.58 E4.57267
G1 X58.546 Y186.146 E4.60176
G1 X57.775 Y185.644 E4.63083
G1 X57.05 Y185.076 E4.65993
G1 X56.377 Y184.447 E4.68904
G1 X55.762 Y183.763 E4.7181
G1 X55.208 Y183.028 E4.74718
G1 X54.72 Y182.247 E4.77628
G1 X54.301 Y181.427 E4.80538
G1 X53.955 Y180.574 E4.83446
G1 X53.685 Y179.694 E4.86355
G1 X53.492 Y178.793 E4.89266
G1 X53.378 Y177.88 E4.92173
G1 X53.347 Y177.309 E4.9398
G1 X53.331 Y176.462 E4.96657
G1 X53.297 Y174.136 E5.04007
G1 X53.189 Y171.597 E5.12037
G1 X53.146 Y170.816 E5.14509
G1 X53.136 Y170.482 E5.15564
G1 X53.13 Y169.755 E5.17862
G1 X53.134 Y169.465 E5.18778
G1 X53.187 Y168.546 E5.21687
G1 X53.319 Y167.635 E5.24595
G1 X53.53 Y166.738 E5.27507
G1 X53.817 Y165.864 E5.30413
G1 X54.18 Y165.018 E5.33322
G1 X54.615 Y164.206 E5.36233
G1 X55.118 Y163.435 E5.39142
G1 X55.686 Y162.711 E5.42049
G1 X56.463 Y161.897 E5.45605
G1 X57.72 Y160.717 E5.51053
G1 X58.238 Y160.255 E5.53246
G1 X58.952 Y159.673 E5.56156
G1 X59.712 Y159.155 E5.59062
G1 X60.515 Y158.704 E5.61972
G1 X61.612 Y158.226 E5.65753
G1 X62.067 Y158.06 E5.67284
G1 X62.948 Y157.792 E5.70193
G1 X63.848 Y157.601 E5.731
G1 X64.762 Y157.489 E5.7601
G1 X65.384 Y157.458 E5.77978
G1 X66.802 Y157.432 E5.82459
G1 X68.078 Y157.433 E5.86491
G0 F1350 X68.177 Y157.433
G0 X68.878 Y157.443
G0 F7500 X68.884 Y157.043
G1 F1500 X69.82 Y157.096 E5.89453
G1 X70.749 Y157.229 E5.92418
G1 X71.662 Y157.441 E5.9538
G1 X72.555 Y157.729 E5.98345
G1 X73.419 Y158.093 E6.01307
G1 X74.25 Y158.529 E6.04272
G1 X75.04 Y159.034 E6.07235
G1 X75.784 Y159.604 E6.10196
G1 X76.299 Y160.063 E6.12376
G1 X76.573 Y160.323 E6.1357
G1 X76.879 Y160.625 E6.14928
G1 X77.299 Y161.056 E6.1683
G1 X77.924 Y161.755 E6.19792
G1 X78.488 Y162.505 E6.22757
G1 X78.985 Y163.3 E6.2572
G1 X79.414 Y164.134 E6.28683
G1 X79.769 Y165.002 E6.31646
G1 X80.049 Y165.897 E6.34609
G1 X80.285 Y167.01 E6.38204
G1 X80.376 Y167.6 E6.40091
G1 X80.652 Y169.627 E6.46555
G1 X80.796 Y170.61 E6.49694
G1 X80.895 Y171.594 E6.52819
G1 X80.914 Y171.936 E6.53901
G1 X80.93 Y172.434 E6.55475
G1 X80.934 Y172.84 E6.56758
G1 X80.933 Y176.432 E6.68108
G1 X80.924 Y177.159 E6.70405
G1 X80.873 Y178.096 E6.7337
G1 X80.741 Y179.024 E6.76332
G1 X80.532 Y179.938 E6.79294
G1 X80.245 Y180.831 E6.82258
G1 X79.883 Y181.697 E6.85224
G1 X79.449 Y182.528 E6.88186
G1 X78.945 Y183.319 E6.9115
G1 X78.376 Y184.064 E6.94112
G1 X77.745 Y184.759 E6.97078
G1 X77.058 Y185.397 E7.0004
G1 X76.319 Y185.974 E7.03003
G1 X75.533 Y186.486 E7.05967
G1 X74.707 Y186.929 E7.08928
G1 X73.845 Y187.301 E7.11895
G1 X72.956 Y187.597 E7.14855
G1 X72.044 Y187.817 E7.1782
G1 X71.117 Y187.958 E7.20782
G1 X70.233 Y188.019 E7.23582
G1 X69.604 Y188.032 E7.2557
G1 X64.499 Y188.031 E7.417
G1 X63.801 Y188.022 E7.43906
G1 X62.865 Y187.97 E7.46868
G1 X61.936 Y187.838 E7.49833
G1 X61.022 Y187.628 E7.52796
G1 X60.129 Y187.341 E7.5576
G1 X59.264 Y186.978 E7.58724
G1 X58.433 Y186.544 E7.61686
G1 X57.642 Y186.04 E7.6465
G1 X56.897 Y185.47 E7.67614
G1 X56.203 Y184.839 E7.70577
G1 X55.566 Y184.152 E7.73538
G1 X54.989 Y183.412 E7.76503
G1 X54.477 Y182.626 E7.79467
G1 X54.034 Y181.799 E7.82431
G1 X53.663 Y180.938 E7.85393
G1 X53.367 Y180.048 E7.88357
G1 X53.148 Y179.136 E7.91321
G1 X53.007 Y178.209 E7.94283
G1 X52.947 Y177.32 E7.97099
G1 X52.931 Y176.468 E7.99791
G1 X52.897 Y174.159 E8.07088
G1 X52.79 Y171.64 E8.15054
G1 X52.746 Y170.834 E8.17605
G1 X52.736 Y170.488 E8.18699
G1 X52.73 Y169.749 E8.21034
G1 X52.734 Y169.459 E8.2195
G1 X52.787 Y168.523 E8.24912
G1 X52.919 Y167.594 E8.27877
G1 X53.131 Y166.681 E8.30839
G1 X53.419 Y165.788 E8.33803
G1 X53.782 Y164.923 E8.36767
G1 X54.217 Y164.093 E8.39728
G1 X54.722 Y163.302 E8.42694
G1 X55.292 Y162.558 E8.45655
G1 X56.188 Y161.606 E8.49786
G1 X57.454 Y160.419 E8.55269
G1 X57.972 Y159.957 E8.57463
G1 X58.698 Y159.363 E8.60426
G1 X59.472 Y158.833 E8.6339
G1 X60.288 Y158.371 E8.66353
G1 X61.474 Y157.851 E8.70445
G1 X61.934 Y157.683 E8.71993
G1 X62.831 Y157.409 E8.74956
G1 X63.748 Y157.212 E8.7792
G1 X64.678 Y157.094 E8.80882
G1 X65.376 Y157.058 E8.8309
G1 X66.802 Y157.032 E8.87597
G1 X68.084 Y157.033 E8.91647
G0 F1350 X68.183 Y157.033
G0 X68.884 Y157.043
G1 F1500 E2.91647
;MESH:Latch_upper.stl
G0 F7500 X68.562 Y167.367
G0 X68.562 Y168.45
G0 X66.511 Y169.032
;TYPE:WALL-INNER
G1 F1500 E8.91647
G1 X68.319 Y169.032 E8.9736
G1 X68.434 Y169.147 E8.97874
G1 X68.434 Y173.132 E9.10465
G1 X68.934 Y173.132 E9.12045
G1 X68.934 Y176.032 E9.21209
G1 X64.934 Y176.032 E9.33847
G1 X64.934 Y173.132 E9.43011
G1 X66.511 Y173.132 E9.47993
G1 X66.511 Y169.832 E9.5842
G0 F1350 X66.511 Y169.032
G0 F7500 X66.111 Y169.242
G1 F1500 X65.871 Y169.291 E9.59194
G1 X65.376 Y169.395 E9.60793
G1 X65.375 Y169.396 E9.60797
G1 X64.665 Y169.543 E9.63088
G1 X65.2 Y169.053 E9.64275
G1 X65.61 Y168.678 E9.66031
G1 X65.732 Y168.634 E9.66441
G1 X65.791 Y168.632 E9.66627
G1 X68.485 Y168.632 E9.7514
G1 X68.834 Y168.981 E9.76699
G1 X68.834 Y172.732 E9.88551
G1 X69.334 Y172.732 E9.90131
G1 X69.334 Y176.432 E10.01822
G1 X64.534 Y176.432 E10.16989
G1 X64.534 Y172.732 E10.28679
G1 X66.111 Y172.732 E10.33662
G1 X66.111 Y169.487 E10.43916
G1 X66.111 Y169.486 E10.43919
G1 X66.111 Y169.242 E10.44391
G1 F1500 E4.44391
G0 F7500 X64.185 Y169.724
G0 X63.923 Y170.044
;TYPE:WALL-OUTER
G1 F1500 E10.44391
G1 X63.923 Y170 E10.44523
G1 X63.923 Y169.68 E10.45484
G1 X63.928 Y169.676 E10.45503
G1 X65.4 Y168.328 E10.51494
G1 X65.655 Y168.237 E10.52307
G1 X65.774 Y168.232 E10.52665
G1 X68.651 Y168.232 E10.61301
G1 X69.234 Y168.815 E10.63775
G1 X69.234 Y172.332 E10.74333
G1 X69.732 Y172.332 E10.75827
G1 X69.734 Y172.353 E10.75891
G1 X69.734 Y176.832 E10.89335
G1 X64.134 Y176.832 E11.06145
G1 X64.134 Y172.332 E11.19653
G1 X65.711 Y172.332 E11.24387
G1 X65.711 Y169.98 E11.31447
G1 X65.711 Y169.979 E11.3145
G1 X65.711 Y169.734 E11.32185
G1 X65.471 Y169.784 E11.32636
G1 X64.608 Y169.964 E11.35282
G1 X64.161 Y170 E11.36628
G1 X64.155 Y170
G1 X63.99 Y170.031 E11.3689
G1 X63.923 Y170.044
G0 F7500 X63.923 Y170
G0 X63.923 Y169.68
G0 X63.928 Y169.676
G0 X63.95 Y169.656
G0 X64.21 Y169.745
G0 X66.901 Y169.142
G0 X66.901 Y169.422
;TYPE:SKIN
G1 F1500 X68.044 Y169.422 E11.40501
G1 X68.044 Y173.522 E11.53456
G1 X68.544 Y173.522 E11.55036
G1 X68.544 Y175.642 E11.61734
G1 X65.324 Y175.642 E11.71909
G1 X65.324 Y173.522 E11.78607
G1 X66.901 Y173.522 E11.8359
G1 X66.901 Y170.222 E11.94017
G0 F1350 X66.901 Y169.422
G0 F7500 X66.901 Y169.142
G0 X68.252 Y169.214
G0 X68.324 Y170.072
G0 X67.683 Y170.072
G1 F1500 X67.392 Y169.781 E11.95318
G1 X67.683 Y169.781 E11.96237
G0 F7500 X67.392 Y169.781
G1 F1500 X67.26 Y169.781 E11.96654
G1 X67.26 Y170.215 E11.98025
G1 X67.683 Y170.638 E11.99916
G1 X67.683 Y171.203 E12.01701
G1 X67.26 Y170.781 E12.03589
G1 X67.26 Y171.346 E12.05374
G1 X67.683 Y171.769 E12.07264
G1 X67.683 Y172.335 E12.09053
G1 X67.26 Y171.912 E12.10943
G1 X67.26 Y172.478 E12.12731
G1 X67.683 Y172.901 E12.14621
G1 X67.683 Y173.466 E12.16407
G1 X67.26 Y173.043 E12.18297
G1 X67.26 Y173.609 E12.20085
G1 X68.184 Y174.533 E12.24214
G1 X68.184 Y175.098 E12.25999
G1 X66.966 Y173.881 E12.3144
G1 X66.4 Y173.881 E12.33228
G1 X67.8 Y175.281 E12.39484
G1 X67.235 Y175.281 E12.41269
G1 X65.835 Y173.881 E12.47525
G1 X65.683 Y173.881 E12.48005
G1 X65.683 Y174.295 E12.49314
G1 X66.669 Y175.281 E12.5372
G1 X66.103 Y175.281 E12.55508
G1 X65.683 Y174.861 E12.57385
G0 F7500 X65.683 Y175.281
G1 F1500 X66.103 Y175.281 E12.58712
G0 F7500 X66.103 Y175.922
G0 X68.752 Y175.85
G0 X68.752 Y173.314
G0 X68.294 Y173.272
G0 X67.683 Y173.881
G1 F1500 X67.683 Y173.466 E12.60023
G0 F7500 X68.184 Y173.881
G1 F1500 X68.097 Y173.881 E12.60298
G1 X68.184 Y173.967 E12.60685
G0 F7500 X68.824 Y173.967
G0 X68.252 Y169.214
G0 X66.342 Y169.014
G0 X66.238 Y168.91
;TYPE:SKIN
G1 F1500 X65.98 Y168.934 E12.61303
G1 X65.421 Y169.162 E12.62743
G0 F1350 X65.377 Y169.18
G0 F7500 X65.405 Y169.208
G0 X64.564 Y169.667
G0 X64.572 Y169.79
G1 F1500 X64.329 Y169.546 E12.63287
G0 F7500 X64.181 Y169.681
G1 F1500 X64.31 Y169.81 E12.63575
;MESH:NONMESH
G0 F300 X64.31 Y169.81 Z0.4
G0 F7500 X64.302 Y169.687
G0 X66.511 Y169.032
;TIME_ELAPSED:25.915596
;LAYER:1
M140 S60
M106 S85
;TYPE:WALL-INNER
;MESH:Latch_upper.stl
G1 F990.2 X68.319 Y169.032 E12.69589
G1 X68.434 Y169.147 E12.7013
G1 X68.434 Y173.132 E12.83384
G1 X68.934 Y173.132 E12.85047
G1 X68.934 Y176.032 E12.94692
G1 X64.934 Y176.032 E13.07997
G1 X64.934 Y173.132 E13.17642
G1 X66.511 Y173.132 E13.22887
G1 X66.511 Y169.832 E13.33863
G0 F891.1 X66.511 Y169.032
G0 F8250 X66.111 Y169.242
G1 F990.2 X65.871 Y169.291 E13.34678
G1 X65.376 Y169.395 E13.3636
G1 X65.375 Y169.396 E13.36365
G1 X64.665 Y169.543 E13.38776
G1 X65.2 Y169.053 E13.40026
G1 X65.61 Y168.678 E13.41874
G1 X65.701 Y168.646 E13.42195
G1 X66.054 Y168.632 E13.4337
G1 X68.485 Y168.632 E13.51455
G1 X68.834 Y168.981 E13.53097
G1 X68.834 Y172.732 E13.65573
G1 X69.334 Y172.732 E13.67236
G1 X69.334 Y176.432 E13.79542
G1 X64.534 Y176.432 E13.95507
G1 X64.534 Y172.732 E14.07813
G1 X66.111 Y172.732 E14.13058
G1 X66.111 Y169.487 E14.23851
G1 X66.111 Y169.486 E14.23855
G1 X66.111 Y169.242 E14.24352
G1 F1500 E8.24352
G0 F8250 X64.185 Y169.724
G0 X63.923 Y170.044
;TYPE:WALL-OUTER
G1 F1500 E14.24352
G1 F660.1 X63.923 Y170 E14.24491
G1 X63.923 Y169.68 E14.25502
G1 X63.928 Y169.676 E14.25522
G1 X65.4 Y168.328 E14.31829
G1 X65.625 Y168.248 E14.32583
G1 X66.039 Y168.232 E14.33893
G1 X68.651 Y168.232 E14.42146
G1 X69.234 Y168.815 E14.44751
G1 X69.234 Y172.332 E14.55864
G1 X69.734 Y172.332 E14.57443
G1 X69.734 Y176.832 E14.71662
G1 X64.134 Y176.832 E14.89356
G1 X64.134 Y172.332 E15.03575
G1 X65.711 Y172.332 E15.08558
G1 X65.711 Y169.98 E15.1599
G1 X65.711 Y169.979 E15.15993
G1 X65.711 Y169.734 E15.16767
G1 X65.471 Y169.784 E15.17241
G1 X64.608 Y169.964 E15.20027
G1 X64.161 Y170 E15.21444
G1 X64.155 Y170
G1 X63.99 Y170.031 E15.21719
G1 X63.923 Y170.044
G0 F8250 X63.923 Y170
G0 X63.923 Y169.68
G0 X63.928 Y169.676
G0 X63.95 Y169.656
G0 X64.21 Y169.745
G0 X66.901 Y169.142
G0 X66.901 Y169.422
;TYPE:SKIN
G1 F660.1 X68.044 Y169.422 E15.25521
G1 X68.044 Y173.522 E15.39157
G1 X68.544 Y173.522 E15.4082
G1 X68.544 Y175.642 E15.47872
G1 X65.324 Y175.642 E15.58581
G1 X65.324 Y173.522 E15.65632
G1 X66.901 Y173.522 E15.70878
G1 X66.901 Y170.222 E15.81853
G0 F594.1 X66.901 Y169.422
G0 F8250 X66.901 Y169.142
G0 X66.714 Y169.206
G0 X66.651 Y173.272
G0 X67.26 Y173.881
G1 F660.1 X67.1 Y173.881 E15.82386
G1 X65.7 Y175.281 E15.88971
G1 X65.683 Y175.281 E15.89027
G1 X65.683 Y174.732 E15.90853
G1 X66.535 Y173.881 E15.94858
G1 X65.969 Y173.881 E15.96741
G1 X65.683 Y174.166 E15.98084
G1 X65.683 Y173.881 E15.99032
G0 F8250 X65.044 Y173.881
G0 X65.116 Y175.85
G0 X68.752 Y175.85
G0 X68.824 Y175.281
G0 X68.184 Y175.281
G1 F660.1 X68.184 Y175.06 E15.99767
G1 X67.963 Y175.281 E16.00806
G1 X67.397 Y175.281 E16.02689
G1 X68.184 Y174.494 E16.06391
G1 X68.184 Y173.929 E16.0827
G1 X66.832 Y175.281 E16.14629
G1 X66.266 Y175.281 E16.16512
