;FLAVOR:Marlin
;TIME:7088
;Filament used: 3.29171m
;Layer height: 0.2
;MINX:64
;MINY:88
;MINZ:0.2
;MAXX:171
;MAXY:147
;MAXZ:37
;Generated with Cura_SteamEngine 4.6.2
M140 S60
M105
M190 S60
M104 S200
M105
M109 S200
M82 ;absolute extrusion mode
; Ender 3 Custom Start G-code
G92 E0 ; Reset Extruder
G28 ; Home all axes
G1 Z2.0 F3000 ; Move Z Axis up little to prevent scratching of Heat Bed
G1 X0.1 Y20 Z0.3 F5000.0 ; Move to start position
G1 X0.1 Y200.0 Z0.3 F1500.0 E15 ; Draw the first line
G1 X0.4 Y200.0 Z0.3 F5000.0 ; Move to side a little
G1 X0.4 Y20 Z0.3 F1500.0 E30 ; Draw the second line
G92 E0 ; Reset Extruder
G1 Z2.0 F3000 ; Move Z Axis up little to prevent scratching of Heat Bed
G1 X5 Y20 Z0.3 F5000.0 ; Move over to prevent blob squish
G92 E0
G92 E0
G1 F1500 E-6
;LAYER_COUNT:185
;LAYER:0
M107
M204 S500
M205 X8 Y8
G0 F7500 X78.822 Y88.811 Z0.2
;TYPE:SKIRT
G1 F1500 E0
G1 X79.724 Y88.864 E0.02855
G1 X80.536 Y88.981 E0.05447
G1 X81.473 Y89.156 E0.08459
G1 X82.6 Y89.381 E0.1209
G1 X85.118 Y89.812 E0.20162
G1 X87.656 Y90.173 E0.28262
G1 X90.13 Y90.453 E0.36129
G1 X92.702 Y90.671 E0.44285
G1 X95.184 Y90.811 E0.5214
G1 X99.127 Y90.894 E0.64602
G1 X135.916 Y90.894 E1.80844
G1 X138.522 Y90.857 E1.89079
G1 X141.09 Y90.748 E1.97201
G1 X143.592 Y90.571 E2.05126
G1 X146.104 Y90.322 E2.13102
G1 X148.667 Y89.994 E2.21267
G1 X151.138 Y89.605 E2.2917
G1 X153.804 Y89.109 E2.37739
G1 X154.298 Y89.01 E2.39331
G1 X155.191 Y88.871 E2.42186
G1 X155.995 Y88.815 E2.44733
G1 X156.634 Y88.8 E2.46752
G1 X159.425 Y88.801 E2.55571
G1 X160.123 Y88.81 E2.57777
G1 X161.024 Y88.861 E2.60628
G1 X161.918 Y88.993 E2.63484
G1 X162.796 Y89.202 E2.66335
G1 X163.653 Y89.489 E2.69191
G1 X164.48 Y89.85 E2.72042
G1 X165.273 Y90.283 E2.74897
G1 X166.024 Y90.784 E2.7775
G1 X166.728 Y91.35 E2.80604
G1 X167.379 Y91.976 E2.83458
G1 X167.972 Y92.657 E2.86311
G1 X168.502 Y93.388 E2.89164
G1 X168.966 Y94.163 E2.92018
G1 X169.36 Y94.976 E2.94872
G1 X169.68 Y95.82 E2.97725
G1 X169.924 Y96.69 E3.0058
G1 X170.09 Y97.578 E3.03434
G1 X170.187 Y98.723 E3.07065
G1 X170.2 Y99.33 E3.08983
G1 X170.199 Y133.308 E4.16344
G1 X170.189 Y134.035 E4.18641
G1 X170.137 Y134.937 E4.21496
G1 X170.005 Y135.83 E4.24348
G1 X169.794 Y136.709 E4.27205
G1 X169.507 Y137.565 E4.30057
G1 X169.145 Y138.392 E4.3291
G1 X168.711 Y139.184 E4.35763
G1 X168.209 Y139.935 E4.38618
G1 X167.643 Y140.638 E4.41469
G1 X167.016 Y141.289 E4.44325
G1 X166.335 Y141.881 E4.47176
G1 X165.604 Y142.411 E4.50029
G1 X164.988 Y142.786 E4.52308
G1 X163.8 Y143.453 E4.56613
G1 X163.364 Y143.69 E4.58181
G1 X161.4 Y144.823 E4.65345
G1 X160.598 Y145.24 E4.68201
G1 X159.763 Y145.583 E4.71054
G1 X158.901 Y145.852 E4.73907
G1 X158.018 Y146.043 E4.76761
G1 X156.673 Y146.181 E4.81034
G1 X156.342 Y146.193 E4.8208
G1 X155.972 Y146.2 E4.83249
G1 X79.405 Y146.2 E7.25179
G1 X79.259 Y146.199 E7.2564
G1 X78.561 Y146.189 E7.27846
G1 X77.659 Y146.136 E7.30701
G1 X76.766 Y146.004 E7.33553
G1 X75.888 Y145.793 E7.36407
G1 X75.032 Y145.505 E7.3926
G1 X74.205 Y145.143 E7.42113
G1 X73.629 Y144.836 E7.44175
G1 X72.17 Y143.991 E7.49503
G1 X70.036 Y142.796 E7.57231
G1 X69.268 Y142.32 E7.60086
G1 X68.546 Y141.778 E7.62938
G1 X67.874 Y141.174 E7.65793
G1 X67.258 Y140.514 E7.68646
G1 X66.703 Y139.801 E7.71501
G1 X66.214 Y139.042 E7.74353
G1 X65.793 Y138.243 E7.77207
G1 X65.445 Y137.41 E7.8006
G1 X65.172 Y136.549 E7.82914
G1 X64.976 Y135.667 E7.85768
G1 X64.845 Y134.593 E7.89187
G1 X64.827 Y134.33 E7.9002
G1 X64.804 Y133.749 E7.91857
G1 X64.8 Y133.367 E7.93064
G1 X64.801 Y99.536 E8.99961
G1 X64.81 Y98.871 E9.02062
G1 X64.862 Y97.969 E9.04917
G1 X64.994 Y97.076 E9.07769
G1 X65.204 Y96.198 E9.10622
G1 X65.491 Y95.341 E9.13477
G1 X65.853 Y94.514 E9.1633
G1 X66.286 Y93.722 E9.19182
G1 X66.788 Y92.971 E9.22036
G1 X67.355 Y92.267 E9.24892
G1 X67.981 Y91.617 E9.27744
G1 X68.662 Y91.024 E9.30597
G1 X69.394 Y90.494 E9.33452
G1 X70.169 Y90.031 E9.36305
G1 X70.982 Y89.638 E9.39158
G1 X71.827 Y89.318 E9.42013
G1 X72.696 Y89.075 E9.44864
G1 X73.584 Y88.909 E9.47719
G1 X74.723 Y88.813 E9.5133
G1 X75.33 Y88.8 E9.53249
G1 X78.022 Y88.801 E9.61755
G0 F1350 X78.124 Y88.801
G0 X78.822 Y88.811
G0 F7500 X78.828 Y88.411
G1 F1500 X79.747 Y88.464 E9.64663
G1 X80.609 Y88.588 E9.67415
G1 X81.551 Y88.764 E9.70443
G1 X82.674 Y88.988 E9.74061
G1 X85.165 Y89.415 E9.82047
G1 X87.691 Y89.774 E9.90108
G1 X90.208 Y90.058 E9.98112
G1 X92.723 Y90.272 E10.06087
G1 X95.188 Y90.411 E10.13888
G1 X99.135 Y90.494 E10.26363
G1 X135.91 Y90.494 E11.42561
G1 X138.535 Y90.457 E11.50856
G1 X141.043 Y90.35 E11.58788
G1 X143.56 Y90.172 E11.66761
G1 X146.084 Y89.922 E11.74775
G1 X148.592 Y89.601 E11.82764
G1 X151.075 Y89.211 E11.90706
G1 X153.731 Y88.716 E11.99242
G1 X154.22 Y88.618 E12.00818
G1 X155.129 Y88.476 E12.03725
G1 X155.983 Y88.415 E12.06431
G1 X156.308 Y88.405 E12.07458
G1 X156.634 Y88.4 E12.08488
G1 X159.43 Y88.401 E12.17323
G1 X160.128 Y88.41 E12.19528
G1 X161.047 Y88.462 E12.22437
G1 X161.958 Y88.593 E12.25345
G1 X162.854 Y88.803 E12.28253
G1 X163.729 Y89.09 E12.31162
G1 X164.576 Y89.452 E12.34073
G1 X165.388 Y89.886 E12.36982
G1 X166.159 Y90.388 E12.39889
G1 X166.884 Y90.956 E12.42799
G1 X167.557 Y91.585 E12.4571
G1 X168.172 Y92.269 E12.48616
G1 X168.726 Y93.004 E12.51524
G1 X169.214 Y93.785 E12.54434
G1 X169.633 Y94.605 E12.57344
G1 X169.979 Y95.458 E12.60252
G1 X170.249 Y96.338 E12.63161
G1 X170.442 Y97.239 E12.66072
G1 X170.556 Y98.152 E12.6898
G1 X170.587 Y98.712 E12.70752
G1 X170.6 Y99.33 E12.72705
G1 X170.599 Y133.314 E13.80085
G1 X170.589 Y134.041 E13.82382
G1 X170.536 Y134.96 E13.85291
G1 X170.404 Y135.871 E13.88199
G1 X170.193 Y136.767 E13.91108
G1 X169.906 Y137.642 E13.94017
G1 X169.543 Y138.488 E13.96926
G1 X169.109 Y139.3 E13.99835
G1 X168.605 Y140.071 E14.02746
G1 X168.037 Y140.795 E14.05653
G1 X167.408 Y141.467 E14.08562
G1 X166.723 Y142.082 E14.1147
G1 X165.987 Y142.635 E14.14379
G1 X165.184 Y143.135 E14.17368
G1 X163.991 Y143.805 E14.21691
G1 X163.561 Y144.039 E14.23238
G1 X161.6 Y145.17 E14.30391
G1 X160.783 Y145.595 E14.33301
G1 X159.932 Y145.947 E14.36211
G1 X159.055 Y146.225 E14.39118
G1 X158.156 Y146.425 E14.42028
G1 X157.243 Y146.546 E14.44938
G1 X156.687 Y146.581 E14.46698
G1 X156.356 Y146.593 E14.47745
G1 X155.972 Y146.6 E14.48958
G1 X79.405 Y146.6 E16.90888
G1 X79.253 Y146.599 E16.91368
G1 X78.555 Y146.589 E16.93574
G1 X77.636 Y146.536 E16.96483
G1 X76.725 Y146.403 E16.99392
G1 X75.829 Y146.192 E17.023
G1 X74.955 Y145.904 E17.05208
G1 X74.108 Y145.541 E17.0812
G1 X73.43 Y145.183 E17.10542
G1 X71.964 Y144.335 E17.15893
G1 X69.84 Y143.145 E17.23586
G1 X69.057 Y142.66 E17.26496
G1 X68.319 Y142.11 E17.29405
G1 X67.632 Y141.497 E17.32314
G1 X67 Y140.827 E17.35224
G1 X66.429 Y140.105 E17.38133
G1 X65.923 Y139.336 E17.41041
G1 X65.485 Y138.526 E17.43951
G1 X65.12 Y137.682 E17.46856
G1 X64.829 Y136.808 E17.49767
G1 X64.614 Y135.913 E17.52675
G1 X64.446 Y134.621 E17.56792
G1 X64.428 Y134.358 E17.57625
G1 X64.404 Y133.753 E17.59538
G1 X64.4 Y133.367 E17.60758
G1 X64.401 Y99.531 E18.6767
G1 X64.41 Y98.866 E18.69771
G1 X64.462 Y97.946 E18.72683
G1 X64.594 Y97.035 E18.75591
G1 X64.805 Y96.139 E18.785
G1 X65.092 Y95.264 E18.8141
G1 X65.455 Y94.418 E18.84318
G1 X65.889 Y93.606 E18.87228
G1 X66.392 Y92.835 E18.90136
G1 X66.961 Y92.111 E18.93046
G1 X67.589 Y91.439 E18.95952
G1 X68.274 Y90.823 E18.98863
G1 X69.01 Y90.27 E19.01772
G1 X69.791 Y89.782 E19.04682
G1 X70.611 Y89.364 E19.0759
G1 X71.465 Y89.019 E19.105
G1 X72.345 Y88.749 E19.13409
G1 X73.245 Y88.557 E19.16316
G1 X74.159 Y88.443 E19.19227
G1 X74.712 Y88.413 E19.20977
G1 X75.33 Y88.4 E19.2293
G1 X78.028 Y88.401 E19.31455
G0 F1350 X78.13 Y88.401
G0 X78.828 Y88.411
G0 F7500 X78.834 Y88.011
G1 F1500 X79.77 Y88.065 E19.34417
G1 X80.682 Y88.194 E19.37327
G1 X81.63 Y88.371 E19.40375
G1 X82.784 Y88.602 E19.44093
G1 X85.222 Y89.019 E19.51908
G1 X87.756 Y89.379 E19.59996
G1 X90.215 Y89.657 E19.67815
G1 X92.745 Y89.872 E19.75838
G1 X95.218 Y90.011 E19.83664
G1 X99.143 Y90.094 E19.96069
G1 X135.904 Y90.094 E21.12223
G1 X138.512 Y90.057 E21.20464
G1 X141.034 Y89.95 E21.2844
G1 X143.529 Y89.773 E21.36343
G1 X146.027 Y89.525 E21.44275
G1 X148.516 Y89.207 E21.52204
G1 X151.046 Y88.809 E21.60296
G1 X153.644 Y88.326 E21.68646
G1 X154.141 Y88.226 E21.70248
G1 X155.067 Y88.08 E21.7321
G1 X155.971 Y88.015 E21.76073
G1 X156.296 Y88.005 E21.77101
G1 X156.634 Y88 E21.78169
G1 X159.435 Y88.001 E21.87019
G1 X160.133 Y88.01 E21.89225
G1 X161.069 Y88.062 E21.92187
G1 X161.998 Y88.194 E21.95152
G1 X162.912 Y88.404 E21.98115
G1 X163.805 Y88.691 E22.01079
G1 X164.67 Y89.054 E22.04043
G1 X165.501 Y89.488 E22.07005
G1 X166.292 Y89.992 E22.09969
G1 X167.037 Y90.562 E22.12933
G1 X167.731 Y91.193 E22.15896
G1 X168.368 Y91.88 E22.18857
G1 X168.945 Y92.62 E22.21821
G1 X169.457 Y93.406 E22.24785
G1 X169.9 Y94.233 E22.2775
G1 X170.271 Y95.094 E22.30712
G1 X170.567 Y95.984 E22.33676
G1 X170.786 Y96.896 E22.36639
G1 X170.927 Y97.823 E22.39602
G1 X170.987 Y98.701 E22.42383
G1 X171 Y99.33 E22.44371
G1 X170.999 Y133.319 E23.51766
G1 X170.989 Y134.046 E23.54063
G1 X170.936 Y134.983 E23.57029
G1 X170.804 Y135.911 E23.59991
G1 X170.593 Y136.825 E23.62955
G1 X170.304 Y137.717 E23.65917
G1 X169.941 Y138.582 E23.68881
G1 X169.506 Y139.413 E23.71845
G1 X169.001 Y140.203 E23.74808
G1 X168.431 Y140.948 E23.77772
G1 X167.8 Y141.642 E23.80735
G1 X167.111 Y142.279 E23.837
G1 X166.371 Y142.855 E23.86663
G1 X165.38 Y143.484 E23.90372
G1 X164.182 Y144.156 E23.94712
G1 X163.758 Y144.387 E23.96238
G1 X161.8 Y145.516 E24.03379
G1 X160.968 Y145.95 E24.06344
G1 X160.102 Y146.311 E24.09309
G1 X159.209 Y146.597 E24.12272
G1 X158.295 Y146.806 E24.15234
G1 X157.366 Y146.937 E24.18199
G1 X156.702 Y146.981 E24.20301
G1 X156.371 Y146.993 E24.21348
G1 X155.972 Y147 E24.22609
G1 X79.405 Y147 E26.64538
G1 X79.247 Y146.999 E26.65038
G1 X78.549 Y146.989 E26.67243
G1 X77.613 Y146.935 E26.70206
G1 X76.685 Y146.803 E26.73168
G1 X75.771 Y146.591 E26.76132
G1 X74.879 Y146.302 E26.79095
G1 X74.014 Y145.939 E26.82059
G1 X73.23 Y145.53 E26.84853
G1 X71.77 Y144.684 E26.90185
G1 X69.645 Y143.494 E26.9788
G1 X68.847 Y143.001 E27.00844
G1 X68.094 Y142.442 E27.03807
G1 X67.391 Y141.821 E27.06771
G1 X66.744 Y141.142 E27.09735
G1 X66.157 Y140.411 E27.12697
G1 X65.634 Y139.632 E27.15662
G1 X65.18 Y138.811 E27.18626
G1 X64.797 Y137.955 E27.21589
G1 X64.488 Y137.069 E27.24554
G1 X64.256 Y136.161 E27.27515
G1 X64.103 Y135.236 E27.30478
G1 X64.047 Y134.648 E27.32344
G1 X64.029 Y134.385 E27.33177
G1 X64.004 Y133.758 E27.35159
G1 X64 Y133.367 E27.36395
G1 X64.001 Y99.525 E28.43326
G1 X64.01 Y98.86 E28.45427
G1 X64.063 Y97.924 E28.4839
G1 X64.195 Y96.995 E28.51354
G1 X64.406 Y96.081 E28.54318
G1 X64.694 Y95.189 E28.5728
G1 X65.057 Y94.324 E28.60244
G1 X65.492 Y93.493 E28.63208
G1 X65.996 Y92.703 E28.66169
G1 X66.566 Y91.958 E28.69133
G1 X67.198 Y91.264 E28.72099
G1 X67.886 Y90.627 E28.75061
G1 X68.626 Y90.051 E28.78024
G1 X69.412 Y89.539 E28.80988
G1 X70.239 Y89.097 E28.83951
G1 X71.101 Y88.727 E28.86915
G1 X71.991 Y88.431 E28.89879
G1 X72.903 Y88.213 E28.92841
G1 X73.83 Y88.072 E28.95804
G1 X74.701 Y88.013 E28.98563
G1 X75.33 Y88 E29.00551
G1 X78.034 Y88.001 E29.09094
G0 F1350 X78.136 Y88.001
G0 X78.834 Y88.011
G1 F1500 E23.09094
;MESH:Single_Car-Stackable_v1.stl
G0 F7500 X81.207 Y117.664
G0 X79.772 Y117.664
G0 X79.942 Y132.413
;TYPE:WALL-INNER
G1 F1500 E29.09094
G1 X114.227 Y132.413 E30.17425
G1 X114.515 Y131.624 E30.20079
G1 X82.426 Y104.683 E31.52468
G1 X79.942 Y104.683 E31.60316
G1 X79.942 Y131.613 E32.45407
G0 F1350 X79.942 Y132.413
G0 F7500 X80.342 Y132.013
;TYPE:WALL-OUTER
G1 F1500 X113.781 Y132.013 E33.45782
G1 X113.947 Y132.013 E33.46281
G1 X114.043 Y131.75 E33.47121
G1 X113.916 Y131.644 E33.47547
G1 X82.28 Y105.083 E34.71541
G1 X80.342 Y105.083 E34.77358
G1 X80.342 Y131.213 E35.55794
G0 F1350 X80.342 Y132.013
G0 F7500 X80.742 Y132.013
G0 X80.742 Y132.453
G1 F1500 E29.55794
G0 F7500 X95.101 Y132.253
G0 X95.101 Y131.148
G0 X117.049 Y128.182
G0 X116.135 Y129.34
G0 X117.038 Y129.786
;TYPE:WALL-INNER
G1 F1500 E35.55794
G1 X147.776 Y105.489 E36.79595
G1 X147.494 Y104.683 E36.82293
G1 X86.583 Y104.683 E38.74754
G1 X86.301 Y105.489 E38.77452
G1 X114.633 Y127.885 E39.91565
G1 X116.411 Y129.29 E39.98725
G0 F1350 X117.038 Y129.786
G0 F7500 X117.038 Y129.276
;TYPE:WALL-OUTER
G1 F1500 X147.174 Y105.454 E41.14035
G1 X147.304 Y105.352 E41.14531
G1 X147.21 Y105.083 E41.15386
G1 X147.044 Y105.083 E41.15816
G1 X87.033 Y105.083 E42.95953
G1 X86.867 Y105.083 E42.96451
G1 X86.773 Y105.352 E42.97307
G1 X86.903 Y105.454 E42.97734
G1 X114.881 Y127.571 E44.04788
G1 X116.879 Y129.151 E44.12435
G0 F1350 X117.038 Y129.276
G0 F7500 X117.351 Y129.028
G0 X117.623 Y129.374
G1 F1500 E38.12435
G0 F7500 X139.291 Y112.464
G0 X140.828 Y114.297
G0 X152.635 Y104.846
G0 X154.887 Y104.855
G0 X155.059 Y132.413
;TYPE:WALL-INNER
G1 F1500 E44.12435
G1 X155.059 Y104.683 E45.00053
G1 X152.575 Y104.683 E45.07902
G1 X120.485 Y131.624 E46.40293
G1 X120.773 Y132.413 E46.42947
G1 X154.259 Y132.413 E47.48753
G0 F1350 X155.059 Y132.413
G0 F7500 X154.659 Y132.013
;TYPE:WALL-OUTER
G1 F1500 X154.659 Y105.083 E48.2959
G1 X152.721 Y105.083 E48.35407
G1 X121.084 Y131.644 E49.59404
G1 X120.957 Y131.75 E49.599
G1 X121.053 Y132.013 E49.60741
G1 X121.219 Y132.013 E49.61168
G1 X154.659 Y132.013 E50.61546
G0 F7500 X154.659 Y131.613
G0 X155.099 Y131.613
G1 F1500 E44.61546
G0 F7500 X155.255 Y132.609
G0 X155.492 Y133.094
G0 X155.702 Y133.304
;TYPE:WALL-INNER
G1 F1500 E50.61546
G1 X155.702 Y135.4 E50.68169
G1 X79.298 Y135.4 E53.09584
G1 X79.298 Y133.304 E53.16206
G1 X75.6 Y133.304 E53.27891
G1 X75.6 Y99.6 E54.34386
G1 X78.096 Y99.6 E54.42273
G1 X78.096 Y101.694 E54.48889
G1 X156.904 Y101.694 E56.979
G1 X156.904 Y99.6 E57.04516
G1 X159.4 Y99.6 E57.12403
G1 X159.4 Y133.304 E58.18898
G1 X156.502 Y133.304 E58.28055
G0 F1350 X155.702 Y133.304
G0 F7500 X156.102 Y133.704
;TYPE:WALL-OUTER
G1 F1500 X156.102 Y135.8 E58.34346
G1 X78.898 Y135.8 E60.66092
G1 X78.898 Y133.704 E60.72383
G1 X75.2 Y133.704 E60.83484
G1 X75.2 Y99.2 E61.87055
G1 X78.496 Y99.2 E61.96949
G1 X78.496 Y101.294 E62.03234
G1 X156.504 Y101.294 E64.37393
G1 X156.504 Y99.2 E64.43679
G1 X159.8 Y99.2 E64.53572
G1 X159.8 Y133.704 E65.57144
G1 X156.902 Y133.704 E65.65843
G0 F1350 X156.102 Y133.704
G0 F7500 X156.102 Y134.104
G0 X155.662 Y134.104
G0 X155.312 Y135.01
;TYPE:SKIN
G1 F1500 X79.688 Y135.01 E68.04793
G1 X79.688 Y132.914 E68.11416
G1 X75.99 Y132.914 E68.23101
G1 X75.99 Y99.99 E69.27131
G1 X77.706 Y99.99 E69.32553
G1 X77.706 Y102.084 E69.39169
G1 X157.294 Y102.084 E71.90645
G1 X157.294 Y99.99 E71.97261
G1 X159.01 Y99.99 E72.02683
G1 X159.01 Y132.914 E73.06714
G1 X155.312 Y132.914 E73.18398
G1 X155.312 Y134.21 E73.22493
G0 F1350 X155.312 Y135.01
G1 F1500 E67.22493
G0 F7500 X155.592 Y135.01
G0 X155.492 Y133.094
G0 X155.255 Y132.609
G0 X155.169 Y132.553
G0 X155.449 Y132.803
G1 F1500 E73.22493
G1 X155.449 Y104.293 E74.12577
G1 X152.433 Y104.293 E74.22106
G1 X120.025 Y131.501 E75.55809
G1 X120.5 Y132.803 E75.60188
G1 X154.649 Y132.803 E76.6809
G0 F1350 X155.449 Y132.803
G1 F1500 E70.6809
G0 F7500 X155.169 Y132.553
G0 X154.887 Y104.855
G0 X152.635 Y104.846
G0 X149.308 Y107.178
G0 X148.005 Y105.556
G0 X147.917 Y105.519
G0 X148.236 Y105.623
G1 F1500 E76.6809
G1 X147.771 Y104.293 E76.72541
G1 X86.306 Y104.293 E78.66753
G1 X85.841 Y105.623 E78.71205
G1 X114.391 Y128.191 E79.86195
G1 X117.038 Y130.283 E79.96855
G1 X147.609 Y106.119 E81.19982
G0 F1350 X148.236 Y105.623
G1 F1500 E75.19982
G0 F7500 X147.917 Y105.519
G0 X117.038 Y129.531
G0 X117.038 Y128.184
G0 X112.053 Y131.175
G0 X112.237 Y132.583
G0 X114.109 Y132.245
G0 X114.655 Y131.597
G0 X114.975 Y131.501
G1 F1500 E81.19982
G1 X82.568 Y104.293 E82.53683
G1 X79.552 Y104.293 E82.63213
G1 X79.552 Y132.803 E83.53296
G1 X114.5 Y132.803 E84.63722
G1 X114.701 Y132.253 E84.65572
G0 F1350 X114.975 Y131.501
G1 F1500 E78.65572
G0 F7500 X114.655 Y131.597
G0 X114.506 Y132.261
G0 X116.554 Y133.01
G1 F1500 E84.65572
G1 X116.712 Y132.576 E84.67031
G1 X117.038 Y132.833 E84.68343
G1 X118.081 Y132.009 E84.72543
G1 X118.446 Y133.01 E84.7591
G1 X116.902 Y133.01 E84.80788
