;FLAVOR:Marlin
;TIME:5813
;Filament used: 3.15422m
;Layer height: 0.2
;MINX:65.105
;MINY:86.015
;MINZ:0.2
;MAXX:169.894
;MAXY:149.001
;MAXZ:9.4
;Generated with Cura_SteamEngine 4.6.2
M140 S60
M105
M190 S60
M104 S200
M105
M109 S200
M82 ;absolute extrusion mode
; Ender 3 Custom Start G-code
G92 E0 ; Reset Extruder
G28 ; Home all axes
G1 Z2.0 F3000 ; Move Z Axis up little to prevent scratching of Heat Bed
G1 X0.1 Y20 Z0.3 F5000.0 ; Move to start position
G1 X0.1 Y200.0 Z0.3 F1500.0 E15 ; Draw the first line
G1 X0.4 Y200.0 Z0.3 F5000.0 ; Move to side a little
G1 X0.4 Y20 Z0.3 F1500.0 E30 ; Draw the second line
G92 E0 ; Reset Extruder
G1 Z2.0 F3000 ; Move Z Axis up little to prevent scratching of Heat Bed
G1 X5 Y20 Z0.3 F5000.0 ; Move over to prevent blob squish
G92 E0
G92 E0
G1 F1500 E-6.5
;LAYER_COUNT:47
;LAYER:0
M107
G0 F6000 X143.289 Y136.455 Z0.2
;TYPE:SKIRT
G1 F1500 E0
G1 F1200 X141.064 Y137.661 E0.08418
G1 X138.847 Y138.945 E0.16939
G1 X136.701 Y140.269 E0.25325
G1 X134.585 Y141.659 E0.33746
G1 X132.414 Y143.174 E0.42551
G1 X130.126 Y144.816 E0.51918
G1 X129.834 Y145.018 E0.53099
G1 X129.244 Y145.411 E0.55457
G1 X128.85 Y145.66 E0.57007
G1 X128.561 Y145.834 E0.58129
G1 X127.813 Y146.243 E0.60964
G1 X127.361 Y146.466 E0.62641
G1 X126.823 Y146.716 E0.64614
G1 X126.561 Y146.83 E0.65564
G1 X126.032 Y147.052 E0.67472
G1 X125.613 Y147.218 E0.68971
G1 X125.339 Y147.319 E0.69943
G1 X124.685 Y147.535 E0.72233
G1 X124.307 Y147.646 E0.73544
G1 X123.725 Y147.798 E0.75544
G1 X123.339 Y147.887 E0.76862
G1 X122.604 Y148.028 E0.79351
G1 X122.248 Y148.083 E0.80549
G1 X121.351 Y148.182 E0.83551
G1 X120.448 Y148.2 E0.86555
G1 X119.547 Y148.139 E0.89558
G1 X118.655 Y147.998 E0.92562
G1 X117.779 Y147.778 E0.95566
G1 X116.951 Y147.492 E0.9848
G1 X113.262 Y146.038 E1.11668
G1 X110.862 Y145.176 E1.2015
G1 X108.41 Y144.371 E1.28733
G1 X106.012 Y143.66 E1.37052
G1 X103.562 Y143.008 E1.45485
G1 X101.061 Y142.416 E1.54033
G1 X98.582 Y141.906 E1.62451
G1 X96.105 Y141.468 E1.70817
G1 X93.55 Y141.088 E1.79408
G1 X91.052 Y140.791 E1.87775
G1 X88.532 Y140.562 E1.96191
G1 X85.995 Y140.404 E2.04646
G1 X83.463 Y140.318 E2.13072
G1 X80.895 Y140.305 E2.21614
G1 X78.392 Y140.361 E2.29941
G1 X77.27 Y140.417 E2.33677
G1 X76.477 Y140.446 E2.36316
G1 X75.574 Y140.439 E2.3932
G1 X74.675 Y140.352 E2.42324
G1 X73.787 Y140.186 E2.45329
G1 X72.917 Y139.942 E2.48334
G1 X72.073 Y139.623 E2.51335
G1 X71.26 Y139.229 E2.5434
G1 X70.485 Y138.766 E2.57342
G1 X69.754 Y138.235 E2.60347
G1 X69.073 Y137.642 E2.63351
G1 X68.447 Y136.991 E2.66355
G1 X67.881 Y136.288 E2.69356
G1 X67.379 Y135.537 E2.72361
G1 X66.946 Y134.744 E2.75366
G1 X66.585 Y133.917 E2.78367
G1 X66.298 Y133.06 E2.81373
G1 X66.088 Y132.182 E2.84376
G1 X65.957 Y131.288 E2.87381
G1 X65.905 Y130.387 E2.90383
G1 X65.933 Y129.484 E2.93388
G1 X66.041 Y128.587 E2.96393
G1 X66.247 Y127.629 E2.99652
G1 X66.342 Y127.272 E3.00881
G1 X66.986 Y124.705 E3.09683
G1 X67.535 Y122.226 E3.18128
G1 X68.012 Y119.721 E3.26609
G1 X68.415 Y117.24 E3.34969
G1 X68.751 Y114.719 E3.43428
G1 X69.016 Y112.192 E3.51879
G1 X69.206 Y109.702 E3.60185
G1 X69.349 Y106.517 E3.70789
G1 X69.367 Y105.865 E3.72959
G1 X69.432 Y104.964 E3.75963
G1 X69.576 Y104.073 E3.78965
G1 X69.798 Y103.197 E3.81971
G1 X70.098 Y102.345 E3.84975
G1 X70.344 Y101.779 E3.87028
G1 X70.755 Y100.975 E3.90031
G1 X71.235 Y100.21 E3.93035
G1 X71.781 Y99.49 E3.9604
G1 X72.388 Y98.822 E3.99042
G1 X73.052 Y98.21 E4.02046
G1 X73.768 Y97.659 E4.05051
G1 X74.53 Y97.174 E4.08055
G1 X75.324 Y96.761 E4.11031
G1 X75.567 Y96.648 E4.11923
G1 X76.402 Y96.304 E4.14926
G1 X77.264 Y96.035 E4.1793
G1 X78.147 Y95.843 E4.20935
G1 X79.275 Y95.714 E4.24712
G1 X79.945 Y95.675 E4.26944
G1 X80.651 Y95.659 E4.29293
G1 X81.454 Y95.668 E4.31964
G1 X84.102 Y95.659 E4.40771
G1 X86.635 Y95.581 E4.492
G1 X89.163 Y95.43 E4.57623
G1 X91.699 Y95.207 E4.6609
G1 X94.237 Y94.912 E4.74588
G1 X96.748 Y94.546 E4.83028
G1 X99.222 Y94.115 E4.91381
G1 X101.742 Y93.601 E4.99935
G1 X104.184 Y93.032 E5.08275
G1 X106.65 Y92.383 E5.16756
G1 X109.092 Y91.665 E5.25222
G1 X111.503 Y90.882 E5.33653
G1 X113.92 Y90.021 E5.42187
G1 X116.276 Y89.106 E5.50593
G1 X118.556 Y88.147 E5.5882
G1 X119.665 Y87.663 E5.62844
G1 X120.508 Y87.338 E5.65849
G1 X121.377 Y87.09 E5.68855
G1 X122.264 Y86.92 E5.71859
G1 X123.162 Y86.829 E5.74861
G1 X123.98 Y86.815 E5.77582
G1 X124.195 Y86.82 E5.78297
G1 X125.096 Y86.881 E5.81301
G1 X125.988 Y87.021 E5.84304
G1 X126.865 Y87.24 E5.87311
G1 X127.905 Y87.612 E5.90984
G1 X128.129 Y87.706 E5.91792
G1 X128.945 Y88.092 E5.94795
G1 X129.363 Y88.325 E5.96386
G1 X129.812 Y88.59 E5.9812
G1 X132.136 Y89.928 E6.0704
G1 X134.389 Y91.14 E6.15549
G1 X136.637 Y92.27 E6.23917
G1 X138.934 Y93.342 E6.32348
G1 X141.285 Y94.361 E6.4087
G1 X143.633 Y95.302 E6.49283
G1 X146.037 Y96.184 E6.578
G1 X148.386 Y96.973 E6.66042
G1 X151.543 Y97.929 E6.77013
G1 X152.717 Y98.304 E6.81112
G1 X153.096 Y98.433 E6.82444
G1 X154.672 Y99.01 E6.88026
G1 X155.149 Y99.199 E6.89732
G1 X155.472 Y99.334 E6.90897
G1 X156.668 Y99.856 E6.95237
G1 X157.376 Y100.197 E6.97851
G1 X158.716 Y100.912 E7.02902
G1 X159.297 Y101.235 E7.05113
G1 X159.618 Y101.421 E7.06347
G1 X160.378 Y101.885 E7.09309
G1 X161.854 Y102.834 E7.15145
G1 X162.163 Y103.041 E7.16382
G1 X162.577 Y103.329 E7.1806
G1 X162.947 Y103.599 E7.19583
G1 X163.359 Y103.914 E7.21308
G1 X163.608 Y104.111 E7.22364
G1 X163.927 Y104.371 E7.23733
G1 X164.417 Y104.797 E7.25892
G1 X165.006 Y105.343 E7.28564
G1 X165.673 Y106.021 E7.31727
G1 X165.92 Y106.297 E7.32959
G1 X166.405 Y106.882 E7.35486
G1 X166.558 Y107.081 E7.36321
G1 X167.061 Y107.797 E7.39232
G1 X167.232 Y108.064 E7.40286
G1 X167.685 Y108.845 E7.43289
G1 X168.013 Y109.535 E7.4583
G1 X168.21 Y109.993 E7.47488
G1 X168.53 Y110.837 E7.50491
G1 X168.834 Y111.983 E7.54434
G1 X168.874 Y112.179 E7.55099
G1 X169.053 Y113.482 E7.59474
G1 X169.068 Y113.689 E7.60164
G1 X169.094 Y114.592 E7.63169
G1 X169.051 Y115.376 E7.6578
G1 X169.009 Y115.825 E7.6728
G1 X168.885 Y116.72 E7.70285
G1 X168.687 Y117.584 E7.73234
G1 X168.606 Y117.878 E7.74248
G1 X168.327 Y118.737 E7.77252
G1 X168.137 Y119.21 E7.78947
G1 X167.989 Y119.553 E7.8019
G1 X167.401 Y120.708 E7.845
G1 X167.298 Y120.882 E7.85173
G1 X166.609 Y121.901 E7.89264
G1 X166.075 Y122.596 E7.92179
G1 X165.432 Y123.353 E7.95483
G1 X164.96 Y123.857 E7.97779
G1 X164.446 Y124.369 E8.00192
G1 X163.702 Y125.058 E8.03565
G1 X163.445 Y125.288 E8.04712
G1 X162.722 Y125.907 E8.07878
G1 X161.932 Y126.549 E8.11264
G1 X161.664 Y126.759 E8.12396
G1 X160.192 Y127.871 E8.18532
G1 X159.416 Y128.424 E8.21701
G1 X158.98 Y128.717 E8.23448
G1 X157.633 Y129.576 E8.28762
G1 X157.319 Y129.769 E8.29988
G1 X156.583 Y130.196 E8.32818
G1 X155.735 Y130.657 E8.36028
G1 X154.613 Y131.226 E8.40213
G1 X153.906 Y131.562 E8.42816
G1 X153.214 Y131.884 E8.45355
G1 X152.284 Y132.304 E8.48749
G1 X151.501 Y132.648 E8.51593
G1 X150.233 Y133.189 E8.56178
G1 X147.848 Y134.23 E8.64834
G1 X145.563 Y135.305 E8.73233
G1 X143.289 Y136.455 E8.81708
G1 F1500 E2.31708
G0 F6000 X159.073 Y116.079
G0 X159.421 Y115.366
G0 X159.572 Y114.581
G0 X159.472 Y113.776
G0 X159.091 Y113.002
G0 X158.553 Y112.348
G0 X158.043 Y111.891
G0 X125.123 Y86.481
G1 F1500 E8.81708
G1 F1200 X126.033 Y86.622 E8.84771
G1 X126.927 Y86.841 E8.87832
G1 X128.06 Y87.243 E8.91831
G1 X128.284 Y87.337 E8.92639
G1 X129.116 Y87.73 E8.95699
G1 X129.566 Y87.98 E8.97411
G1 X130.085 Y88.286 E8.99415
G1 X132.334 Y89.581 E9.08047
G1 X134.551 Y90.774 E9.1642
G1 X136.807 Y91.907 E9.24817
G1 X139.1 Y92.978 E9.33235
G1 X141.439 Y93.992 E9.41714
G1 X143.802 Y94.938 E9.50179
G1 X146.133 Y95.793 E9.58437
G1 X148.532 Y96.599 E9.66855
G1 X151.664 Y97.548 E9.7774
G1 X152.838 Y97.923 E9.81839
G1 X153.232 Y98.057 E9.83223
G1 X154.82 Y98.638 E9.88847
G1 X155.297 Y98.827 E9.90554
G1 X155.632 Y98.967 E9.91761
G1 X156.828 Y99.489 E9.96101
G1 X157.563 Y99.844 E9.98816
G1 X158.911 Y100.562 E10.03896
G1 X159.492 Y100.885 E10.06107
G1 X159.825 Y101.079 E10.07389
G1 X160.595 Y101.549 E10.10389
G1 X162.071 Y102.498 E10.16226
G1 X162.391 Y102.712 E10.17506
G1 X162.805 Y103 E10.19183
G1 X163.19 Y103.281 E10.20769
G1 X163.861 Y103.8 E10.2359
G1 X164.18 Y104.06 E10.24959
G1 X164.689 Y104.503 E10.27203
G1 X165.278 Y105.049 E10.29874
G1 X165.971 Y105.754 E10.33162
G1 X166.218 Y106.03 E10.34394
G1 X166.722 Y106.638 E10.37021
G1 X166.875 Y106.837 E10.37856
G1 X167.398 Y107.581 E10.40881
G1 X167.569 Y107.848 E10.41935
G1 X168.032 Y108.644 E10.44998
G1 X168.38 Y109.377 E10.47697
G1 X168.577 Y109.835 E10.49355
G1 X168.904 Y110.695 E10.52415
G1 X169.226 Y111.903 E10.56573
G1 X169.266 Y112.099 E10.57239
G1 X169.452 Y113.453 E10.61784
G1 X169.467 Y113.66 E10.62475
G1 X169.494 Y114.58 E10.65536
G1 X169.449 Y115.413 E10.68311
G1 X169.407 Y115.862 E10.6981
G1 X169.281 Y116.774 E10.72873
G1 X169.072 Y117.691 E10.76001
G1 X168.991 Y117.985 E10.77015
G1 X168.708 Y118.861 E10.80077
G1 X168.505 Y119.369 E10.81896
G1 X168.357 Y119.712 E10.83139
G1 X167.746 Y120.912 E10.87618
G1 X167.643 Y121.086 E10.8829
G1 X166.926 Y122.144 E10.92541
G1 X166.392 Y122.839 E10.95456
G1 X165.724 Y123.627 E10.98892
G1 X165.252 Y124.131 E11.01189
G1 X164.717 Y124.662 E11.03696
G1 X163.973 Y125.351 E11.07069
G1 X163.706 Y125.59 E11.0826
G1 X162.974 Y126.217 E11.11466
G1 X162.184 Y126.859 E11.14852
G1 X161.906 Y127.077 E11.16027
G1 X160.424 Y128.196 E11.22203
G1 X159.648 Y128.749 E11.25373
G1 X159.195 Y129.054 E11.27189
G1 X157.848 Y129.913 E11.32503
G1 X157.522 Y130.113 E11.33775
G1 X156.776 Y130.547 E11.36645
G1 X155.917 Y131.014 E11.39897
G1 X154.785 Y131.587 E11.44117
G1 X154.075 Y131.925 E11.46733
G1 X153.379 Y132.248 E11.49285
G1 X152.445 Y132.67 E11.52693
G1 X151.658 Y133.016 E11.55553
G1 X150.39 Y133.557 E11.60138
G1 X148.013 Y134.595 E11.68765
G1 X145.735 Y135.666 E11.77137
G1 X143.482 Y136.806 E11.85535
G1 X141.234 Y138.024 E11.94039
G1 X139.078 Y139.273 E12.02326
G1 X136.9 Y140.616 E12.10837
G1 X134.812 Y141.989 E12.19149
G1 X132.637 Y143.507 E12.2797
G1 X130.359 Y145.141 E12.37295
G1 X130.055 Y145.351 E12.38523
G1 X129.465 Y145.744 E12.40881
G1 X129.057 Y146.003 E12.42489
G1 X128.768 Y146.177 E12.43611
G1 X127.99 Y146.602 E12.46559
G1 X127.538 Y146.825 E12.48236
G1 X126.988 Y147.081 E12.50253
G1 X126.716 Y147.199 E12.51239
G1 X126.187 Y147.421 E12.53148
G1 X125.751 Y147.593 E12.54706
G1 X125.477 Y147.694 E12.55678
G1 X124.798 Y147.919 E12.58057
G1 X124.42 Y148.03 E12.59367
G1 X123.815 Y148.188 E12.61447
G1 X123.429 Y148.277 E12.62764
G1 X122.665 Y148.424 E12.65352
G1 X122.309 Y148.479 E12.6655
G1 X121.394 Y148.58 E12.69612
G1 X120.474 Y148.601 E12.72673
G1 X119.555 Y148.542 E12.75736
G1 X118.645 Y148.404 E12.78797
G1 X117.75 Y148.187 E12.8186
G1 X116.804 Y147.865 E12.85184
G1 X113.078 Y146.396 E12.98505
G1 X110.75 Y145.56 E13.06732
G1 X108.309 Y144.759 E13.15277
G1 X105.9 Y144.044 E13.23634
G1 X103.438 Y143.389 E13.32108
G1 X100.987 Y142.809 E13.40485
G1 X98.51 Y142.3 E13.48896
G1 X96.013 Y141.858 E13.5733
G1 X93.514 Y141.487 E13.65733
G1 X91.036 Y141.191 E13.74033
G1 X88.471 Y140.959 E13.82599
G1 X85.992 Y140.805 E13.9086
G1 X83.447 Y140.718 E13.9933
G1 X80.902 Y140.705 E14.07795
G1 X78.385 Y140.762 E14.16168
G1 X77.284 Y140.817 E14.19835
G1 X76.491 Y140.846 E14.22474
G1 X75.571 Y140.84 E14.25534
G1 X74.654 Y140.753 E14.28598
G1 X73.748 Y140.588 E14.31661
G1 X72.861 Y140.345 E14.3472
G1 X71.997 Y140.025 E14.37784
G1 X71.165 Y139.632 E14.40845
G1 X70.369 Y139.168 E14.43909
G1 X69.618 Y138.637 E14.46968
G1 X68.915 Y138.042 E14.50031
G1 X68.266 Y137.389 E14.53094
G1 X67.676 Y136.682 E14.56156
G1 X67.15 Y135.926 E14.5922
G1 X66.692 Y135.128 E14.6228
G1 X66.304 Y134.293 E14.65342
G1 X65.99 Y133.427 E14.68406
G1 X65.753 Y132.538 E14.71466
G1 X65.594 Y131.631 E14.74529
G1 X65.514 Y130.714 E14.7759
G1 X65.514 Y129.793 E14.80654
G1 X65.594 Y128.876 E14.83715
G1 X65.861 Y127.526 E14.88292
G1 X65.948 Y127.201 E14.89411
G1 X66.6 Y124.601 E14.98327
G1 X67.147 Y122.13 E15.06744
G1 X67.612 Y119.689 E15.15009
G1 X68.017 Y117.194 E15.23416
G1 X68.355 Y114.661 E15.31915
G1 X68.618 Y112.156 E15.40293
G1 X68.808 Y109.652 E15.48645
G1 X68.948 Y106.546 E15.58986
G1 X68.967 Y105.854 E15.61289
G1 X69.032 Y104.936 E15.6435
G1 X69.177 Y104.026 E15.67414
G1 X69.4 Y103.133 E15.70476
G1 X69.7 Y102.263 E15.73537
G1 X69.98 Y101.613 E15.75891
G1 X70.398 Y100.793 E15.78952
G1 X70.885 Y100.012 E15.82013
G1 X71.439 Y99.276 E15.85077
G1 X72.054 Y98.591 E15.88139
G1 X72.726 Y97.962 E15.912
G1 X73.451 Y97.394 E15.94264
G1 X74.222 Y96.891 E15.97325
G1 X75.155 Y96.398 E16.00835
G1 X75.398 Y96.285 E16.01726
G1 X76.249 Y95.934 E16.04788
G1 X77.127 Y95.657 E16.0785
G1 X78.026 Y95.458 E16.10913
G1 X79.252 Y95.315 E16.15018
G1 X79.922 Y95.276 E16.1725
G1 X80.655 Y95.259 E16.19689
G1 X81.457 Y95.268 E16.22357
G1 X84.088 Y95.259 E16.31107
G1 X86.634 Y95.18 E16.3958
G1 X89.141 Y95.031 E16.47933
G1 X91.65 Y94.81 E16.5631
G1 X94.169 Y94.517 E16.64745
G1 X96.693 Y94.15 E16.73228
G1 X99.144 Y93.722 E16.81503
G1 X101.643 Y93.213 E16.89985
G1 X104.105 Y92.64 E16.98393
G1 X106.532 Y92.001 E17.0674
G1 X109.003 Y91.274 E17.15307
G1 X111.383 Y90.501 E17.2363
G1 X113.747 Y89.659 E17.31977
G1 X116.111 Y88.74 E17.40413
G1 X118.417 Y87.771 E17.48732
G1 X119.505 Y87.296 E17.52681
G1 X120.365 Y86.965 E17.55746
G1 X121.249 Y86.71 E17.58806
G1 X122.152 Y86.532 E17.61867
G1 X123.068 Y86.434 E17.64931
G1 X123.989 Y86.415 E17.67995
G1 X124.204 Y86.42 E17.6871
G1 X125.123 Y86.481 E17.71773
G0 F6000 X125.15 Y86.082
G1 F1200 X126.077 Y86.223 E17.74892
G1 X126.989 Y86.443 E17.78012
G1 X128.214 Y86.874 E17.82332
G1 X128.438 Y86.968 E17.83139
G1 X129.287 Y87.367 E17.8626
G1 X129.769 Y87.636 E17.88095
G1 X130.238 Y87.912 E17.89905
G1 X132.529 Y89.231 E17.98698
G1 X134.742 Y90.422 E18.07057
G1 X136.991 Y91.552 E18.15428
G1 X139.249 Y92.606 E18.23716
G1 X141.598 Y93.625 E18.32232
G1 X143.933 Y94.56 E18.40598
G1 X146.271 Y95.418 E18.48881
G1 X148.679 Y96.226 E18.57329
G1 X151.786 Y97.167 E18.68127
G1 X152.96 Y97.542 E18.72226
G1 X153.369 Y97.681 E18.73663
G1 X154.671 Y98.154 E18.7827
G1 X154.967 Y98.267 E18.79324
G1 X155.444 Y98.456 E18.8103
G1 X155.792 Y98.6 E18.82283
G1 X156.988 Y99.122 E18.86623
G1 X157.751 Y99.491 E18.89442
G1 X159.105 Y100.213 E18.94546
G1 X159.686 Y100.536 E18.96757
G1 X160.032 Y100.737 E18.98088
G1 X160.811 Y101.212 E19.01122
G1 X162.287 Y102.161 E19.06959
G1 X162.62 Y102.384 E19.08292
G1 X163.034 Y102.672 E19.09969
G1 X163.433 Y102.963 E19.11612
G1 X163.845 Y103.278 E19.13336
G1 X164.114 Y103.49 E19.14476
G1 X164.433 Y103.75 E19.15844
G1 X164.961 Y104.21 E19.18174
G1 X165.55 Y104.756 E19.20845
G1 X166.269 Y105.487 E19.24255
G1 X166.516 Y105.763 E19.25487
G1 X167.039 Y106.394 E19.28213
G1 X167.192 Y106.593 E19.29048
G1 X167.735 Y107.365 E19.32187
G1 X167.906 Y107.632 E19.33242
G1 X168.378 Y108.443 E19.36363
G1 X168.748 Y109.219 E19.39222
G1 X168.945 Y109.677 E19.4088
G1 X169.278 Y110.553 E19.43997
G1 X169.618 Y111.823 E19.4837
G1 X169.658 Y112.019 E19.49035
G1 X169.806 Y112.946 E19.52158
G1 X169.866 Y113.631 E19.54445
G1 X169.894 Y114.568 E19.57562
G1 X169.847 Y115.45 E19.605
G1 X169.805 Y115.899 E19.62
G1 X169.678 Y116.829 E19.65122
G1 X169.458 Y117.797 E19.68424
G1 X169.377 Y118.091 E19.69438
G1 X169.089 Y118.983 E19.72556
G1 X168.872 Y119.527 E19.74503
G1 X168.724 Y119.87 E19.75746
G1 X168.09 Y121.115 E19.80393
G1 X167.987 Y121.289 E19.81065
G1 X167.244 Y122.388 E19.85478
G1 X166.71 Y123.083 E19.88393
G1 X166.016 Y123.9 E19.91958
G1 X165.544 Y124.404 E19.94255
G1 X164.989 Y124.956 E19.96858
G1 X164.245 Y125.645 E20.00231
G1 X163.968 Y125.893 E20.01468
G1 X163.486 Y126.31 E20.03587
G1 X163.226 Y126.528 E20.04716
G1 X162.436 Y127.17 E20.08102
G1 X162.148 Y127.396 E20.09319
G1 X160.656 Y128.522 E20.15536
G1 X159.88 Y129.075 E20.18706
G1 X159.411 Y129.392 E20.20588
G1 X158.064 Y130.251 E20.25902
G1 X157.725 Y130.458 E20.27223
G1 X156.969 Y130.897 E20.30131
G1 X156.402 Y131.209 E20.32283
G1 X156.099 Y131.37 E20.33425
G1 X154.957 Y131.948 E20.37682
G1 X154.243 Y132.288 E20.40312
G1 X153.544 Y132.612 E20.42874
G1 X152.607 Y133.036 E20.46295
G1 X151.815 Y133.384 E20.49172
