;FLAVOR:Marlin
;TIME:5255
;Filament used: 4.11501m
;Layer height: 0.28
;MINX:80.608
;MINY:98.389
;MINZ:0.28
;MAXX:147.299
;MAXY:136.613
;MAXZ:47.88
;Generated with Cura_SteamEngine 4.6.2
M140 S60
M105
M190 S60
M104 S200
M105
M109 S200
M82 ;absolute extrusion mode
; Ender 3 Custom Start G-code
G92 E0 ; Reset Extruder
G28 ; Home all axes
G1 Z2.0 F3000 ; Move Z Axis up little to prevent scratching of Heat Bed
G1 X0.1 Y20 Z0.3 F5000.0 ; Move to start position
G1 X0.1 Y200.0 Z0.3 F1500.0 E15 ; Draw the first line
G1 X0.4 Y200.0 Z0.3 F5000.0 ; Move to side a little
G1 X0.4 Y20 Z0.3 F1500.0 E30 ; Draw the second line
G92 E0 ; Reset Extruder
G1 Z2.0 F3000 ; Move Z Axis up little to prevent scratching of Heat Bed
G1 X5 Y20 Z0.3 F5000.0 ; Move over to prevent blob squish
G92 E0
G92 E0
G1 F1500 E-6.5
;LAYER_COUNT:171
;LAYER:0
M107
G0 F6000 X119.054 Y99.227 Z0.28
;TYPE:SKIRT
G1 F1500 E0
G1 F1200 X119.671 Y99.274 E0.02881
G1 X120.714 Y99.39 E0.07768
G1 X121.364 Y99.478 E0.10822
G1 X121.965 Y99.578 E0.13659
G1 X123.063 Y99.799 E0.18874
G1 X123.843 Y99.982 E0.22605
G1 X124.12 Y100.054 E0.23938
G1 X124.532 Y100.17 E0.25931
G1 X125.454 Y100.456 E0.30426
G1 X125.713 Y100.543 E0.31698
G1 X126.092 Y100.678 E0.33571
G1 X126.878 Y100.977 E0.37487
G1 X127.468 Y101.223 E0.40464
G1 X128.424 Y101.662 E0.45362
G1 X128.946 Y101.917 E0.48067
G1 X129.49 Y102.203 E0.50929
G1 X130.238 Y102.626 E0.54931
G1 X130.527 Y102.796 E0.56492
G1 X130.983 Y103.074 E0.58979
G1 X131.351 Y103.309 E0.61012
G1 X131.742 Y103.571 E0.63203
G1 X132.046 Y103.783 E0.64929
G1 X132.816 Y104.346 E0.69371
G1 X133.029 Y104.51 E0.70623
G1 X133.344 Y104.763 E0.72504
G1 X133.841 Y105.178 E0.75519
G1 X134.124 Y105.423 E0.77262
G1 X134.661 Y105.906 E0.80625
G1 X135.066 Y106.291 E0.83227
G1 X135.599 Y106.826 E0.86743
G1 X135.851 Y107.088 E0.88436
G1 X136.159 Y107.42 E0.90545
G1 X136.455 Y107.754 E0.92623
G1 X136.844 Y108.212 E0.95421
G1 X137.059 Y108.473 E0.96996
G1 X137.677 Y109.259 E1.01651
G1 X137.847 Y109.486 E1.02972
G1 X138.114 Y109.858 E1.05104
G1 X138.556 Y110.507 E1.0876
G1 X138.843 Y110.955 E1.11238
G1 X139.095 Y111.37 E1.13499
G1 X139.282 Y111.689 E1.1522
G1 X139.401 Y111.902 E1.16357
G1 X139.829 Y112.762 E1.2083
G1 X139.926 Y112.982 E1.21949
G1 X140.253 Y113.824 E1.26155
G1 X140.53 Y114.797 E1.30866
G1 X140.583 Y115.026 E1.3196
G1 X140.748 Y115.914 E1.36166
G1 X140.831 Y116.771 E1.40175
G1 X140.842 Y116.973 E1.41117
G1 X140.851 Y117.876 E1.45322
G1 X140.782 Y118.762 E1.4946
G1 X140.753 Y119 E1.50577
G1 X140.604 Y119.89 E1.54779
G1 X140.444 Y120.537 E1.57882
G1 X140.385 Y120.746 E1.58893
G1 X140.102 Y121.604 E1.631
G1 X139.743 Y122.433 E1.67307
G1 X139.404 Y123.073 E1.70679
G1 X139.007 Y123.761 E1.74378
G1 X138.688 Y124.283 E1.77226
G1 X138.385 Y124.741 E1.79784
G1 X137.874 Y125.465 E1.8391
G1 X137.635 Y125.788 E1.85781
G1 X137.413 Y126.078 E1.87482
G1 X136.883 Y126.743 E1.91441
G1 X136.552 Y127.137 E1.93837
G1 X136.205 Y127.53 E1.96279
G1 X135.952 Y127.806 E1.98022
G1 X135.526 Y128.247 E2.00877
G1 X134.846 Y128.917 E2.05322
G1 X134.364 Y129.362 E2.08377
G1 X133.633 Y129.995 E2.12879
G1 X133.097 Y130.429 E2.16091
G1 X132.272 Y131.051 E2.20902
G1 X131.775 Y131.402 E2.23735
G1 X131.084 Y131.861 E2.27598
G1 X130.488 Y132.228 E2.30857
G1 X129.561 Y132.756 E2.35825
G1 X129.242 Y132.931 E2.37519
G1 X128.654 Y133.234 E2.40599
G1 X128.415 Y133.351 E2.41838
G1 X128.013 Y133.537 E2.43901
G1 X127.459 Y133.779 E2.46716
G1 X127.126 Y133.918 E2.48396
G1 X126.357 Y134.222 E2.52246
G1 X125.791 Y134.43 E2.55054
G1 X125.204 Y134.625 E2.57934
G1 X124.457 Y134.846 E2.61562
G1 X123.736 Y135.043 E2.65042
G1 X123.154 Y135.184 E2.6783
G1 X122.162 Y135.389 E2.72547
G1 X121.447 Y135.515 E2.75928
G1 X121.117 Y135.565 E2.77482
G1 X120.695 Y135.62 E2.79464
G1 X119.934 Y135.703 E2.83028
G1 X119.311 Y135.752 E2.85938
G1 X118.179 Y135.801 E2.91214
G1 X117.55 Y135.813 E2.94144
G1 X116.908 Y135.805 E2.97133
G1 X115.78 Y135.754 E3.02391
G1 X93.062 Y134.373 E4.08371
G1 X92.397 Y134.324 E4.11476
G1 X91.245 Y134.173 E4.16886
G1 X90.971 Y134.121 E4.18184
G1 X90.092 Y133.914 E4.22389
G1 X89.104 Y133.578 E4.27249
G1 X88.757 Y133.44 E4.28988
G1 X87.933 Y133.069 E4.33195
G1 X86.868 Y132.449 E4.38934
G1 X86.604 Y132.273 E4.40411
G1 X85.876 Y131.739 E4.44615
G1 X84.938 Y130.885 E4.50522
G1 X84.655 Y130.593 E4.52415
G1 X84.055 Y129.917 E4.56624
G1 X83.611 Y129.326 E4.60066
G1 X83.496 Y129.161 E4.61003
G1 X83.013 Y128.398 E4.65208
G1 X82.684 Y127.775 E4.68488
G1 X82.561 Y127.521 E4.69802
G1 X82.204 Y126.691 E4.74009
G1 X81.887 Y125.71 E4.7881
G1 X81.791 Y125.351 E4.8054
G1 X81.597 Y124.469 E4.84746
G1 X81.474 Y123.483 E4.89372
G1 X81.444 Y123.085 E4.91231
G1 X81.417 Y122.52 E4.93865
G1 X81.408 Y121.965 E4.96449
G1 X81.408 Y113.183 E5.37342
G1 X81.425 Y112.291 E5.41496
G1 X81.437 Y112.023 E5.42745
G1 X81.522 Y111.09 E5.47108
G1 X81.562 Y110.799 E5.48476
G1 X81.818 Y109.535 E5.54481
G1 X81.877 Y109.316 E5.55537
G1 X82.15 Y108.455 E5.59743
G1 X82.689 Y107.24 E5.65932
G1 X82.891 Y106.854 E5.67961
G1 X83.344 Y106.073 E5.72165
G1 X83.902 Y105.288 E5.7665
G1 X84.062 Y105.084 E5.77857
G1 X84.65 Y104.399 E5.8206
G1 X85.149 Y103.903 E5.85337
G1 X85.302 Y103.761 E5.86309
G1 X85.991 Y103.176 E5.90517
G1 X86.481 Y102.819 E5.9334
G1 X86.785 Y102.611 E5.95055
G1 X87.552 Y102.134 E5.99261
G1 X88.735 Y101.567 E6.0537
G1 X89.038 Y101.445 E6.06891
G1 X89.89 Y101.145 E6.11097
G1 X90.708 Y100.934 E6.1503
G1 X90.955 Y100.881 E6.16207
G1 X91.846 Y100.731 E6.20414
G1 X92.31 Y100.684 E6.22586
G1 X93.496 Y100.594 E6.28124
G1 X116.358 Y99.227 E7.34769
G1 X116.968 Y99.199 E7.37613
G1 X117.597 Y99.189 E7.40542
G1 X118.419 Y99.202 E7.4437
G1 X119.054 Y99.227 E7.47329
G0 F6000 X119.072 Y98.827
G1 F1200 X119.713 Y98.877 E7.50323
G1 X120.768 Y98.994 E7.55265
G1 X121.418 Y99.082 E7.5832
G1 X122.042 Y99.185 E7.61265
G1 X122.83 Y99.34 E7.65004
G1 X123.152 Y99.409 E7.66538
G1 X123.944 Y99.595 E7.70326
G1 X124.221 Y99.667 E7.71659
G1 X124.648 Y99.788 E7.73725
G1 X125.581 Y100.077 E7.78273
G1 X125.84 Y100.164 E7.79545
G1 X126.234 Y100.305 E7.81494
G1 X127.02 Y100.604 E7.8541
G1 X127.633 Y100.859 E7.88501
G1 X128.6 Y101.303 E7.93456
G1 X129.122 Y101.558 E7.96161
G1 X129.687 Y101.855 E7.99133
G1 X130.435 Y102.278 E8.03135
G1 X130.735 Y102.454 E8.04754
G1 X131.191 Y102.732 E8.07241
G1 X131.574 Y102.977 E8.09358
G1 X131.965 Y103.239 E8.1155
G1 X132.28 Y103.459 E8.13339
G1 X133.06 Y104.029 E8.17837
G1 X133.273 Y104.193 E8.19089
G1 X133.6 Y104.456 E8.21043
G1 X134.097 Y104.871 E8.24058
G1 X134.392 Y105.126 E8.25874
G1 X134.929 Y105.609 E8.29237
G1 X135.349 Y106.009 E8.31938
G1 X135.882 Y106.544 E8.35454
G1 X136.144 Y106.816 E8.37213
G1 X136.452 Y107.148 E8.39321
G1 X136.76 Y107.495 E8.41482
G1 X137.149 Y107.953 E8.4428
G1 X137.372 Y108.224 E8.45914
G1 X137.997 Y109.019 E8.50623
G1 X138.167 Y109.246 E8.51944
G1 X138.444 Y109.633 E8.5416
G1 X138.886 Y110.282 E8.57816
G1 X139.185 Y110.747 E8.6039
G1 X139.437 Y111.162 E8.62651
G1 X139.75 Y111.707 E8.65578
G1 X140.195 Y112.601 E8.70228
G1 X140.292 Y112.821 E8.71347
G1 X140.627 Y113.678 E8.75632
G1 X140.92 Y114.707 E8.80614
G1 X140.973 Y114.936 E8.81708
G1 X141.141 Y115.841 E8.85994
G1 X141.23 Y116.75 E8.90247
G1 X141.241 Y116.952 E8.91189
G1 X141.251 Y117.872 E8.95473
G1 X141.179 Y118.81 E8.99854
G1 X141.15 Y119.048 E9.0097
G1 X140.999 Y119.956 E9.05256
G1 X140.829 Y120.646 E9.08565
G1 X140.77 Y120.855 E9.09577
G1 X140.482 Y121.729 E9.13862
G1 X140.119 Y122.575 E9.18148
G1 X139.75 Y123.273 E9.21825
G1 X139.353 Y123.961 E9.25523
G1 X139.028 Y124.495 E9.28434
G1 X138.713 Y124.971 E9.31092
G1 X138.196 Y125.703 E9.35265
G1 X137.957 Y126.026 E9.37136
G1 X137.725 Y126.328 E9.38909
G1 X137.195 Y126.993 E9.42869
G1 X136.852 Y127.402 E9.45354
G1 X136.505 Y127.795 E9.47796
G1 X136.242 Y128.082 E9.49608
G1 X136.05 Y128.284 E9.50906
G1 X135.807 Y128.532 E9.52523
G1 X135.127 Y129.202 E9.56968
G1 X134.626 Y129.664 E9.60141
G1 X133.895 Y130.297 E9.64644
G1 X133.337 Y130.748 E9.67985
G1 X132.512 Y131.37 E9.72796
G1 X131.996 Y131.736 E9.75741
G1 X131.305 Y132.195 E9.79604
G1 X130.686 Y132.576 E9.82989
G1 X129.759 Y133.104 E9.87956
G1 X129.427 Y133.285 E9.89717
G1 X128.83 Y133.593 E9.92845
G1 X128.591 Y133.71 E9.94084
G1 X128.173 Y133.904 E9.9623
G1 X127.619 Y134.146 E9.99045
G1 X127.273 Y134.29 E10.0079
G1 X126.504 Y134.594 E10.04641
G1 X125.926 Y134.807 E10.07509
G1 X125.328 Y135.005 E10.10442
G1 X124.563 Y135.232 E10.14158
G1 X123.842 Y135.429 E10.17638
G1 X123.236 Y135.576 E10.20542
G1 X122.233 Y135.783 E10.25311
G1 X121.507 Y135.91 E10.28742
G1 X121.177 Y135.96 E10.30297
G1 X120.738 Y136.018 E10.32359
G1 X119.977 Y136.101 E10.35923
G1 X119.33 Y136.151 E10.38945
G1 X118.186 Y136.201 E10.44277
G1 X117.557 Y136.213 E10.47206
G1 X116.89 Y136.205 E10.50312
G1 X115.755 Y136.153 E10.55603
G1 X93.033 Y134.772 E11.61601
G1 X92.368 Y134.723 E11.64706
G1 X91.171 Y134.566 E11.70328
G1 X90.897 Y134.514 E11.71626
G1 X90 Y134.303 E11.75917
G1 X88.956 Y133.95 E11.81049
G1 X88.609 Y133.812 E11.82788
G1 X87.769 Y133.435 E11.87075
G1 X86.646 Y132.782 E11.93124
G1 X86.382 Y132.606 E11.94601
G1 X85.639 Y132.062 E11.98889
G1 X84.65 Y131.163 E12.05113
G1 X84.367 Y130.871 E12.07006
G1 X83.756 Y130.183 E12.11291
G1 X83.283 Y129.555 E12.14952
G1 X83.168 Y129.39 E12.15888
G1 X82.675 Y128.613 E12.20173
G1 X82.324 Y127.949 E12.2367
G1 X82.201 Y127.695 E12.24984
G1 X81.836 Y126.85 E12.2927
G1 X81.501 Y125.813 E12.34345
G1 X81.405 Y125.454 E12.36075
G1 X81.206 Y124.555 E12.40363
G1 X81.075 Y123.513 E12.45253
G1 X81.045 Y123.115 E12.47111
G1 X81.017 Y122.528 E12.49848
G1 X81.008 Y121.965 E12.5247
G1 X81.008 Y113.177 E12.9339
G1 X81.016 Y112.6 E12.96077
G1 X81.038 Y112.005 E12.9885
G1 X81.126 Y111.036 E13.0338
G1 X81.166 Y110.745 E13.04748
G1 X81.432 Y109.431 E13.10991
G1 X81.491 Y109.212 E13.12047
G1 X81.769 Y108.334 E13.16335
G1 X82.122 Y107.484 E13.20621
G1 X82.334 Y107.054 E13.22853
G1 X82.536 Y106.668 E13.24882
G1 X82.998 Y105.872 E13.29168
G1 X83.587 Y105.041 E13.3391
G1 X83.747 Y104.837 E13.35118
G1 X84.346 Y104.138 E13.39404
G1 X84.877 Y103.61 E13.42891
G1 X85.03 Y103.468 E13.43863
G1 X85.732 Y102.871 E13.48154
G1 X86.255 Y102.489 E13.5117
G1 X86.559 Y102.281 E13.52885
G1 X87.341 Y101.794 E13.57175
G1 X88.162 Y101.378 E13.6146
G1 X88.586 Y101.196 E13.63609
G1 X88.889 Y101.074 E13.6513
G1 X89.757 Y100.768 E13.69415
G1 X90.624 Y100.543 E13.73586
G1 X90.871 Y100.49 E13.74762
G1 X91.779 Y100.336 E13.79051
G1 X92.279 Y100.285 E13.81391
G1 X93.472 Y100.195 E13.86962
G1 X116.34 Y98.827 E14.93635
G1 X116.95 Y98.799 E14.96479
G1 X117.604 Y98.789 E14.99524
G1 X118.426 Y98.802 E15.03352
G1 X119.072 Y98.827 E15.06363
G0 F6000 X119.091 Y98.428
G1 F1200 X119.756 Y98.479 E15.09468
G1 X120.822 Y98.597 E15.14462
G1 X121.472 Y98.685 E15.17517
G1 X122.119 Y98.793 E15.20571
G1 X122.907 Y98.948 E15.24311
G1 X123.242 Y99.019 E15.25905
G1 X123.735 Y99.132 E15.2826
G1 X124.321 Y99.28 E15.31075
G1 X124.765 Y99.405 E15.33223
G1 X125.709 Y99.698 E15.37825
G1 X125.968 Y99.785 E15.39097
G1 X126.376 Y99.931 E15.41115
G1 X127.162 Y100.23 E15.45031
G1 X127.798 Y100.495 E15.48239
G1 X128.775 Y100.943 E15.53244
G1 X129.297 Y101.198 E15.55949
G1 X129.884 Y101.507 E15.59038
G1 X130.632 Y101.93 E15.63039
G1 X130.943 Y102.113 E15.6472
G1 X131.399 Y102.391 E15.67206
G1 X131.796 Y102.645 E15.69401
G1 X132.187 Y102.907 E15.71593
G1 X132.515 Y103.135 E15.73453
G1 X133.304 Y103.712 E15.78004
G1 X133.517 Y103.876 E15.79256
G1 X133.856 Y104.149 E15.81283
G1 X134.353 Y104.564 E15.84298
G1 X134.659 Y104.828 E15.8618
G1 X135.196 Y105.311 E15.89543
G1 X135.633 Y105.726 E15.92349
G1 X136.166 Y106.261 E15.95865
G1 X136.437 Y106.544 E15.9769
G1 X136.745 Y106.876 E15.99799
G1 X137.065 Y107.236 E16.02041
G1 X137.454 Y107.694 E16.0484
G1 X137.685 Y107.975 E16.06533
G1 X138.318 Y108.779 E16.11298
G1 X138.488 Y109.006 E16.12619
G1 X138.775 Y109.408 E16.14919
G1 X139.217 Y110.057 E16.18575
G1 X139.527 Y110.54 E16.21247
G1 X139.779 Y110.955 E16.23508
G1 X140.099 Y111.512 E16.26499
G1 X140.561 Y112.439 E16.31322
G1 X140.658 Y112.659 E16.32442
G1 X141 Y113.533 E16.36812
G1 X141.31 Y114.617 E16.42062
G1 X141.363 Y114.846 E16.43156
G1 X141.535 Y115.768 E16.47524
G1 X141.63 Y116.728 E16.52016
G1 X141.641 Y116.93 E16.52958
G1 X141.652 Y117.868 E16.57326
G1 X141.576 Y118.858 E16.61949
G1 X141.547 Y119.096 E16.63066
G1 X141.394 Y120.022 E16.67436
G1 X141.214 Y120.754 E16.70946
G1 X141.155 Y120.963 E16.71957
G1 X140.862 Y121.854 E16.76325
G1 X140.494 Y122.717 E16.80693
G1 X140.097 Y123.473 E16.84669
G1 X139.7 Y124.161 E16.88368
G1 X139.367 Y124.706 E16.91342
G1 X139.041 Y125.2 E16.94098
G1 X138.518 Y125.941 E16.98321
G1 X138.279 Y126.264 E17.00192
G1 X138.038 Y126.577 E17.02032
G1 X137.508 Y127.242 E17.05991
G1 X137.152 Y127.667 E17.08573
G1 X136.805 Y128.06 E17.11014
G1 X136.34 Y128.559 E17.1419
G1 X136.087 Y128.817 E17.15873
G1 X135.407 Y129.487 E17.20318
G1 X134.888 Y129.967 E17.2361
G1 X134.157 Y130.6 E17.28112
G1 X133.578 Y131.067 E17.31576
G1 X132.753 Y131.689 E17.36387
G1 X132.217 Y132.069 E17.39446
G1 X131.526 Y132.528 E17.43309
G1 X130.884 Y132.923 E17.46819
G1 X129.957 Y133.451 E17.51787
G1 X129.613 Y133.639 E17.53612
G1 X129.006 Y133.953 E17.56794
G1 X128.767 Y134.07 E17.58033
G1 X128.333 Y134.27 E17.60259
G1 X127.779 Y134.512 E17.63074
G1 X127.42 Y134.662 E17.64885
G1 X126.651 Y134.966 E17.68736
G1 X126.06 Y135.183 E17.71667
G1 X125.753 Y135.288 E17.73178
G1 X125.146 Y135.48 E17.76143
G1 X124.668 Y135.618 E17.78459
G1 X123.947 Y135.815 E17.8194
G1 X123.319 Y135.967 E17.84948
G1 X122.305 Y136.177 E17.8977
G1 X121.887 Y136.253 E17.91748
G1 X121.237 Y136.356 E17.94813
G1 X120.782 Y136.415 E17.96949
G1 X120.021 Y136.498 E18.00514
G1 X119.349 Y136.551 E18.03653
G1 X118.194 Y136.601 E18.09036
G1 X117.565 Y136.613 E18.11965
G1 X116.873 Y136.604 E18.15188
G1 X115.731 Y136.553 E18.20511
G1 X93.004 Y135.171 E19.26533
G1 X92.339 Y135.122 E19.29638
G1 X91.096 Y134.959 E19.35475
G1 X90.822 Y134.907 E19.36774
G1 X89.909 Y134.693 E19.4114
G1 X88.808 Y134.321 E19.46552
G1 X88.461 Y134.183 E19.4829
G1 X87.605 Y133.8 E19.52657
G1 X86.424 Y133.115 E19.59014
G1 X86.16 Y132.939 E19.60492
G1 X85.403 Y132.386 E19.64857
G1 X84.363 Y131.441 E19.714
G1 X84.08 Y131.149 E19.73294
G1 X83.457 Y130.449 E19.77657
G1 X82.955 Y129.784 E19.81537
G1 X82.84 Y129.619 E19.82474
G1 X82.337 Y128.827 E19.86842
G1 X81.964 Y128.123 E19.90552
G1 X81.841 Y127.869 E19.91866
G1 X81.468 Y127.008 E19.96236
G1 X81.114 Y125.917 E20.01576
G1 X81.018 Y125.558 E20.03307
G1 X80.815 Y124.642 E20.07676
G1 X80.676 Y123.543 E20.12834
G1 X80.646 Y123.145 E20.14692
G1 X80.617 Y122.535 E20.17536
G1 X80.608 Y121.965 E20.2019
G1 X80.608 Y113.172 E20.61134
G1 X80.616 Y112.595 E20.63821
G1 X80.638 Y111.987 E20.66654
G1 X80.729 Y110.981 E20.71358
G1 X80.769 Y110.69 E20.72725
G1 X81.046 Y109.327 E20.79202
G1 X81.105 Y109.108 E20.80258
G1 X81.387 Y108.213 E20.84628
G1 X81.745 Y107.346 E20.88995
G1 X81.98 Y106.869 E20.91471
G1 X82.182 Y106.483 E20.935
G1 X82.652 Y105.671 E20.97869
G1 X83.273 Y104.794 E21.02872
G1 X83.433 Y104.59 E21.0408
G1 X84.042 Y103.878 E21.08442
G1 X84.605 Y103.316 E21.12147
G1 X84.758 Y103.174 E21.13119
G1 X85.472 Y102.566 E21.17485
G1 X86.029 Y102.159 E21.20698
G1 X86.333 Y101.951 E21.22413
G1 X87.129 Y101.454 E21.26782
G1 X87.965 Y101.028 E21.31151
G1 X88.436 Y100.825 E21.3354
G1 X88.739 Y100.703 E21.35061
G1 X89.624 Y100.39 E21.39432
G1 X90.54 Y100.152 E21.43839
G1 X90.787 Y100.099 E21.45015
G1 X91.712 Y99.941 E21.49384
G1 X92.248 Y99.887 E21.51893
G1 X93.448 Y99.796 E21.57497
G1 X116.322 Y98.428 E22.64198
G1 X116.932 Y98.4 E22.67041
G1 X117.61 Y98.389 E22.70199
G1 X118.432 Y98.402 E22.74027
G1 X119.091 Y98.428 E22.77098
G1 F1500 E16.27098
;MESH:3DBenchy.stl
G0 F6000 X117.601 Y108.707
G0 X117.568 Y109.691
G0 X121.949 Y110.842
G0 X122.982 Y111.224
G0 X124.205 Y111.802
G0 X125.267 Y112.427
G0 X126.938 Y113.694
G0 X128.124 Y114.875
G0 X129.416 Y116.561
G0 X129.886 Y117.406
G0 X129.845 Y117.725
G0 X129.395 Y118.473
G0 X128.665 Y119.45
G0 X127.516 Y118.817
G0 X128.621 Y115.944
G0 X127.424 Y115.21
G0 X124.26 Y115.63
