;FLAVOR:Marlin
;TIME:1152
;Filament used: 0.364624m
;Layer height: 0.12
;MINX:92.95
;MINY:92.951
;MINZ:0.12
;MAXX:127.05
;MAXY:127.049
;MAXZ:15
;Generated with Cura_SteamEngine 4.7.0
M140 S60
M105
M190 S60
M104 S200
M105
M109 S200
M82 ;absolute extrusion mode
; Ender 3 Custom Start G-code
G92 E0 ; Reset Extruder
G28 ; Home all axes
G1 Z2.0 F3000 ; Move Z Axis up little to prevent scratching of Heat Bed
G1 X0.1 Y20 Z0.3 F5000.0 ; Move to start position
G1 X0.1 Y200.0 Z0.3 F1500.0 E15 ; Draw the first line
G1 X0.4 Y200.0 Z0.3 F5000.0 ; Move to side a little
G1 X0.4 Y20 Z0.3 F1500.0 E30 ; Draw the second line
G92 E0 ; Reset Extruder
G1 Z2.0 F3000 ; Move Z Axis up little to prevent scratching of Heat Bed
G1 X5 Y20 Z0.3 F5000.0 ; Move over to prevent blob squish
G92 E0
G92 E0
G1 F1500 E-6.5
;LAYER_COUNT:125
;LAYER:0
M107
G0 F6000 X97.981 Y97.908 Z0.12
;TYPE:SKIRT
G1 F1500 E0
G1 F1200 X98.205 Y97.688 E0.00627
G1 X98.333 Y97.566 E0.00979
G1 X98.712 Y97.221 E0.02002
G1 X98.886 Y97.07 E0.02462
G1 X99.358 Y96.683 E0.0368
G1 X99.709 Y96.411 E0.04566
G1 X100.095 Y96.125 E0.05525
G1 X100.341 Y95.951 E0.06126
G1 X100.939 Y95.557 E0.07555
G1 X101.216 Y95.387 E0.08204
G1 X101.54 Y95.195 E0.08955
G1 X101.651 Y95.132 E0.0921
G1 X102.081 Y94.901 E0.10184
G1 X102.371 Y94.753 E0.10834
G1 X102.722 Y94.582 E0.11613
G1 X102.9 Y94.499 E0.12005
G1 X103.321 Y94.313 E0.12924
G1 X103.602 Y94.196 E0.13531
G1 X104.165 Y93.98 E0.14734
G1 X104.414 Y93.892 E0.15261
G1 X104.706 Y93.793 E0.15877
G1 X104.914 Y93.726 E0.16313
G1 X105.307 Y93.607 E0.17132
G1 X105.474 Y93.56 E0.17478
G1 X105.976 Y93.432 E0.18512
G1 X106.322 Y93.352 E0.19221
G1 X106.906 Y93.233 E0.2041
G1 X107.112 Y93.197 E0.20828
G1 X107.383 Y93.153 E0.21376
G1 X107.631 Y93.116 E0.21876
G1 X108.039 Y93.063 E0.22697
G1 X108.228 Y93.042 E0.23077
G1 X108.722 Y92.999 E0.24066
G1 X108.996 Y92.981 E0.24614
G1 X109.324 Y92.964 E0.2527
G1 X109.52 Y92.957 E0.25661
G1 X110.08 Y92.951 E0.26779
G1 X110.41 Y92.956 E0.27437
G1 X110.754 Y92.967 E0.28124
G1 X110.883 Y92.973 E0.28382
G1 X111.368 Y93.006 E0.29352
G1 X111.709 Y93.037 E0.30035
G1 X112.175 Y93.09 E0.30971
G1 X112.354 Y93.114 E0.31331
G1 X112.802 Y93.183 E0.32236
G1 X113.131 Y93.241 E0.32903
G1 X113.593 Y93.333 E0.33843
G1 X113.756 Y93.369 E0.34176
G1 X114.17 Y93.469 E0.35026
G1 X114.445 Y93.541 E0.35593
G1 X114.773 Y93.632 E0.36272
G1 X114.939 Y93.681 E0.36618
G1 X115.436 Y93.841 E0.3766
G1 X115.741 Y93.947 E0.38304
G1 X115.984 Y94.034 E0.38819
G1 X116.115 Y94.083 E0.39098
G1 X116.684 Y94.315 E0.40325
G1 X116.98 Y94.445 E0.4097
G1 X117.459 Y94.669 E0.42025
G1 X117.684 Y94.781 E0.42527
G1 X117.978 Y94.932 E0.43186
G1 X118.187 Y95.044 E0.43659
G1 X118.549 Y95.248 E0.44489
G1 X118.701 Y95.337 E0.4484
G1 X119.115 Y95.591 E0.45809
G1 X119.395 Y95.772 E0.46475
G1 X119.676 Y95.96 E0.47149
G1 X119.786 Y96.036 E0.47416
G1 X120.218 Y96.35 E0.48482
G1 X120.448 Y96.526 E0.4906
G1 X120.965 Y96.948 E0.50392
G1 X121.309 Y97.246 E0.513
G1 X121.682 Y97.584 E0.52305
G1 X121.861 Y97.754 E0.52797
G1 X122.282 Y98.176 E0.53987
G1 X122.504 Y98.411 E0.54632
G1 X122.86 Y98.806 E0.55693
G1 X122.998 Y98.967 E0.56116
G1 X123.257 Y99.281 E0.56928
G1 X123.443 Y99.515 E0.57525
G1 X123.632 Y99.76 E0.58142
G1 X123.725 Y99.884 E0.58452
G1 X124.037 Y100.322 E0.59525
G1 X124.202 Y100.566 E0.60113
G1 X124.392 Y100.857 E0.60806
G1 X124.481 Y100.998 E0.61139
G1 X124.781 Y101.502 E0.6231
G1 X124.947 Y101.799 E0.62989
G1 X125.068 Y102.022 E0.63495
G1 X125.141 Y102.16 E0.63806
G1 X125.417 Y102.72 E0.65052
G1 X125.555 Y103.021 E0.65713
G1 X125.706 Y103.366 E0.66465
G1 X125.777 Y103.536 E0.66832
G1 X125.962 Y104.007 E0.67842
G1 X126.067 Y104.295 E0.68454
G1 X126.153 Y104.54 E0.68972
G1 X126.201 Y104.682 E0.69271
G1 X126.387 Y105.292 E0.70544
G1 X126.479 Y105.627 E0.71237
G1 X126.609 Y106.149 E0.72311
G1 X126.658 Y106.369 E0.7276
G1 X126.729 Y106.715 E0.73465
G1 X126.778 Y106.974 E0.73991
G1 X126.833 Y107.287 E0.74626
G1 X126.855 Y107.425 E0.74904
G1 X126.921 Y107.909 E0.75879
G1 X126.946 Y108.128 E0.76319
G1 X127 Y108.766 E0.77597
G1 X127.032 Y109.342 E0.78748
G1 X127.049 Y109.892 E0.79846
G1 X127.05 Y110.076 E0.80213
G1 X127.036 Y110.683 E0.81425
G1 X127.021 Y110.984 E0.82026
G1 X126.973 Y111.6 E0.83259
G1 X126.941 Y111.901 E0.83864
G1 X126.901 Y112.236 E0.84537
G1 X126.872 Y112.447 E0.84962
G1 X126.83 Y112.724 E0.85521
G1 X126.804 Y112.883 E0.85842
G1 X126.706 Y113.404 E0.869
G1 X126.633 Y113.746 E0.87598
G1 X126.48 Y114.372 E0.88884
G1 X126.426 Y114.568 E0.8929
G1 X126.344 Y114.85 E0.89876
G1 X126.263 Y115.116 E0.90431
G1 X126.16 Y115.437 E0.91104
G1 X126.115 Y115.57 E0.91384
G1 X125.943 Y116.042 E0.92386
G1 X125.826 Y116.342 E0.93029
G1 X125.664 Y116.736 E0.93879
G1 X125.6 Y116.883 E0.94199
G1 X125.41 Y117.295 E0.95105
G1 X125.261 Y117.602 E0.95786
G1 X125.06 Y117.995 E0.96666
G1 X124.978 Y118.148 E0.97013
G1 X124.732 Y118.584 E0.98012
G1 X124.58 Y118.839 E0.98604
G1 X124.365 Y119.185 E0.99417
G1 X124.264 Y119.341 E0.99788
G1 X123.991 Y119.743 E1.00758
G1 X123.818 Y119.986 E1.01353
G1 X123.642 Y120.226 E1.01947
G1 X123.535 Y120.368 E1.02302
G1 X123.175 Y120.821 E1.03457
G1 X122.95 Y121.089 E1.04155
G1 X122.742 Y121.329 E1.04789
G1 X122.645 Y121.438 E1.0508
G1 X122.241 Y121.868 E1.06257
G1 X122.019 Y122.092 E1.06887
G1 X121.782 Y122.324 E1.07549
G1 X121.662 Y122.438 E1.07879
G1 X121.323 Y122.747 E1.08794
G1 X121.141 Y122.906 E1.09276
G1 X120.647 Y123.313 E1.10554
G1 X120.308 Y123.576 E1.1141
G1 X119.932 Y123.855 E1.12344
G1 X119.677 Y124.036 E1.12968
G1 X119.079 Y124.432 E1.144
G1 X118.803 Y124.602 E1.15047
G1 X118.474 Y124.797 E1.1581
G1 X118.358 Y124.863 E1.16076
G1 X117.905 Y125.107 E1.17103
G1 X117.616 Y125.254 E1.1775
G1 X117.256 Y125.428 E1.18548
G1 X117.077 Y125.511 E1.18942
G1 X116.694 Y125.68 E1.19777
G1 X116.419 Y125.795 E1.20372
G1 X115.849 Y126.015 E1.21591
G1 X115.595 Y126.105 E1.22129
G1 X115.294 Y126.207 E1.22763
G1 X115.086 Y126.274 E1.23199
G1 X114.693 Y126.393 E1.24019
G1 X114.526 Y126.44 E1.24365
G1 X114.024 Y126.568 E1.25399
G1 X113.678 Y126.648 E1.26108
G1 X113.094 Y126.767 E1.27297
G1 X112.888 Y126.803 E1.27714
G1 X112.617 Y126.847 E1.28262
G1 X112.369 Y126.884 E1.28763
G1 X111.961 Y126.937 E1.29584
G1 X111.772 Y126.958 E1.29963
G1 X111.281 Y127.001 E1.30947
G1 X111.008 Y127.019 E1.31493
G1 X110.673 Y127.036 E1.32162
G1 X110.475 Y127.043 E1.32557
G1 X109.919 Y127.049 E1.33667
G1 X109.59 Y127.044 E1.34324
G1 X109.246 Y127.033 E1.35011
G1 X109.117 Y127.027 E1.35268
G1 X108.632 Y126.994 E1.36238
G1 X108.291 Y126.963 E1.36922
G1 X107.825 Y126.91 E1.37858
G1 X107.646 Y126.886 E1.38218
G1 X107.198 Y126.817 E1.39123
G1 X106.869 Y126.759 E1.39789
G1 X106.407 Y126.667 E1.40729
G1 X106.244 Y126.631 E1.41062
G1 X105.83 Y126.531 E1.41912
G1 X105.555 Y126.459 E1.4248
G1 X105.227 Y126.368 E1.43159
G1 X105.061 Y126.319 E1.43504
G1 X104.577 Y126.164 E1.44519
G1 X104.265 Y126.056 E1.45177
G1 X103.964 Y125.947 E1.45816
G1 X103.84 Y125.9 E1.46081
G1 X103.316 Y125.685 E1.47211
G1 X103.02 Y125.555 E1.47856
G1 X102.557 Y125.339 E1.48876
G1 X102.323 Y125.223 E1.49397
G1 X101.991 Y125.052 E1.50142
G1 X101.785 Y124.941 E1.50609
G1 X101.42 Y124.735 E1.51446
G1 X101.274 Y124.649 E1.51784
G1 X100.885 Y124.409 E1.52696
G1 X100.605 Y124.228 E1.53361
G1 X100.324 Y124.04 E1.54036
G1 X100.214 Y123.964 E1.54303
G1 X99.782 Y123.65 E1.55369
G1 X99.552 Y123.474 E1.55947
G1 X99.035 Y123.052 E1.57278
G1 X98.691 Y122.754 E1.58187
G1 X98.318 Y122.416 E1.59191
G1 X98.139 Y122.246 E1.59684
G1 X97.685 Y121.789 E1.60969
G1 X97.42 Y121.506 E1.61743
G1 X97.062 Y121.105 E1.62816
G1 X96.961 Y120.986 E1.63127
G1 X96.717 Y120.688 E1.63896
G1 X96.525 Y120.445 E1.64514
G1 X96.337 Y120.199 E1.65132
G1 X96.255 Y120.089 E1.65406
G1 X95.954 Y119.666 E1.66442
G1 X95.78 Y119.408 E1.67063
G1 X95.544 Y119.042 E1.67932
G1 X95.463 Y118.911 E1.68239
G1 X95.238 Y118.531 E1.6912
G1 X95.062 Y118.219 E1.69835
G1 X94.871 Y117.865 E1.70638
G1 X94.81 Y117.747 E1.70903
G1 X94.585 Y117.285 E1.71929
G1 X94.445 Y116.98 E1.72598
G1 X94.288 Y116.622 E1.73378
G1 X94.218 Y116.454 E1.73742
G1 X94.035 Y115.985 E1.74746
G1 X93.924 Y115.68 E1.75394
G1 X93.808 Y115.345 E1.76101
G1 X93.768 Y115.223 E1.76358
G1 X93.62 Y114.73 E1.77385
G1 X93.527 Y114.394 E1.78081
G1 X93.385 Y113.823 E1.79255
G1 X93.332 Y113.582 E1.79747
G1 X93.265 Y113.254 E1.80415
G1 X93.22 Y113.015 E1.80901
G1 X93.169 Y112.724 E1.8149
G1 X93.147 Y112.587 E1.81767
G1 X93.078 Y112.079 E1.8279
G1 X93.053 Y111.858 E1.83234
G1 X93 Y111.234 E1.84484
G1 X92.968 Y110.66 E1.85631
G1 X92.951 Y110.108 E1.86733
G1 X92.95 Y109.924 E1.871
G1 X92.964 Y109.317 E1.88312
G1 X92.979 Y109.016 E1.88913
G1 X93.027 Y108.4 E1.90146
G1 X93.059 Y108.099 E1.90751
G1 X93.1 Y107.762 E1.91428
G1 X93.13 Y107.544 E1.91867
G1 X93.169 Y107.281 E1.92398
G1 X93.194 Y107.127 E1.92709
G1 X93.299 Y106.571 E1.93838
G1 X93.376 Y106.214 E1.94567
G1 X93.535 Y105.574 E1.95883
G1 X93.585 Y105.395 E1.96254
G1 X93.656 Y105.15 E1.96763
G1 X93.737 Y104.884 E1.97318
G1 X93.847 Y104.542 E1.98035
G1 X93.894 Y104.404 E1.98326
G1 X94.06 Y103.95 E1.9929
G1 X94.181 Y103.64 E1.99955
G1 X94.376 Y103.172 E2.00966
G1 X94.444 Y103.019 E2.013
G1 X94.611 Y102.661 E2.02089
G1 X94.756 Y102.364 E2.02748
G1 X94.939 Y102.007 E2.03549
G1 X95.017 Y101.861 E2.03879
G1 X95.277 Y101.401 E2.04934
G1 X95.427 Y101.15 E2.05517
G1 X95.61 Y100.853 E2.06213
G1 X95.712 Y100.694 E2.0659
G1 X96.012 Y100.251 E2.07658
G1 X96.183 Y100.011 E2.08246
G1 X96.383 Y99.74 E2.08918
G1 X96.5 Y99.586 E2.09304
G1 X96.827 Y99.176 E2.10351
G1 X97.044 Y98.917 E2.11025
G1 X97.323 Y98.597 E2.11872
G1 X97.419 Y98.491 E2.12158
G1 X97.759 Y98.132 E2.13144
G1 X97.981 Y97.908 E2.13774
G0 F6000 X98.265 Y98.189
G1 F1200 X98.481 Y97.978 E2.14376
G1 X98.609 Y97.856 E2.14729
G1 X98.974 Y97.523 E2.15715
G1 X99.148 Y97.372 E2.16175
G1 X99.603 Y96.999 E2.17349
G1 X99.954 Y96.727 E2.18235
G1 X100.326 Y96.452 E2.19159
G1 X100.572 Y96.278 E2.1976
G1 X101.148 Y95.898 E2.21137
G1 X101.425 Y95.728 E2.21785
G1 X101.738 Y95.543 E2.22511
G1 X101.849 Y95.48 E2.22766
G1 X102.263 Y95.257 E2.23704
G1 X102.553 Y95.109 E2.24354
G1 X102.891 Y94.944 E2.25105
G1 X103.069 Y94.861 E2.25496
G1 X103.475 Y94.682 E2.26382
G1 X103.756 Y94.565 E2.26989
G1 X104.298 Y94.357 E2.28148
G1 X104.547 Y94.269 E2.28675
G1 X104.829 Y94.174 E2.29269
G1 X105.037 Y94.107 E2.29705
G1 X105.415 Y93.992 E2.30493
G1 X105.582 Y93.945 E2.3084
G1 X106.066 Y93.821 E2.31837
G1 X106.412 Y93.741 E2.32545
G1 X106.975 Y93.627 E2.33692
G1 X107.181 Y93.591 E2.34109
G1 X107.442 Y93.549 E2.34636
G1 X107.69 Y93.512 E2.35137
G1 X108.083 Y93.461 E2.35928
G1 X108.272 Y93.44 E2.36307
G1 X108.748 Y93.398 E2.37261
G1 X109.022 Y93.38 E2.37809
G1 X109.339 Y93.364 E2.38442
G1 X109.535 Y93.357 E2.38834
G1 X110.074 Y93.351 E2.39909
G1 X110.404 Y93.356 E2.40568
G1 X110.735 Y93.366 E2.41229
G1 X110.864 Y93.372 E2.41486
G1 X111.332 Y93.405 E2.42423
G1 X111.673 Y93.436 E2.43106
G1 X112.122 Y93.486 E2.44008
G1 X112.301 Y93.51 E2.44368
G1 X112.732 Y93.577 E2.45238
G1 X113.061 Y93.635 E2.45905
G1 X113.507 Y93.723 E2.46812
G1 X113.67 Y93.759 E2.47145
G1 X114.069 Y93.856 E2.47965
G1 X114.344 Y93.928 E2.48532
G1 X114.66 Y94.016 E2.49187
G1 X114.826 Y94.065 E2.49532
G1 X115.305 Y94.218 E2.50536
G1 X115.61 Y94.324 E2.5118
G1 X115.975 Y94.458 E2.51956
G1 X116.523 Y94.681 E2.53137
G1 X116.819 Y94.811 E2.53782
G1 X117.281 Y95.027 E2.548
G1 X117.506 Y95.139 E2.55301
G1 X117.789 Y95.285 E2.55937
G1 X117.998 Y95.397 E2.5641
G1 X118.347 Y95.593 E2.57209
G1 X118.499 Y95.682 E2.5756
G1 X118.898 Y95.927 E2.58494
G1 X119.178 Y96.108 E2.5916
G1 X119.448 Y96.289 E2.59809
G1 X119.558 Y96.365 E2.60075
G1 X119.975 Y96.668 E2.61104
G1 X120.205 Y96.844 E2.61682
G1 X120.703 Y97.25 E2.62964
G1 X121.047 Y97.548 E2.63872
G1 X121.407 Y97.874 E2.64842
G1 X121.586 Y98.044 E2.65334
G1 X121.991 Y98.451 E2.6648
G1 X122.213 Y98.686 E2.67125
G1 X122.556 Y99.067 E2.68148
G1 X122.694 Y99.228 E2.68571
G1 X122.944 Y99.53 E2.69354
G1 X123.13 Y99.764 E2.6995
G1 X123.312 Y100 E2.70545
G1 X123.405 Y100.124 E2.70854
G1 X123.706 Y100.546 E2.71889
G1 X123.871 Y100.79 E2.72477
G1 X124.054 Y101.07 E2.73144
G1 X124.143 Y101.211 E2.73477
G1 X124.432 Y101.697 E2.74605
G1 X124.598 Y101.994 E2.75284
G1 X124.788 Y102.348 E2.76086
G1 X125.054 Y102.886 E2.77284
G1 X125.192 Y103.187 E2.77945
G1 X125.337 Y103.52 E2.78669
G1 X125.408 Y103.69 E2.79037
G1 X125.586 Y104.144 E2.8001
G1 X125.691 Y104.432 E2.80622
G1 X125.774 Y104.669 E2.81123
G1 X125.822 Y104.811 E2.81422
G1 X126.002 Y105.398 E2.82647
G1 X126.094 Y105.733 E2.83341
G1 X126.218 Y106.236 E2.84375
G1 X126.267 Y106.456 E2.84824
G1 X126.336 Y106.79 E2.85505
G1 X126.385 Y107.049 E2.86031
G1 X126.438 Y107.35 E2.86641
G1 X126.46 Y107.488 E2.8692
G1 X126.524 Y107.955 E2.8786
G1 X126.549 Y108.174 E2.883
G1 X126.601 Y108.788 E2.8953
G1 X126.633 Y109.364 E2.90681
G1 X126.649 Y109.894 E2.91739
G1 X126.65 Y110.078 E2.92107
G1 X126.637 Y110.664 E2.93276
G1 X126.622 Y110.965 E2.93878
G1 X126.576 Y111.558 E2.95065
G1 X126.544 Y111.859 E2.95669
G1 X126.504 Y112.181 E2.96316
G1 X126.475 Y112.392 E2.96741
G1 X126.435 Y112.66 E2.97282
G1 X126.409 Y112.819 E2.97604
G1 X126.314 Y113.321 E2.98623
G1 X126.241 Y113.663 E2.99321
G1 X126.094 Y114.266 E3.0056
G1 X126.04 Y114.462 E3.00965
G1 X125.961 Y114.734 E3.01531
G1 X125.88 Y115 E3.02085
G1 X125.781 Y115.309 E3.02733
G1 X125.736 Y115.442 E3.03013
G1 X125.571 Y115.896 E3.03977
G1 X125.454 Y116.196 E3.0462
G1 X125.297 Y116.576 E3.0544
G1 X125.233 Y116.723 E3.0576
G1 X125.05 Y117.12 E3.06633
G1 X124.901 Y117.427 E3.07314
G1 X124.708 Y117.806 E3.08162
G1 X124.626 Y117.959 E3.08509
G1 X124.388 Y118.379 E3.09472
G1 X124.236 Y118.634 E3.10065
G1 X124.029 Y118.968 E3.10849
G1 X123.928 Y119.124 E3.1122
G1 X123.665 Y119.511 E3.12153
G1 X123.492 Y119.754 E3.12749
G1 X123.323 Y119.985 E3.1332
G1 X123.216 Y120.127 E3.13675
G1 X122.868 Y120.564 E3.14789
G1 X122.643 Y120.832 E3.15488
G1 X122.444 Y121.063 E3.16096
G1 X122.347 Y121.172 E3.16387
G1 X121.957 Y121.587 E3.17524
G1 X121.735 Y121.811 E3.18153
G1 X121.507 Y122.034 E3.1879
G1 X121.387 Y122.148 E3.1912
G1 X121.06 Y122.446 E3.20003
G1 X120.878 Y122.605 E3.20485
G1 X120.402 Y122.997 E3.21716
G1 X120.063 Y123.26 E3.22572
G1 X119.7 Y123.529 E3.23474
G1 X119.445 Y123.71 E3.24098
G1 X118.869 Y124.091 E3.25476
G1 X118.593 Y124.261 E3.26123
G1 X118.276 Y124.449 E3.26858
G1 X118.16 Y124.515 E3.27125
G1 X117.724 Y124.75 E3.28113
G1 X117.435 Y124.897 E3.2876
G1 X117.088 Y125.065 E3.29529
G1 X116.909 Y125.148 E3.29923
G1 X116.54 Y125.311 E3.30728
G1 X116.265 Y125.426 E3.31323
G1 X115.715 Y125.638 E3.32499
G1 X115.461 Y125.728 E3.33037
G1 X115.171 Y125.826 E3.33648
G1 X114.963 Y125.893 E3.34084
G1 X114.585 Y126.008 E3.34873
G1 X114.418 Y126.055 E3.35219
G1 X113.934 Y126.179 E3.36216
G1 X113.588 Y126.259 E3.36924
G1 X113.025 Y126.373 E3.38071
G1 X112.819 Y126.409 E3.38488
G1 X112.558 Y126.451 E3.39016
G1 X112.31 Y126.488 E3.39516
G1 X111.917 Y126.539 E3.40307
G1 X111.728 Y126.56 E3.40686
G1 X111.254 Y126.602 E3.41636
G1 X110.981 Y126.62 E3.42182
G1 X110.659 Y126.636 E3.42825
G1 X110.461 Y126.643 E3.43221
G1 X109.925 Y126.649 E3.44291
G1 X109.596 Y126.644 E3.44947
G1 X109.265 Y126.634 E3.45608
G1 X109.136 Y126.628 E3.45866
G1 X108.668 Y126.595 E3.46802
G1 X108.327 Y126.564 E3.47485
G1 X107.878 Y126.514 E3.48387
G1 X107.699 Y126.49 E3.48747
G1 X107.268 Y126.423 E3.49618
G1 X106.939 Y126.365 E3.50284
G1 X106.493 Y126.277 E3.51192
G1 X106.33 Y126.241 E3.51525
G1 X105.931 Y126.144 E3.52344
G1 X105.656 Y126.072 E3.52911
G1 X105.34 Y125.984 E3.53566
G1 X105.174 Y125.935 E3.53911
G1 X104.708 Y125.786 E3.54888
G1 X104.396 Y125.678 E3.55547
G1 X104.106 Y125.573 E3.56162
G1 X103.982 Y125.526 E3.56427
G1 X103.477 Y125.319 E3.57516
G1 X103.181 Y125.189 E3.58161
G1 X102.735 Y124.981 E3.59143
G1 X102.501 Y124.865 E3.59664
G1 X102.181 Y124.7 E3.60383
G1 X101.975 Y124.589 E3.6085
G1 X101.623 Y124.39 E3.61657
G1 X101.477 Y124.304 E3.61995
G1 X101.102 Y124.073 E3.62874
G1 X100.822 Y123.892 E3.63539
G1 X100.552 Y123.711 E3.64188
G1 X100.442 Y123.635 E3.64455
G1 X100.025 Y123.332 E3.65483
