;FLAVOR:Marlin
;TIME:987
;Filament used: 0.272295m
;Layer height: 0.12
;MINX:93.959
;MINY:93.959
;MINZ:0.12
;MAXX:126.041
;MAXY:126.041
;MAXZ:12.96
;Generated with Cura_SteamEngine 4.7.0
M140 S60
M105
M190 S60
M104 S200
M105
M109 S200
M82 ;absolute extrusion mode
; Ender 3 Custom Start G-code
G92 E0 ; Reset Extruder
G28 ; Home all axes
G1 Z2.0 F3000 ; Move Z Axis up little to prevent scratching of Heat Bed
G1 X0.1 Y20 Z0.3 F5000.0 ; Move to start position
G1 X0.1 Y200.0 Z0.3 F1500.0 E15 ; Draw the first line
G1 X0.4 Y200.0 Z0.3 F5000.0 ; Move to side a little
G1 X0.4 Y20 Z0.3 F1500.0 E30 ; Draw the second line
G92 E0 ; Reset Extruder
G1 Z2.0 F3000 ; Move Z Axis up little to prevent scratching of Heat Bed
G1 X5 Y20 Z0.3 F5000.0 ; Move over to prevent blob squish
G92 E0
G92 E0
G1 F1500 E-6.5
;LAYER_COUNT:108
;LAYER:0
M107
M204 S500
M205 X8 Y8
G0 F6000 X98.621 Y98.684 Z0.12
;TYPE:SKIRT
G1 F1500 E0
G1 F1200 X98.919 Y98.39 E0.00835
G1 X99.623 Y97.757 E0.02725
G1 X99.844 Y97.575 E0.03296
G1 X100.194 Y97.296 E0.04189
G1 X100.955 Y96.744 E0.06065
G1 X101.235 Y96.559 E0.06735
G1 X101.507 Y96.385 E0.07379
G1 X101.704 Y96.263 E0.07842
G1 X102.199 Y95.974 E0.08986
G1 X102.29 Y95.924 E0.09193
G1 X102.654 Y95.733 E0.10013
G1 X102.945 Y95.587 E0.10663
G1 X103.772 Y95.214 E0.12473
G1 X104.202 Y95.041 E0.13398
G1 X104.829 Y94.81 E0.14732
G1 X105.111 Y94.716 E0.15325
G1 X105.857 Y94.497 E0.16877
G1 X106.204 Y94.408 E0.17592
G1 X106.752 Y94.282 E0.18714
G1 X106.9 Y94.252 E0.19015
G1 X107.468 Y94.152 E0.20166
G1 X107.818 Y94.1 E0.20872
G1 X108.412 Y94.029 E0.22066
G1 X108.594 Y94.012 E0.22431
G1 X109.185 Y93.973 E0.23613
G1 X109.49 Y93.961 E0.24222
G1 X110.307 Y93.959 E0.25852
G1 X110.793 Y93.976 E0.26823
G1 X111.471 Y94.021 E0.28179
G1 X111.749 Y94.048 E0.28736
G1 X112.568 Y94.158 E0.30385
G1 X112.925 Y94.22 E0.31108
G1 X113.516 Y94.34 E0.32312
G1 X113.672 Y94.376 E0.32631
G1 X114.225 Y94.518 E0.33771
G1 X114.571 Y94.617 E0.34489
G1 X115.129 Y94.793 E0.35656
G1 X115.306 Y94.854 E0.3603
G1 X115.775 Y95.028 E0.37028
G1 X116.103 Y95.158 E0.37732
G1 X116.694 Y95.412 E0.39016
G1 X116.84 Y95.48 E0.39337
G1 X117.378 Y95.749 E0.40538
G1 X117.73 Y95.937 E0.41334
G1 X118.284 Y96.254 E0.42608
G1 X118.392 Y96.32 E0.42861
G1 X118.728 Y96.534 E0.43656
G1 X119.015 Y96.724 E0.44342
G1 X119.543 Y97.096 E0.45631
G1 X119.635 Y97.165 E0.45861
G1 X120.064 Y97.504 E0.46952
G1 X120.448 Y97.823 E0.47948
G1 X120.921 Y98.239 E0.49205
G1 X120.995 Y98.308 E0.49407
G1 X121.375 Y98.68 E0.50468
G1 X121.631 Y98.943 E0.51201
G1 X122.054 Y99.403 E0.52448
G1 X122.153 Y99.517 E0.52749
G1 X122.487 Y99.921 E0.53795
G1 X122.714 Y100.209 E0.54527
G1 X123.087 Y100.71 E0.55774
G1 X123.192 Y100.86 E0.56139
G1 X123.453 Y101.251 E0.57077
G1 X123.617 Y101.508 E0.57686
G1 X123.934 Y102.038 E0.58918
G1 X124.025 Y102.2 E0.59289
G1 X124.281 Y102.683 E0.6038
G1 X124.412 Y102.946 E0.60966
G1 X124.747 Y103.684 E0.62583
G1 X124.925 Y104.119 E0.63521
G1 X125.296 Y105.177 E0.65759
G1 X125.491 Y105.839 E0.67136
G1 X125.722 Y106.775 E0.6906
G1 X125.751 Y106.919 E0.69353
G1 X125.853 Y107.507 E0.70544
G1 X125.907 Y107.878 E0.71292
G1 X125.982 Y108.526 E0.72594
G1 X125.996 Y108.69 E0.72922
G1 X126.027 Y109.185 E0.73912
G1 X126.039 Y109.484 E0.74509
G1 X126.041 Y110.312 E0.76162
G1 X126.024 Y110.795 E0.77126
G1 X125.979 Y111.471 E0.78478
G1 X125.952 Y111.749 E0.79036
G1 X125.845 Y112.547 E0.80642
G1 X125.782 Y112.914 E0.81385
G1 X125.638 Y113.617 E0.82817
G1 X125.603 Y113.763 E0.83117
G1 X125.482 Y114.225 E0.8407
G1 X125.383 Y114.571 E0.84788
G1 X125.207 Y115.129 E0.85956
G1 X125.146 Y115.306 E0.8633
G1 X124.972 Y115.775 E0.87328
G1 X124.842 Y116.103 E0.88032
G1 X124.588 Y116.694 E0.89316
G1 X124.52 Y116.84 E0.89637
G1 X124.249 Y117.381 E0.90845
G1 X124.055 Y117.744 E0.91666
G1 X123.709 Y118.346 E0.93052
G1 X123.649 Y118.443 E0.93279
G1 X123.471 Y118.721 E0.93938
G1 X123.282 Y119.007 E0.94622
G1 X122.891 Y119.56 E0.95974
G1 X122.775 Y119.714 E0.96358
G1 X122.484 Y120.085 E0.97299
G1 X122.252 Y120.367 E0.98028
G1 X121.613 Y121.078 E0.99936
G1 X121.415 Y121.28 E1.005
G1 X121.095 Y121.597 E1.01399
G1 X120.375 Y122.244 E1.03331
G1 X119.993 Y122.556 E1.04315
G1 X119.781 Y122.723 E1.04854
G1 X119.052 Y123.25 E1.06649
G1 X118.779 Y123.431 E1.07302
G1 X118.491 Y123.616 E1.07986
G1 X118.302 Y123.733 E1.08429
G1 X117.854 Y123.996 E1.09466
G1 X117.755 Y124.051 E1.09692
G1 X117.346 Y124.267 E1.10615
G1 X117.055 Y124.413 E1.11265
G1 X116.228 Y124.786 E1.13075
G1 X115.803 Y124.957 E1.13989
G1 X115.186 Y125.184 E1.15301
G1 X114.899 Y125.28 E1.15905
G1 X114.143 Y125.503 E1.17478
G1 X113.796 Y125.592 E1.18193
G1 X113.248 Y125.718 E1.19315
G1 X113.1 Y125.748 E1.19617
G1 X112.532 Y125.848 E1.20767
G1 X112.182 Y125.9 E1.21474
G1 X111.588 Y125.971 E1.22667
G1 X111.406 Y125.988 E1.23032
G1 X110.815 Y126.027 E1.24214
G1 X110.51 Y126.039 E1.24823
G1 X109.693 Y126.041 E1.26454
G1 X109.207 Y126.024 E1.27424
G1 X108.529 Y125.979 E1.2878
G1 X108.251 Y125.952 E1.29338
G1 X107.432 Y125.842 E1.30987
G1 X107.075 Y125.78 E1.3171
G1 X106.484 Y125.66 E1.32913
G1 X106.328 Y125.624 E1.33233
G1 X105.775 Y125.482 E1.34372
G1 X105.429 Y125.383 E1.3509
G1 X104.871 Y125.207 E1.36258
G1 X104.694 Y125.146 E1.36632
G1 X104.225 Y124.972 E1.3763
G1 X103.897 Y124.842 E1.38334
G1 X103.306 Y124.588 E1.39618
G1 X103.16 Y124.52 E1.39939
G1 X102.646 Y124.264 E1.41085
G1 X102.322 Y124.092 E1.41817
G1 X101.8 Y123.796 E1.43015
G1 X101.664 Y123.714 E1.43331
G1 X101.272 Y123.466 E1.44257
G1 X100.985 Y123.276 E1.44944
G1 X100.457 Y122.904 E1.46233
G1 X100.365 Y122.835 E1.46462
G1 X99.936 Y122.496 E1.47554
G1 X99.552 Y122.177 E1.4855
G1 X99.162 Y121.837 E1.49582
G1 X99.081 Y121.763 E1.49801
G1 X98.584 Y121.28 E1.51184
G1 X98.336 Y121.023 E1.51897
G1 X97.969 Y120.624 E1.52979
G1 X97.865 Y120.505 E1.53294
G1 X97.509 Y120.075 E1.54408
G1 X97.297 Y119.806 E1.55092
G1 X96.945 Y119.334 E1.56267
G1 X96.828 Y119.168 E1.56672
G1 X96.51 Y118.691 E1.57816
G1 X96.335 Y118.413 E1.58472
G1 X96.017 Y117.875 E1.59719
G1 X95.907 Y117.676 E1.60173
G1 X95.654 Y117.19 E1.61266
G1 X95.538 Y116.953 E1.61793
G1 X95.218 Y116.235 E1.63361
G1 X95.044 Y115.804 E1.64289
G1 X94.805 Y115.154 E1.65671
G1 X94.71 Y114.868 E1.66272
G1 X94.487 Y114.104 E1.67861
G1 X94.399 Y113.757 E1.68575
G1 X94.284 Y113.256 E1.69601
G1 X94.256 Y113.119 E1.6988
G1 X94.15 Y112.517 E1.711
G1 X94.096 Y112.15 E1.7184
G1 X94.024 Y111.539 E1.73068
G1 X94.009 Y111.373 E1.734
G1 X93.973 Y110.817 E1.74512
G1 X93.961 Y110.513 E1.75119
G1 X93.959 Y109.695 E1.76752
G1 X93.976 Y109.208 E1.77724
G1 X94.021 Y108.529 E1.79082
G1 X94.048 Y108.251 E1.7964
G1 X94.158 Y107.433 E1.81287
G1 X94.221 Y107.07 E1.82022
G1 X94.347 Y106.451 E1.83283
G1 X94.382 Y106.301 E1.8359
G1 X94.518 Y105.775 E1.84674
G1 X94.619 Y105.422 E1.85407
G1 X94.802 Y104.844 E1.86617
G1 X94.862 Y104.671 E1.86982
G1 X95.031 Y104.217 E1.87949
G1 X95.16 Y103.892 E1.88647
G1 X95.412 Y103.306 E1.8992
G1 X95.48 Y103.16 E1.90241
G1 X95.751 Y102.619 E1.91449
G1 X95.945 Y102.256 E1.9227
G1 X96.271 Y101.686 E1.9358
G1 X96.333 Y101.585 E1.93817
G1 X96.541 Y101.26 E1.94587
G1 X96.732 Y100.972 E1.95277
G1 X97.128 Y100.414 E1.96642
G1 X97.24 Y100.266 E1.97012
G1 X97.539 Y99.888 E1.97974
G1 X97.78 Y99.597 E1.98728
G1 X98.403 Y98.906 E2.00585
G1 X98.621 Y98.684 E2.01206
G0 F6000 X98.907 Y98.964
G1 F1200 X99.053 Y98.818 E2.01618
G1 X99.199 Y98.675 E2.02026
G1 X99.878 Y98.066 E2.03846
G1 X100.26 Y97.753 E2.04831
G1 X100.442 Y97.609 E2.05295
G1 X101.176 Y97.078 E2.07102
G1 X101.456 Y96.893 E2.07772
G1 X101.718 Y96.725 E2.08393
G1 X101.915 Y96.603 E2.08856
G1 X102.392 Y96.325 E2.09957
G1 X102.483 Y96.275 E2.10165
G1 X102.834 Y96.091 E2.10956
G1 X103.125 Y95.945 E2.11605
G1 X103.922 Y95.585 E2.1335
G1 X104.352 Y95.412 E2.14275
G1 X104.956 Y95.19 E2.1556
G1 X105.238 Y95.096 E2.16153
G1 X105.957 Y94.884 E2.17649
G1 X106.304 Y94.795 E2.18364
G1 X106.831 Y94.674 E2.19443
G1 X106.979 Y94.644 E2.19744
G1 X107.527 Y94.548 E2.20854
G1 X107.877 Y94.496 E2.2156
G1 X108.449 Y94.427 E2.2271
G1 X108.631 Y94.41 E2.23075
G1 X109.2 Y94.372 E2.24213
G1 X109.505 Y94.36 E2.24822
G1 X110.293 Y94.358 E2.26395
G1 X110.779 Y94.375 E2.27365
G1 X111.433 Y94.419 E2.28673
G1 X111.711 Y94.446 E2.29231
G1 X112.5 Y94.552 E2.30819
G1 X112.857 Y94.614 E2.31542
G1 X113.427 Y94.729 E2.32703
G1 X113.583 Y94.765 E2.33022
G1 X114.115 Y94.903 E2.34119
G1 X114.461 Y95.002 E2.34837
G1 X114.999 Y95.171 E2.35963
G1 X115.176 Y95.232 E2.36336
G1 X115.628 Y95.4 E2.37299
G1 X115.956 Y95.53 E2.38003
G1 X116.525 Y95.775 E2.39239
G1 X116.671 Y95.843 E2.3956
G1 X117.19 Y96.102 E2.40718
G1 X117.542 Y96.29 E2.41514
G1 X118.075 Y96.595 E2.4274
G1 X118.183 Y96.661 E2.42992
G1 X118.507 Y96.867 E2.43758
G1 X118.794 Y97.057 E2.44445
G1 X119.303 Y97.416 E2.45688
G1 X119.395 Y97.485 E2.45918
G1 X119.808 Y97.811 E2.46968
G1 X120.192 Y98.13 E2.47964
G1 X120.648 Y98.531 E2.49176
G1 X120.722 Y98.6 E2.49378
G1 X121.089 Y98.959 E2.50402
G1 X121.345 Y99.222 E2.51135
G1 X121.752 Y99.666 E2.52337
G1 X121.851 Y99.78 E2.52638
G1 X122.173 Y100.168 E2.53644
G1 X122.4 Y100.456 E2.54376
G1 X122.759 Y100.939 E2.55577
G1 X122.864 Y101.089 E2.55942
G1 X123.116 Y101.466 E2.56847
G1 X123.28 Y101.723 E2.57456
G1 X123.586 Y102.234 E2.58644
G1 X123.677 Y102.396 E2.59015
G1 X123.923 Y102.861 E2.60065
G1 X124.054 Y103.124 E2.60651
G1 X124.376 Y103.836 E2.62211
G1 X124.554 Y104.271 E2.63149
G1 X124.912 Y105.29 E2.65304
G1 X125.107 Y105.952 E2.66681
G1 X125.33 Y106.854 E2.68536
G1 X125.359 Y106.998 E2.68829
G1 X125.457 Y107.564 E2.69975
G1 X125.511 Y107.935 E2.70723
G1 X125.584 Y108.56 E2.71979
G1 X125.598 Y108.724 E2.72307
G1 X125.627 Y109.201 E2.73261
G1 X125.639 Y109.5 E2.73858
G1 X125.641 Y110.298 E2.75451
G1 X125.624 Y110.781 E2.76415
G1 X125.581 Y111.433 E2.77719
G1 X125.554 Y111.711 E2.78277
G1 X125.451 Y112.479 E2.79823
G1 X125.388 Y112.846 E2.80566
G1 X125.249 Y113.524 E2.81947
G1 X125.214 Y113.67 E2.82247
G1 X125.097 Y114.115 E2.83165
G1 X124.998 Y114.461 E2.83883
G1 X124.829 Y114.999 E2.85009
G1 X124.768 Y115.176 E2.85382
G1 X124.6 Y115.628 E2.86344
G1 X124.47 Y115.956 E2.87049
G1 X124.225 Y116.525 E2.88285
G1 X124.157 Y116.671 E2.88606
G1 X123.897 Y117.192 E2.89768
G1 X123.703 Y117.555 E2.9059
G1 X123.369 Y118.135 E2.91925
G1 X123.309 Y118.232 E2.92153
G1 X123.137 Y118.5 E2.92788
G1 X122.948 Y118.786 E2.93472
G1 X122.572 Y119.32 E2.94776
G1 X122.456 Y119.474 E2.95161
G1 X122.175 Y119.83 E2.96066
G1 X121.943 Y120.112 E2.96794
G1 X121.327 Y120.798 E2.98634
G1 X121.129 Y121 E2.99199
G1 X120.814 Y121.312 E3.00084
G1 X120.121 Y121.936 E3.01945
G1 X119.923 Y122.099 E3.02456
G1 X119.745 Y122.242 E3.02912
G1 X119.533 Y122.409 E3.03451
G1 X118.831 Y122.917 E3.0518
G1 X118.558 Y123.098 E3.05833
G1 X118.28 Y123.276 E3.06492
G1 X118.091 Y123.393 E3.06936
G1 X117.66 Y123.646 E3.07933
G1 X117.561 Y123.701 E3.08159
G1 X117.166 Y123.909 E3.0905
G1 X116.875 Y124.055 E3.097
G1 X116.079 Y124.415 E3.11443
G1 X115.654 Y124.586 E3.12357
G1 X115.06 Y124.805 E3.13621
G1 X114.773 Y124.901 E3.14225
G1 X114.043 Y125.116 E3.15743
G1 X113.696 Y125.205 E3.16458
G1 X113.169 Y125.326 E3.17537
G1 X113.021 Y125.356 E3.17839
G1 X112.473 Y125.452 E3.18949
G1 X112.123 Y125.504 E3.19655
G1 X111.551 Y125.573 E3.20805
G1 X111.369 Y125.59 E3.2117
G1 X110.8 Y125.628 E3.22308
G1 X110.495 Y125.64 E3.22917
G1 X109.707 Y125.642 E3.24489
G1 X109.221 Y125.625 E3.2546
G1 X108.567 Y125.581 E3.26768
G1 X108.289 Y125.554 E3.27325
G1 X107.5 Y125.448 E3.28914
G1 X107.143 Y125.386 E3.29637
G1 X106.573 Y125.271 E3.30797
G1 X106.417 Y125.235 E3.31117
G1 X105.885 Y125.097 E3.32214
G1 X105.539 Y124.998 E3.32932
G1 X105.001 Y124.829 E3.34057
G1 X104.824 Y124.768 E3.34431
G1 X104.372 Y124.6 E3.35393
G1 X104.044 Y124.47 E3.36097
G1 X103.475 Y124.225 E3.37334
G1 X103.329 Y124.157 E3.37655
G1 X102.834 Y123.911 E3.38758
G1 X102.51 Y123.739 E3.3949
G1 X102.007 Y123.454 E3.40644
G1 X101.871 Y123.372 E3.40961
G1 X101.493 Y123.133 E3.41853
G1 X101.206 Y122.943 E3.4254
G1 X100.697 Y122.584 E3.43783
G1 X100.605 Y122.515 E3.44013
G1 X100.192 Y122.189 E3.45063
G1 X99.808 Y121.87 E3.46059
G1 X99.431 Y121.542 E3.47056
G1 X99.35 Y121.468 E3.47275
G1 X98.872 Y121.003 E3.48606
G1 X98.624 Y120.746 E3.49319
G1 X98.271 Y120.36 E3.50362
G1 X98.167 Y120.241 E3.50678
G1 X97.823 Y119.827 E3.51752
G1 X97.611 Y119.558 E3.52435
G1 X97.272 Y119.104 E3.53566
G1 X97.155 Y118.938 E3.53971
G1 X96.848 Y118.478 E3.55075
G1 X96.673 Y118.2 E3.55731
G1 X96.367 Y117.681 E3.56933
G1 X96.257 Y117.482 E3.57387
G1 X96.013 Y117.014 E3.5844
G1 X95.897 Y116.777 E3.58967
G1 X95.589 Y116.085 E3.60478
G1 X95.415 Y115.654 E3.61406
G1 X95.184 Y115.027 E3.62739
G1 X95.089 Y114.741 E3.63341
G1 X94.874 Y114.006 E3.64869
G1 X94.786 Y113.659 E3.65583
G1 X94.676 Y113.176 E3.66572
G1 X94.648 Y113.039 E3.66851
G1 X94.546 Y112.459 E3.68026
G1 X94.492 Y112.092 E3.68766
G1 X94.422 Y111.503 E3.6995
G1 X94.407 Y111.337 E3.70283
G1 X94.372 Y110.801 E3.71354
G1 X94.36 Y110.497 E3.71962
G1 X94.358 Y109.709 E3.73534
G1 X94.375 Y109.222 E3.74507
G1 X94.419 Y108.567 E3.75817
G1 X94.446 Y108.289 E3.76374
G1 X94.552 Y107.501 E3.77961
G1 X94.615 Y107.138 E3.78696
G1 X94.736 Y106.542 E3.7991
G1 X94.771 Y106.392 E3.80217
G1 X94.903 Y105.885 E3.81263
G1 X95.004 Y105.532 E3.81995
G1 X95.18 Y104.975 E3.83161
G1 X95.24 Y104.802 E3.83526
G1 X95.403 Y104.364 E3.84459
G1 X95.532 Y104.039 E3.85157
G1 X95.775 Y103.475 E3.86382
G1 X95.843 Y103.329 E3.86704
G1 X96.103 Y102.808 E3.87866
G1 X96.297 Y102.445 E3.88687
G1 X96.612 Y101.896 E3.8995
G1 X96.674 Y101.795 E3.90187
G1 X96.874 Y101.481 E3.9093
G1 X97.065 Y101.193 E3.91619
G1 X97.446 Y100.656 E3.92933
G1 X97.558 Y100.508 E3.93304
G1 X97.847 Y100.143 E3.94233
G1 X98.088 Y99.852 E3.94987
G1 X98.689 Y99.186 E3.96777
G1 X98.907 Y98.964 E3.97398
G0 F6000 X99.192 Y99.244
G1 F1200 X99.479 Y98.961 E3.98202
G1 X100.132 Y98.374 E3.99955
G1 X100.353 Y98.192 E4.00526
G1 X100.69 Y97.923 E4.01386
G1 X101.396 Y97.412 E4.03126
G1 X101.676 Y97.227 E4.03795
G1 X101.929 Y97.065 E4.04395
G1 X102.126 Y96.943 E4.04857
G1 X102.584 Y96.676 E4.05915
G1 X102.675 Y96.626 E4.06122
G1 X103.013 Y96.448 E4.06885
G1 X103.304 Y96.302 E4.07534
G1 X104.071 Y95.956 E4.09214
G1 X104.501 Y95.783 E4.10139
G1 X105.082 Y95.569 E4.11374
G1 X105.364 Y95.475 E4.11967
G1 X106.056 Y95.272 E4.13407
G1 X106.403 Y95.183 E4.14121
G1 X106.911 Y95.066 E4.15162
G1 X107.059 Y95.036 E4.15463
G1 X107.586 Y94.944 E4.16531
G1 X107.936 Y94.892 E4.17237
G1 X108.486 Y94.825 E4.18343
G1 X108.668 Y94.808 E4.18707
G1 X109.216 Y94.772 E4.19803
G1 X109.521 Y94.76 E4.20412
G1 X110.279 Y94.758 E4.21925
G1 X110.765 Y94.775 E4.22896
G1 X111.394 Y94.817 E4.24154
G1 X111.672 Y94.844 E4.24711
G1 X112.431 Y94.946 E4.26239
G1 X112.788 Y95.008 E4.26962
G1 X113.337 Y95.119 E4.2808
G1 X113.493 Y95.155 E4.284
G1 X114.005 Y95.288 E4.29455
G1 X114.351 Y95.387 E4.30173
G1 X114.868 Y95.55 E4.31255
G1 X115.045 Y95.611 E4.31629
G1 X115.48 Y95.772 E4.32554
G1 X115.808 Y95.902 E4.33259
G1 X116.356 Y96.138 E4.34449
G1 X116.502 Y96.206 E4.34771
G1 X117.001 Y96.455 E4.35884
G1 X117.353 Y96.643 E4.3668
G1 X117.867 Y96.937 E4.37862
G1 X117.975 Y97.003 E4.38114
G1 X118.287 Y97.201 E4.38852
G1 X118.574 Y97.391 E4.39538
G1 X119.063 Y97.736 E4.40733
G1 X119.155 Y97.805 E4.40962
G1 X119.553 Y98.119 E4.41974
G1 X119.937 Y98.438 E4.4297
G1 X120.375 Y98.824 E4.44135
G1 X120.449 Y98.893 E4.44337
G1 X120.802 Y99.238 E4.45322
G1 X121.058 Y99.501 E4.46055
G1 X121.45 Y99.928 E4.47211
G1 X121.549 Y100.042 E4.47513
G1 X121.859 Y100.416 E4.48482
G1 X122.086 Y100.704 E4.49214
G1 X122.431 Y101.169 E4.50369
G1 X122.536 Y101.319 E4.50735
G1 X122.778 Y101.681 E4.51604
G1 X122.942 Y101.938 E4.52212
G1 X123.237 Y102.43 E4.53357
G1 X123.328 Y102.592 E4.53728
G1 X123.565 Y103.039 E4.54737
G1 X123.696 Y103.302 E4.55324
G1 X124.006 Y103.987 E4.56824
G1 X124.184 Y104.422 E4.57762
G1 X124.528 Y105.403 E4.59837
G1 X124.723 Y106.065 E4.61214
G1 X124.938 Y106.933 E4.62998
G1 X124.967 Y107.077 E4.63292
G1 X125.062 Y107.622 E4.64396
G1 X125.116 Y107.993 E4.65144
G1 X125.185 Y108.594 E4.66351
G1 X125.199 Y108.758 E4.66679
