;FLAVOR:Marlin
;TIME:8774
;Filament used: 5.52004m
;Layer height: 0.2
;MINX:52.534
;MINY:59.605
;MINZ:0.2
;MAXX:167.466
;MAXY:167.464
;MAXZ:14
;Generated with Cura_SteamEngine 4.7.0
M140 S60
M105
M190 S60
M104 S200
M105
M109 S200
M82 ;absolute extrusion mode
; Ender 3 Custom Start G-code
G92 E0 ; Reset Extruder
G28 ; Home all axes
G1 Z2.0 F3000 ; Move Z Axis up little to prevent scratching of Heat Bed
G1 X0.1 Y20 Z0.3 F5000.0 ; Move to start position
G1 X0.1 Y200.0 Z0.3 F1500.0 E15 ; Draw the first line
G1 X0.4 Y200.0 Z0.3 F5000.0 ; Move to side a little
G1 X0.4 Y20 Z0.3 F1500.0 E30 ; Draw the second line
G92 E0 ; Reset Extruder
G1 Z2.0 F3000 ; Move Z Axis up little to prevent scratching of Heat Bed
G1 X5 Y20 Z0.3 F5000.0 ; Move over to prevent blob squish
G92 E0
G92 E0
G1 F1500 E-6.5
;LAYER_COUNT:70
;LAYER:0
M107
G0 F6000 X59.379 Y65.923 Z0.2
;TYPE:SKIRT
G1 F1500 E0
G1 F1200 X59.629 Y65.706 E0.01101
G1 X59.878 Y65.496 E0.02184
G1 X60.119 Y65.299 E0.0322
G1 X60.87 Y64.737 E0.0634
G1 X61.398 Y64.398 E0.08426
G1 X61.756 Y64.182 E0.09817
G1 X62.051 Y64.01 E0.10953
G1 X62.245 Y63.901 E0.11693
G1 X63.081 Y63.477 E0.14811
G1 X63.652 Y63.237 E0.16871
G1 X63.974 Y63.112 E0.1802
G1 X64.357 Y62.971 E0.19377
G1 X64.539 Y62.908 E0.20018
G1 X65.437 Y62.639 E0.23136
G1 X65.959 Y62.521 E0.24916
G1 X66.266 Y62.459 E0.25957
G1 X66.636 Y62.391 E0.27209
G1 X66.792 Y62.365 E0.27735
G1 X67.69 Y62.253 E0.30744
G1 X68.765 Y62.164 E0.34332
G1 X71.344 Y61.913 E0.4295
G1 X73.85 Y61.597 E0.51351
G1 X76.342 Y61.212 E0.59738
G1 X78.812 Y60.759 E0.6809
G1 X81.472 Y60.19 E0.77138
G1 X82.309 Y59.998 E0.79994
G1 X82.654 Y59.925 E0.81167
G1 X83.123 Y59.833 E0.82756
G1 X83.432 Y59.777 E0.83801
G1 X83.54 Y59.759 E0.84165
G1 X84.47 Y59.644 E0.87282
G1 X85.178 Y59.61 E0.89639
G1 X85.502 Y59.605 E0.90717
G1 X86.44 Y59.631 E0.93838
G1 X87.383 Y59.738 E0.96995
G1 X87.764 Y59.798 E0.98278
G1 X88.684 Y59.983 E1.01399
G1 X89.689 Y60.282 E1.04886
G1 X89.926 Y60.365 E1.05721
G1 X90.797 Y60.713 E1.08841
G1 X91.584 Y61.105 E1.11765
G1 X91.808 Y61.228 E1.12615
G1 X92.611 Y61.714 E1.15737
G1 X93.421 Y62.309 E1.1908
G1 X93.698 Y62.532 E1.20263
G1 X94.4 Y63.159 E1.23393
G1 X94.868 Y63.614 E1.25564
G1 X163.33 Y132.076 E4.47589
G1 X163.925 Y132.688 E4.50427
G1 X164.402 Y133.212 E4.52784
G1 X164.557 Y133.394 E4.53579
G1 X165.134 Y134.133 E4.56698
G1 X165.666 Y134.953 E4.59949
G1 X165.77 Y135.13 E4.60632
G1 X166.21 Y135.959 E4.63753
G1 X166.456 Y136.512 E4.65766
G1 X166.538 Y136.711 E4.66482
G1 X166.937 Y137.854 E4.70509
G1 X166.999 Y138.069 E4.71253
G1 X167.221 Y138.981 E4.74375
G1 X167.331 Y139.644 E4.7661
G1 X167.366 Y139.903 E4.77479
G1 X167.452 Y140.837 E4.80599
G1 X167.465 Y141.339 E4.82269
G1 X167.466 Y141.635 E4.83254
G1 X167.429 Y142.572 E4.86373
G1 X167.322 Y143.444 E4.89295
G1 X167.298 Y143.591 E4.8979
G1 X167.231 Y143.962 E4.91044
G1 X167.147 Y144.385 E4.92478
G1 X166.926 Y145.296 E4.95596
G1 X166.717 Y145.942 E4.97855
G1 X166.61 Y146.235 E4.98892
G1 X166.507 Y146.507 E4.99859
G1 X166.138 Y147.37 E5.02981
G1 X165.837 Y147.951 E5.05157
G1 X165.445 Y148.655 E5.07837
G1 X165.405 Y148.724 E5.08103
G1 X164.9 Y149.514 E5.11221
G1 X164.404 Y150.17 E5.13957
G1 X164.153 Y150.477 E5.15276
G1 X163.948 Y150.72 E5.16333
G1 X163.759 Y150.938 E5.17293
G1 X163.344 Y151.391 E5.19336
G1 X162.826 Y151.925 E5.2181
G1 X151.908 Y162.843 E5.73165
G1 X151.431 Y163.308 E5.75381
G1 X150.939 Y163.759 E5.77601
G1 X150.662 Y163.998 E5.78818
G1 X150.445 Y164.18 E5.7976
G1 X150.202 Y164.379 E5.80804
G1 X149.452 Y164.942 E5.83923
G1 X148.913 Y165.289 E5.86056
G1 X148.578 Y165.491 E5.87357
G1 X148.293 Y165.657 E5.88454
G1 X148.094 Y165.769 E5.89213
G1 X147.258 Y166.194 E5.92332
G1 X146.69 Y166.433 E5.94382
G1 X146.351 Y166.565 E5.95592
G1 X145.999 Y166.696 E5.96841
G1 X145.825 Y166.757 E5.97454
G1 X144.928 Y167.029 E6.00572
G1 X144.35 Y167.161 E6.02544
G1 X144.036 Y167.224 E6.03609
G1 X143.637 Y167.296 E6.04958
G1 X143.514 Y167.316 E6.05372
G1 X142.583 Y167.427 E6.08491
G1 X141.998 Y167.456 E6.10439
G1 X141.645 Y167.464 E6.11613
G1 X140.708 Y167.445 E6.1473
G1 X139.682 Y167.333 E6.18163
G1 X139.308 Y167.274 E6.19422
G1 X138.389 Y167.088 E6.22541
G1 X137.408 Y166.797 E6.25944
G1 X137.155 Y166.709 E6.26835
G1 X136.283 Y166.364 E6.29954
G1 X135.436 Y165.941 E6.33103
G1 X135.261 Y165.844 E6.33768
G1 X134.206 Y165.178 E6.37918
G1 X134.042 Y165.061 E6.38588
G1 X133.302 Y164.484 E6.41709
G1 X132.781 Y164.011 E6.4405
G1 X132.1 Y163.352 E6.47202
G1 X131.971 Y163.225 E6.47804
G1 X58.462 Y89.715 E9.9357
G1 X56.59 Y87.843 E10.02375
G1 X56.085 Y87.324 E10.04784
G1 X55.555 Y86.738 E10.07412
G1 X55.395 Y86.548 E10.08238
G1 X54.822 Y85.806 E10.11356
G1 X54.258 Y84.921 E10.14846
G1 X54.158 Y84.746 E10.15517
G1 X53.728 Y83.912 E10.18638
G1 X53.485 Y83.345 E10.20689
G1 X53.385 Y83.093 E10.21591
G1 X53.076 Y82.208 E10.24709
G1 X52.89 Y81.505 E10.27127
G1 X52.846 Y81.314 E10.27779
G1 X52.66 Y80.286 E10.31254
G1 X52.63 Y80.059 E10.32016
G1 X52.547 Y79.125 E10.35134
G1 X52.535 Y78.656 E10.36695
G1 X52.534 Y78.366 E10.37659
G1 X52.571 Y77.429 E10.40778
G1 X52.678 Y76.556 E10.43704
G1 X52.702 Y76.409 E10.44199
G1 X52.769 Y76.038 E10.45453
G1 X52.853 Y75.615 E10.46887
G1 X53.074 Y74.704 E10.50005
G1 X53.283 Y74.058 E10.52263
G1 X53.39 Y73.765 E10.53301
G1 X53.493 Y73.493 E10.54268
G1 X53.862 Y72.63 E10.5739
G1 X54.174 Y72.028 E10.59645
G1 X54.506 Y71.433 E10.61911
G1 X54.998 Y70.634 E10.65032
G1 X55.596 Y69.83 E10.68365
G1 X55.847 Y69.523 E10.69684
G1 X56.048 Y69.285 E10.7072
G1 X56.229 Y69.076 E10.7164
G1 X56.655 Y68.611 E10.73737
G1 X57.24 Y68.009 E10.76529
G1 X58.403 Y66.847 E10.81997
G1 X58.926 Y66.339 E10.84422
G1 X59.379 Y65.923 E10.86468
G0 F6000 X59.642 Y66.225
G1 F1200 X59.892 Y66.008 E10.87569
G1 X60.131 Y65.806 E10.88609
G1 X60.372 Y65.609 E10.89645
G1 X61.11 Y65.058 E10.92708
G1 X61.605 Y64.74 E10.94665
G1 X61.963 Y64.524 E10.96056
G1 X62.247 Y64.359 E10.97148
G1 X62.441 Y64.25 E10.97888
G1 X63.262 Y63.834 E11.00949
G1 X63.797 Y63.609 E11.0288
G1 X64.119 Y63.484 E11.04029
G1 X64.488 Y63.349 E11.05335
G1 X64.67 Y63.286 E11.05976
G1 X65.552 Y63.023 E11.09037
G1 X66.039 Y62.913 E11.10698
G1 X66.346 Y62.851 E11.11739
G1 X66.701 Y62.785 E11.1294
G1 X66.857 Y62.759 E11.13466
G1 X67.723 Y62.651 E11.16369
G1 X68.838 Y62.558 E11.2009
G1 X71.396 Y62.309 E11.28639
G1 X73.89 Y61.996 E11.36999
G1 X76.404 Y61.607 E11.4546
G1 X78.903 Y61.148 E11.53911
G1 X81.565 Y60.579 E11.62964
G1 X82.398 Y60.388 E11.65807
G1 X82.731 Y60.317 E11.66939
G1 X83.2 Y60.225 E11.68529
G1 X83.497 Y60.171 E11.69533
G1 X83.605 Y60.153 E11.69897
G1 X84.519 Y60.041 E11.7296
G1 X85.184 Y60.01 E11.75174
G1 X85.508 Y60.005 E11.76252
G1 X86.429 Y60.031 E11.79316
G1 X87.321 Y60.133 E11.82302
G1 X87.702 Y60.193 E11.83585
G1 X88.604 Y60.376 E11.86646
G1 X89.557 Y60.66 E11.89954
G1 X89.794 Y60.743 E11.90789
G1 X90.648 Y61.085 E11.93849
G1 X91.392 Y61.456 E11.96614
G1 X91.616 Y61.579 E11.97464
G1 X92.403 Y62.056 E12.00525
G1 X93.17 Y62.62 E12.03691
G1 X93.444 Y62.842 E12.04864
G1 X94.121 Y63.446 E12.07882
G1 X94.589 Y63.901 E12.10053
G1 X163.047 Y132.359 E15.32058
G1 X163.163 Y132.476 E15.32606
G1 X163.638 Y132.966 E15.34876
G1 X164.097 Y133.471 E15.37146
G1 X164.252 Y133.653 E15.37941
G1 X164.818 Y134.379 E15.41003
G1 X165.321 Y135.156 E15.44081
G1 X165.425 Y135.333 E15.44764
G1 X165.857 Y136.146 E15.47826
G1 X166.087 Y136.665 E15.49714
G1 X166.169 Y136.864 E15.5043
G1 X166.553 Y137.965 E15.54308
G1 X166.615 Y138.18 E15.55053
G1 X166.831 Y139.075 E15.58115
G1 X166.935 Y139.697 E15.60212
G1 X166.97 Y139.956 E15.61082
G1 X167.053 Y140.873 E15.64144
G1 X167.065 Y141.34 E15.65698
G1 X167.066 Y141.636 E15.66682
G1 X167.029 Y142.556 E15.69745
G1 X166.927 Y143.38 E15.72506
G1 X166.903 Y143.527 E15.73002
G1 X166.839 Y143.884 E15.74208
G1 X166.755 Y144.307 E15.75642
G1 X166.537 Y145.201 E15.78703
G1 X166.34 Y145.807 E15.80822
G1 X166.236 Y146.094 E15.81838
G1 X166.133 Y146.366 E15.82805
G1 X165.77 Y147.212 E15.85867
G1 X165.488 Y147.757 E15.87908
G1 X165.196 Y148.283 E15.89909
G1 X165.058 Y148.523 E15.9083
G1 X164.563 Y149.299 E15.93891
G1 X164.094 Y149.916 E15.96469
G1 X163.843 Y150.223 E15.97788
G1 X163.646 Y150.458 E15.98808
G1 X163.457 Y150.676 E15.99767
G1 X163.056 Y151.112 E16.01737
G1 X162.425 Y151.761 E16.04748
G1 X151.629 Y162.556 E16.55527
G1 X151.152 Y163.021 E16.57742
G1 X150.678 Y163.457 E16.59884
G1 X150.401 Y163.696 E16.61101
G1 X150.192 Y163.871 E16.62008
G1 X149.949 Y164.07 E16.63053
G1 X149.212 Y164.622 E16.66115
G1 X148.707 Y164.946 E16.68111
G1 X148.372 Y165.148 E16.69412
G1 X148.097 Y165.308 E16.7047
G1 X147.898 Y165.42 E16.7123
G1 X147.077 Y165.837 E16.74292
G1 X146.545 Y166.061 E16.76212
G1 X146.206 Y166.193 E16.77422
G1 X145.867 Y166.318 E16.78624
G1 X145.693 Y166.379 E16.79237
G1 X144.812 Y166.646 E16.82299
G1 X144.271 Y166.769 E16.84144
G1 X143.957 Y166.832 E16.85209
G1 X143.573 Y166.902 E16.86508
G1 X143.45 Y166.922 E16.86922
G1 X142.536 Y167.03 E16.89983
G1 X141.989 Y167.056 E16.91805
G1 X141.636 Y167.064 E16.92979
G1 X140.716 Y167.045 E16.9604
G1 X139.744 Y166.938 E16.99292
G1 X139.37 Y166.879 E17.00551
G1 X138.468 Y166.696 E17.03613
G1 X137.54 Y166.42 E17.06833
G1 X137.287 Y166.332 E17.07724
G1 X136.431 Y165.992 E17.10787
G1 X135.63 Y165.591 E17.13766
G1 X135.455 Y165.494 E17.14432
G1 X134.438 Y164.852 E17.18432
G1 X134.274 Y164.735 E17.19102
G1 X133.548 Y164.168 E17.22166
G1 X133.059 Y163.723 E17.24365
G1 X132.378 Y163.064 E17.27517
G1 X132.254 Y162.942 E17.28095
G1 X58.745 Y89.432 E20.73862
G1 X56.877 Y87.564 E20.82648
G1 X56.372 Y87.045 E20.85057
G1 X55.861 Y86.481 E20.87588
G1 X55.701 Y86.291 E20.88414
G1 X55.139 Y85.562 E20.91476
G1 X54.606 Y84.722 E20.94784
G1 X54.506 Y84.547 E20.95455
G1 X54.084 Y83.729 E20.98516
G1 X53.856 Y83.198 E21.00438
G1 X53.756 Y82.946 E21.0134
G1 X53.454 Y82.076 E21.04403
G1 X53.28 Y81.416 E21.06673
G1 X53.236 Y81.225 E21.07325
G1 X53.056 Y80.234 E21.10675
G1 X53.026 Y80.007 E21.11437
G1 X52.935 Y78.655 E21.15944
G1 X52.934 Y78.365 E21.16908
G1 X52.971 Y77.445 E21.19971
G1 X53.073 Y76.62 E21.22735
G1 X53.097 Y76.473 E21.23231
G1 X53.161 Y76.116 E21.24437
G1 X53.245 Y75.693 E21.25872
G1 X53.463 Y74.799 E21.28932
G1 X53.66 Y74.193 E21.31051
G1 X53.764 Y73.906 E21.32067
G1 X53.867 Y73.634 E21.33034
G1 X54.23 Y72.788 E21.36096
G1 X54.523 Y72.223 E21.38213
G1 X54.855 Y71.628 E21.40479
G1 X55.339 Y70.844 E21.43544
G1 X55.906 Y70.084 E21.46697
G1 X56.157 Y69.777 E21.48016
G1 X56.35 Y69.547 E21.49015
G1 X56.531 Y69.338 E21.49934
G1 X56.942 Y68.89 E21.51957
G1 X57.527 Y68.288 E21.54748
G1 X58.681 Y67.134 E21.60177
G1 X59.204 Y66.626 E21.62602
G1 X59.642 Y66.225 E21.64577
G0 F6000 X59.904 Y66.527
G1 F1200 X60.154 Y66.31 E21.65678
G1 X60.385 Y66.116 E21.66681
G1 X60.626 Y65.919 E21.67716
G1 X61.349 Y65.379 E21.70718
G1 X61.812 Y65.083 E21.72545
G1 X62.17 Y64.867 E21.73936
G1 X62.443 Y64.707 E21.74989
G1 X62.637 Y64.598 E21.75729
G1 X63.443 Y64.191 E21.78732
G1 X63.942 Y63.982 E21.80531
G1 X64.264 Y63.857 E21.8168
G1 X64.618 Y63.727 E21.82934
G1 X64.8 Y63.664 E21.83575
G1 X65.666 Y63.407 E21.86579
G1 X66.118 Y63.305 E21.88121
G1 X66.425 Y63.243 E21.89162
G1 X66.767 Y63.18 E21.90319
G1 X66.923 Y63.154 E21.90845
G1 X67.757 Y63.05 E21.9364
G1 X68.836 Y62.96 E21.97242
G1 X71.449 Y62.706 E22.05973
G1 X73.964 Y62.39 E22.14404
G1 X76.466 Y62.003 E22.22825
G1 X78.953 Y61.546 E22.31235
G1 X81.686 Y60.962 E22.4053
G1 X82.488 Y60.778 E22.43267
G1 X82.808 Y60.71 E22.44355
G1 X83.277 Y60.618 E22.45945
G1 X83.563 Y60.566 E22.46912
G1 X83.671 Y60.548 E22.47276
G1 X84.568 Y60.439 E22.50281
G1 X85.191 Y60.41 E22.52355
G1 X85.515 Y60.405 E22.53433
G1 X86.417 Y60.431 E22.56435
G1 X87.259 Y60.528 E22.59254
G1 X87.64 Y60.588 E22.60536
G1 X88.525 Y60.768 E22.6354
G1 X89.424 Y61.037 E22.66661
G1 X89.661 Y61.12 E22.67496
G1 X90.5 Y61.456 E22.70502
G1 X91.199 Y61.806 E22.73102
G1 X91.423 Y61.929 E22.73952
G1 X92.195 Y62.399 E22.76959
G1 X92.919 Y62.931 E22.79947
G1 X93.191 Y63.152 E22.81112
G1 X93.842 Y63.733 E22.84015
G1 X94.413 Y64.289 E22.86665
G1 X162.765 Y132.642 E26.08175
G1 X162.876 Y132.754 E26.08699
G1 X163.351 Y133.244 E26.10969
G1 X163.792 Y133.731 E26.13154
G1 X163.947 Y133.913 E26.13949
G1 X164.502 Y134.625 E26.16952
G1 X164.976 Y135.359 E26.19858
G1 X165.08 Y135.536 E26.20541
G1 X165.503 Y136.334 E26.23545
G1 X165.717 Y136.817 E26.25302
G1 X165.799 Y137.016 E26.26018
G1 X166.169 Y138.076 E26.29752
G1 X166.231 Y138.291 E26.30496
G1 X166.442 Y139.169 E26.33499
G1 X166.538 Y139.751 E26.35461
G1 X166.573 Y140.01 E26.3633
G1 X166.665 Y141.342 E26.40771
G1 X166.666 Y141.638 E26.41756
G1 X166.629 Y142.54 E26.44758
G1 X166.533 Y143.316 E26.47359
G1 X166.509 Y143.463 E26.47854
G1 X166.447 Y143.806 E26.49014
G1 X166.363 Y144.229 E26.50448
G1 X166.148 Y145.106 E26.53451
G1 X165.964 Y145.673 E26.55434
G1 X165.862 Y145.952 E26.56422
G1 X165.759 Y146.224 E26.57389
G1 X165.402 Y147.054 E26.60395
G1 X165.138 Y147.563 E26.62302
G1 X164.846 Y148.089 E26.64303
G1 X164.712 Y148.323 E26.652
G1 X164.225 Y149.083 E26.68202
G1 X163.785 Y149.663 E26.70623
G1 X163.534 Y149.97 E26.71942
G1 X163.344 Y150.196 E26.72924
G1 X163.155 Y150.414 E26.73884
G1 X162.769 Y150.834 E26.75781
G1 X162.251 Y151.368 E26.78255
G1 X151.35 Y162.27 E27.29533
G1 X150.873 Y162.735 E27.31748
G1 X150.416 Y163.154 E27.33811
G1 X150.139 Y163.393 E27.35027
G1 X149.939 Y163.561 E27.35896
G1 X149.696 Y163.76 E27.36941
G1 X148.972 Y164.301 E27.39947
G1 X148.5 Y164.604 E27.41812
G1 X148.165 Y164.806 E27.43113
G1 X147.901 Y164.96 E27.4413
G1 X147.702 Y165.072 E27.44889
G1 X146.896 Y165.48 E27.47894
G1 X146.4 Y165.688 E27.49683
G1 X146.061 Y165.82 E27.50893
G1 X145.735 Y165.941 E27.5205
G1 X145.561 Y166.002 E27.52663
G1 X144.696 Y166.262 E27.55667
G1 X144.193 Y166.377 E27.57383
G1 X143.879 Y166.44 E27.58448
G1 X143.509 Y166.507 E27.59699
G1 X143.386 Y166.527 E27.60113
G1 X142.489 Y166.632 E27.63117
G1 X141.98 Y166.656 E27.64812
G1 X141.627 Y166.664 E27.65986
G1 X140.724 Y166.645 E27.6899
G1 X139.807 Y166.542 E27.7206
G1 X139.433 Y166.483 E27.73319
G1 X138.548 Y166.303 E27.76323
G1 X137.671 Y166.042 E27.79366
G1 X137.418 Y165.954 E27.80257
G1 X136.579 Y165.62 E27.83261
G1 X135.824 Y165.241 E27.8607
G1 X135.649 Y165.144 E27.86736
G1 X134.67 Y164.527 E27.90585
G1 X134.506 Y164.41 E27.91255
G1 X133.795 Y163.853 E27.94259
G1 X133.337 Y163.436 E27.96319
G1 X132.656 Y162.777 E27.99471
G1 X132.536 Y162.659 E28.00031
G1 X59.027 Y89.149 E31.45797
G1 X57.264 Y87.387 E31.54087
G1 X56.659 Y86.766 E31.56971
G1 X56.167 Y86.223 E31.59408
G1 X56.007 Y86.033 E31.60234
G1 X55.456 Y85.317 E31.63239
G1 X54.953 Y84.524 E31.66362
G1 X54.853 Y84.349 E31.67033
G1 X54.44 Y83.545 E31.70039
G1 X54.228 Y83.05 E31.7183
G1 X54.128 Y82.798 E31.72732
G1 X53.833 Y81.945 E31.75734
G1 X53.669 Y81.326 E31.77863
G1 X53.625 Y81.135 E31.78515
G1 X53.453 Y80.181 E31.81739
G1 X53.423 Y79.954 E31.82501
G1 X53.335 Y78.653 E31.86838
G1 X53.334 Y78.363 E31.87803
G1 X53.371 Y77.461 E31.90805
G1 X53.467 Y76.684 E31.93409
G1 X53.491 Y76.537 E31.93905
G1 X53.553 Y76.194 E31.95064
G1 X53.637 Y75.771 E31.96498
G1 X53.852 Y74.894 E31.99502
G1 X54.036 Y74.327 E32.01484
G1 X54.138 Y74.048 E32.02472
G1 X54.241 Y73.776 E32.0344
G1 X54.598 Y72.946 E32.06445
G1 X54.873 Y72.418 E32.08425
G1 X55.205 Y71.823 E32.10691
G1 X55.679 Y71.055 E32.13693
G1 X56.215 Y70.337 E32.16673
G1 X56.466 Y70.03 E32.17992
G1 X56.653 Y69.809 E32.18955
G1 X56.834 Y69.6 E32.19874
G1 X57.229 Y69.169 E32.21819
G1 X57.92 Y68.459 E32.25114
G1 X58.96 Y67.421 E32.30001
G1 X59.483 Y66.913 E32.32426
G1 X59.904 Y66.527 E32.34326
G1 F1500 E25.84326
;MESH:Train_Whistle_no_text.STL
G0 F6000 X66.073 Y73.792
G0 X67.116 Y74.834
G0 X65.123 Y76.77
G0 X64.75 Y77.213
G0 X64.454 Y77.762
G0 X64.296 Y78.36
G0 X64.379 Y78.92
G0 X64.426 Y78.986
G0 X140.88 Y155.706
;TYPE:WALL-INNER
G1 F1500 E32.34326
G1 F1200 X140.733 Y155.583 E32.34963
G1 X66.664 Y81.513 E35.83363
G1 X64.415 Y79.265 E35.9394
G1 X64.303 Y79.133 E35.94516
G1 X64.225 Y78.998 E35.95034
G1 X64.207 Y78.95 E35.95205
G1 X64.207 Y78.942 E35.95231
G1 X64.164 Y78.825 E35.95646
G1 X64.125 Y78.611 E35.96369
