;FLAVOR:Marlin
;TIME:682
;Filament used: 0.558828m
;Layer height: 0.28
;MINX:111.2
;MINY:108.617
;MINZ:0.285
;MAXX:123.8
;MAXY:126.383
;MAXZ:9.805
;Generated with Cura_SteamEngine 4.6.2
M140 S60
M105
M190 S60
M104 S200
M105
M109 S200
M82 ;absolute extrusion mode
; Ender 3 Custom Start G-code
G92 E0 ; Reset Extruder
G28 ; Home all axes
G1 Z2.0 F3000 ; Move Z Axis up little to prevent scratching of Heat Bed
G1 X0.1 Y20 Z0.3 F5000.0 ; Move to start position
G1 X0.1 Y200.0 Z0.3 F1500.0 E15 ; Draw the first line
G1 X0.4 Y200.0 Z0.3 F5000.0 ; Move to side a little
G1 X0.4 Y20 Z0.3 F1500.0 E30 ; Draw the second line
G92 E0 ; Reset Extruder
G1 Z2.0 F3000 ; Move Z Axis up little to prevent scratching of Heat Bed
G1 X5 Y20 Z0.3 F5000.0 ; Move over to prevent blob squish
G92 E0
G92 E0
G1 F1500 E-6
;LAYER_COUNT:35
;LAYER:0
M107
M204 S500
M205 X8 Y8
;MESH:CFClip175.stl
G0 F7500 X115.538 Y119.871 Z0.285
;TYPE:WALL-INNER
G1 F1500 E0
G1 F1800 X115.274 Y119.928 E0.01216
G1 X115.039 Y120.016 E0.02346
G1 X114.877 Y120.102 E0.03172
G1 X114.762 Y120.175 E0.03785
G1 X114.62 Y120.286 E0.04597
G1 X114.482 Y120.419 E0.0546
G1 X114.321 Y120.621 E0.06623
G1 X114.213 Y120.801 E0.07568
G1 X114.11 Y121.047 E0.08769
G1 X114.045 Y121.31 E0.09988
G1 X114.024 Y121.57 E0.11163
G1 X114.045 Y121.861 E0.12477
G1 X114.144 Y122.219 E0.14149
G1 X114.282 Y122.482 E0.15486
G1 X114.359 Y122.598 E0.16113
G1 X114.539 Y122.808 E0.17359
G1 X114.753 Y122.986 E0.18612
G1 X115.009 Y123.135 E0.19946
G1 X115.202 Y123.214 E0.20885
G1 X115.377 Y123.262 E0.21702
G1 X115.574 Y123.298 E0.22603
G1 X115.83 Y123.308 E0.23757
G1 X116.014 Y123.293 E0.24588
G1 X116.193 Y123.261 E0.25407
G1 X116.443 Y123.181 E0.26589
G1 X116.706 Y123.044 E0.27924
G1 X116.886 Y122.916 E0.28918
G1 X117.044 Y122.77 E0.29887
G1 X117.174 Y122.617 E0.30791
G1 X117.251 Y122.511 E0.31381
G1 X117.357 Y122.322 E0.32357
G1 X117.437 Y122.121 E0.33331
G1 X117.492 Y121.912 E0.34304
G1 X117.519 Y121.703 E0.35253
G1 X117.522 Y121.57 E0.35852
G1 X117.504 Y121.332 E0.36926
G1 X117.479 Y121.199 E0.37536
G1 X117.422 Y121.006 E0.38442
G1 X117.375 Y120.89 E0.39005
G1 X117.28 Y120.703 E0.3995
G1 X117.159 Y120.53 E0.409
G1 X117.072 Y120.425 E0.41514
G1 X116.857 Y120.225 E0.42836
G1 X116.669 Y120.101 E0.4385
G1 X116.44 Y119.986 E0.45004
G1 X116.268 Y119.928 E0.45821
G1 X115.993 Y119.87 E0.47087
G1 X115.733 Y119.858 E0.48259
G1 X115.538 Y119.871 E0.49139
G0 F7500 X115.593 Y120.268
;TYPE:WALL-OUTER
G1 F1800 X115.387 Y120.313 E0.50041
G1 X115.203 Y120.382 E0.50881
G1 X115.078 Y120.448 E0.51486
G1 X114.993 Y120.502 E0.51917
G1 X114.883 Y120.588 E0.52514
G1 X114.779 Y120.689 E0.53134
G1 X114.65 Y120.85 E0.54017
G1 X114.571 Y120.982 E0.54675
G1 X114.491 Y121.173 E0.5556
G1 X114.441 Y121.375 E0.5645
G1 X114.425 Y121.572 E0.57296
G1 X114.441 Y121.793 E0.58244
G1 X114.518 Y122.071 E0.59478
G1 X114.627 Y122.278 E0.60478
G1 X114.679 Y122.357 E0.60883
G1 X114.821 Y122.522 E0.61814
G1 X114.983 Y122.657 E0.62716
G1 X115.186 Y122.775 E0.6372
G1 X115.332 Y122.835 E0.64396
G1 X115.466 Y122.872 E0.6499
G1 X115.617 Y122.899 E0.65646
G1 X115.822 Y122.907 E0.66524
G1 X115.963 Y122.896 E0.67129
G1 X116.096 Y122.872 E0.67707
G1 X116.289 Y122.81 E0.68574
G1 X116.497 Y122.702 E0.69577
G1 X116.633 Y122.605 E0.70291
G1 X116.755 Y122.492 E0.71002
G1 X116.86 Y122.369 E0.71694
G1 X116.914 Y122.295 E0.72086
G1 X116.995 Y122.15 E0.72796
G1 X117.056 Y121.996 E0.73505
G1 X117.099 Y121.834 E0.74222
G1 X117.12 Y121.673 E0.74916
G1 X117.122 Y121.581 E0.7531
G1 X117.107 Y121.384 E0.76155
G1 X117.09 Y121.293 E0.76551
G1 X117.044 Y121.138 E0.77243
G1 X117.011 Y121.056 E0.77621
G1 X116.936 Y120.909 E0.78327
G1 X116.841 Y120.773 E0.79036
G1 X116.781 Y120.701 E0.79437
G1 X116.609 Y120.541 E0.80442
G1 X116.468 Y120.448 E0.81164
G1 X116.285 Y120.356 E0.82041
G1 X116.162 Y120.314 E0.82597
G1 X115.943 Y120.268 E0.83554
G1 X115.737 Y120.259 E0.84436
G1 X115.593 Y120.268 E0.85053
G0 F7500 X115.387 Y120.313
G0 X115.209 Y120.379
G0 X115.055 Y119.966
G1 F1500 E-5.14947
G0 F7500 X116.018 Y119.68
G0 X116.544 Y118.227
G0 X116.631 Y118.017
;TYPE:WALL-INNER
G1 F1500 E0.85053
G1 F1800 X123.4 Y118.017 E1.15531
G1 X123.4 Y118.863 E1.1934
G1 X119.474 Y124.283 E1.49474
G1 X119.308 Y124.485 E1.50651
G1 X119.217 Y124.586 E1.51263
G1 X119.009 Y124.794 E1.52588
G1 X118.912 Y124.882 E1.53177
G1 X118.694 Y125.062 E1.5445
G1 X118.478 Y125.219 E1.55653
G1 X118.231 Y125.376 E1.5697
G1 X118.123 Y125.437 E1.57529
G1 X117.764 Y125.614 E1.59331
G1 X117.475 Y125.729 E1.60732
G1 X117.236 Y125.806 E1.61862
G1 X116.945 Y125.88 E1.63214
G1 X116.544 Y125.949 E1.65046
G1 X116.27 Y125.975 E1.66285
G1 X116.146 Y125.981 E1.66844
G1 X115.868 Y125.982 E1.68096
G1 X115.588 Y125.964 E1.6936
G1 X115.45 Y125.949 E1.69985
G1 X115.18 Y125.906 E1.71216
G1 X114.898 Y125.844 E1.72516
G1 X114.773 Y125.81 E1.73099
G1 X114.528 Y125.731 E1.74258
G1 X114.251 Y125.621 E1.756
G1 X113.997 Y125.501 E1.76865
G1 X113.878 Y125.438 E1.77471
G1 X113.638 Y125.296 E1.78727
G1 X113.536 Y125.229 E1.79276
G1 X113.296 Y125.054 E1.80614
G1 X113.096 Y124.888 E1.81784
G1 X112.898 Y124.704 E1.83001
G1 X112.699 Y124.492 E1.8431
G1 X112.515 Y124.27 E1.85608
G1 X112.368 Y124.066 E1.8674
G1 X112.204 Y123.809 E1.88113
G1 X112.151 Y123.715 E1.88599
G1 X112.017 Y123.451 E1.89932
G1 X111.912 Y123.208 E1.91124
G1 X111.816 Y122.94 E1.92406
G1 X111.739 Y122.675 E1.93648
G1 X111.705 Y122.536 E1.94293
G1 X111.654 Y122.265 E1.95534
G1 X111.634 Y122.126 E1.96167
G1 X111.62 Y121.992 E1.96773
G1 X111.603 Y121.72 E1.98
G1 X111.601 Y121.45 E1.99216
G1 X111.618 Y121.181 E2.0043
G1 X111.635 Y121.025 E2.01136
G1 X111.679 Y120.748 E2.02399
G1 X113.207 Y112.447 E2.40403
G1 X113.233 Y112.337 E2.40912
G1 X113.269 Y112.208 E2.41515
G1 X113.413 Y111.784 E2.43531
G1 X113.46 Y111.671 E2.44082
G1 X113.576 Y111.427 E2.45299
G1 X113.71 Y111.181 E2.4656
G1 X113.864 Y110.941 E2.47844
G1 X114.025 Y110.717 E2.49086
G1 X114.195 Y110.513 E2.50282
G1 X114.377 Y110.317 E2.51486
G1 X114.686 Y110.034 E2.53373
G1 X114.807 Y109.937 E2.54071
G1 X115.028 Y109.777 E2.55299
G1 X115.271 Y109.623 E2.56595
G1 X115.494 Y109.5 E2.57741
G1 X115.759 Y109.376 E2.59059
G1 X115.891 Y109.321 E2.59703
G1 X116.144 Y109.23 E2.60913
G1 X116.254 Y109.197 E2.6143
G1 X116.66 Y109.097 E2.63313
G1 X116.957 Y109.05 E2.64667
G1 X117.346 Y109.02 E2.66424
G1 X117.629 Y109.018 E2.67698
G1 X117.904 Y109.035 E2.68938
G1 X118.044 Y109.05 E2.69572
G1 X118.331 Y109.095 E2.7088
G1 X118.448 Y109.119 E2.71418
G1 X118.722 Y109.189 E2.72692
G1 X118.969 Y109.268 E2.73859
G1 X119.247 Y109.378 E2.75205
G1 X119.369 Y109.433 E2.75808
G1 X119.612 Y109.556 E2.77034
G1 X119.857 Y109.701 E2.78316
G1 X119.972 Y109.777 E2.78937
G1 X120.192 Y109.937 E2.80162
G1 X120.409 Y110.115 E2.81425
G1 X120.609 Y110.304 E2.82664
G1 X120.799 Y110.505 E2.8391
G1 X120.974 Y110.716 E2.85144
G1 X121.235 Y111.085 E2.87179
G1 X122.537 Y113 E2.97606
G1 X122.536 Y114.672 E3.05134
G1 X121.868 Y115.117 E3.08748
G1 X120.381 Y115.117 E3.15443
G1 X120.14 Y114.876 E3.16978
G1 X119.138 Y112.525 E3.28485
G1 X118.63 Y112.017 E3.3172
G1 X116.382 Y112.017 E3.41841
G1 X115.529 Y112.868 E3.47267
G1 X115.53 Y116.916 E3.65493
G1 X116.631 Y118.017 E3.72504
G0 F7500 X116.797 Y117.617
;TYPE:WALL-OUTER
G1 F1800 X123.8 Y117.617 E4.02459
G1 X123.8 Y118.993 E4.08345
G1 X119.793 Y124.525 E4.37563
G1 X119.605 Y124.753 E4.38827
G1 X119.5 Y124.869 E4.39496
G1 X119.288 Y125.081 E4.40779
G1 X119.172 Y125.186 E4.41448
G1 X118.946 Y125.372 E4.427
G1 X118.692 Y125.557 E4.44044
G1 X118.438 Y125.718 E4.4533
G1 X118.309 Y125.792 E4.45967
G1 X118.046 Y125.925 E4.47227
G1 X117.912 Y125.986 E4.47857
G1 X117.623 Y126.101 E4.49187
G1 X117.486 Y126.148 E4.49807
G1 X117.345 Y126.191 E4.50437
G1 X117.044 Y126.268 E4.51766
G1 X116.906 Y126.297 E4.5237
G1 X116.596 Y126.346 E4.53712
G1 X116.304 Y126.373 E4.54966
G1 X116.147 Y126.381 E4.55639
G1 X115.858 Y126.382 E4.56875
G1 X115.545 Y126.362 E4.58217
G1 X115.407 Y126.347 E4.5881
G1 X115.097 Y126.298 E4.60153
G1 X114.812 Y126.235 E4.61401
G1 X114.66 Y126.194 E4.62075
G1 X114.383 Y126.104 E4.63321
G1 X114.091 Y125.988 E4.64665
G1 X113.818 Y125.859 E4.65956
G1 X113.691 Y125.792 E4.6657
G1 X113.426 Y125.635 E4.67888
G1 X113.303 Y125.554 E4.68518
G1 X113.055 Y125.374 E4.69829
G1 X112.833 Y125.19 E4.71062
G1 X112.608 Y124.98 E4.72379
G1 X112.398 Y124.756 E4.73692
G1 X112.207 Y124.526 E4.74971
G1 X112.036 Y124.289 E4.76221
G1 X111.867 Y124.024 E4.77565
G1 X111.794 Y123.896 E4.78196
G1 X111.66 Y123.632 E4.79462
G1 X111.595 Y123.489 E4.80134
G1 X111.538 Y123.351 E4.80772
G1 X111.439 Y123.075 E4.82027
G1 X111.351 Y122.774 E4.83368
G1 X111.316 Y122.63 E4.84002
G1 X111.261 Y122.34 E4.85265
G1 X111.238 Y122.184 E4.85939
G1 X111.222 Y122.035 E4.8658
G1 X111.203 Y121.73 E4.87887
G1 X111.201 Y121.442 E4.89119
G1 X111.22 Y121.138 E4.90422
G1 X111.237 Y120.982 E4.91093
G1 X111.284 Y120.685 E4.92379
G1 X112.814 Y112.375 E5.28523
G1 X112.848 Y112.23 E5.2916
G1 X112.89 Y112.079 E5.2983
G1 X113.034 Y111.655 E5.31746
G1 X113.09 Y111.519 E5.32375
G1 X113.22 Y111.243 E5.3368
G1 X113.363 Y110.982 E5.34953
G1 X113.532 Y110.717 E5.36297
G1 X113.709 Y110.472 E5.3759
G1 X113.893 Y110.25 E5.38823
G1 X114.103 Y110.025 E5.4014
G1 X114.327 Y109.815 E5.41453
G1 X114.435 Y109.722 E5.42063
G1 X114.557 Y109.624 E5.42732
G1 X114.797 Y109.45 E5.44
G1 X115.062 Y109.282 E5.45342
G1 X115.316 Y109.142 E5.46583
G1 X115.591 Y109.013 E5.47882
G1 X115.737 Y108.952 E5.48559
G1 X116.018 Y108.851 E5.49836
G1 X116.155 Y108.809 E5.50449
G1 X116.456 Y108.732 E5.51778
G1 X116.594 Y108.703 E5.52381
G1 X116.904 Y108.654 E5.53724
G1 X117.189 Y108.628 E5.54948
G1 X117.343 Y108.62 E5.55608
G1 X117.636 Y108.618 E5.56861
G1 X117.947 Y108.637 E5.58194
G1 X118.087 Y108.652 E5.58796
G1 X118.397 Y108.701 E5.60138
G1 X118.533 Y108.728 E5.60731
G1 X118.837 Y108.806 E5.62074
G1 X118.973 Y108.847 E5.62682
G1 X119.113 Y108.895 E5.63315
G1 X119.406 Y109.011 E5.64663
G1 X119.533 Y109.068 E5.65258
G1 X119.812 Y109.21 E5.66597
G1 X120.069 Y109.362 E5.67874
G1 X120.192 Y109.443 E5.68504
G1 X120.446 Y109.628 E5.69848
G1 X120.67 Y109.812 E5.71088
G1 X120.892 Y110.021 E5.72392
G1 X121.102 Y110.244 E5.73703
G1 X121.195 Y110.352 E5.74312
G1 X121.293 Y110.474 E5.74982
G1 X121.566 Y110.86 E5.77004
G1 X122.936 Y112.875 E5.87427
G1 X122.937 Y112.977 E5.87863
G1 X122.936 Y114.886 E5.96029
G1 X121.999 Y115.511 E6.00846
G1 X121.97 Y115.517 E6.00973
G1 X120.215 Y115.517 E6.0848
G1 X119.802 Y115.104 E6.10978
G1 X118.8 Y112.753 E6.2191
G1 X118.464 Y112.417 E6.23942
G1 X116.547 Y112.417 E6.32142
G1 X115.929 Y113.034 E6.35878
G1 X115.93 Y116.75 E6.51773
G1 X116.797 Y117.617 E6.57018
G0 F7500 X117.197 Y117.617
G0 X117.197 Y118.057
G0 X116.469 Y118.407
;TYPE:SKIN
G1 F1800 X123.01 Y118.407 E6.86469
G1 X123.01 Y118.737 E6.87955
G1 X119.172 Y124.035 E7.17411
G1 X119.012 Y124.23 E7.18547
G1 X118.917 Y124.336 E7.19188
G1 X118.747 Y124.506 E7.2027
G1 X118.664 Y124.581 E7.20774
G1 X118.464 Y124.746 E7.21941
G1 X118.248 Y124.903 E7.23144
G1 X117.936 Y125.095 E7.24793
G1 X117.62 Y125.251 E7.2638
G1 X117.333 Y125.365 E7.2777
G1 X117.132 Y125.43 E7.28722
G1 X116.859 Y125.5 E7.29991
G1 X116.494 Y125.562 E7.31658
G1 X116.251 Y125.585 E7.32757
G1 X116.127 Y125.591 E7.33316
G1 X115.891 Y125.592 E7.34378
G1 X115.511 Y125.563 E7.36094
G1 X115.248 Y125.521 E7.37293
G1 X114.991 Y125.465 E7.38478
G1 X114.883 Y125.436 E7.38981
G1 X114.67 Y125.367 E7.39989
G1 X114.395 Y125.258 E7.41321
G1 X114.172 Y125.152 E7.42433
G1 X114.067 Y125.096 E7.42969
G1 X113.766 Y124.913 E7.44555
G1 X113.526 Y124.738 E7.45892
G1 X113.354 Y124.595 E7.46899
G1 X113.169 Y124.422 E7.4804
G1 X112.988 Y124.23 E7.49228
G1 X112.821 Y124.028 E7.50408
G1 X112.691 Y123.847 E7.51411
G1 X112.495 Y123.531 E7.53086
G1 X112.368 Y123.28 E7.54352
G1 X112.271 Y123.054 E7.5546
G1 X112.187 Y122.82 E7.56579
G1 X112.115 Y122.574 E7.57733
G1 X112.087 Y122.454 E7.58288
G1 X112.02 Y122.071 E7.60039
G1 X112.009 Y121.959 E7.60545
G1 X111.993 Y121.696 E7.61732
G1 X111.991 Y121.475 E7.62727
G1 X112.006 Y121.224 E7.63859
G1 X112.021 Y121.086 E7.64484
G1 X112.063 Y120.818 E7.65705
G1 X113.609 Y112.442 E8.04056
G1 X113.648 Y112.303 E8.04706
G1 X113.774 Y111.934 E8.06462
G1 X113.817 Y111.83 E8.06969
G1 X113.919 Y111.614 E8.08044
G1 X114.053 Y111.368 E8.09305
G1 X114.18 Y111.169 E8.10368
G1 X114.333 Y110.956 E8.11549
G1 X114.481 Y110.778 E8.12592
G1 X114.657 Y110.588 E8.13758
G1 X114.93 Y110.338 E8.15424
G1 X115.051 Y110.241 E8.16123
G1 X115.237 Y110.107 E8.17155
G1 X115.474 Y109.957 E8.18418
G1 X115.667 Y109.85 E8.19411
G1 X115.917 Y109.733 E8.20654
G1 X116.032 Y109.685 E8.21215
G1 X116.26 Y109.603 E8.22306
G1 X116.366 Y109.571 E8.22805
G1 X116.723 Y109.483 E8.2446
G1 X117.018 Y109.436 E8.25805
G1 X117.35 Y109.41 E8.27305
G1 X117.607 Y109.408 E8.28462
G1 X117.984 Y109.436 E8.30164
G1 X118.354 Y109.498 E8.31853
G1 X118.617 Y109.565 E8.33075
G1 X118.827 Y109.632 E8.34068
G1 X119.209 Y109.788 E8.35926
G1 X119.413 Y109.892 E8.36957
G1 X119.65 Y110.032 E8.38196
G1 X119.742 Y110.093 E8.38693
G1 X119.962 Y110.253 E8.39918
G1 X120.161 Y110.417 E8.41079
G1 X120.334 Y110.579 E8.42146
G1 X120.499 Y110.754 E8.43229
G1 X120.665 Y110.954 E8.44399
G1 X120.913 Y111.304 E8.46331
G1 X122.147 Y113.118 E8.56209
G1 X122.146 Y114.464 E8.6227
G1 X121.751 Y114.727 E8.64406
G1 X120.541 Y114.727 E8.69855
G1 X120.47 Y114.656 E8.70307
G1 X119.467 Y112.303 E8.81824
G1 X118.792 Y111.627 E8.86125
G1 X116.22 Y111.627 E8.97706
G1 X115.139 Y112.706 E9.04583
G1 X115.14 Y117.078 E9.24268
G1 X116.469 Y118.407 E9.32731
G0 F7500 X116.587 Y118.13
G0 X116.544 Y118.227
G0 X116.226 Y119.724
G0 X116.483 Y119.884
G0 X116.59 Y119.625
G1 F1800 X116.371 Y119.551 E9.33771
G1 X116.042 Y119.482 E9.35285
G1 X115.729 Y119.468 E9.36696
G1 X115.484 Y119.483 E9.37801
G1 X115.164 Y119.553 E9.39276
G1 X114.879 Y119.659 E9.40645
G1 X114.68 Y119.765 E9.4166
G1 X114.537 Y119.856 E9.42423
G1 X114.364 Y119.991 E9.43411
G1 X114.193 Y120.156 E9.44481
G1 X114 Y120.398 E9.45875
G1 X113.864 Y120.624 E9.47063
G1 X113.739 Y120.924 E9.48526
G1 X113.659 Y121.247 E9.50024
G1 X113.632 Y121.568 E9.51475
G1 X113.659 Y121.928 E9.531
G1 X113.779 Y122.363 E9.55132
G1 X113.946 Y122.681 E9.56749
G1 X114.047 Y122.834 E9.57575
G1 X114.264 Y123.087 E9.59075
G1 X114.529 Y123.306 E9.60623
G1 X114.836 Y123.486 E9.62226
G1 X115.076 Y123.584 E9.63393
G1 X115.29 Y123.642 E9.64391
G1 X115.531 Y123.686 E9.65494
G1 X115.838 Y123.698 E9.66878
G1 X116.064 Y123.681 E9.67898
G1 X116.287 Y123.641 E9.68918
G1 X116.593 Y123.542 E9.70366
G1 X116.91 Y123.378 E9.71973
G1 X117.132 Y123.22 E9.732
G1 X117.326 Y123.041 E9.74389
G1 X117.48 Y122.858 E9.75466
G1 X117.58 Y122.722 E9.76226
G1 X117.71 Y122.49 E9.77423
G1 X117.808 Y122.244 E9.78616
G1 X117.876 Y121.987 E9.79813
G1 X117.909 Y121.732 E9.8097
G1 X117.912 Y121.56 E9.81745
G1 X117.892 Y121.281 E9.83004
G1 X117.859 Y121.107 E9.83802
G1 X117.791 Y120.877 E9.84882
G1 X117.73 Y120.728 E9.85607
G1 X117.615 Y120.502 E9.86748
G1 X117.469 Y120.294 E9.87892
G1 X117.357 Y120.157 E9.88689
G1 X117.099 Y119.917 E9.90276
G1 X116.864 Y119.763 E9.91541
G1 X116.59 Y119.625 E9.92922
G1 F1500 E3.92922
G0 F7500 X116.483 Y119.884
G0 X115.319 Y120.083
G0 X114.725 Y120.407
G0 X114.357 Y120.875
G0 X114.184 Y121.571
G0 X114.225 Y121.756
G0 X114.064 Y122.517
G0 X112.23 Y123.452
G0 X112.169 Y123.509
G0 X112.562 Y123.31
G1 F1500 E9.92922
G1 F1800 X114.281 Y125.029 E10.03868
G0 F7500 X115.153 Y125.336
G1 F1800 X112.244 Y122.427 E10.22392
G0 F7500 X112.157 Y121.774
G1 F1800 X115.807 Y125.424 E10.45633
G0 F7500 X116.361 Y125.412
G1 F1800 X112.166 Y121.217 E10.72346
G0 F7500 X112.241 Y120.727
G1 F1800 X113.513 Y121.999 E10.80445
G0 F7500 X113.485 Y121.405
G1 F1800 X112.33 Y120.249 E10.87803
G0 F7500 X112.418 Y119.772
G1 F1800 X113.574 Y120.927 E10.95161
G0 F7500 X113.736 Y120.524
G1 F1800 X112.506 Y119.294 E11.02993
G0 F7500 X112.594 Y118.817
G1 F1800 X113.963 Y120.186 E11.1171
G0 F7500 X114.235 Y119.892
G1 F1800 X112.682 Y118.339 E11.21599
G0 F7500 X112.77 Y117.861
G1 F1800 X114.559 Y119.65 E11.32991
G0 F7500 X114.939 Y119.464
G1 F1800 X112.859 Y117.384 E11.46236
