;FLAVOR:Marlin
;TIME:796
;Filament used: 0.518469m
;Layer height: 0.2
;MINX:95.767
;MINY:99.012
;MINZ:0.2
;MAXX:139.238
;MAXY:135.98
;MAXZ:10
;Generated with Cura_SteamEngine 4.6.2
M140 S60
M105
M190 S60
M104 S200
M105
M109 S200
M82 ;absolute extrusion mode
; Ender 3 Custom Start G-code
G92 E0 ; Reset Extruder
G28 ; Home all axes
G1 Z2.0 F3000 ; Move Z Axis up little to prevent scratching of Heat Bed
G1 X0.1 Y20 Z0.3 F5000.0 ; Move to start position
G1 X0.1 Y200.0 Z0.3 F1500.0 E15 ; Draw the first line
G1 X0.4 Y200.0 Z0.3 F5000.0 ; Move to side a little
G1 X0.4 Y20 Z0.3 F1500.0 E30 ; Draw the second line
G92 E0 ; Reset Extruder
G1 Z2.0 F3000 ; Move Z Axis up little to prevent scratching of Heat Bed
G1 X5 Y20 Z0.3 F5000.0 ; Move over to prevent blob squish
G92 E0
G92 E0
G1 F1500 E-6
;LAYER_COUNT:50
;LAYER:0
M107
M204 S500
M205 X8 Y8
G0 F7500 X122.643 Y99.834 Z0.2
;TYPE:SKIRT
G1 F1500 E0
G1 X122.934 Y99.853 E0.00921
G1 X123.459 Y99.898 E0.02586
G1 X124.039 Y99.968 E0.04432
G1 X124.377 Y100.019 E0.05512
G1 X124.905 Y100.111 E0.07206
G1 X125.476 Y100.232 E0.0905
G1 X126.305 Y100.445 E0.11755
G1 X126.854 Y100.61 E0.13566
G1 X127.623 Y100.878 E0.16139
G1 X128.19 Y101.103 E0.18067
G1 X128.764 Y101.356 E0.20049
G1 X128.967 Y101.451 E0.20757
G1 X129.474 Y101.705 E0.22549
G1 X129.753 Y101.855 E0.23549
G1 X130.253 Y102.139 E0.25366
G1 X130.717 Y102.424 E0.27087
G1 X131.227 Y102.762 E0.2902
G1 X131.415 Y102.893 E0.29744
G1 X131.894 Y103.248 E0.31628
G1 X132.425 Y103.672 E0.33775
G1 X132.586 Y103.807 E0.34439
G1 X132.992 Y104.166 E0.36151
G1 X133.247 Y104.404 E0.37254
G1 X133.66 Y104.81 E0.39083
G1 X133.967 Y105.13 E0.40485
G1 X134.121 Y105.298 E0.41205
G1 X134.354 Y105.561 E0.42315
G1 X134.543 Y105.782 E0.43234
G1 X134.945 Y106.282 E0.45261
G1 X135.475 Y107.006 E0.48096
G1 X135.759 Y107.43 E0.49708
G1 X135.913 Y107.673 E0.50618
G1 X136.231 Y108.203 E0.5257
G1 X136.496 Y108.685 E0.54308
G1 X136.747 Y109.178 E0.56056
G1 X136.867 Y109.427 E0.5693
G1 X137.104 Y109.958 E0.58767
G1 X137.34 Y110.541 E0.60754
G1 X137.418 Y110.748 E0.61453
G1 X137.596 Y111.262 E0.63172
G1 X137.7 Y111.59 E0.64259
G1 X137.862 Y112.146 E0.66089
G1 X137.998 Y112.691 E0.67864
G1 X138.174 Y113.539 E0.70601
G1 X138.27 Y114.126 E0.7248
G1 X138.337 Y114.667 E0.74202
G1 X138.365 Y114.934 E0.75051
G1 X138.411 Y115.548 E0.76996
G1 X138.438 Y116.396 E0.79677
G1 X138.431 Y116.994 E0.81567
G1 X138.404 Y117.556 E0.83345
G1 X138.386 Y117.819 E0.84177
G1 X138.326 Y118.429 E0.86114
G1 X138.247 Y119.012 E0.87973
G1 X138.204 Y119.285 E0.88846
G1 X138.098 Y119.854 E0.90675
G1 X138.042 Y120.113 E0.91512
G1 X137.908 Y120.671 E0.93326
G1 X137.764 Y121.19 E0.95028
G1 X137.66 Y121.53 E0.96151
G1 X137.481 Y122.068 E0.97943
G1 X137.292 Y122.575 E0.99652
G1 X137.188 Y122.833 E1.00531
G1 X136.953 Y123.379 E1.02409
G1 X136.711 Y123.89 E1.04196
G1 X136.34 Y124.6 E1.06727
G1 X136.034 Y125.128 E1.08655
G1 X135.695 Y125.665 E1.10662
G1 X135.564 Y125.862 E1.11409
G1 X135.244 Y126.315 E1.13162
G1 X135.035 Y126.595 E1.14266
G1 X134.682 Y127.046 E1.16076
G1 X134.358 Y127.431 E1.17665
G1 X134.19 Y127.621 E1.18467
G1 X133.772 Y128.071 E1.20407
G1 X133.36 Y128.484 E1.22251
G1 X133.101 Y128.729 E1.23377
G1 X132.589 Y129.182 E1.25537
G1 X132.186 Y129.515 E1.27189
G1 X131.797 Y129.821 E1.28753
G1 X131.583 Y129.981 E1.29597
G1 X131.107 Y130.316 E1.31436
G1 X130.628 Y130.628 E1.33243
G1 X130.061 Y130.971 E1.35337
G1 X127.736 Y132.369 E1.43909
G1 X126.253 Y133.308 E1.49455
G1 X125.58 Y133.699 E1.51914
G1 X125.371 Y133.81 E1.52662
G1 X124.368 Y134.276 E1.56156
G1 X124.155 Y134.361 E1.56881
G1 X123.302 Y134.658 E1.59735
G1 X122.728 Y134.812 E1.61613
G1 X122.378 Y134.895 E1.62749
G1 X121.49 Y135.064 E1.65606
G1 X120.875 Y135.134 E1.67561
G1 X120.672 Y135.151 E1.68205
G1 X119.463 Y135.181 E1.72026
G1 X119.207 Y135.172 E1.72836
G1 X118.098 Y135.072 E1.76354
G1 X117.871 Y135.039 E1.77079
G1 X117.083 Y134.893 E1.79611
G1 X116.656 Y134.796 E1.80995
G1 X114.158 Y134.268 E1.89062
G1 X111.668 Y133.813 E1.9706
G1 X109.158 Y133.429 E2.05083
G1 X107.254 Y133.198 E2.11143
G1 X106.319 Y133.063 E2.14128
G1 X105.432 Y132.895 E2.16981
G1 X104.842 Y132.737 E2.18911
G1 X104.609 Y132.667 E2.19679
G1 X103.757 Y132.369 E2.22531
G1 X102.558 Y131.797 E2.26729
G1 X102.251 Y131.625 E2.27841
G1 X101.484 Y131.149 E2.30693
G1 X100.761 Y130.607 E2.33548
G1 X100.025 Y129.938 E2.36691
G1 X99.824 Y129.737 E2.37589
G1 X99.214 Y129.071 E2.40443
G1 X98.52 Y128.14 E2.44112
G1 X98.4 Y127.958 E2.44801
G1 X97.937 Y127.182 E2.47656
G1 X97.553 Y126.389 E2.5044
G1 X97.448 Y126.146 E2.51276
G1 X97.127 Y125.302 E2.54129
G1 X96.881 Y124.433 E2.56983
G1 X96.753 Y123.794 E2.59042
G1 X96.705 Y123.509 E2.59955
G1 X96.594 Y122.613 E2.62808
G1 X96.567 Y121.528 E2.66238
G1 X96.575 Y121.244 E2.67135
G1 X96.591 Y120.888 E2.68261
G1 X96.618 Y120.472 E2.69578
G1 X96.752 Y118.674 E2.75275
G1 X96.884 Y115.689 E2.84716
G1 X96.926 Y114.199 E2.89426
G1 X96.991 Y113.299 E2.92277
G1 X97.138 Y112.398 E2.95162
G1 X97.18 Y112.197 E2.95811
G1 X97.403 Y111.322 E2.98664
G1 X97.705 Y110.467 E3.01529
G1 X97.799 Y110.234 E3.02323
G1 X98.173 Y109.412 E3.05176
G1 X98.853 Y108.271 E3.09373
G1 X99.007 Y108.047 E3.10232
G1 X99.551 Y107.327 E3.13083
G1 X100.157 Y106.657 E3.15938
G1 X100.577 Y106.255 E3.17775
G1 X100.824 Y106.032 E3.18826
G1 X101.52 Y105.457 E3.21679
G1 X102.265 Y104.946 E3.24533
G1 X102.857 Y104.604 E3.26694
G1 X103.08 Y104.485 E3.27492
G1 X103.895 Y104.096 E3.30346
G1 X104.741 Y103.78 E3.33199
G1 X105.371 Y103.598 E3.35271
G1 X105.942 Y103.453 E3.37133
G1 X106.291 Y103.371 E3.38266
G1 X108.55 Y102.881 E3.45569
G1 X111.027 Y102.27 E3.53631
G1 X113.488 Y101.587 E3.61701
G1 X115.735 Y100.899 E3.69126
G1 X116.883 Y100.536 E3.7293
G1 X117.27 Y100.424 E3.74203
G1 X117.82 Y100.279 E3.76
G1 X118.349 Y100.16 E3.77714
G1 X119.164 Y100.012 E3.80331
G1 X119.715 Y99.935 E3.82089
G1 X120.066 Y99.896 E3.83205
G1 X120.613 Y99.848 E3.8494
G1 X121.188 Y99.82 E3.86759
G1 X121.843 Y99.813 E3.88828
G0 F1350 X122.02 Y99.812
G0 X122.643 Y99.834
G0 F7500 X122.669 Y99.435
G1 F1500 X122.96 Y99.454 E3.8975
G1 X123.496 Y99.499 E3.91449
G1 X124.099 Y99.573 E3.93369
G1 X124.764 Y99.678 E3.95496
G1 X124.977 Y99.717 E3.9618
G1 X125.571 Y99.844 E3.981
G1 X126.171 Y99.994 E4.00054
G1 X126.41 Y100.059 E4.00837
G1 X126.98 Y100.231 E4.02718
G1 X127.505 Y100.41 E4.0447
G1 X127.759 Y100.502 E4.05324
G1 X128.349 Y100.735 E4.07328
G1 X128.641 Y100.861 E4.08333
G1 X129.137 Y101.088 E4.10057
G1 X129.663 Y101.353 E4.11918
G1 X130.231 Y101.664 E4.13964
G1 X130.454 Y101.793 E4.14778
G1 X130.935 Y102.089 E4.16562
G1 X131.456 Y102.434 E4.18537
G1 X131.644 Y102.565 E4.19261
G1 X132.142 Y102.934 E4.21219
G1 X132.429 Y103.16 E4.22374
G1 X132.843 Y103.501 E4.24068
G1 X133.265 Y103.874 E4.25848
G1 X133.52 Y104.112 E4.2695
G1 X133.943 Y104.527 E4.28822
G1 X134.262 Y104.859 E4.30277
G1 X134.416 Y105.027 E4.30997
G1 X134.847 Y105.522 E4.33071
G1 X135.264 Y106.042 E4.35177
G1 X135.677 Y106.598 E4.37366
G1 X135.802 Y106.775 E4.3805
G1 X136.096 Y107.216 E4.39725
G1 X136.25 Y107.459 E4.40634
G1 X136.575 Y108 E4.42628
G1 X136.852 Y108.501 E4.44437
G1 X137.107 Y109.004 E4.46219
G1 X137.227 Y109.253 E4.47092
G1 X137.474 Y109.805 E4.49003
G1 X137.591 Y110.088 E4.49971
G1 X137.792 Y110.607 E4.51729
G1 X137.977 Y111.141 E4.53515
G1 X138.081 Y111.469 E4.54602
G1 X138.247 Y112.039 E4.56478
G1 X138.388 Y112.605 E4.58321
G1 X138.521 Y113.225 E4.60325
G1 X138.567 Y113.464 E4.61094
G1 X138.666 Y114.074 E4.63046
G1 X138.735 Y114.625 E4.64801
G1 X138.763 Y114.892 E4.65649
G1 X138.811 Y115.531 E4.67674
G1 X138.838 Y116.389 E4.70386
G1 X138.831 Y117.011 E4.72352
G1 X138.803 Y117.584 E4.74165
G1 X138.785 Y117.847 E4.74998
G1 X138.723 Y118.481 E4.7701
G1 X138.642 Y119.074 E4.78901
G1 X138.599 Y119.347 E4.79775
G1 X138.489 Y119.938 E4.81674
G1 X138.433 Y120.197 E4.82511
G1 X138.296 Y120.767 E4.84364
G1 X138.146 Y121.307 E4.86135
G1 X138.042 Y121.647 E4.87258
G1 X137.86 Y122.197 E4.89089
G1 X137.663 Y122.725 E4.90869
G1 X137.559 Y122.983 E4.91748
G1 X137.319 Y123.541 E4.93667
G1 X137.068 Y124.071 E4.9552
G1 X136.692 Y124.79 E4.98084
G1 X136.374 Y125.339 E5.00089
G1 X136.207 Y125.608 E5.01089
G1 X135.897 Y126.083 E5.02881
G1 X135.565 Y126.555 E5.04705
G1 X135.356 Y126.835 E5.05809
G1 X134.994 Y127.296 E5.07661
G1 X134.658 Y127.695 E5.09309
G1 X134.49 Y127.885 E5.1011
G1 X134.063 Y128.346 E5.12096
G1 X133.635 Y128.775 E5.14011
G1 X133.376 Y129.02 E5.15137
G1 X132.844 Y129.49 E5.1738
G1 X132.441 Y129.823 E5.19032
G1 X132.036 Y130.142 E5.20661
G1 X131.822 Y130.302 E5.21505
G1 X131.328 Y130.649 E5.23413
G1 X130.839 Y130.968 E5.25258
G1 X127.969 Y132.695 E5.35841
G1 X126.467 Y133.646 E5.41458
G1 X125.768 Y134.053 E5.44014
G1 X125.559 Y134.164 E5.44762
G1 X124.516 Y134.647 E5.48394
G1 X124.303 Y134.732 E5.49118
G1 X123.434 Y135.036 E5.52027
G1 X122.82 Y135.201 E5.54036
G1 X122.47 Y135.284 E5.55173
G1 X121.566 Y135.457 E5.58081
G1 X120.909 Y135.533 E5.60171
G1 X120.706 Y135.55 E5.60814
G1 X119.449 Y135.58 E5.64787
G1 X119.193 Y135.571 E5.65597
G1 X118.04 Y135.468 E5.69254
G1 X117.813 Y135.435 E5.69979
G1 X116.995 Y135.283 E5.72608
G1 X116.629 Y135.2 E5.73794
G1 X114.075 Y134.66 E5.82042
G1 X111.573 Y134.203 E5.90079
G1 X109.11 Y133.826 E5.97952
G1 X107.197 Y133.594 E6.0404
G1 X106.262 Y133.459 E6.07025
G1 X105.358 Y133.288 E6.09932
G1 X104.727 Y133.12 E6.11996
G1 X104.494 Y133.05 E6.12764
G1 X103.625 Y132.747 E6.15672
G1 X102.785 Y132.37 E6.18581
G1 X102.363 Y132.146 E6.20091
G1 X102.056 Y131.974 E6.21203
G1 X101.273 Y131.489 E6.24113
G1 X100.535 Y130.939 E6.27021
G1 X99.742 Y130.221 E6.30401
G1 X99.541 Y130.02 E6.313
G1 X98.919 Y129.342 E6.34207
G1 X98.186 Y128.36 E6.38079
G1 X98.066 Y128.178 E6.38768
G1 X97.594 Y127.388 E6.41675
G1 X97.186 Y126.548 E6.44626
G1 X97.081 Y126.305 E6.45462
G1 X96.752 Y125.444 E6.48375
G1 X96.5 Y124.559 E6.51282
G1 X96.358 Y123.86 E6.53536
G1 X96.31 Y123.575 E6.54449
G1 X96.197 Y122.662 E6.57356
G1 X96.167 Y121.517 E6.60975
G1 X96.175 Y121.233 E6.61873
G1 X96.192 Y120.863 E6.63043
G1 X96.219 Y120.442 E6.64376
G1 X96.352 Y118.659 E6.70026
G1 X96.485 Y115.66 E6.79511
G1 X96.526 Y114.188 E6.84164
G1 X96.592 Y113.27 E6.87072
G1 X96.746 Y112.316 E6.90125
G1 X96.788 Y112.115 E6.90774
G1 X97.015 Y111.223 E6.93682
G1 X97.334 Y110.317 E6.96717
G1 X97.428 Y110.084 E6.97511
G1 X97.809 Y109.246 E7.0042
G1 X98.262 Y108.444 E7.0333
G1 X98.523 Y108.045 E7.04837
G1 X98.677 Y107.821 E7.05696
G1 X99.231 Y107.086 E7.08604
G1 X99.847 Y106.401 E7.11515
G1 X100.309 Y105.958 E7.13537
G1 X100.556 Y105.735 E7.14589
G1 X101.265 Y105.148 E7.17497
G1 X102.023 Y104.626 E7.20405
G1 X102.669 Y104.251 E7.22765
G1 X102.892 Y104.132 E7.23564
G1 X103.722 Y103.734 E7.26472
G1 X104.584 Y103.41 E7.29382
G1 X105.273 Y103.21 E7.31649
G1 X105.844 Y103.065 E7.33511
G1 X106.207 Y102.98 E7.34689
G1 X108.467 Y102.49 E7.41995
G1 X110.929 Y101.882 E7.50008
G1 X113.379 Y101.202 E7.58042
G1 X115.574 Y100.53 E7.65296
G1 X116.772 Y100.152 E7.69265
G1 X117.159 Y100.04 E7.70538
G1 X117.722 Y99.891 E7.72378
G1 X118.272 Y99.768 E7.74159
G1 X118.858 Y99.657 E7.76043
G1 X119.098 Y99.617 E7.76812
G1 X119.67 Y99.538 E7.78637
G1 X120.021 Y99.499 E7.79753
G1 X120.582 Y99.45 E7.81532
G1 X121.18 Y99.42 E7.83424
G1 X121.869 Y99.413 E7.85601
G0 F1350 X122.022 Y99.412
G0 X122.669 Y99.435
G0 F7500 X122.695 Y99.035
G1 F1500 X122.986 Y99.054 E7.86522
G1 X123.533 Y99.101 E7.88257
G1 X124.158 Y99.177 E7.90246
G1 X124.496 Y99.228 E7.91327
G1 X125.049 Y99.324 E7.931
G1 X125.665 Y99.455 E7.9509
G1 X126.515 Y99.673 E7.97863
G1 X127.107 Y99.851 E7.99816
G1 X127.895 Y100.126 E8.02453
G1 X128.507 Y100.368 E8.04532
G1 X128.799 Y100.494 E8.05537
G1 X129.306 Y100.726 E8.07299
G1 X129.853 Y101 E8.09232
G1 X130.132 Y101.15 E8.10233
G1 X130.654 Y101.446 E8.12129
G1 X131.154 Y101.754 E8.13985
G1 X131.685 Y102.106 E8.15998
G1 X131.873 Y102.237 E8.16722
G1 X132.389 Y102.62 E8.18752
G1 X132.939 Y103.059 E8.20976
G1 X133.1 Y103.194 E8.21639
G1 X133.538 Y103.581 E8.23486
G1 X133.793 Y103.819 E8.24588
G1 X134.226 Y104.244 E8.26505
G1 X134.557 Y104.589 E8.28016
G1 X134.711 Y104.757 E8.28736
G1 X135.151 Y105.262 E8.30853
G1 X135.584 Y105.802 E8.3304
G1 X136.003 Y106.367 E8.35262
G1 X136.128 Y106.544 E8.35947
G1 X136.434 Y107.002 E8.37687
G1 X136.588 Y107.245 E8.38596
G1 X136.92 Y107.798 E8.40634
G1 X137.207 Y108.318 E8.42511
G1 X137.467 Y108.83 E8.44325
G1 X137.587 Y109.079 E8.45199
G1 X137.843 Y109.652 E8.47182
G1 X137.96 Y109.935 E8.48149
G1 X138.166 Y110.466 E8.49949
G1 X138.359 Y111.02 E8.51803
G1 X138.463 Y111.348 E8.5289
G1 X138.632 Y111.931 E8.54808
G1 X138.779 Y112.518 E8.5672
G1 X138.914 Y113.149 E8.58759
G1 X138.96 Y113.388 E8.59528
G1 X139.063 Y114.021 E8.61554
G1 X139.133 Y114.584 E8.63347
G1 X139.161 Y114.851 E8.64195
G1 X139.21 Y115.513 E8.66293
G1 X139.238 Y116.382 E8.6904
G1 X139.231 Y117.027 E8.71078
G1 X139.184 Y117.874 E8.73758
G1 X139.119 Y118.532 E8.75848
G1 X139.037 Y119.137 E8.77777
G1 X138.994 Y119.41 E8.7865
G1 X138.88 Y120.023 E8.8062
G1 X138.824 Y120.282 E8.81457
G1 X138.684 Y120.864 E8.83349
G1 X138.529 Y121.424 E8.85185
G1 X138.425 Y121.764 E8.86308
G1 X138.238 Y122.327 E8.88183
G1 X138.034 Y122.875 E8.9003
G1 X137.93 Y123.133 E8.90909
G1 X137.685 Y123.702 E8.92867
G1 X137.424 Y124.253 E8.94793
G1 X137.044 Y124.981 E8.97388
G1 X136.714 Y125.55 E8.99466
G1 X136.547 Y125.819 E9.00467
G1 X136.23 Y126.305 E9.023
G1 X135.885 Y126.794 E9.04191
G1 X135.676 Y127.074 E9.05295
G1 X135.307 Y127.546 E9.07188
G1 X134.958 Y127.96 E9.08899
G1 X134.79 Y128.15 E9.097
G1 X134.354 Y128.62 E9.11726
G1 X133.91 Y129.065 E9.13712
G1 X133.651 Y129.31 E9.14839
G1 X133.099 Y129.799 E9.17169
G1 X132.696 Y130.132 E9.18821
G1 X132.276 Y130.462 E9.20508
G1 X132.062 Y130.622 E9.21353
G1 X131.549 Y130.983 E9.23335
G1 X131.05 Y131.308 E9.25216
G1 X128.177 Y133.037 E9.35811
G1 X126.681 Y133.984 E9.41406
G1 X125.956 Y134.406 E9.44056
G1 X125.747 Y134.517 E9.44804
G1 X124.664 Y135.019 E9.48576
G1 X124.451 Y135.104 E9.493
G1 X123.566 Y135.414 E9.52263
G1 X122.912 Y135.59 E9.54403
G1 X122.562 Y135.673 E9.5554
G1 X121.641 Y135.85 E9.58503
G1 X120.942 Y135.932 E9.60727
G1 X120.739 Y135.949 E9.61371
G1 X119.435 Y135.98 E9.65492
G1 X119.179 Y135.971 E9.66302
G1 X117.983 Y135.864 E9.70096
G1 X117.756 Y135.831 E9.7082
G1 X116.906 Y135.673 E9.73552
G1 X116.509 Y135.583 E9.74838
G1 X113.999 Y135.052 E9.82945
G1 X111.507 Y134.597 E9.90949
G1 X109.064 Y134.223 E9.98758
G1 X107.14 Y133.99 E10.04882
G1 X106.205 Y133.855 E10.07867
G1 X105.283 Y133.682 E10.10831
G1 X104.612 Y133.503 E10.13025
G1 X104.379 Y133.433 E10.13794
G1 X103.493 Y133.125 E10.16758
G1 X102.637 Y132.743 E10.1972
G1 X102.167 Y132.494 E10.214
G1 X101.86 Y132.322 E10.22512
G1 X101.063 Y131.83 E10.25472
G1 X100.31 Y131.271 E10.28435
G1 X99.459 Y130.504 E10.32055
G1 X99.258 Y130.303 E10.32953
G1 X98.624 Y129.612 E10.35916
G1 X97.853 Y128.58 E10.39986
G1 X97.733 Y128.398 E10.40675
G1 X97.25 Y127.594 E10.43639
G1 X96.818 Y126.706 E10.46759
G1 X96.713 Y126.463 E10.47595
G1 X96.378 Y125.587 E10.50559
G1 X96.119 Y124.686 E10.53521
G1 X95.964 Y123.927 E10.55969
G1 X95.916 Y123.642 E10.56882
G1 X95.8 Y122.711 E10.59846
G1 X95.767 Y121.505 E10.63658
G1 X95.775 Y121.221 E10.64556
G1 X95.82 Y120.412 E10.67116
G1 X95.954 Y118.61 E10.72826
G1 X96.084 Y115.693 E10.82052
G1 X96.126 Y114.177 E10.86844
G1 X96.192 Y113.241 E10.89809
G1 X96.355 Y112.234 E10.93032
G1 X96.397 Y112.033 E10.93681
G1 X96.627 Y111.124 E10.96643
G1 X96.963 Y110.168 E10.99845
G1 X97.057 Y109.935 E11.00639
G1 X97.445 Y109.081 E11.03603
G1 X97.904 Y108.263 E11.06567
G1 X98.194 Y107.818 E11.08245
G1 X98.348 Y107.594 E11.09104
G1 X98.911 Y106.845 E11.12064
G1 X99.537 Y106.146 E11.15029
G1 X100.041 Y105.661 E11.17239
G1 X100.288 Y105.438 E11.18291
G1 X101.01 Y104.84 E11.21253
G1 X101.781 Y104.305 E11.24218
G1 X102.48 Y103.898 E11.26774
G1 X102.703 Y103.779 E11.27573
G1 X103.549 Y103.373 E11.30538
G1 X104.426 Y103.041 E11.33501
G1 X105.175 Y102.822 E11.35966
G1 X105.746 Y102.677 E11.37828
G1 X106.122 Y102.589 E11.39048
G1 X108.392 Y102.097 E11.46387
G1 X110.831 Y101.494 E11.54326
