;FLAVOR:Marlin
;TIME:6984
;Filament used: 1.30237m
;Layer height: 0.08
;MINX:90.2
;MINY:101.402
;MINZ:0.12
;MAXX:129.8
;MAXY:118.601
;MAXZ:39.96
;Generated with Cura_SteamEngine 4.7.0
M140 S60
M105
M190 S60
M104 S200
M105
M109 S200
M82 ;absolute extrusion mode
; Ender 3 Custom Start G-code
G92 E0 ; Reset Extruder
G28 ; Home all axes
G1 Z2.0 F3000 ; Move Z Axis up little to prevent scratching of Heat Bed
G1 X0.1 Y20 Z0.3 F5000.0 ; Move to start position
G1 X0.1 Y200.0 Z0.3 F1500.0 E15 ; Draw the first line
G1 X0.4 Y200.0 Z0.3 F5000.0 ; Move to side a little
G1 X0.4 Y20 Z0.3 F1500.0 E30 ; Draw the second line
G92 E0 ; Reset Extruder
G1 Z2.0 F3000 ; Move Z Axis up little to prevent scratching of Heat Bed
G1 X5 Y20 Z0.3 F5000.0 ; Move over to prevent blob squish
G92 E0
G92 E0
G1 F1500 E-6.5
;LAYER_COUNT:499
;LAYER:0
M107
G0 F6000 X100.403 Y103.551 Z0.12
;TYPE:SKIRT
G1 F1500 E0
G1 F1200 X101.002 Y103.036 E0.01576
G1 X101.65 Y102.585 E0.03152
G1 X102.341 Y102.201 E0.0473
G1 X103.066 Y101.889 E0.06305
G1 X103.819 Y101.652 E0.0788
G1 X104.593 Y101.493 E0.09457
G1 X105.378 Y101.412 E0.11032
G1 X105.78 Y101.402 E0.11834
G1 X114.221 Y101.402 E0.28679
G1 X115.01 Y101.442 E0.30256
G1 X115.79 Y101.561 E0.3183
G1 X116.555 Y101.759 E0.33407
G1 X117.295 Y102.033 E0.34982
G1 X118.004 Y102.381 E0.36558
G1 X118.675 Y102.799 E0.38136
G1 X119.299 Y103.282 E0.3971
G1 X119.872 Y103.825 E0.41286
G1 X120.387 Y104.424 E0.42862
G1 X120.838 Y105.072 E0.44438
G1 X121.222 Y105.763 E0.46015
G1 X121.534 Y106.488 E0.4759
G1 X121.771 Y107.241 E0.49166
G1 X121.93 Y108.015 E0.50743
G1 X122.011 Y108.8 E0.52318
G1 X122.021 Y109.217 E0.5315
G1 X122.019 Y110.224 E0.5516
G1 X122.02 Y110.788 E0.56285
G1 X121.981 Y111.577 E0.57862
G1 X121.863 Y112.357 E0.59436
G1 X121.667 Y113.122 E0.61012
G1 X121.394 Y113.863 E0.62588
G1 X121.047 Y114.573 E0.64165
G1 X120.631 Y115.244 E0.6574
G1 X120.149 Y115.869 E0.67315
G1 X119.606 Y116.443 E0.68892
G1 X119.008 Y116.959 E0.70468
G1 X118.361 Y117.411 E0.72043
G1 X117.671 Y117.796 E0.7362
G1 X116.946 Y118.109 E0.75196
G1 X116.193 Y118.347 E0.76772
G1 X115.42 Y118.508 E0.78348
G1 X114.635 Y118.59 E0.79923
G1 X114.218 Y118.601 E0.80755
G1 X105.779 Y118.599 E0.97596
G1 X104.99 Y118.559 E0.99173
G1 X104.21 Y118.439 E1.00748
G1 X103.445 Y118.241 E1.02325
G1 X102.705 Y117.967 E1.03899
G1 X101.996 Y117.619 E1.05475
G1 X101.326 Y117.201 E1.07051
G1 X100.701 Y116.718 E1.08628
G1 X100.129 Y116.174 E1.10203
G1 X99.614 Y115.575 E1.11779
G1 X99.163 Y114.927 E1.13355
G1 X98.779 Y114.237 E1.14931
G1 X98.468 Y113.511 E1.16507
G1 X98.231 Y112.758 E1.18082
G1 X98.072 Y111.984 E1.19659
G1 X97.991 Y111.199 E1.21234
G1 X97.981 Y110.791 E1.22048
G1 X97.982 Y109.843 E1.2394
G1 X97.98 Y109.692 E1.24242
G1 X97.98 Y109.202 E1.2522
G1 X98.02 Y108.413 E1.26796
G1 X98.139 Y107.633 E1.28371
G1 X98.337 Y106.868 E1.29948
G1 X98.611 Y106.128 E1.31522
G1 X98.959 Y105.419 E1.33098
G1 X99.377 Y104.748 E1.34676
G1 X99.86 Y104.124 E1.36251
G1 X100.403 Y103.551 E1.37826
G0 F6000 X100.796 Y103.732
G1 F1200 X101.391 Y103.244 E1.39362
G1 X102.033 Y102.821 E1.40896
G1 X102.716 Y102.466 E1.42432
G1 X103.431 Y102.185 E1.43965
G1 X104.173 Y101.979 E1.45502
G1 X104.931 Y101.851 E1.47036
G1 X105.78 Y101.802 E1.48733
G1 X114.221 Y101.802 E1.65578
G1 X114.989 Y101.842 E1.67113
G1 X115.749 Y101.961 E1.68648
G1 X116.492 Y102.159 E1.70183
G1 X117.211 Y102.433 E1.71718
G1 X117.897 Y102.78 E1.73252
G1 X118.544 Y103.196 E1.74787
G1 X119.144 Y103.677 E1.76322
G1 X119.691 Y104.218 E1.77857
G1 X120.179 Y104.813 E1.79393
G1 X120.602 Y105.455 E1.80927
G1 X120.957 Y106.138 E1.82463
G1 X121.238 Y106.853 E1.83996
G1 X121.444 Y107.595 E1.85533
G1 X121.572 Y108.353 E1.87067
G1 X121.621 Y109.217 E1.88794
G1 X121.619 Y110.224 E1.90804
G1 X121.62 Y110.789 E1.91931
G1 X121.581 Y111.557 E1.93466
G1 X121.463 Y112.317 E1.95001
G1 X121.267 Y113.06 E1.96534
G1 X120.994 Y113.78 E1.98071
G1 X120.648 Y114.467 E1.99606
G1 X120.233 Y115.114 E2.0114
G1 X119.753 Y115.715 E2.02675
G1 X119.213 Y116.263 E2.0421
G1 X118.619 Y116.751 E2.05744
G1 X117.978 Y117.176 E2.07279
G1 X117.296 Y117.532 E2.08814
G1 X116.58 Y117.814 E2.1035
G1 X115.84 Y118.022 E2.11884
G1 X115.081 Y118.151 E2.1342
G1 X114.218 Y118.201 E2.15145
G1 X105.779 Y118.199 E2.31986
G1 X105.011 Y118.159 E2.33521
G1 X104.251 Y118.039 E2.35056
G1 X103.508 Y117.841 E2.36591
G1 X102.789 Y117.567 E2.38126
G1 X102.103 Y117.22 E2.39661
G1 X101.456 Y116.804 E2.41196
G1 X100.856 Y116.322 E2.42732
G1 X100.31 Y115.781 E2.44265
G1 X99.822 Y115.187 E2.458
G1 X99.399 Y114.544 E2.47335
G1 X99.045 Y113.862 E2.48869
G1 X98.763 Y113.146 E2.50405
G1 X98.557 Y112.405 E2.51939
G1 X98.43 Y111.646 E2.53475
G1 X98.381 Y110.792 E2.55182
G1 X98.381 Y109.84 E2.57082
G1 X98.38 Y109.202 E2.58355
G1 X98.42 Y108.434 E2.5989
G1 X98.539 Y107.674 E2.61425
G1 X98.737 Y106.931 E2.6296
G1 X99.011 Y106.212 E2.64495
G1 X99.358 Y105.526 E2.66029
G1 X99.774 Y104.879 E2.67564
G1 X100.255 Y104.279 E2.69099
G1 X100.796 Y103.732 E2.70634
G0 F6000 X101.188 Y103.918
G1 F1200 X101.778 Y103.459 E2.72126
G1 X102.414 Y103.064 E2.7362
G1 X103.088 Y102.74 E2.75112
G1 X103.793 Y102.49 E2.76605
G1 X104.521 Y102.316 E2.78099
G1 X105.263 Y102.221 E2.79592
G1 X105.78 Y102.202 E2.80624
G1 X114.221 Y102.202 E2.97469
G1 X114.968 Y102.242 E2.98962
G1 X115.706 Y102.361 E3.00454
G1 X116.428 Y102.559 E3.01948
G1 X117.124 Y102.832 E3.0344
G1 X117.787 Y103.179 E3.04933
G1 X118.41 Y103.594 E3.06427
G1 X118.984 Y104.073 E3.07919
G1 X119.505 Y104.61 E3.09412
G1 X119.964 Y105.2 E3.10904
G1 X120.359 Y105.836 E3.12398
G1 X120.683 Y106.51 E3.1389
G1 X120.933 Y107.215 E3.15383
G1 X121.107 Y107.943 E3.16877
G1 X121.202 Y108.685 E3.18369
G1 X121.221 Y109.216 E3.1943
G1 X121.219 Y110.223 E3.21439
G1 X121.22 Y110.789 E3.22569
G1 X121.181 Y111.536 E3.24062
G1 X121.063 Y112.275 E3.25555
G1 X120.867 Y112.997 E3.27048
G1 X120.594 Y113.693 E3.2854
G1 X120.249 Y114.357 E3.30033
G1 X119.835 Y114.98 E3.31526
G1 X119.357 Y115.556 E3.3302
G1 X118.821 Y116.077 E3.34511
G1 X118.231 Y116.538 E3.36006
G1 X117.596 Y116.933 E3.37498
G1 X116.923 Y117.258 E3.38989
G1 X116.218 Y117.51 E3.40483
G1 X115.491 Y117.685 E3.41976
G1 X114.749 Y117.781 E3.43469
G1 X114.218 Y117.801 E3.44529
G1 X105.779 Y117.799 E3.6137
G1 X105.032 Y117.759 E3.62863
G1 X104.294 Y117.639 E3.64355
G1 X103.572 Y117.441 E3.65849
G1 X102.876 Y117.168 E3.67341
G1 X102.213 Y116.822 E3.68834
G1 X101.591 Y116.406 E3.70327
G1 X101.016 Y115.927 E3.7182
G1 X100.496 Y115.389 E3.73313
G1 X100.037 Y114.799 E3.74805
G1 X99.643 Y114.163 E3.76298
G1 X99.319 Y113.489 E3.77791
G1 X99.068 Y112.784 E3.79284
G1 X98.895 Y112.057 E3.80775
G1 X98.8 Y111.315 E3.82268
G1 X98.781 Y110.792 E3.83313
G1 X98.781 Y109.832 E3.85228
G1 X98.78 Y109.202 E3.86486
G1 X98.82 Y108.455 E3.87978
G1 X98.939 Y107.717 E3.8947
G1 X99.137 Y106.995 E3.90964
G1 X99.41 Y106.299 E3.92456
G1 X99.757 Y105.636 E3.9395
G1 X100.172 Y105.013 E3.95443
G1 X100.651 Y104.439 E3.96935
G1 X101.188 Y103.918 E3.98428
G0 F6000 X101.045 Y104.604
G1 F1200 X101.579 Y104.111 E3.99879
G1 X102.164 Y103.681 E4.01328
G1 X102.793 Y103.317 E4.02778
G1 X103.458 Y103.024 E4.04228
G1 X104.151 Y102.806 E4.05678
G1 X104.863 Y102.666 E4.07126
G1 X105.78 Y102.602 E4.0896
G1 X114.221 Y102.602 E4.25805
G1 X114.946 Y102.642 E4.27254
G1 X115.663 Y102.761 E4.28705
G1 X116.362 Y102.959 E4.30155
G1 X117.035 Y103.232 E4.31604
G1 X117.674 Y103.577 E4.33053
G1 X118.271 Y103.991 E4.34503
G1 X118.819 Y104.467 E4.35951
G1 X119.312 Y105.001 E4.37402
G1 X119.742 Y105.586 E4.38851
G1 X120.106 Y106.215 E4.40301
G1 X120.399 Y106.88 E4.41751
G1 X120.617 Y107.573 E4.43201
G1 X120.757 Y108.285 E4.44649
G1 X120.821 Y109.215 E4.46509
G1 X120.819 Y110.222 E4.48519
G1 X120.82 Y110.79 E4.49652
G1 X120.781 Y111.515 E4.51101
G1 X120.663 Y112.232 E4.52551
G1 X120.467 Y112.931 E4.54
G1 X120.195 Y113.605 E4.55451
G1 X119.851 Y114.244 E4.56899
G1 X119.438 Y114.842 E4.58349
G1 X118.962 Y115.391 E4.59799
G1 X118.429 Y115.884 E4.61248
G1 X117.845 Y116.316 E4.62698
G1 X117.217 Y116.681 E4.64147
G1 X116.553 Y116.975 E4.65596
G1 X115.86 Y117.194 E4.67047
G1 X115.148 Y117.335 E4.68495
G1 X114.218 Y117.401 E4.70356
G1 X105.779 Y117.399 E4.87197
G1 X105.054 Y117.359 E4.88646
G1 X104.338 Y117.239 E4.90095
G1 X103.639 Y117.042 E4.91544
G1 X102.966 Y116.768 E4.92994
G1 X102.327 Y116.423 E4.94443
G1 X101.73 Y116.009 E4.95893
G1 X101.182 Y115.533 E4.97341
G1 X100.689 Y114.999 E4.98792
G1 X100.259 Y114.414 E5.00241
G1 X99.895 Y113.785 E5.01691
G1 X99.603 Y113.12 E5.0314
G1 X99.385 Y112.427 E5.0459
G1 X99.245 Y111.714 E5.0604
G1 X99.181 Y110.792 E5.07885
G1 X99.181 Y109.824 E5.09816
G1 X99.18 Y109.202 E5.11058
G1 X99.22 Y108.477 E5.12507
G1 X99.339 Y107.76 E5.13957
G1 X99.537 Y107.061 E5.15407
G1 X99.81 Y106.388 E5.16856
G1 X100.155 Y105.749 E5.18305
G1 X100.569 Y105.152 E5.19755
G1 X101.045 Y104.604 E5.21204
G0 F6000 X101.439 Y104.775
G1 F1200 X101.969 Y104.311 E5.22609
G1 X102.548 Y103.911 E5.24014
G1 X103.169 Y103.579 E5.25419
G1 X103.823 Y103.319 E5.26824
G1 X104.503 Y103.135 E5.28229
G1 X105.199 Y103.029 E5.29634
G1 X105.78 Y103.002 E5.30795
G1 X114.221 Y103.002 E5.4764
G1 X114.924 Y103.042 E5.49045
G1 X115.618 Y103.161 E5.5045
G1 X116.293 Y103.359 E5.51854
G1 X116.942 Y103.631 E5.53258
G1 X117.556 Y103.976 E5.54664
G1 X118.127 Y104.387 E5.56068
G1 X118.648 Y104.861 E5.57473
G1 X119.112 Y105.391 E5.58879
G1 X119.512 Y105.97 E5.60284
G1 X119.844 Y106.591 E5.61689
G1 X120.104 Y107.245 E5.63093
G1 X120.288 Y107.925 E5.64499
G1 X120.394 Y108.621 E5.65904
G1 X120.421 Y109.214 E5.67089
G1 X120.419 Y110.221 E5.69098
G1 X120.42 Y110.791 E5.70236
G1 X120.381 Y111.493 E5.71639
G1 X120.263 Y112.187 E5.73044
G1 X120.067 Y112.864 E5.7445
G1 X119.795 Y113.513 E5.75855
G1 X119.452 Y114.128 E5.7726
G1 X119.041 Y114.699 E5.78664
G1 X118.568 Y115.221 E5.8007
G1 X118.039 Y115.685 E5.81474
G1 X117.461 Y116.087 E5.82879
G1 X116.841 Y116.42 E5.84283
G1 X116.187 Y116.681 E5.85688
G1 X115.508 Y116.866 E5.87093
G1 X114.812 Y116.973 E5.88498
G1 X114.219 Y117.001 E5.89683
G1 X105.78 Y116.999 E6.06524
G1 X105.077 Y116.959 E6.07929
G1 X104.383 Y116.839 E6.09334
G1 X103.707 Y116.642 E6.1074
G1 X103.058 Y116.369 E6.12145
G1 X102.444 Y116.025 E6.13549
G1 X101.873 Y115.613 E6.14954
G1 X101.353 Y115.139 E6.16358
G1 X100.89 Y114.609 E6.17763
G1 X100.489 Y114.03 E6.19168
G1 X100.157 Y113.409 E6.20574
G1 X99.897 Y112.754 E6.2198
G1 X99.714 Y112.075 E6.23383
G1 X99.608 Y111.379 E6.24788
G1 X99.581 Y110.793 E6.25959
G1 X99.581 Y109.816 E6.27909
G1 X99.58 Y109.202 E6.29134
G1 X99.62 Y108.499 E6.30539
G1 X99.739 Y107.805 E6.31944
G1 X99.937 Y107.13 E6.33348
G1 X100.209 Y106.481 E6.34752
G1 X100.554 Y105.867 E6.36158
G1 X100.965 Y105.296 E6.37562
G1 X101.439 Y104.775 E6.38968
G0 F6000 X101.833 Y104.953
G1 F1200 X102.358 Y104.519 E6.40327
G1 X102.93 Y104.15 E6.41685
G1 X103.542 Y103.851 E6.43045
G1 X104.184 Y103.626 E6.44402
G1 X104.849 Y103.477 E6.45762
G1 X105.78 Y103.402 E6.47626
G1 X114.221 Y103.402 E6.64471
G1 X114.901 Y103.442 E6.6583
G1 X115.571 Y103.561 E6.67188
G1 X116.223 Y103.758 E6.68548
G1 X116.847 Y104.03 E6.69906
G1 X117.435 Y104.374 E6.71265
G1 X117.979 Y104.784 E6.72625
G1 X118.47 Y105.255 E6.73983
G1 X118.904 Y105.78 E6.75342
G1 X119.273 Y106.352 E6.767
G1 X119.572 Y106.964 E6.7806
G1 X119.797 Y107.606 E6.79417
G1 X119.946 Y108.271 E6.80777
G1 X120.021 Y109.214 E6.82665
G1 X120.019 Y110.221 E6.84675
G1 X120.02 Y110.791 E6.85812
G1 X119.981 Y111.471 E6.87171
G1 X119.863 Y112.142 E6.88531
G1 X119.667 Y112.794 E6.8989
G1 X119.396 Y113.418 E6.91247
G1 X119.054 Y114.007 E6.92606
G1 X118.645 Y114.551 E6.93965
G1 X118.175 Y115.044 E6.95324
G1 X117.65 Y115.478 E6.96683
G1 X117.078 Y115.848 E6.98043
G1 X116.467 Y116.148 E6.99401
G1 X115.825 Y116.374 E7.00759
G1 X115.161 Y116.524 E7.02118
G1 X114.219 Y116.601 E7.04004
G1 X105.78 Y116.599 E7.20845
G1 X105.1 Y116.559 E7.22204
G1 X104.43 Y116.439 E7.23563
G1 X103.778 Y116.242 E7.24922
G1 X103.154 Y115.97 E7.2628
G1 X102.566 Y115.626 E7.2764
G1 X102.022 Y115.216 E7.28999
G1 X101.531 Y114.745 E7.30357
G1 X101.097 Y114.22 E7.31716
G1 X100.729 Y113.648 E7.33074
G1 X100.43 Y113.036 E7.34433
G1 X100.204 Y112.393 E7.35793
G1 X100.056 Y111.729 E7.37151
G1 X99.981 Y110.793 E7.39024
G1 X99.981 Y109.808 E7.4099
G1 X99.98 Y109.202 E7.42199
G1 X100.02 Y108.522 E7.43559
G1 X100.139 Y107.852 E7.44917
G1 X100.336 Y107.2 E7.46276
G1 X100.608 Y106.576 E7.47634
G1 X100.952 Y105.988 E7.48994
G1 X101.362 Y105.444 E7.50353
G1 X101.833 Y104.953 E7.51711
G0 F6000 X102.225 Y105.137
G1 F1200 X102.745 Y104.736 E7.53021
G1 X103.309 Y104.4 E7.54332
G1 X103.911 Y104.136 E7.55643
G1 X104.54 Y103.946 E7.56955
G1 X105.187 Y103.835 E7.58265
G1 X105.78 Y103.802 E7.5945
G1 X114.221 Y103.802 E7.76295
G1 X114.877 Y103.842 E7.77606
G1 X115.523 Y103.961 E7.78917
G1 X116.15 Y104.158 E7.80229
G1 X116.748 Y104.43 E7.8154
G1 X117.309 Y104.772 E7.82851
G1 X117.824 Y105.18 E7.84162
G1 X118.286 Y105.647 E7.85473
G1 X118.687 Y106.167 E7.86784
G1 X119.023 Y106.731 E7.88094
G1 X119.287 Y107.333 E7.89405
G1 X119.477 Y107.962 E7.90717
G1 X119.588 Y108.609 E7.92027
G1 X119.621 Y109.213 E7.93234
G1 X119.619 Y110.22 E7.95243
G1 X119.62 Y110.792 E7.96385
G1 X119.581 Y111.448 E7.97696
G1 X119.463 Y112.094 E7.99007
G1 X119.267 Y112.721 E8.00318
G1 X118.997 Y113.32 E8.01629
G1 X118.655 Y113.881 E8.0294
G1 X118.249 Y114.397 E8.0425
G1 X117.782 Y114.86 E8.05563
G1 X117.263 Y115.262 E8.06873
G1 X116.699 Y115.599 E8.08184
G1 X116.098 Y115.864 E8.09495
G1 X115.469 Y116.055 E8.10807
G1 X114.822 Y116.167 E8.12117
G1 X114.219 Y116.201 E8.13322
G1 X105.78 Y116.199 E8.30163
G1 X105.124 Y116.159 E8.31475
G1 X104.478 Y116.039 E8.32786
G1 X103.851 Y115.842 E8.34098
G1 X103.253 Y115.571 E8.35408
G1 X102.692 Y115.228 E8.3672
G1 X102.177 Y114.821 E8.3803
G1 X101.716 Y114.353 E8.39341
G1 X101.314 Y113.833 E8.40652
G1 X100.979 Y113.268 E8.41963
G1 X100.714 Y112.667 E8.43274
G1 X100.525 Y112.038 E8.44585
G1 X100.413 Y111.39 E8.45897
G1 X100.381 Y110.794 E8.47088
G1 X100.381 Y109.8 E8.49072
G1 X100.38 Y109.202 E8.50265
G1 X100.42 Y108.546 E8.51577
G1 X100.539 Y107.9 E8.52888
G1 X100.736 Y107.273 E8.54199
G1 X101.008 Y106.675 E8.5551
G1 X101.35 Y106.114 E8.56821
G1 X101.758 Y105.599 E8.58132
G1 X102.225 Y105.137 E8.59443
G0 F6000 X102.153 Y105.761
G1 F1200 X102.616 Y105.331 E8.60704
G1 X103.13 Y104.962 E8.61967
G1 X103.686 Y104.662 E8.63228
G1 X104.275 Y104.434 E8.64488
G1 X104.889 Y104.282 E8.65751
G1 X105.78 Y104.202 E8.67536
G1 X114.221 Y104.202 E8.84381
G1 X114.852 Y104.242 E8.85642
G1 X115.473 Y104.361 E8.86904
G1 X116.073 Y104.558 E8.88165
G1 X116.645 Y104.829 E8.89428
G1 X117.177 Y105.169 E8.90688
G1 X117.662 Y105.575 E8.9195
G1 X118.092 Y106.038 E8.93211
G1 X118.461 Y106.552 E8.94474
G1 X118.761 Y107.108 E8.95734
G1 X118.989 Y107.697 E8.96995
G1 X119.141 Y108.311 E8.98257
G1 X119.221 Y109.212 E9.00062
G1 X119.219 Y110.219 E9.02072
G1 X119.22 Y110.793 E9.03217
G1 X119.181 Y111.423 E9.04477
G1 X119.063 Y112.044 E9.05738
G1 X118.867 Y112.646 E9.07002
G1 X118.597 Y113.217 E9.08262
G1 X118.258 Y113.75 E9.09523
G1 X117.853 Y114.236 E9.10785
G1 X117.391 Y114.667 E9.12046
G1 X116.878 Y115.036 E9.13307
G1 X116.322 Y115.338 E9.1457
G1 X115.733 Y115.567 E9.15831
G1 X115.119 Y115.719 E9.17093
G1 X114.219 Y115.801 E9.18897
G1 X105.78 Y115.799 E9.35738
G1 X105.149 Y115.759 E9.36999
G1 X104.528 Y115.64 E9.38261
G1 X103.927 Y115.443 E9.39523
G1 X103.356 Y115.172 E9.40785
G1 X102.824 Y114.831 E9.42046
G1 X102.339 Y114.426 E9.43307
G1 X101.909 Y113.962 E9.44569
G1 X101.541 Y113.448 E9.45831
G1 X101.24 Y112.892 E9.47092
G1 X101.012 Y112.303 E9.48353
G1 X100.861 Y111.689 E9.49615
G1 X100.781 Y110.794 E9.51408
G1 X100.781 Y109.792 E9.53407
G1 X100.78 Y109.202 E9.54585
G1 X100.82 Y108.571 E9.55847
G1 X100.939 Y107.95 E9.57108
G1 X101.136 Y107.35 E9.58369
G1 X101.407 Y106.778 E9.59632
G1 X101.747 Y106.246 E9.60892
G1 X102.153 Y105.761 E9.62154
G0 F6000 X102.547 Y105.93
G1 F1200 X103.005 Y105.533 E9.63364
G1 X103.512 Y105.2 E9.64574
G1 X104.058 Y104.936 E9.65784
G1 X104.634 Y104.747 E9.66994
G1 X105.23 Y104.635 E9.68204
G1 X105.78 Y104.602 E9.69304
