;FLAVOR:Marlin
;TIME:1428
;Filament used: 0.750812m
;Layer height: 0.2
;MINX:65.013
;MINY:44.605
;MINZ:0.2
;MAXX:152
;MAXY:151.5
;MAXZ:2.4
;Generated with Cura_SteamEngine 4.7.0
M140 S60
M105
M190 S60
M104 S200
M105
M109 S200
M82 ;absolute extrusion mode
; Ender 3 Custom Start G-code
G92 E0 ; Reset Extruder
G28 ; Home all axes
G1 Z2.0 F3000 ; Move Z Axis up little to prevent scratching of Heat Bed
G1 X0.1 Y20 Z0.3 F5000.0 ; Move to start position
G1 X0.1 Y200.0 Z0.3 F1500.0 E15 ; Draw the first line
G1 X0.4 Y200.0 Z0.3 F5000.0 ; Move to side a little
G1 X0.4 Y20 Z0.3 F1500.0 E30 ; Draw the second line
G92 E0 ; Reset Extruder
G1 Z2.0 F3000 ; Move Z Axis up little to prevent scratching of Heat Bed
G1 X5 Y20 Z0.3 F5000.0 ; Move over to prevent blob squish
G92 E0
G92 E0
G1 F1500 E-6.5
;LAYER_COUNT:12
;LAYER:0
M107
G0 F6000 X97.906 Y50.239 Z0.2
;TYPE:SKIRT
G1 F1500 E0
G1 F1200 X98.399 Y49.441 E0.0312
G1 X98.958 Y48.688 E0.06239
G1 X99.579 Y47.985 E0.09359
G1 X100.258 Y47.338 E0.12478
G1 X100.989 Y46.751 E0.15596
G1 X101.768 Y46.228 E0.18717
G1 X102.588 Y45.774 E0.21835
G1 X103.444 Y45.391 E0.24954
G1 X104.33 Y45.083 E0.28074
G1 X105.239 Y44.851 E0.31194
G1 X106.164 Y44.697 E0.34313
G1 X107.163 Y44.62 E0.37645
G1 X107.486 Y44.61 E0.3872
G1 X107.826 Y44.605 E0.39851
G1 X109.246 Y44.606 E0.44574
G1 X109.947 Y44.616 E0.46906
G1 X110.883 Y44.669 E0.50024
G1 X111.812 Y44.802 E0.53145
G1 X112.725 Y45.014 E0.56263
G1 X113.618 Y45.302 E0.59383
G1 X114.482 Y45.666 E0.62502
G1 X115.313 Y46.102 E0.65623
G1 X116.103 Y46.607 E0.68741
G1 X116.847 Y47.177 E0.71859
G1 X117.54 Y47.809 E0.74978
G1 X118.177 Y48.498 E0.78099
G1 X118.753 Y49.238 E0.81218
G1 X119.264 Y50.025 E0.84339
G1 X119.705 Y50.852 E0.87456
G1 X120.075 Y51.714 E0.90576
G1 X120.251 Y52.221 E0.92361
G1 X121.099 Y54.727 E1.01161
G1 X121.989 Y57.129 E1.09681
G1 X122.925 Y59.451 E1.18007
G1 X123.926 Y61.745 E1.26332
G1 X125.007 Y64.045 E1.34785
G1 X126.137 Y66.281 E1.43117
G1 X127.33 Y68.484 E1.5145
G1 X128.589 Y70.661 E1.59814
G1 X129.917 Y72.814 E1.68228
G1 X131.296 Y74.916 E1.76589
G1 X132.735 Y76.977 E1.8495
G1 X134.247 Y79.017 E1.93395
G1 X135.778 Y80.967 E2.01641
G1 X137.41 Y82.928 E2.10127
G1 X139.063 Y84.802 E2.18438
G1 X140.791 Y86.657 E2.2687
G1 X142.567 Y88.455 E2.35276
G1 X142.695 Y88.582 E2.35875
G1 X143.332 Y89.271 E2.38996
G1 X143.908 Y90.011 E2.42115
G1 X144.419 Y90.797 E2.45233
G1 X144.861 Y91.624 E2.48352
G1 X145.094 Y92.143 E2.50244
G1 X145.271 Y92.569 E2.51779
G1 X145.997 Y94.37 E2.58237
G1 X147.009 Y96.693 E2.66665
G1 X148.06 Y98.929 E2.74882
G1 X149.204 Y101.197 E2.83331
G1 X149.884 Y102.443 E2.88052
G1 X150.545 Y103.683 E2.92726
G1 X150.95 Y104.528 E2.95843
G1 X151.282 Y105.405 E2.98962
G1 X151.549 Y106.353 E3.02237
G1 X151.614 Y106.64 E3.03216
G1 X151.672 Y106.912 E3.04141
G1 X151.73 Y107.201 E3.05121
G1 X151.806 Y107.611 E3.06508
G1 X151.937 Y108.54 E3.09629
G1 X151.982 Y109.185 E3.11779
G1 X151.991 Y109.511 E3.12864
G1 X152 Y110.232 E3.15262
G1 X151.999 Y121.08 E3.51343
G1 X151.988 Y121.79 E3.53705
G1 X151.933 Y122.727 E3.56826
G1 X151.867 Y123.254 E3.58593
G1 X151.804 Y123.634 E3.59874
G1 X151.748 Y123.94 E3.60909
G1 X151.683 Y124.27 E3.62027
G1 X151.593 Y124.689 E3.63453
G1 X151.357 Y125.597 E3.66573
G1 X151.044 Y126.481 E3.69692
G1 X150.658 Y127.336 E3.72812
G1 X150.096 Y128.319 E3.76578
G1 X149.908 Y128.612 E3.77736
G1 X149.702 Y128.921 E3.78971
G1 X149.459 Y129.273 E3.80394
G1 X148.894 Y130.022 E3.83515
G1 X148.267 Y130.719 E3.86633
G1 X147.583 Y131.361 E3.89753
G1 X146.897 Y131.905 E3.92665
G1 X146.556 Y132.148 E3.94058
G1 X146.345 Y132.292 E3.94907
G1 X146.156 Y132.418 E3.95663
G1 X145.776 Y132.666 E3.97172
G1 X144.969 Y133.144 E4.00292
G1 X144.368 Y133.444 E4.02526
G1 X143.829 Y133.692 E4.04499
G1 X142.166 Y134.435 E4.10557
G1 X139.902 Y135.524 E4.18913
G1 X137.705 Y136.657 E4.27135
G1 X135.462 Y137.895 E4.35656
G1 X133.317 Y139.163 E4.43944
G1 X131.149 Y140.524 E4.52457
G1 X129.08 Y141.91 E4.6074
G1 X127.016 Y143.376 E4.69161
G1 X125.017 Y144.884 E4.77489
G1 X123.044 Y146.461 E4.8589
G1 X121.098 Y148.111 E4.94376
G1 X120.779 Y148.394 E4.95794
G1 X120.639 Y148.516 E4.96412
G1 X120.265 Y148.837 E4.98051
G1 X119.528 Y149.417 E5.0117
G1 X118.744 Y149.932 E5.0429
G1 X117.92 Y150.378 E5.07406
G1 X117.06 Y150.753 E5.10527
G1 X116.171 Y151.053 E5.13648
G1 X115.26 Y151.276 E5.16767
G1 X114.333 Y151.421 E5.19888
G1 X113.438 Y151.485 E5.22872
G1 X113.112 Y151.495 E5.23957
G1 X112.775 Y151.5 E5.25078
G1 X107.657 Y151.499 E5.421
G1 X106.954 Y151.489 E5.44439
G1 X106.017 Y151.436 E5.4756
G1 X105.089 Y151.303 E5.50678
G1 X104.175 Y151.091 E5.53799
G1 X103.283 Y150.803 E5.56917
G1 X102.418 Y150.439 E5.60038
G1 X101.588 Y150.003 E5.63156
G1 X100.797 Y149.498 E5.66278
G1 X99.855 Y148.758 E5.70262
G1 X99.581 Y148.516 E5.71478
G1 X97.921 Y147.013 E5.78926
G1 X96.036 Y145.4 E5.87177
G1 X94.027 Y143.779 E5.95763
G1 X92.034 Y142.262 E6.04094
G1 X90 Y140.801 E6.12423
G1 X87.916 Y139.394 E6.20787
G1 X85.792 Y138.044 E6.29157
G1 X83.628 Y136.755 E6.37535
G1 X81.408 Y135.514 E6.45994
G1 X79.204 Y134.364 E6.54262
G1 X76.882 Y133.235 E6.6285
G1 X75.896 Y132.783 E6.66457
G1 X75.559 Y132.622 E6.677
G1 X75.459 Y132.572 E6.68071
G1 X74.929 Y132.289 E6.7007
G1 X74.238 Y131.895 E6.72715
G1 X73.926 Y131.71 E6.73922
G1 X73.804 Y131.635 E6.74398
G1 X73.268 Y131.284 E6.76529
G1 X73.056 Y131.136 E6.77389
G1 X72.672 Y130.855 E6.78972
G1 X72.379 Y130.631 E6.80198
G1 X71.836 Y130.188 E6.82529
G1 X71.24 Y129.669 E6.85158
G1 X70.943 Y129.4 E6.86491
G1 X70.816 Y129.281 E6.87069
G1 X70.379 Y128.848 E6.89116
G1 X70.212 Y128.673 E6.8992
G1 X69.903 Y128.336 E6.91441
G1 X69.666 Y128.066 E6.92636
G1 X69.238 Y127.547 E6.94873
G1 X68.756 Y126.925 E6.9749
G1 X68.52 Y126.608 E6.98805
G1 X68.41 Y126.455 E6.99432
G1 X68.063 Y125.943 E7.01489
G1 X67.949 Y125.764 E7.02195
G1 X67.703 Y125.359 E7.03771
G1 X67.51 Y125.025 E7.05054
G1 X67.184 Y124.418 E7.07345
G1 X66.84 Y123.726 E7.09916
G1 X66.419 Y122.766 E7.13402
G1 X66.13 Y122.012 E7.16088
G1 X65.981 Y121.599 E7.17548
G1 X65.935 Y121.463 E7.18026
G1 X65.762 Y120.905 E7.19969
G1 X65.699 Y120.68 E7.20746
G1 X65.556 Y120.111 E7.22697
G1 X65.532 Y120.005 E7.23059
G1 X65.487 Y119.822 E7.23686
G1 X65.326 Y119.058 E7.26282
G1 X65.288 Y118.839 E7.27022
G1 X65.223 Y118.414 E7.28452
G1 X65.197 Y118.219 E7.29106
G1 X65.161 Y117.969 E7.29946
G1 X65.09 Y117.349 E7.32022
G1 X65.06 Y116.959 E7.33323
G1 X65.036 Y116.561 E7.34649
G1 X65.019 Y116.134 E7.3607
G1 X65.013 Y115.853 E7.37005
G1 X65.016 Y115.26 E7.38977
G1 X65.028 Y114.891 E7.40205
G1 X65.044 Y114.558 E7.41314
G1 X65.069 Y114.161 E7.42637
G1 X65.101 Y113.768 E7.43949
G1 X65.111 Y113.667 E7.44286
G1 X65.207 Y112.938 E7.46732
G1 X65.345 Y112.112 E7.49517
G1 X65.57 Y111.079 E7.53033
G1 X65.81 Y110.183 E7.56119
G1 X65.915 Y109.815 E7.57391
G1 X66.025 Y109.455 E7.58643
G1 X66.744 Y106.98 E7.67216
G1 X67.377 Y104.546 E7.7558
G1 X67.94 Y102.1 E7.83929
G1 X68.444 Y99.58 E7.92476
G1 X68.868 Y97.105 E8.00828
G1 X69.044 Y95.986 E8.04596
G1 X69.229 Y95.066 E8.07717
G1 X69.492 Y94.166 E8.10835
G1 X69.831 Y93.292 E8.13953
G1 X70.243 Y92.449 E8.17074
G1 X70.725 Y91.645 E8.20192
G1 X71.274 Y90.884 E8.23313
G1 X71.886 Y90.173 E8.26433
G1 X72.413 Y89.649 E8.28905
G1 X74.357 Y87.839 E8.37739
G1 X76.152 Y86.067 E8.46129
G1 X77.909 Y84.233 E8.54576
G1 X79.6 Y82.366 E8.62954
G1 X81.205 Y80.488 E8.71171
G1 X82.817 Y78.492 E8.79704
G1 X84.326 Y76.509 E8.87992
G1 X85.791 Y74.469 E8.96345
G1 X87.208 Y72.372 E9.04763
G1 X88.554 Y70.252 E9.13115
G1 X89.844 Y68.089 E9.21492
G1 X91.081 Y65.875 E9.29927
G1 X92.242 Y63.65 E9.38274
G1 X93.337 Y61.401 E9.46594
G1 X94.382 Y59.089 E9.55033
G1 X95.33 Y56.827 E9.6319
G1 X96.26 Y54.414 E9.71791
G1 X97.133 Y51.946 E9.80498
G1 X97.483 Y51.076 E9.83617
G1 X97.906 Y50.239 E9.86737
G0 F6000 X98.272 Y50.405
G1 F1200 X98.758 Y49.624 E9.89796
G1 X99.311 Y48.888 E9.92858
G1 X99.926 Y48.202 E9.95922
G1 X100.598 Y47.573 E9.98984
G1 X101.322 Y47.004 E10.02046
G1 X102.092 Y46.5 E10.05107
G1 X102.903 Y46.065 E10.08168
G1 X103.75 Y45.702 E10.11233
G1 X104.624 Y45.414 E10.14294
G1 X105.52 Y45.202 E10.17356
G1 X106.431 Y45.069 E10.20418
G1 X107.175 Y45.02 E10.22898
G1 X107.498 Y45.01 E10.23973
G1 X107.826 Y45.005 E10.25064
G1 X109.089 Y45.005 E10.29265
G1 X109.941 Y45.016 E10.32099
G1 X110.86 Y45.069 E10.35161
G1 X111.771 Y45.202 E10.38223
G1 X112.667 Y45.413 E10.41284
G1 X113.542 Y45.701 E10.44348
G1 X114.388 Y46.064 E10.4741
G1 X115.199 Y46.499 E10.50471
G1 X115.97 Y47.003 E10.53535
G1 X116.694 Y47.572 E10.56597
G1 X117.366 Y48.201 E10.59659
G1 X117.981 Y48.886 E10.62721
G1 X118.534 Y49.622 E10.65783
G1 X119.021 Y50.404 E10.68847
G1 X119.438 Y51.224 E10.71906
G1 X119.87 Y52.35 E10.75918
G1 X119.872 Y52.349 E10.75925
G1 X119.898 Y52.423 E10.76186
G1 X119.911 Y52.465 E10.76332
G1 X120.732 Y54.889 E10.84844
G1 X121.602 Y57.238 E10.93176
G1 X122.563 Y59.624 E11.01731
G1 X123.561 Y61.91 E11.10027
G1 X124.646 Y64.217 E11.18507
G1 X125.764 Y66.431 E11.26756
G1 X126.99 Y68.695 E11.35319
G1 X128.261 Y70.892 E11.43761
G1 X129.575 Y73.022 E11.52085
G1 X130.96 Y75.135 E11.60488
G1 X132.418 Y77.222 E11.68956
G1 X133.909 Y79.235 E11.77288
G1 X135.489 Y81.246 E11.85794
G1 X137.101 Y83.183 E11.94175
G1 X138.771 Y85.076 E12.02572
G1 X140.497 Y86.928 E12.10992
G1 X142.285 Y88.739 E12.19456
G1 X142.413 Y88.866 E12.20056
G1 X143.038 Y89.543 E12.2312
G1 X143.601 Y90.27 E12.26179
G1 X144.1 Y91.044 E12.29242
G1 X144.529 Y91.859 E12.32305
G1 X144.725 Y92.297 E12.33901
G1 X144.846 Y92.586 E12.34943
G1 X145.63 Y94.531 E12.41918
G1 X146.638 Y96.845 E12.50313
G1 X147.72 Y99.144 E12.58764
G1 X148.834 Y101.354 E12.66995
G1 X149.531 Y102.631 E12.71834
G1 X150.192 Y103.871 E12.76508
G1 X150.589 Y104.701 E12.79568
G1 X150.913 Y105.563 E12.82631
G1 X151.16 Y106.444 E12.85674
G1 X151.223 Y106.723 E12.86625
G1 X151.281 Y106.995 E12.8755
G1 X151.336 Y107.274 E12.88496
G1 X151.412 Y107.684 E12.89883
G1 X151.541 Y108.596 E12.92947
G1 X151.582 Y109.201 E12.94963
G1 X151.591 Y109.517 E12.96015
G1 X151.6 Y110.232 E12.98393
G1 X151.599 Y121.074 E13.34454
G1 X151.588 Y121.784 E13.36816
G1 X151.534 Y122.703 E13.39877
G1 X151.471 Y123.196 E13.4153
G1 X151.411 Y123.562 E13.42764
G1 X151.355 Y123.868 E13.43799
G1 X151.292 Y124.186 E13.44877
G1 X151.202 Y124.605 E13.46302
G1 X150.969 Y125.496 E13.49365
G1 X150.661 Y126.363 E13.52426
G1 X150.278 Y127.201 E13.5549
G1 X149.759 Y128.103 E13.58951
G1 X149.571 Y128.396 E13.60109
G1 X149.373 Y128.694 E13.61299
G1 X149.13 Y129.046 E13.62722
G1 X148.575 Y129.78 E13.65783
G1 X147.958 Y130.463 E13.68844
G1 X147.284 Y131.091 E13.71908
G1 X146.661 Y131.582 E13.74546
G1 X146.33 Y131.817 E13.75896
G1 X145.937 Y132.083 E13.77475
G1 X145.557 Y132.331 E13.78984
G1 X144.765 Y132.8 E13.82045
G1 X144.2 Y133.081 E13.84144
G1 X143.666 Y133.327 E13.861
G1 X142.008 Y134.067 E13.92138
G1 X139.695 Y135.18 E14.00676
G1 X137.535 Y136.294 E14.08759
G1 X135.271 Y137.544 E14.17361
G1 X133.079 Y138.84 E14.2583
G1 X130.944 Y140.181 E14.34216
G1 X128.847 Y141.584 E14.42608
G1 X126.789 Y143.047 E14.51006
G1 X124.749 Y144.585 E14.59503
G1 X122.802 Y146.142 E14.67795
G1 X120.855 Y147.792 E14.76283
G1 X120.514 Y148.095 E14.77801
G1 X120.379 Y148.213 E14.78397
G1 X120.005 Y148.534 E14.80036
G1 X119.281 Y149.102 E14.83097
G1 X118.51 Y149.606 E14.86161
G1 X117.699 Y150.041 E14.89222
G1 X116.853 Y150.404 E14.92283
G1 X115.978 Y150.692 E14.95347
G1 X115.082 Y150.903 E14.98409
G1 X114.171 Y151.036 E15.01471
G1 X113.426 Y151.085 E15.03954
G1 X113.1 Y151.095 E15.05039
G1 X112.775 Y151.1 E15.0612
G1 X107.662 Y151.099 E15.23126
G1 X106.959 Y151.089 E15.25464
G1 X106.04 Y151.036 E15.28526
G1 X105.129 Y150.903 E15.31588
G1 X104.233 Y150.692 E15.3465
G1 X103.359 Y150.404 E15.37711
G1 X102.512 Y150.041 E15.40776
G1 X101.701 Y149.606 E15.43836
G1 X100.93 Y149.102 E15.469
G1 X100.118 Y148.457 E15.50349
G1 X99.85 Y148.22 E15.51539
G1 X98.184 Y146.712 E15.59013
G1 X96.281 Y145.083 E15.67345
G1 X94.297 Y143.482 E15.75824
G1 X92.271 Y141.94 E15.84292
G1 X90.205 Y140.456 E15.92753
G1 X88.149 Y139.068 E16.01004
G1 X85.99 Y137.696 E16.09512
G1 X83.808 Y136.396 E16.17959
G1 X81.624 Y135.176 E16.2628
G1 X79.386 Y134.007 E16.34678
G1 X77.081 Y132.886 E16.43203
G1 X76.063 Y132.42 E16.46927
G1 X75.738 Y132.264 E16.48126
G1 X75.638 Y132.214 E16.48498
G1 X75.128 Y131.941 E16.50422
G1 X74.437 Y131.547 E16.53067
G1 X74.136 Y131.369 E16.5423
G1 X74.014 Y131.294 E16.54707
G1 X73.497 Y130.956 E16.56761
G1 X73.285 Y130.808 E16.57621
G1 X72.915 Y130.537 E16.59146
G1 X72.622 Y130.313 E16.60373
G1 X72.099 Y129.886 E16.62619
G1 X71.503 Y129.367 E16.65247
G1 X71.216 Y129.108 E16.66533
G1 X71.089 Y128.989 E16.67112
G1 X70.668 Y128.572 E16.69083
G1 X70.501 Y128.397 E16.69887
G1 X70.204 Y128.072 E16.71352
G1 X69.967 Y127.802 E16.72547
G1 X69.554 Y127.302 E16.74704
G1 X69.072 Y126.68 E16.77321
G1 X68.844 Y126.375 E16.78587
G1 X68.734 Y126.222 E16.79214
G1 X68.4 Y125.728 E16.81197
G1 X68.286 Y125.549 E16.81903
G1 X68.049 Y125.158 E16.83424
G1 X67.856 Y124.824 E16.84707
G1 X67.542 Y124.24 E16.86912
G1 X67.198 Y123.548 E16.89483
G1 X66.792 Y122.623 E16.92843
G1 X66.503 Y121.869 E16.95528
G1 X66.36 Y121.471 E16.96935
G1 X66.314 Y121.335 E16.97412
G1 X66.148 Y120.797 E16.99285
G1 X66.085 Y120.572 E17.00062
G1 X65.947 Y120.024 E17.01942
G1 X65.93 Y119.949 E17.02197
G1 X65.875 Y119.726 E17.02961
G1 X65.72 Y118.989 E17.05466
G1 X65.682 Y118.77 E17.06206
G1 X65.619 Y118.361 E17.07582
G1 X65.585 Y118.107 E17.08434
G1 X65.557 Y117.912 E17.0909
G1 X65.488 Y117.315 E17.11088
G1 X65.479 Y117.211 E17.11436
G1 X65.459 Y116.935 E17.12356
G1 X65.435 Y116.537 E17.13682
G1 X65.418 Y116.125 E17.15054
G1 X65.412 Y115.844 E17.15988
G1 X65.416 Y115.273 E17.17888
G1 X65.428 Y114.904 E17.19116
G1 X65.443 Y114.583 E17.20184
G1 X65.468 Y114.186 E17.21507
G1 X65.499 Y113.808 E17.22769
G1 X65.509 Y113.707 E17.23106
G1 X65.602 Y113.004 E17.25465
G1 X65.74 Y112.178 E17.2825
G1 X65.956 Y111.182 E17.3164
G1 X66.196 Y110.286 E17.34725
G1 X66.297 Y109.932 E17.3595
G1 X66.425 Y109.513 E17.37407
G1 X67.127 Y107.096 E17.45778
G1 X67.77 Y104.623 E17.54277
G1 X68.336 Y102.164 E17.62669
G1 X68.83 Y99.69 E17.7106
G1 X69.262 Y97.169 E17.79567
G1 X69.439 Y96.048 E17.83342
G1 X69.622 Y95.146 E17.86403
G1 X69.882 Y94.263 E17.89465
G1 X70.218 Y93.405 E17.92529
G1 X70.627 Y92.581 E17.95589
G1 X71.106 Y91.794 E17.98653
G1 X71.652 Y91.053 E18.01715
G1 X72.259 Y90.361 E18.04776
G1 X72.686 Y89.941 E18.06768
G1 X74.628 Y88.133 E18.15594
G1 X76.457 Y86.328 E18.2414
G1 X78.194 Y84.515 E18.32491
G1 X79.886 Y82.646 E18.40877
G1 X81.519 Y80.736 E18.49235
G1 X83.131 Y78.739 E18.57771
G1 X84.654 Y76.739 E18.66132
G1 X86.131 Y74.68 E18.7456
G1 X87.534 Y72.605 E18.82891
G1 X88.903 Y70.45 E18.91382
G1 X90.194 Y68.284 E18.99769
G1 X91.427 Y66.077 E19.08177
G1 X92.585 Y63.86 E19.16496
G1 X93.717 Y61.534 E19.251
G1 X94.739 Y59.273 E19.33353
G1 X95.713 Y56.947 E19.4174
G1 X96.628 Y54.574 E19.50199
G1 X97.51 Y52.08 E19.58998
G1 X97.854 Y51.226 E19.6206
G1 X98.272 Y50.405 E19.65124
G0 F6000 X98.637 Y50.572
G1 F1200 X99.118 Y49.807 E19.6813
G1 X99.664 Y49.089 E19.7113
G1 X100.272 Y48.421 E19.74134
G1 X100.937 Y47.809 E19.7714
G1 X101.653 Y47.259 E19.80143
G1 X102.415 Y46.775 E19.83145
G1 X103.217 Y46.359 E19.8615
G1 X104.053 Y46.016 E19.89156
G1 X104.915 Y45.749 E19.92157
G1 X105.798 Y45.559 E19.95161
G1 X106.694 Y45.447 E19.98165
G1 X107.187 Y45.42 E19.99807
G1 X107.51 Y45.41 E20.00882
G1 X107.826 Y45.405 E20.01933
G1 X109.089 Y45.405 E20.06133
G1 X109.935 Y45.416 E20.08948
G1 X110.837 Y45.469 E20.11953
G1 X111.73 Y45.601 E20.14955
G1 X112.609 Y45.812 E20.17962
G1 X113.465 Y46.1 E20.20966
G1 X114.292 Y46.462 E20.23968
G1 X115.084 Y46.896 E20.26972
G1 X115.834 Y47.399 E20.29976
G1 X116.537 Y47.966 E20.3298
G1 X117.187 Y48.592 E20.35981
G1 X117.78 Y49.274 E20.38987
G1 X118.309 Y50.006 E20.41991
G1 X118.772 Y50.781 E20.44993
G1 X119.164 Y51.595 E20.47998
G1 X119.517 Y52.543 E20.51363
G1 X119.54 Y52.616 E20.51618
G1 X120.354 Y55.019 E20.60056
G1 X121.232 Y57.39 E20.68465
G1 X122.185 Y59.755 E20.76946
G1 X123.204 Y62.091 E20.85423
