;FLAVOR:Marlin
;TIME:1771
;Filament used: 0.443987m
;Layer height: 0.12
;MINX:103.634
;MINY:99.375
;MINZ:0.2
;MAXX:135.634
;MAXY:135.625
;MAXZ:17.12
;Generated with Cura_SteamEngine 4.6.2
M140 S60
M105
M190 S60
M104 S200
M105
M109 S200
M82 ;absolute extrusion mode
; Ender 3 Custom Start G-code
G92 E0 ; Reset Extruder
G28 ; Home all axes
G1 Z2.0 F3000 ; Move Z Axis up little to prevent scratching of Heat Bed
G1 X0.1 Y20 Z0.3 F5000.0 ; Move to start position
G1 X0.1 Y200.0 Z0.3 F1500.0 E15 ; Draw the first line
G1 X0.4 Y200.0 Z0.3 F5000.0 ; Move to side a little
G1 X0.4 Y20 Z0.3 F1500.0 E30 ; Draw the second line
G92 E0 ; Reset Extruder
G1 Z2.0 F3000 ; Move Z Axis up little to prevent scratching of Heat Bed
G1 X5 Y20 Z0.3 F5000.0 ; Move over to prevent blob squish
G92 E0
G92 E0
G1 F1500 E-6
;LAYER_COUNT:145
;LAYER:0
M107
M204 S500
M205 X8 Y8
G0 F7500 X128.152 Y131.768 Z0.2
;TYPE:SKIRT
G1 F1500 E0
G1 X127.491 Y132.382 E0.02851
G1 X126.777 Y132.936 E0.05706
G1 X126.018 Y133.425 E0.08559
G1 X125.218 Y133.845 E0.11414
G1 X124.385 Y134.192 E0.14265
G1 X123.523 Y134.464 E0.17121
G1 X122.642 Y134.659 E0.19972
G1 X121.746 Y134.775 E0.22827
G1 X121.286 Y134.804 E0.24283
G1 X120.957 Y134.817 E0.25324
G1 X120.554 Y134.825 E0.26597
G1 X116.577 Y134.824 E0.39164
G1 X115.879 Y134.814 E0.41369
G1 X114.977 Y134.761 E0.44224
G1 X114.084 Y134.629 E0.47077
G1 X113.206 Y134.418 E0.4993
G1 X112.35 Y134.13 E0.52783
G1 X111.523 Y133.768 E0.55636
G1 X110.731 Y133.333 E0.58491
G1 X109.98 Y132.831 E0.61345
G1 X109.277 Y132.264 E0.64199
G1 X108.627 Y131.637 E0.67053
G1 X108.035 Y130.955 E0.69906
G1 X107.505 Y130.224 E0.72759
G1 X107.043 Y129.448 E0.75613
G1 X106.65 Y128.635 E0.78466
G1 X106.417 Y128.039 E0.80488
G1 X106.179 Y127.371 E0.82729
G1 X105.085 Y124.43 E0.92643
G1 X104.808 Y123.57 E0.95498
G1 X104.608 Y122.69 E0.9835
G1 X104.487 Y121.795 E1.01203
G1 X104.451 Y121.215 E1.03039
G1 X104.44 Y120.886 E1.0408
G1 X104.434 Y120.536 E1.05186
G1 X104.439 Y115.232 E1.21945
G1 X104.434 Y114.524 E1.24182
G1 X104.435 Y110.911 E1.35598
G1 X104.444 Y110.246 E1.37699
G1 X104.496 Y109.344 E1.40554
G1 X104.628 Y108.451 E1.43406
G1 X104.838 Y107.573 E1.46259
G1 X105.125 Y106.716 E1.49115
G1 X105.487 Y105.889 E1.51967
G1 X105.92 Y105.097 E1.54819
G1 X106.422 Y104.346 E1.57673
G1 X106.989 Y103.642 E1.6053
G1 X107.615 Y102.992 E1.63381
G1 X108.296 Y102.399 E1.66234
G1 X109.028 Y101.869 E1.6909
G1 X109.803 Y101.406 E1.71942
G1 X110.616 Y101.013 E1.74795
G1 X111.461 Y100.693 E1.7765
G1 X112.33 Y100.45 E1.80502
G1 X113.218 Y100.284 E1.83356
G1 X114.357 Y100.188 E1.86968
G1 X114.964 Y100.175 E1.88886
G1 X118.153 Y100.175 E1.98962
G1 X120.028 Y100.182 E2.04887
G1 X120.916 Y100.175 E2.07693
G1 X124.073 Y100.176 E2.17668
G1 X124.771 Y100.186 E2.19874
G1 X125.673 Y100.239 E2.22729
G1 X126.566 Y100.371 E2.25581
G1 X127.444 Y100.582 E2.28434
G1 X128.3 Y100.87 E2.31288
G1 X129.127 Y101.232 E2.3414
G1 X129.919 Y101.667 E2.36995
G1 X130.67 Y102.169 E2.3985
G1 X131.373 Y102.736 E2.42703
G1 X132.023 Y103.363 E2.45557
G1 X132.615 Y104.045 E2.48411
G1 X133.145 Y104.776 E2.51264
G1 X133.607 Y105.552 E2.54117
G1 X134 Y106.365 E2.5697
G1 X134.318 Y107.21 E2.59823
G1 X134.561 Y108.08 E2.62677
G1 X134.726 Y108.968 E2.65531
G1 X134.821 Y110.098 E2.69114
G1 X134.834 Y110.714 E2.71061
G1 X134.829 Y116.018 E2.8782
G1 X134.834 Y116.726 E2.90057
G1 X134.833 Y120.291 E3.01322
G1 X134.823 Y121.008 E3.03587
G1 X134.77 Y121.91 E3.06442
G1 X134.638 Y122.803 E3.09295
G1 X134.428 Y123.681 E3.12147
G1 X134.14 Y124.538 E3.15004
G1 X133.778 Y125.365 E3.17856
G1 X133.344 Y126.157 E3.2071
G1 X132.842 Y126.908 E3.23564
G1 X132.276 Y127.611 E3.26416
G1 X131.744 Y128.17 E3.28854
G1 X131.348 Y128.556 E3.30602
G1 X129.501 Y130.378 E3.38799
G1 X128.881 Y131.026 E3.41633
G1 X128.712 Y131.198 E3.42395
G0 F1350 X128.152 Y131.768
G0 F7500 X128.437 Y132.048
G1 F1500 X127.763 Y132.676 E3.45306
G1 X127.038 Y133.242 E3.48212
G1 X126.266 Y133.744 E3.51122
G1 X125.453 Y134.176 E3.54031
G1 X124.606 Y134.537 E3.5694
G1 X123.73 Y134.822 E3.5985
G1 X122.834 Y135.031 E3.62758
G1 X121.922 Y135.161 E3.65668
G1 X121.302 Y135.204 E3.67632
G1 X120.973 Y135.217 E3.68672
G1 X120.554 Y135.225 E3.69997
G1 X116.571 Y135.224 E3.82582
G1 X115.873 Y135.214 E3.84787
G1 X114.954 Y135.161 E3.87696
G1 X114.043 Y135.028 E3.90605
G1 X113.147 Y134.817 E3.93514
G1 X112.273 Y134.529 E3.96421
G1 X111.426 Y134.166 E3.99333
G1 X110.615 Y133.731 E4.02241
G1 X109.845 Y133.227 E4.05149
G1 X109.121 Y132.658 E4.08058
G1 X108.449 Y132.028 E4.10969
G1 X107.834 Y131.343 E4.13877
G1 X107.281 Y130.607 E4.16786
G1 X106.794 Y129.826 E4.19695
G1 X106.377 Y129.005 E4.22604
G1 X106.04 Y128.173 E4.2544
G1 X105.799 Y127.496 E4.27711
G1 X104.71 Y124.569 E4.37579
G1 X104.427 Y123.693 E4.40488
G1 X104.221 Y122.796 E4.43396
G1 X104.093 Y121.884 E4.46306
G1 X104.051 Y121.228 E4.48383
G1 X104.04 Y120.899 E4.49423
G1 X104.034 Y120.535 E4.50573
G1 X104.039 Y115.235 E4.6732
G1 X104.034 Y114.527 E4.69557
G1 X104.035 Y110.906 E4.80998
G1 X104.044 Y110.241 E4.83099
G1 X104.096 Y109.321 E4.86011
G1 X104.228 Y108.41 E4.8892
G1 X104.439 Y107.514 E4.91828
G1 X104.726 Y106.639 E4.94738
G1 X105.089 Y105.793 E4.97647
G1 X105.523 Y104.981 E5.00556
G1 X106.026 Y104.21 E5.03464
G1 X106.595 Y103.486 E5.06374
G1 X107.223 Y102.814 E5.0928
G1 X107.908 Y102.198 E5.12191
G1 X108.644 Y101.645 E5.151
G1 X109.425 Y101.157 E5.1801
G1 X110.245 Y100.739 E5.20918
G1 X111.099 Y100.394 E5.23828
G1 X111.979 Y100.124 E5.26737
G1 X112.879 Y99.932 E5.29644
G1 X113.793 Y99.818 E5.32555
G1 X114.346 Y99.788 E5.34305
G1 X114.964 Y99.775 E5.36258
G1 X118.154 Y99.775 E5.46337
G1 X120.026 Y99.782 E5.52252
G1 X120.913 Y99.775 E5.55055
G1 X124.079 Y99.776 E5.65059
G1 X124.777 Y99.786 E5.67264
G1 X125.696 Y99.839 E5.70173
G1 X126.607 Y99.972 E5.73082
G1 X127.503 Y100.183 E5.75991
G1 X128.377 Y100.471 E5.78898
G1 X129.224 Y100.834 E5.8181
G1 X130.035 Y101.269 E5.84718
G1 X130.805 Y101.773 E5.87626
G1 X131.529 Y102.342 E5.90535
G1 X132.201 Y102.972 E5.93446
G1 X132.816 Y103.657 E5.96354
G1 X133.369 Y104.393 E5.99263
G1 X133.856 Y105.174 E6.02171
G1 X134.273 Y105.995 E6.05081
G1 X134.618 Y106.849 E6.07991
G1 X134.887 Y107.729 E6.10899
G1 X135.079 Y108.63 E6.1381
G1 X135.192 Y109.543 E6.16716
G1 X135.221 Y110.087 E6.18438
G1 X135.234 Y110.715 E6.20423
G1 X135.229 Y116.015 E6.37169
G1 X135.234 Y116.723 E6.39406
G1 X135.233 Y120.297 E6.50699
G1 X135.223 Y121.014 E6.52965
G1 X135.17 Y121.933 E6.55873
G1 X135.038 Y122.844 E6.58782
G1 X134.827 Y123.74 E6.6169
G1 X134.539 Y124.615 E6.64601
G1 X134.176 Y125.461 E6.6751
G1 X133.742 Y126.272 E6.70416
G1 X133.238 Y127.043 E6.73327
G1 X132.67 Y127.767 E6.76234
G1 X132.023 Y128.457 E6.79223
G1 X131.627 Y128.843 E6.8097
G1 X129.771 Y130.674 E6.89208
G1 X129.17 Y131.302 E6.91955
G1 X128.998 Y131.477 E6.9273
G0 F1350 X128.437 Y132.048
G1 F1500 E0.9273
G0 F7500 X125.287 Y109.722
G0 X120.91 Y99.375
G1 F1500 E6.9273
G1 X123.927 Y99.375 E7.02263
G1 X124.085 Y99.376 E7.02762
G1 X124.783 Y99.386 E7.04968
G1 X125.719 Y99.44 E7.0793
G1 X126.647 Y99.572 E7.10892
G1 X127.561 Y99.784 E7.13857
G1 X128.453 Y100.073 E7.16819
G1 X129.318 Y100.436 E7.19784
G1 X130.148 Y100.872 E7.22746
G1 X130.939 Y101.377 E7.25711
G1 X131.683 Y101.948 E7.28675
G1 X132.376 Y102.58 E7.31638
G1 X133.013 Y103.268 E7.34601
G1 X133.588 Y104.009 E7.37564
G1 X134.099 Y104.795 E7.40526
G1 X134.541 Y105.623 E7.43492
G1 X134.91 Y106.485 E7.46455
G1 X135.205 Y107.375 E7.49417
G1 X135.423 Y108.287 E7.5238
G1 X135.563 Y109.215 E7.55346
G1 X135.621 Y110.076 E7.58072
G1 X135.634 Y110.715 E7.60092
G1 X135.629 Y116.012 E7.76829
G1 X135.634 Y116.72 E7.79066
G1 X135.633 Y120.302 E7.90384
G1 X135.623 Y121.019 E7.9265
G1 X135.57 Y121.956 E7.95615
G1 X135.437 Y122.884 E7.98577
G1 X135.226 Y123.798 E8.01541
G1 X134.938 Y124.69 E8.04503
G1 X134.574 Y125.555 E8.07468
G1 X134.139 Y126.386 E8.10432
G1 X133.634 Y127.176 E8.13395
G1 X133.064 Y127.921 E8.16359
G1 X132.302 Y128.743 E8.199
G1 X131.906 Y129.129 E8.21648
G1 X130.058 Y130.953 E8.29852
G1 X129.353 Y131.688 E8.3307
G1 X128.722 Y132.329 E8.35912
G1 X128.036 Y132.968 E8.38874
G1 X127.298 Y133.547 E8.41838
G1 X126.514 Y134.061 E8.448
G1 X125.689 Y134.507 E8.47764
G1 X124.828 Y134.88 E8.50728
G1 X123.939 Y135.179 E8.53692
G1 X123.028 Y135.401 E8.56655
G1 X122.101 Y135.544 E8.59618
G1 X121.317 Y135.603 E8.62103
G1 X120.988 Y135.616 E8.63143
G1 X120.554 Y135.625 E8.64515
G1 X116.565 Y135.624 E8.77119
G1 X115.867 Y135.614 E8.79324
G1 X114.931 Y135.56 E8.82287
G1 X114.003 Y135.428 E8.85249
G1 X113.089 Y135.216 E8.88213
G1 X112.197 Y134.927 E8.91176
G1 X111.332 Y134.564 E8.9414
G1 X110.502 Y134.128 E8.97102
G1 X109.711 Y133.623 E9.00068
G1 X108.967 Y133.052 E9.03031
G1 X108.274 Y132.42 E9.05994
G1 X107.637 Y131.732 E9.08957
G1 X107.062 Y130.991 E9.11921
G1 X106.551 Y130.205 E9.14883
G1 X106.109 Y129.377 E9.17849
G1 X105.663 Y128.308 E9.21508
G1 X105.419 Y127.622 E9.23809
G1 X104.335 Y124.709 E9.3363
G1 X104.046 Y123.817 E9.36593
G1 X103.834 Y122.903 E9.39557
G1 X103.7 Y121.975 E9.4252
G1 X103.651 Y121.242 E9.44841
G1 X103.64 Y120.913 E9.45881
G1 X103.634 Y120.535 E9.47076
G1 X103.639 Y115.238 E9.63813
G1 X103.634 Y114.53 E9.6605
G1 X103.635 Y110.9 E9.7752
G1 X103.644 Y110.235 E9.79621
G1 X103.697 Y109.299 E9.82583
G1 X103.829 Y108.37 E9.85548
G1 X104.04 Y107.456 E9.88512
G1 X104.328 Y106.564 E9.91474
G1 X104.691 Y105.699 E9.94438
G1 X105.126 Y104.868 E9.97402
G1 X105.63 Y104.078 E10.00362
G1 X106.2 Y103.333 E10.03326
G1 X106.832 Y102.639 E10.06292
G1 X107.52 Y102.002 E10.09255
G1 X108.26 Y101.426 E10.12218
G1 X109.046 Y100.914 E10.15182
G1 X109.873 Y100.472 E10.18145
G1 X110.735 Y100.102 E10.21109
G1 X111.625 Y99.806 E10.24072
G1 X112.537 Y99.588 E10.27035
G1 X113.464 Y99.447 E10.29998
G1 X114.335 Y99.388 E10.32756
G1 X114.964 Y99.375 E10.34744
G1 X118.155 Y99.375 E10.44827
G1 X120.024 Y99.382 E10.50732
G1 X120.11 Y99.381 E10.51004
G0 F1350 X120.91 Y99.375
G1 F1500 E4.51004
;MESH:calicat.stl
G0 F7500 X121.048 Y109.71
G0 X121.048 Y110.789
G0 X121.634 Y113.875
;TYPE:WALL-INNER
G1 F1500 E10.51004
G1 X121.634 Y111.375 E10.58903
G1 X123.634 Y111.375 E10.65223
G1 X123.634 Y113.875 E10.73122
G1 X122.115 Y113.875 E10.77922
G0 F1350 X121.634 Y113.875
G0 F7500 X121.234 Y114.275
G1 F1500 X121.234 Y110.975 E10.88349
G1 X124.034 Y110.975 E10.97196
G1 X124.034 Y114.275 E11.07623
G1 X121.893 Y114.275 E11.14388
G0 F1350 X121.234 Y114.275
G0 F7500 X120.834 Y114.675
;TYPE:WALL-OUTER
G1 F1500 X120.834 Y110.575 E11.26695
G1 X124.434 Y110.575 E11.37501
G1 X124.434 Y114.675 E11.49808
G1 X121.634 Y114.675 E11.58213
G0 F1350 X120.834 Y114.675
G0 F7500 X120.834 Y114.275
G0 X121.274 Y114.235
G0 X121.744 Y113.485
G0 X122.024 Y113.485
;TYPE:SKIN
G1 F1500 X122.024 Y111.765 E11.63648
G1 X123.244 Y111.765 E11.67503
G1 X123.244 Y113.485 E11.72937
G1 X122.332 Y113.485 E11.75819
G0 F1350 X122.024 Y113.485
G0 F7500 X122.884 Y113.125
G1 F1500 X122.384 Y113.125 E11.77399
G1 X122.384 Y112.125 E11.80559
G1 X122.884 Y112.125 E11.82139
G1 X122.884 Y112.94 E11.84714
G0 F1350 X122.884 Y113.125
G0 F7500 X122.708 Y112.808
;TYPE:SKIN
G1 F1500 X122.558 Y112.659 E11.85048
G0 F7500 X122.708 Y112.526
G1 F1500 X122.558 Y112.376 E11.85383
G0 F7500 X121.444 Y112.376
G1 F1500 E5.85383
G0 F7500 X121.054 Y113.875
G0 X118.214 Y113.875
G0 X115.634 Y113.875
;TYPE:WALL-INNER
G1 F1500 E11.85383
G1 X115.634 Y111.375 E11.93282
G1 X117.634 Y111.375 E11.99602
G1 X117.634 Y113.875 E12.07501
G1 X116.115 Y113.875 E12.123
G0 F1350 X115.634 Y113.875
G0 F7500 X115.234 Y114.275
G1 F1500 X115.234 Y110.975 E12.22728
G1 X118.034 Y110.975 E12.31575
G1 X118.034 Y114.275 E12.42002
G1 X115.893 Y114.275 E12.48767
G0 F1350 X115.234 Y114.275
G0 F7500 X114.834 Y114.675
;TYPE:WALL-OUTER
G1 F1500 X114.834 Y110.575 E12.61074
G1 X118.434 Y110.575 E12.7188
G1 X118.434 Y114.675 E12.84187
G1 X115.634 Y114.675 E12.92592
G0 F1350 X114.834 Y114.675
G0 F7500 X114.834 Y114.275
G0 X115.274 Y114.235
G0 X115.744 Y113.485
G0 X116.024 Y113.485
;TYPE:SKIN
G1 F1500 X116.024 Y111.765 E12.98027
G1 X117.244 Y111.765 E13.01881
G1 X117.244 Y113.485 E13.07316
G1 X116.332 Y113.485 E13.10198
G0 F1350 X116.024 Y113.485
G0 F7500 X116.884 Y113.125
G1 F1500 X116.384 Y113.125 E13.11778
G1 X116.384 Y112.125 E13.14937
G1 X116.884 Y112.125 E13.16517
G1 X116.884 Y112.94 E13.19092
G0 F1350 X116.884 Y113.125
G0 F7500 X116.626 Y112.949
;TYPE:SKIN
G1 F1500 X116.558 Y112.881 E13.19244
G0 F7500 X116.708 Y112.748
G1 F1500 X116.558 Y112.598 E13.1958
G0 F7500 X116.708 Y112.466
G1 F1500 X116.558 Y112.315 E13.19916
G0 F7500 X115.444 Y112.315
G1 F1500 E7.19916
G0 F7500 X115.816 Y113.693
G0 X118.22 Y114.461
G0 X118.22 Y115.54
G0 X119.287 Y115.722
G0 X119.287 Y118.222
G0 X118.22 Y119.289
G0 X118.812 Y120.447
G0 X119.566 Y123.307
G0 X117.197 Y123.307
G0 X117.197 Y123.416
G0 X119.884 Y123.625
;TYPE:WALL-INNER
G1 F1500 E13.19916
G1 X117.016 Y123.625 E13.28978
G1 X117.015 Y123.324 E13.29929
G1 X117.015 Y123.125 E13.30558
G1 X117.214 Y123.125 E13.30965
G1 X119.384 Y123.125 E13.37821
G1 X119.384 Y119.875 E13.4809
G1 X119.884 Y119.875 E13.4967
G1 X119.884 Y123.07 E13.59765
G0 F1350 X119.884 Y123.625
G0 F7500 X120.284 Y124.025
G1 F1500 X116.616 Y124.025 E13.71355
G1 X116.615 Y122.924 E13.74834
G1 X116.615 Y122.725 E13.75463
G1 X116.814 Y122.725 E13.7587
G1 X118.984 Y122.725 E13.82726
G1 X118.984 Y120.275 E13.90467
G1 X115.234 Y120.275 E14.02316
G1 X115.234 Y116.975 E14.12743
G1 X118.034 Y116.975 E14.21591
G1 X118.034 Y119.475 E14.2949
G1 X121.234 Y119.475 E14.39601
G1 X121.234 Y116.975 E14.475
G1 X124.034 Y116.975 E14.56347
G1 X124.034 Y120.275 E14.66774
G1 X120.284 Y120.275 E14.78623
G1 X120.284 Y123.225 E14.87945
G0 F1350 X120.284 Y124.025
G0 F7500 X120.456 Y120.447
G0 X121.634 Y119.875
G1 F1500 X121.634 Y117.375 E14.95844
G1 X123.634 Y117.375 E15.02163
G1 X123.634 Y119.875 E15.10063
G1 X122.115 Y119.875 E15.14862
G0 F1350 X121.634 Y119.875
G0 F7500 X117.634 Y119.875
G1 F1500 X115.634 Y119.875 E15.21182
G1 X115.634 Y117.375 E15.29081
G1 X117.634 Y117.375 E15.354
G1 X117.634 Y119.357 E15.41663
G0 F1350 X117.634 Y119.875
G1 F1500 E9.41663
G0 F7500 X118.812 Y120.447
G0 X119.566 Y123.307
G0 X117.197 Y123.307
G0 X117.197 Y123.416
G0 X120.414 Y124.155
G0 X120.684 Y124.425
;TYPE:WALL-OUTER
G1 F1500 E15.41663
G1 X116.216 Y124.425 E15.55075
G1 X116.215 Y122.525 E15.60778
G1 X116.215 Y122.325 E15.61378
G1 X116.415 Y122.325 E15.61767
G1 X118.584 Y122.325 E15.68278
G1 X118.584 Y120.675 E15.73231
G1 X114.834 Y120.675 E15.84487
G1 X114.834 Y116.575 E15.96794
G1 X118.434 Y116.575 E16.076
G1 X118.434 Y119.075 E16.15105
G1 X120.834 Y119.075 E16.22309
G1 X120.834 Y116.575 E16.29813
G1 X124.434 Y116.575 E16.40619
G1 X124.434 Y120.675 E16.52926
G1 X120.684 Y120.675 E16.64183
G1 X120.684 Y123.625 E16.73038
G0 F1350 X120.684 Y124.425
G0 F7500 X120.284 Y124.425
G0 X120.244 Y123.985
G0 X119.724 Y123.401
;TYPE:SKIN
G1 F1500 X119.543 Y123.22 E16.73442
G0 F7500 X119.724 Y123.118
G1 F1500 X119.543 Y122.937 E16.73847
G0 F7500 X119.724 Y122.835
G1 F1500 X119.543 Y122.654 E16.74251
G0 F7500 X119.724 Y122.552
G1 F1500 X119.543 Y122.371 E16.74656
G0 F7500 X119.724 Y122.27
G1 F1500 X119.543 Y122.089 E16.7506
G0 F7500 X119.724 Y121.987
G1 F1500 X119.543 Y121.806 E16.75464
G0 F7500 X119.724 Y121.704
G1 F1500 X119.543 Y121.523 E16.75869
G0 F7500 X119.724 Y121.421
G1 F1500 X119.543 Y121.24 E16.76273
G0 F7500 X119.724 Y121.138
G1 F1500 X119.543 Y120.957 E16.76678
G0 F7500 X119.724 Y120.855
G1 F1500 X119.543 Y120.674 E16.77082
G0 F7500 X119.724 Y120.573
G1 F1500 X119.543 Y120.392 E16.77486
G0 F7500 X119.724 Y120.29
G1 F1500 X119.543 Y120.109 E16.77891
G0 F7500 X119.494 Y120.109
G0 X119.324 Y123.235
G0 X119.324 Y123.284
G1 F1500 X119.503 Y123.463 E16.78291
G0 F7500 X119.221 Y123.463
G1 F1500 X119.042 Y123.284 E16.78691
G0 F7500 X118.938 Y123.463
G1 F1500 X118.759 Y123.284 E16.79091
G0 F7500 X118.655 Y123.463
G1 F1500 X118.476 Y123.284 E16.7949
G0 F7500 X118.372 Y123.463
G1 F1500 X118.193 Y123.284 E16.7989
G0 F7500 X118.089 Y123.463
G1 F1500 X117.91 Y123.284 E16.8029
G0 F7500 X117.806 Y123.463
G1 F1500 X117.627 Y123.284 E16.8069
