;FLAVOR:Marlin
;TIME:1772
;Filament used: 0.719562m
;Layer height: 0.2
;MINX:93.541
;MINY:102.437
;MINZ:0.2
;MAXX:135.11
;MAXY:132.572
;MAXZ:24
;Generated with Cura_SteamEngine 4.6.2
M140 S60
M105
M190 S60
M104 S200
M105
M109 S200
M82 ;absolute extrusion mode
; Ender 3 Custom Start G-code
G92 E0 ; Reset Extruder
G28 ; Home all axes
G1 Z2.0 F3000 ; Move Z Axis up little to prevent scratching of Heat Bed
G1 X0.1 Y20 Z0.3 F5000.0 ; Move to start position
G1 X0.1 Y200.0 Z0.3 F1500.0 E15 ; Draw the first line
G1 X0.4 Y200.0 Z0.3 F5000.0 ; Move to side a little
G1 X0.4 Y20 Z0.3 F1500.0 E30 ; Draw the second line
G92 E0 ; Reset Extruder
G1 Z2.0 F3000 ; Move Z Axis up little to prevent scratching of Heat Bed
G1 X5 Y20 Z0.3 F5000.0 ; Move over to prevent blob squish
G92 E0
G92 E0
G1 F1500 E-6
;LAYER_COUNT:120
;LAYER:0
M107
M204 S500
M205 X8 Y8
G0 F7500 X119.258 Y103.314 Z0.2
;TYPE:SKIRT
G1 F1500 E0
G1 X120.108 Y103.416 E0.02705
G1 X120.397 Y103.463 E0.0363
G1 X120.832 Y103.544 E0.05028
G1 X121.502 Y103.683 E0.0719
G1 X122.31 Y103.885 E0.09822
G1 X122.575 Y103.963 E0.10695
G1 X123.068 Y104.122 E0.12332
G1 X123.773 Y104.369 E0.14692
G1 X124.713 Y104.752 E0.17899
G1 X125.088 Y104.927 E0.19207
G1 X125.413 Y105.085 E0.20349
G1 X125.887 Y105.327 E0.2203
G1 X126.612 Y105.736 E0.2466
G1 X126.832 Y105.872 E0.25478
G1 X127.23 Y106.131 E0.26978
G1 X127.867 Y106.567 E0.29417
G1 X128.514 Y107.048 E0.31964
G1 X128.779 Y107.262 E0.33041
G1 X129.077 Y107.512 E0.3427
G1 X129.328 Y107.731 E0.35322
G1 X129.908 Y108.279 E0.37843
G1 X130.246 Y108.624 E0.3937
G1 X130.49 Y108.882 E0.40492
G1 X130.744 Y109.16 E0.41681
G1 X131.319 Y109.847 E0.44512
G1 X131.805 Y110.483 E0.47041
G1 X132.182 Y111.005 E0.49076
G1 X132.619 Y111.681 E0.51619
G1 X132.818 Y112.017 E0.52853
G1 X133.244 Y112.814 E0.55709
G1 X133.597 Y113.645 E0.58561
G1 X133.898 Y114.587 E0.61686
G1 X133.966 Y114.842 E0.6252
G1 X134.159 Y115.724 E0.65373
G1 X134.274 Y116.62 E0.68227
G1 X134.31 Y117.522 E0.71079
G1 X134.265 Y118.424 E0.73933
G1 X134.136 Y119.343 E0.76865
G1 X134.082 Y119.632 E0.77794
G1 X133.877 Y120.512 E0.80649
G1 X133.595 Y121.37 E0.83503
G1 X133.239 Y122.2 E0.86357
G1 X132.81 Y122.995 E0.89211
G1 X132.615 Y123.321 E0.90411
G1 X132.26 Y123.883 E0.92512
G1 X131.837 Y124.494 E0.9486
G1 X131.659 Y124.732 E0.95799
G1 X131.436 Y125.02 E0.9695
G1 X131.184 Y125.333 E0.98219
G1 X130.588 Y126.009 E1.01067
G1 X129.875 Y126.743 E1.043
G1 X129.588 Y127.023 E1.05567
G1 X128.987 Y127.565 E1.08124
G1 X128.797 Y127.723 E1.08905
G1 X128.387 Y128.046 E1.10554
G1 X127.898 Y128.412 E1.12484
G1 X127.129 Y128.934 E1.15421
G1 X126.23 Y129.482 E1.18748
G1 X126.024 Y129.6 E1.19498
G1 X125.281 Y129.986 E1.22143
G1 X124.695 Y130.255 E1.24181
G1 X124.417 Y130.375 E1.25138
G1 X123.814 Y130.613 E1.27186
G1 X123.183 Y130.839 E1.29304
G1 X122.248 Y131.124 E1.32392
G1 X121.47 Y131.321 E1.34928
G1 X120.404 Y131.531 E1.38361
G1 X119.723 Y131.628 E1.40535
G1 X119.272 Y131.682 E1.4197
G1 X118.881 Y131.72 E1.43211
G1 X118.02 Y131.767 E1.45936
G1 X117.615 Y131.772 E1.47215
G1 X117.059 Y131.764 E1.48972
G1 X115.655 Y131.703 E1.53413
G1 X105.213 Y131.059 E1.86469
G1 X104.535 Y131.007 E1.88618
G1 X103.638 Y130.898 E1.91473
G1 X102.893 Y130.745 E1.93876
G1 X102.668 Y130.69 E1.94608
G1 X101.801 Y130.437 E1.97462
G1 X100.96 Y130.108 E2.00315
G1 X100.434 Y129.858 E2.02155
G1 X100.28 Y129.779 E2.02702
G1 X99.496 Y129.331 E2.05555
G1 X98.754 Y128.816 E2.08409
G1 X98.061 Y128.238 E2.1126
G1 X97.431 Y127.611 E2.14069
G1 X97.165 Y127.322 E2.1531
G1 X96.583 Y126.631 E2.18165
G1 X96.065 Y125.891 E2.21019
G1 X95.615 Y125.109 E2.23869
G1 X95.104 Y123.953 E2.27863
G1 X95.003 Y123.68 E2.28783
G1 X94.727 Y122.82 E2.31637
G1 X94.529 Y121.939 E2.3449
G1 X94.409 Y121.044 E2.37343
G1 X94.378 Y120.564 E2.38863
G1 X94.35 Y119.89 E2.40994
G1 X94.341 Y119.454 E2.42372
G1 X94.347 Y115.46 E2.54992
G1 X94.358 Y114.766 E2.57185
G1 X94.413 Y113.865 E2.60038
G1 X94.546 Y112.972 E2.6289
G1 X94.763 Y112.078 E2.65797
G1 X94.85 Y111.779 E2.66781
G1 X95.141 Y110.924 E2.69635
G1 X95.506 Y110.098 E2.72488
G1 X95.942 Y109.308 E2.75339
G1 X96.195 Y108.915 E2.76816
G1 X96.335 Y108.708 E2.77606
G1 X96.874 Y107.983 E2.8046
G1 X97.474 Y107.308 E2.83314
G1 X98.132 Y106.69 E2.86166
G1 X99.133 Y105.931 E2.90135
G1 X99.426 Y105.736 E2.91247
G1 X100.199 Y105.269 E2.94101
G1 X101.01 Y104.873 E2.96953
G1 X101.809 Y104.565 E2.99658
G1 X101.945 Y104.519 E3.00112
G1 X102.812 Y104.268 E3.02964
G1 X103.699 Y104.094 E3.0582
G1 X104.379 Y104.015 E3.07983
G1 X105.779 Y103.903 E3.12421
G1 X116.371 Y103.263 E3.4595
G1 X116.946 Y103.237 E3.47768
G1 X117.841 Y103.236 E3.50596
G1 X118.459 Y103.263 E3.52551
G0 F1350 X118.569 Y103.267
G0 X119.258 Y103.314
G0 F7500 X119.289 Y102.916
G1 F1500 X120.173 Y103.021 E3.55364
G1 X120.462 Y103.068 E3.56289
G1 X120.913 Y103.152 E3.57738
G1 X121.583 Y103.291 E3.599
G1 X122.423 Y103.501 E3.62636
G1 X122.688 Y103.579 E3.63509
G1 X123.2 Y103.744 E3.65209
G1 X123.905 Y103.991 E3.67569
G1 X124.883 Y104.389 E3.70905
G1 X125.258 Y104.564 E3.72213
G1 X125.595 Y104.729 E3.73399
G1 X126.069 Y104.971 E3.7508
G1 X126.823 Y105.396 E3.77815
G1 X127.043 Y105.532 E3.78632
G1 X127.456 Y105.801 E3.8019
G1 X128.093 Y106.237 E3.82629
G1 X128.766 Y106.737 E3.85278
G1 X129.031 Y106.951 E3.86354
G1 X129.34 Y107.211 E3.8763
G1 X129.591 Y107.43 E3.88683
G1 X130.194 Y107.999 E3.91302
G1 X130.532 Y108.344 E3.92828
G1 X130.786 Y108.612 E3.93995
G1 X131.04 Y108.89 E3.95185
G1 X131.636 Y109.604 E3.98124
G1 X132.122 Y110.24 E4.00653
G1 X132.509 Y110.775 E4.02739
G1 X132.963 Y111.477 E4.05381
G1 X133.162 Y111.813 E4.06615
G1 X133.597 Y112.625 E4.09525
G1 X133.959 Y113.471 E4.12433
G1 X134.284 Y114.484 E4.15794
G1 X134.352 Y114.739 E4.16628
G1 X134.55 Y115.638 E4.19537
G1 X134.67 Y116.551 E4.22446
G1 X134.71 Y117.47 E4.25353
G1 X134.67 Y118.39 E4.28263
G1 X134.53 Y119.417 E4.31538
G1 X134.476 Y119.706 E4.32467
G1 X134.267 Y120.603 E4.35377
G1 X133.982 Y121.478 E4.38284
G1 X133.622 Y122.325 E4.41192
G1 X133.153 Y123.2 E4.44329
G1 X132.789 Y123.799 E4.46544
G1 X132.597 Y124.099 E4.47669
G1 X132.158 Y124.734 E4.50109
G1 X131.98 Y124.972 E4.51048
G1 X131.748 Y125.27 E4.52241
G1 X131.496 Y125.583 E4.53511
G1 X130.876 Y126.287 E4.56475
G1 X130.389 Y126.793 E4.58694
G1 X130.154 Y127.029 E4.59746
G1 X129.867 Y127.309 E4.61013
G1 X129.243 Y127.872 E4.63669
G1 X129.053 Y128.03 E4.64449
G1 X128.627 Y128.366 E4.66164
G1 X128.138 Y128.732 E4.68094
G1 X127.339 Y129.275 E4.71146
G1 X126.429 Y129.829 E4.74512
G1 X126.223 Y129.947 E4.75263
G1 X125.451 Y130.348 E4.78011
G1 X125.15 Y130.489 E4.79062
G1 X124.576 Y130.742 E4.81044
G1 X123.949 Y130.989 E4.83173
G1 X123.318 Y131.215 E4.85291
G1 X122.346 Y131.512 E4.88502
G1 X121.568 Y131.709 E4.91038
G1 X120.461 Y131.927 E4.94603
G1 X119.78 Y132.024 E4.96776
G1 X119.31 Y132.08 E4.98272
G1 X118.919 Y132.118 E4.99513
G1 X118.025 Y132.167 E5.02342
G1 X117.62 Y132.172 E5.03622
G1 X117.042 Y132.164 E5.05449
G1 X115.63 Y132.102 E5.09914
G1 X105.182 Y131.458 E5.4299
G1 X104.504 Y131.406 E5.45138
G1 X103.59 Y131.296 E5.48047
G1 X102.798 Y131.134 E5.50601
G1 X102.573 Y131.079 E5.51333
G1 X101.689 Y130.822 E5.54242
G1 X100.831 Y130.489 E5.5715
G1 X100.252 Y130.213 E5.59177
G1 X100.098 Y130.134 E5.59724
G1 X99.298 Y129.679 E5.62632
G1 X98.54 Y129.156 E5.65542
G1 X97.831 Y128.569 E5.6845
G1 X97.137 Y127.882 E5.71536
G1 X96.871 Y127.593 E5.72777
G1 X96.277 Y126.889 E5.75687
G1 X95.747 Y126.136 E5.78597
G1 X95.284 Y125.34 E5.81506
G1 X94.729 Y124.092 E5.85822
G1 X94.628 Y123.819 E5.86742
G1 X94.346 Y122.942 E5.89653
G1 X94.141 Y122.045 E5.9256
G1 X94.016 Y121.133 E5.95468
G1 X93.978 Y120.581 E5.97217
G1 X93.95 Y119.907 E5.99348
G1 X93.941 Y119.453 E6.00783
G1 X93.947 Y115.454 E6.13419
G1 X93.958 Y114.76 E6.15612
G1 X94.013 Y113.841 E6.18521
G1 X94.147 Y112.93 E6.2143
G1 X94.379 Y111.967 E6.2456
G1 X94.466 Y111.668 E6.25544
G1 X94.761 Y110.796 E6.28453
G1 X95.131 Y109.952 E6.31365
G1 X95.573 Y109.145 E6.34272
G1 X95.864 Y108.691 E6.35976
G1 X96.004 Y108.484 E6.36765
G1 X96.552 Y107.744 E6.39675
G1 X97.163 Y107.055 E6.42585
G1 X97.831 Y106.421 E6.45495
G1 X98.911 Y105.598 E6.49785
G1 X99.204 Y105.403 E6.50897
G1 X99.992 Y104.926 E6.53808
G1 X100.818 Y104.52 E6.56716
G1 X101.681 Y104.186 E6.5964
G1 X101.817 Y104.14 E6.60093
G1 X102.701 Y103.883 E6.63002
G1 X103.604 Y103.704 E6.65911
G1 X104.346 Y103.617 E6.68271
G1 X105.755 Y103.503 E6.72738
G1 X116.353 Y102.864 E7.06285
G1 X116.928 Y102.838 E7.08104
G1 X117.858 Y102.837 E7.11043
G1 X118.49 Y102.864 E7.13041
G0 F1350 X118.586 Y102.868
G0 X119.289 Y102.916
G0 F7500 X119.32 Y102.517
G1 F1500 X120.237 Y102.627 E7.1596
G1 X120.526 Y102.674 E7.16885
G1 X120.995 Y102.76 E7.18391
G1 X121.665 Y102.899 E7.20554
G1 X122.536 Y103.118 E7.23391
G1 X122.801 Y103.196 E7.24264
G1 X123.332 Y103.367 E7.26027
G1 X124.037 Y103.614 E7.28387
G1 X125.052 Y104.027 E7.3185
G1 X125.427 Y104.202 E7.33157
G1 X125.777 Y104.373 E7.34388
G1 X126.251 Y104.615 E7.3607
G1 X127.033 Y105.055 E7.38905
G1 X127.253 Y105.191 E7.39722
G1 X127.682 Y105.471 E7.41341
G1 X128.319 Y105.907 E7.4378
G1 X129.017 Y106.426 E7.46528
G1 X129.282 Y106.64 E7.47604
G1 X129.603 Y106.909 E7.48928
G1 X129.854 Y107.128 E7.4998
G1 X130.479 Y107.719 E7.52698
G1 X130.817 Y108.064 E7.54224
G1 X131.081 Y108.342 E7.55436
G1 X131.335 Y108.62 E7.56625
G1 X131.954 Y109.361 E7.59676
G1 X132.44 Y109.997 E7.62205
G1 X132.693 Y110.341 E7.63555
G1 X132.836 Y110.544 E7.64339
G1 X133.308 Y111.273 E7.67083
G1 X133.507 Y111.609 E7.68317
G1 X133.95 Y112.436 E7.71282
G1 X134.321 Y113.297 E7.74244
G1 X134.671 Y114.381 E7.77843
G1 X134.739 Y114.636 E7.78677
G1 X134.941 Y115.551 E7.81638
G1 X135.065 Y116.481 E7.84602
G1 X135.11 Y117.418 E7.87566
G1 X135.074 Y118.355 E7.90529
G1 X134.923 Y119.49 E7.94147
G1 X134.869 Y119.779 E7.95076
G1 X134.657 Y120.693 E7.98041
G1 X134.369 Y121.586 E8.01005
G1 X134.006 Y122.45 E8.03967
G1 X133.496 Y123.406 E8.0739
G1 X133.126 Y124.015 E8.09642
G1 X132.934 Y124.315 E8.10767
G1 X132.478 Y124.973 E8.13297
G1 X132.3 Y125.211 E8.14236
G1 X132.059 Y125.521 E8.15476
G1 X131.807 Y125.834 E8.16746
G1 X131.165 Y126.564 E8.19818
G1 X130.678 Y127.07 E8.22037
G1 X130.434 Y127.316 E8.23132
G1 X130.147 Y127.596 E8.24399
G1 X129.498 Y128.18 E8.27157
G1 X129.308 Y128.338 E8.27938
G1 X128.866 Y128.686 E8.29716
G1 X128.377 Y129.052 E8.31646
G1 X127.549 Y129.616 E8.34811
G1 X126.923 Y130.001 E8.37133
G1 X126.422 Y130.294 E8.38967
G1 X125.62 Y130.71 E8.41822
G1 X125.319 Y130.851 E8.42872
G1 X124.734 Y131.109 E8.44892
G1 X124.084 Y131.366 E8.47101
G1 X123.453 Y131.592 E8.49219
G1 X122.444 Y131.899 E8.52551
G1 X121.666 Y132.096 E8.55087
G1 X120.517 Y132.323 E8.58788
G1 X119.836 Y132.42 E8.60961
G1 X119.349 Y132.478 E8.62511
G1 X118.958 Y132.516 E8.63752
G1 X118.03 Y132.567 E8.66689
G1 X117.625 Y132.572 E8.67968
G1 X117.025 Y132.563 E8.69864
G1 X115.605 Y132.501 E8.74355
G1 X105.152 Y131.857 E9.07447
G1 X104.474 Y131.805 E9.09595
G1 X103.543 Y131.693 E9.12558
G1 X102.703 Y131.522 E9.15267
G1 X102.478 Y131.467 E9.15998
G1 X101.577 Y131.206 E9.18962
G1 X100.702 Y130.869 E9.21925
G1 X100.069 Y130.569 E9.24138
G1 X99.915 Y130.49 E9.24685
G1 X99.1 Y130.027 E9.27647
G1 X98.327 Y129.496 E9.3061
G1 X97.602 Y128.901 E9.33574
G1 X96.842 Y128.152 E9.36945
G1 X96.576 Y127.863 E9.38186
G1 X95.971 Y127.147 E9.41148
G1 X95.429 Y126.381 E9.44113
G1 X94.955 Y125.573 E9.47073
G1 X94.551 Y124.726 E9.50038
G1 X94.353 Y124.231 E9.51723
G1 X94.252 Y123.958 E9.52643
G1 X93.965 Y123.065 E9.55606
G1 X93.754 Y122.151 E9.5857
G1 X93.622 Y121.223 E9.61532
G1 X93.578 Y120.598 E9.63512
G1 X93.55 Y119.924 E9.65643
G1 X93.541 Y119.453 E9.67132
G1 X93.547 Y115.448 E9.79786
G1 X93.558 Y114.754 E9.81979
G1 X93.613 Y113.817 E9.84945
G1 X93.748 Y112.889 E9.87908
G1 X93.995 Y111.855 E9.91267
G1 X94.082 Y111.556 E9.92251
G1 X94.382 Y110.667 E9.95216
G1 X94.757 Y109.808 E9.98177
G1 X95.204 Y108.983 E10.01142
G1 X95.532 Y108.466 E10.03077
G1 X95.672 Y108.259 E10.03866
G1 X96.23 Y107.506 E10.06828
G1 X96.851 Y106.802 E10.09794
G1 X97.529 Y106.154 E10.12757
G1 X98.259 Y105.566 E10.15719
G1 X98.69 Y105.265 E10.1738
G1 X98.983 Y105.07 E10.18492
G1 X99.785 Y104.584 E10.21455
G1 X100.625 Y104.168 E10.24417
G1 X101.553 Y103.807 E10.27563
G1 X101.689 Y103.761 E10.28017
G1 X102.589 Y103.499 E10.30979
G1 X103.508 Y103.314 E10.33941
G1 X104.313 Y103.218 E10.36502
G1 X105.731 Y103.104 E10.40997
G1 X116.335 Y102.464 E10.74564
G1 X116.91 Y102.438 E10.76383
G1 X117.875 Y102.437 E10.79432
G1 X118.521 Y102.465 E10.81475
G0 F1350 X118.603 Y102.468
G0 X119.32 Y102.517
G1 F1500 E4.81475
;MESH:3DBenchy.stl
G0 F7500 X114.023 Y112.958
G0 X114.266 Y116.982
G0 X114.16 Y117.799
;TYPE:WALL-INNER
G1 F1500 E10.81475
G1 X114.16 Y117.653 E10.81936
G1 X114.161 Y117.584 E10.82154
G1 X114.162 Y117.37 E10.8283
G1 X114.163 Y117.258 E10.83184
G1 X114.163 Y117.166 E10.83475
G1 X114.164 Y117.151 E10.83523
G1 X114.17 Y117.166
G1 X114.192 Y117.258 E10.83541
G1 X114.206 Y117.37 E10.83573
G1 X114.205 Y117.584 E10.83651
G1 X114.198 Y117.653
G1 X114.16 Y117.799 E10.83682
G0 F7500 X113.758 Y118.247
;TYPE:WALL-OUTER
G1 F1500 X113.758 Y118.15 E10.83974
G1 X113.766 Y116.905 E10.87711
G1 X113.766 Y116.725 E10.88251
G1 X113.821 Y116.723 E10.88416
G1 X114.001 Y116.732 E10.88788
G1 X114.198 Y116.743 E10.8938
G1 X114.344 Y116.775 E10.89829
G1 X114.373 Y116.788 E10.89924
G1 X114.431 Y116.831 E10.90141
G1 X114.489 Y116.905 E10.90423
G1 X114.509 Y116.941 E10.90547
G1 X114.553 Y117.047 E10.90892
G1 X114.586 Y117.182 E10.91309
G1 X114.606 Y117.348 E10.91811
G1 X114.605 Y117.609 E10.92594
G1 X114.593 Y117.721 E10.92932
G1 X114.548 Y117.908 E10.93509
G1 X114.514 Y117.992 E10.93781
G1 X114.459 Y118.08 E10.94093
G1 X114.416 Y118.129 E10.94289
G1 X114.377 Y118.159 E10.94436
G1 X114.337 Y118.182 E10.94575
G1 X114.294 Y118.2 E10.94715
G1 X114.198 Y118.221 E10.9501
G1 X114.077 Y118.231 E10.95374
G1 X113.98 Y118.239 E10.95619
G1 X113.852 Y118.239 E10.96003
G1 X113.758 Y118.247 E10.96286
G0 F7500 X113.758 Y118.15
G0 X113.759 Y117.847
G0 X113.975 Y117.934
;TYPE:SKIN
G1 F1500 X114.093 Y118.053 E10.96551
G0 F7500 X114.084 Y117.929
G0 X114.156 Y117.041
G0 X114.159 Y116.987
G1 F1500 X114.083 Y116.912 E10.9672
G0 F7500 X114.362 Y117.339
G1 F1500 E4.9672
G0 F7500 X114.303 Y117.344
G0 X113.978 Y116.945
G0 X112.746 Y116.937
G0 X112.397 Y116.018
G0 X112.03 Y115.723
G0 X111.735 Y115.654
G0 X107.296 Y115.162
;TYPE:WALL-INNER
G1 F1500 E10.9672
G1 X107.165 Y115.098 E10.9718
G1 X107.017 Y115.049 E10.97673
G1 X107.161 Y115.041 E10.97697
G1 X107.288 Y115.034 E10.97846
G1 X107.623 Y115.014 E10.98868
G1 X107.861 Y115 E10.99622
G1 X108.042 Y114.989 E11.00195
G1 X108.223 Y114.978 E11.00768
G1 X109.491 Y114.903 E11.04781
G1 X109.887 Y114.879 E11.06035
G1 X110.055 Y114.869 E11.06566
G1 X110.317 Y114.853 E11.07396
G1 X110.397 Y114.848 E11.07649
G1 X110.653 Y114.832 E11.0846
G1 X110.896 Y114.817 E11.09229
G1 X111.222 Y114.797 E11.10261
G1 X111.535 Y114.778 E11.11252
G1 X111.777 Y114.763 E11.12018
G1 X112.107 Y114.743 E11.13062
G1 X112.281 Y114.732 E11.13613
G1 X112.296 Y114.732 E11.13661
G1 X112.849 Y114.697 E11.15412
G1 X112.967 Y114.69 E11.15785
G1 X113.143 Y114.679 E11.16342
G1 X113.304 Y114.669 E11.16852
G1 X113.887 Y114.633 E11.18698
G1 X113.971 Y114.628 E11.18963
G1 X117.494 Y114.414 E11.30116
G1 X118.352 Y114.468 E11.32832
G1 X119.19 Y114.633 E11.35531
G1 X120.021 Y114.912 E11.383
G1 X120.782 Y115.287 E11.40981
G1 X121.097 Y115.497 E11.42177
G1 X121.116 Y115.509 E11.42248
G1 X121.177 Y115.55 E11.42481
G1 X121.312 Y115.641 E11.42995
G1 X121.47 Y115.747 E11.43596
G1 X121.469 Y115.747 E11.43599
G1 X121.241 Y115.749 E11.44154
G1 X121.014 Y115.795 E11.44615
G1 X120.897 Y115.839 E11.44972
G1 X120.877 Y115.829 E11.45042
G1 X120.794 Y115.788 E11.45335
G1 X120.364 Y115.719 E11.46711
G1 X119.941 Y115.843 E11.48104
G1 X119.777 Y115.955 E11.48731
G1 X119.574 Y115.842 E11.49465
G1 X119.325 Y115.765 E11.50289
G1 X119.101 Y115.74 E11.51001
G1 X118.829 Y115.749 E11.51861
G1 X118.575 Y115.835 E11.52708
G1 X118.533 Y115.812 E11.5286
G1 X118.175 Y115.726 E11.54023
G1 X117.779 Y115.778 E11.55285
