;FLAVOR:Marlin
;TIME:974
;Filament used: 0.48241m
;Layer height: 0.28
;MINX:102.193
;MINY:109.949
;MINZ:0.285
;MAXX:132.284
;MAXY:125.05
;MAXZ:23.805
;Generated with Cura_SteamEngine 4.6.2
M140 S60
M105
M190 S60
M104 S200
M105
M109 S200
M82 ;absolute extrusion mode
; Ender 3 Custom Start G-code
G92 E0 ; Reset Extruder
G28 ; Home all axes
G1 Z2.0 F3000 ; Move Z Axis up little to prevent scratching of Heat Bed
G1 X0.1 Y20 Z0.3 F5000.0 ; Move to start position
G1 X0.1 Y200.0 Z0.3 F1500.0 E15 ; Draw the first line
G1 X0.4 Y200.0 Z0.3 F5000.0 ; Move to side a little
G1 X0.4 Y20 Z0.3 F1500.0 E30 ; Draw the second line
G92 E0 ; Reset Extruder
G1 Z2.0 F3000 ; Move Z Axis up little to prevent scratching of Heat Bed
G1 X5 Y20 Z0.3 F5000.0 ; Move over to prevent blob squish
G92 E0
G92 E0
G1 F1500 E-6
;LAYER_COUNT:85
;LAYER:0
M107
M204 S500
M205 X8 Y8
;MESH:3DBenchy.stl
G0 F7500 X112.566 Y115.813 Z0.285
;TYPE:WALL-INNER
G1 F1500 E0
G1 F1800 X112.537 Y115.78 E0.00198
G1 X112.496 Y115.733 E0.00479
G1 X112.374 Y115.626 E0.01209
G1 X112.241 Y115.537 E0.0193
G1 X112.091 Y115.462 E0.02685
G1 X111.933 Y115.406 E0.0344
G1 X111.714 Y115.359 E0.04448
G1 X111.521 Y115.338 E0.05322
G1 X111.255 Y115.337 E0.0652
G1 X110.984 Y115.371 E0.0775
G1 X110.819 Y115.413 E0.08516
G1 X110.671 Y115.467 E0.09226
G1 X110.525 Y115.538 E0.09957
G1 X110.416 Y115.609 E0.10543
G1 X110.183 Y115.47 E0.11764
G1 X109.946 Y115.423 E0.12852
G1 X108.206 Y115.426 E0.20687
G1 X108.024 Y115.408 E0.2151
G1 X107.887 Y115.407 E0.22127
G1 X107.721 Y115.429 E0.22881
G1 X107.504 Y115.512 E0.23927
G1 X107.332 Y115.66 E0.24949
G1 X107.308 Y115.64 E0.25089
G1 X107.155 Y115.541 E0.2591
G1 X106.947 Y115.443 E0.26945
G1 X106.707 Y115.373 E0.28071
G1 X106.459 Y115.341 E0.29197
G1 X106.336 Y115.336 E0.29751
G1 X106.045 Y115.35 E0.31063
G1 X105.796 Y115.397 E0.32204
G1 X105.55 Y115.481 E0.33374
G1 X105.452 Y115.534 E0.33876
G1 X105.264 Y115.635 E0.34837
G1 X105.121 Y115.749 E0.3566
G1 X105.121 Y115.635 E0.35676
G1 X105.121 Y115.421 E0.36376
G1 X105.121 Y115 E0.38271
G1 X105.132 Y114.93 E0.3859
G1 X105.162 Y114.846 E0.38992
G1 X105.191 Y114.806 E0.39214
G1 X105.237 Y114.768 E0.39483
G1 X105.307 Y114.739 E0.39824
G1 X105.397 Y114.724 E0.40235
G1 X117.49 Y113.985 E0.94786
G1 X118.162 Y114.014 E0.97815
G1 X118.919 Y114.125 E1.0126
G1 X119.851 Y114.384 E1.05615
G1 X120.624 Y114.71 E1.09393
G1 X121.549 Y115.262 E1.14243
G1 X122.159 Y115.756 E1.17777
G1 X122.269 Y115.845 E1.18414
G1 X122.552 Y116.143 E1.20264
G1 X122.27 Y116.143 E1.20634
G1 X122.128 Y116.143 E1.21198
G1 X121.36 Y116.144 E1.24656
G1 X121.217 Y116.162 E1.25304
G1 X121.054 Y116.2 E1.26058
G1 X120.882 Y116.288 E1.26928
G1 X120.78 Y116.215 E1.27493
G1 X120.466 Y116.127 E1.28961
G1 X120.156 Y116.185 E1.30381
G1 X119.945 Y116.325 E1.31521
G1 X119.832 Y116.441 E1.3225
G1 X119.81 Y116.47 E1.32414
G1 X119.799 Y116.485 E1.32498
G1 X119.784 Y116.505 E1.32611
G1 X119.771 Y116.487 E1.3262
G1 X119.755 Y116.466
G1 X119.734 Y116.437 E1.32686
G1 X119.599 Y116.313 E1.33272
G1 X119.416 Y116.212 E1.34214
G1 X119.243 Y116.158 E1.3503
G1 X119.086 Y116.141 E1.35741
G1 X118.901 Y116.147 E1.36574
G1 X118.646 Y116.232 E1.37784
G1 X118.576 Y116.291 E1.38196
G1 X118.356 Y116.17 E1.39327
G1 X118.072 Y116.132 E1.40617
G1 X117.813 Y116.195 E1.41817
G1 X117.616 Y116.313 E1.42851
G1 X117.591 Y116.335 E1.43001
G1 X117.56 Y116.307 E1.43189
G1 X117.408 Y116.212 E1.43996
G1 X117.171 Y116.139 E1.45113
G1 X116.918 Y116.148 E1.46253
G1 X116.718 Y116.21 E1.47196
G1 X116.492 Y116.349 E1.4839
G1 X116.289 Y116.613 E1.4989
G1 X116.232 Y116.882 E1.51128
G1 X116.231 Y116.886 E1.51146
G1 X116.24 Y117.064 E1.51949
G1 X116.25 Y117.11 E1.52161
G1 X116.273 Y117.213 E1.52636
G1 X116.328 Y117.359 E1.53338
G1 X116.38 Y117.458 E1.53842
G1 X116.426 Y117.545 E1.54285
G1 X116.441 Y117.572 E1.54424
G1 X116.524 Y117.715 E1.55169
G1 X116.599 Y117.846 E1.55848
G1 X116.468 Y117.748 E1.55946
G1 X116.353 Y117.689 E1.5606
G1 X116.293 Y117.658 E1.56073
G1 X116.245 Y117.644 E1.56095
G1 X116.105 Y117.603 E1.56571
G1 X115.905 Y117.582 E1.57477
G1 X115.91 Y117.496 E1.57865
G1 X115.901 Y117.227 E1.59059
G1 X115.899 Y117.188 E1.59208
G1 X115.889 Y117.12 E1.59486
G1 X115.861 Y116.946 E1.60211
G1 X115.84 Y116.819 E1.60785
G1 X115.839 Y116.815 E1.60804
G1 X115.733 Y116.486 E1.6236
G1 X115.575 Y116.188 E1.63879
G1 X115.378 Y115.936 E1.65319
G1 X115.218 Y115.791 E1.66291
G1 X115.083 Y115.693 E1.67043
G1 X114.926 Y115.607 E1.67849
G1 X114.654 Y115.51 E1.69149
G1 X114.392 Y115.457 E1.70352
G1 X114.008 Y115.425 E1.72087
G1 X113.298 Y115.418 E1.75284
G1 X113.178 Y115.431 E1.75828
G1 X113.034 Y115.462 E1.76491
G1 X112.875 Y115.525 E1.77261
G1 X112.668 Y115.665 E1.78386
G1 X112.592 Y115.776 E1.78737
G1 X112.581 Y115.791
G1 X112.566 Y115.813
G0 F7500 X112.67 Y118.357
G0 X112.396 Y118.927
G0 X112.031 Y119.221
G0 X111.578 Y119.356
G0 X110.876 Y119.305
G0 X110.452 Y119.061
G0 X110.28 Y118.744
G0 X110.391 Y117.071
G1 F1800 X110.384 Y117.097 E1.78858
G1 X110.358 Y117.186 E1.79276
G1 X110.356 Y117.204 E1.79357
G1 X110.339 Y117.346 E1.80001
G1 X110.351 Y117.558 E1.80957
G1 X110.469 Y117.827 E1.8228
G1 X110.455 Y117.832
G1 X110.432 Y117.841 E1.82391
G1 X110.212 Y117.996 E1.83603
G1 X110.092 Y118.198 E1.84661
G1 X110.05 Y118.268 E1.85028
G1 X110.002 Y118.479 E1.86003
G1 X110.002 Y118.586 E1.86484
G1 X110.002 Y118.653 E1.86786
G1 X110.006 Y118.681 E1.86914
G1 X110.028 Y118.817 E1.87534
G1 X110.084 Y118.976 E1.88293
G1 X110.157 Y119.108 E1.88972
G1 X110.261 Y119.241 E1.89732
G1 X110.386 Y119.351 E1.90482
G1 X110.512 Y119.434 E1.91161
G1 X110.65 Y119.502 E1.91854
G1 X110.805 Y119.556 E1.92593
G1 X111.026 Y119.606 E1.93613
G1 X111.278 Y119.629 E1.94753
G1 X111.602 Y119.616 E1.96213
G1 X111.778 Y119.588 E1.97015
G1 X111.941 Y119.542 E1.97778
G1 X112.149 Y119.453 E1.98796
G1 X112.294 Y119.366 E1.99558
G1 X112.431 Y119.263 E2.00329
G1 X112.541 Y119.152 E2.01033
G1 X112.568 Y119.125 E2.01205
G1 X112.595 Y119.181
G1 X112.61 Y119.21 E2.01216
G1 X112.619 Y119.229
G1 X112.805 Y119.425 E2.02199
G1 X113.045 Y119.534 E2.03386
G1 X113.24 Y119.562 E2.04273
G1 X113.645 Y119.536 E2.061
G1 X114.136 Y119.535 E2.08311
G1 X114.493 Y119.491 E2.0993
G1 X114.807 Y119.401 E2.11401
G1 X114.981 Y119.308 E2.12289
G1 X115.053 Y119.408 E2.12844
G1 X115.25 Y119.586 E2.1404
G1 X115.431 Y119.686 E2.14971
G1 X115.612 Y119.75 E2.15835
G1 X115.806 Y119.782 E2.1672
G1 X116.001 Y119.778 E2.17599
G1 X116.193 Y119.74 E2.1848
G1 X116.375 Y119.669 E2.1936
G1 X116.539 Y119.567 E2.20229
G1 X116.595 Y119.518 E2.20564
G1 X116.685 Y119.573 E2.21039
G1 X116.882 Y119.635 E2.21969
G1 X117.153 Y119.643 E2.2319
G1 X117.415 Y119.539 E2.24459
G1 X117.548 Y119.431 E2.2523
G1 X117.732 Y119.57 E2.26269
G1 X117.982 Y119.646 E2.27445
G1 X118.049 Y119.647 E2.27747
G1 X118.125 Y119.649 E2.28089
G1 X118.113 Y119.688
G1 X118.109 Y119.698
G1 X118.045 Y119.884 E2.28641
G1 X118.046 Y120.129 E2.29744
G1 X118.087 Y120.303 E2.30549
G1 X118.153 Y120.46 E2.31316
G1 X118.231 Y120.576 E2.31946
G1 X118.247 Y120.6 E2.32076
G1 X118.379 Y120.738 E2.32935
G1 X118.59 Y120.856 E2.34024
G1 X118.716 Y120.887 E2.34608
G1 X118.769 Y120.901 E2.34855
G1 X118.71 Y120.914
G1 X118.598 Y120.926 E2.34889
G1 X118.403 Y120.948 E2.35314
G1 X118.288 Y120.961 E2.35495
G1 X118.26 Y120.964 E2.35617
G1 X117.865 Y121.008 E2.37406
G1 X116.994 Y120.998 E2.41328
G1 X105.353 Y120.272 E2.93845
G1 X105.277 Y120.252 E2.94199
G1 X105.219 Y120.219 E2.94499
G1 X105.2 Y120.201 E2.94617
G1 X105.164 Y120.152 E2.94891
G1 X105.133 Y120.076 E2.9526
G1 X105.119 Y119.914 E2.95993
G1 X105.119 Y119.493 E2.97888
G1 X105.119 Y119.431 E2.98167
G1 X105.119 Y119.255 E2.9896
G1 X105.119 Y119.216 E2.99135
G1 X105.162 Y119.255
G1 X105.435 Y119.431 E3.00045
G1 X105.492 Y119.454 E3.00298
G1 X105.672 Y119.529 E3.01176
G1 X105.843 Y119.578 E3.01977
G1 X106.047 Y119.615 E3.02911
G1 X106.324 Y119.629 E3.04159
G1 X106.649 Y119.602 E3.05628
G1 X106.884 Y119.544 E3.06718
G1 X107.042 Y119.483 E3.0748
G1 X107.181 Y119.41 E3.08187
G1 X107.311 Y119.324 E3.08889
G1 X107.432 Y119.22 E3.09607
G1 X107.543 Y119.099 E3.10347
G1 X107.634 Y118.966 E3.11072
G1 X107.704 Y118.832 E3.11753
G1 X107.706 Y118.828 E3.11773
G1 X107.766 Y118.667 E3.12547
G1 X107.805 Y118.565 E3.13038
G1 X107.735 Y118.192 E3.14747
G1 X107.652 Y118.07 E3.15412
G1 X107.581 Y117.965 E3.15982
G1 X107.439 Y117.84 E3.16834
G1 X107.281 Y117.748 E3.17657
G1 X107.117 Y117.695 E3.18433
G1 X107.052 Y117.684 E3.1873
G1 X106.965 Y117.671 E3.19126
G1 X106.789 Y117.671 E3.19919
G1 X106.585 Y117.722 E3.20866
G1 X106.332 Y117.869 E3.22183
G1 X106.317 Y117.889 E3.22296
G1 X106.283 Y117.931 E3.22539
G1 X106.221 Y117.918 E3.22824
G1 X106.199 Y117.897 E3.22961
G1 X106.179 Y117.854 E3.23175
G1 X106.154 Y117.761 E3.23432
G1 X106.14 Y117.656 E3.23785
G1 X106.133 Y117.464 E3.2465
G1 X106.147 Y117.251 E3.25611
G1 X106.181 Y117.112 E3.26256
G1 X106.185 Y117.096 E3.2633
G1 X106.206 Y117.057 E3.26529
G1 X106.219 Y117.047 E3.26603
G1 X106.242 Y117.038 E3.26714
G1 X106.265 Y117.051
G1 X106.494 Y117.188 E3.27589
G1 X106.632 Y117.245 E3.28261
G1 X106.775 Y117.287 E3.28932
G1 X106.825 Y117.291 E3.29153
G1 X106.981 Y117.307 E3.2981
G1 X107.066 Y117.287 E3.30186
G1 X107.294 Y117.233 E3.31241
G1 X107.521 Y117.06 E3.32526
G1 X107.544 Y117.03 E3.32696
G1 X107.645 Y117.087 E3.33218
G1 X107.942 Y117.127 E3.34567
G1 X108.042 Y117.115 E3.35021
G1 X108.041 Y117.129
G1 X108.043 Y118.043 E3.39136
G1 X108.043 Y118.191 E3.3973
G1 X108.044 Y118.562 E3.40872
G1 X108.042 Y118.586 E3.40879
G1 X108.026 Y118.764 E3.41454
G1 X108.028 Y118.786
G1 X108.057 Y119.006 E3.42326
G1 X108.059 Y119.01 E3.42346
G1 X108.186 Y119.256 E3.43592
G1 X108.393 Y119.434 E3.44821
G1 X108.578 Y119.512 E3.45725
G1 X108.74 Y119.549 E3.46473
G1 X108.921 Y119.558 E3.47289
G1 X109.185 Y119.511 E3.48497
G1 X109.463 Y119.33 E3.4999
G1 X109.623 Y119.102 E3.51245
G1 X109.696 Y118.884 E3.5228
G1 X109.713 Y118.769 E3.52735
G1 X109.72 Y118.727 E3.5283
G1 X109.722 Y118.646 E3.53077
G1 X109.724 Y118.586 E3.53246
G1 X109.722 Y118.486 E3.53556
G1 X109.717 Y118.276 E3.54323
G1 X109.714 Y118.155 E3.54778
G1 X109.714 Y118.073 E3.55147
G1 X109.716 Y117.103 E3.59515
G1 X109.862 Y117.096 E3.60173
G1 X109.987 Y117.078 E3.60742
G1 X110.005 Y117.076 E3.6081
G1 X110.161 Y117.034 E3.61412
G1 X110.251 Y116.986 E3.61681
G1 X110.278 Y116.972 E3.61683
G1 X110.391 Y117.071 E3.6236
G1 F1500 E-2.3764
G0 F7500 X110.28 Y118.744
G0 X110.452 Y119.061
G0 X110.876 Y119.305
G0 X111.578 Y119.356
G0 X112.141 Y119.155
G0 X112.45 Y118.855
G0 X112.665 Y118.298
G0 X112.659 Y116.109
G0 X112.85 Y116.164
;TYPE:WALL-OUTER
G1 F1500 E3.6236
G1 F1800 X112.846 Y116.254 E3.62745
G1 X112.867 Y116.592 E3.64194
G1 X112.865 Y117.654 E3.68736
G1 X112.865 Y117.822 E3.69455
G1 X112.864 Y117.998 E3.70208
G1 X112.863 Y118.114 E3.70704
G1 X112.862 Y118.229 E3.71196
G1 X112.861 Y118.336 E3.71654
G1 X112.86 Y118.405 E3.71949
G1 X112.859 Y118.553 E3.72582
G1 X112.858 Y118.684 E3.73142
G1 X112.87 Y118.786 E3.73582
G1 X112.894 Y118.882 E3.74005
G1 X112.951 Y118.998 E3.74558
G1 X113.041 Y119.093 E3.75118
G1 X113.158 Y119.146 E3.75667
G1 X113.256 Y119.16 E3.7609
G1 X113.635 Y119.136 E3.77715
G1 X114.111 Y119.135 E3.79751
G1 X114.413 Y119.098 E3.81052
G1 X114.656 Y119.028 E3.82134
G1 X114.849 Y118.924 E3.83072
G1 X114.869 Y118.914 E3.83167
G1 X114.974 Y118.835 E3.83729
G1 X115.04 Y118.775 E3.84111
G1 X115.074 Y118.744 E3.84308
G1 X115.094 Y118.72 E3.84441
G1 X115.112 Y118.699 E3.8456
G1 X115.15 Y118.653 E3.84815
G1 X115.191 Y118.604 E3.85088
G1 X115.183 Y118.679 E3.8514
G1 X115.187 Y118.733 E3.85185
G1 X115.194 Y118.802 E3.85321
G1 X115.2 Y118.827 E3.85338
G1 X115.225 Y118.921 E3.85615
G1 X115.234 Y118.941 E3.85709
G1 X115.267 Y119.01 E3.86036
G1 X115.278 Y119.035 E3.86141
G1 X115.353 Y119.14 E3.86693
G1 X115.484 Y119.258 E3.87447
G1 X115.596 Y119.32 E3.87995
G1 X115.712 Y119.361 E3.88521
G1 X115.835 Y119.381 E3.89054
G1 X115.959 Y119.379 E3.89584
G1 X116.08 Y119.355 E3.90112
G1 X116.195 Y119.31 E3.9064
G1 X116.3 Y119.245 E3.91169
G1 X116.393 Y119.163 E3.91699
G1 X116.471 Y119.066 E3.92231
G1 X116.499 Y119.012 E3.92492
G1 X116.524 Y118.965 E3.92719
G1 X116.529 Y118.956 E3.92763
G1 X116.551 Y118.887 E3.93073
G1 X116.566 Y118.84 E3.93284
G1 X116.577 Y118.768 E3.93596
G1 X116.585 Y118.716 E3.93821
G1 X116.584 Y118.68 E3.93975
G1 X116.579 Y118.592 E3.94352
G1 X116.565 Y118.526 E3.9464
G1 X116.552 Y118.472 E3.94878
G1 X116.536 Y118.433 E3.95058
G1 X116.505 Y118.357 E3.95409
G1 X116.438 Y118.253 E3.95939
G1 X116.354 Y118.162 E3.96468
G1 X116.255 Y118.088 E3.96997
G1 X116.144 Y118.031 E3.97531
G1 X116.025 Y117.996 E3.98061
G1 X115.903 Y117.982 E3.98587
G1 X115.799 Y117.988 E3.99032
G1 X115.779 Y117.989 E3.99118
G1 X115.658 Y118.019 E3.99651
G1 X115.618 Y118.037 E3.99839
G1 X115.545 Y118.069 E4.0018
G1 X115.513 Y118.09 E4.00343
G1 X115.443 Y118.138 E4.00706
G1 X115.407 Y118.173 E4.00921
G1 X115.418 Y118.132
G1 X115.444 Y118.041 E4.01014
G1 X115.455 Y118.005
G1 X115.458 Y117.987
G1 X115.466 Y117.938 E4.01111
G1 X115.495 Y117.761 E4.01663
G1 X115.496 Y117.741 E4.01748
G1 X115.51 Y117.492 E4.02815
G1 X115.5 Y117.227 E4.0395
G1 X115.45 Y116.912 E4.05314
G1 X115.363 Y116.642 E4.06527
G1 X115.238 Y116.406 E4.0767
G1 X115.084 Y116.209 E4.08739
G1 X114.966 Y116.102 E4.0942
G1 X114.869 Y116.032 E4.09932
G1 X114.761 Y115.973 E4.10459
G1 X114.547 Y115.896 E4.11431
G1 X114.336 Y115.854 E4.12352
G1 X113.989 Y115.825 E4.13841
G1 X113.317 Y115.818 E4.16716
G1 X113.242 Y115.826 E4.17038
G1 X113.151 Y115.846 E4.17437
G1 X113.062 Y115.881 E4.17846
G1 X112.954 Y115.954 E4.18404
G1 X112.88 Y116.061 E4.1896
G1 X112.85 Y116.164 E4.19419
G0 F7500 X112.846 Y116.254
G0 X112.865 Y116.564
G0 X112.665 Y116.576
G0 X112.753 Y116
G0 X113 Y115.755
G0 X113.311 Y115.679
G0 X114.586 Y115.761
G0 X115.053 Y115.991
G0 X116.524 Y117.139
G0 X116.531 Y116.728
G0 X116.828 Y116.448
G0 X118.085 Y116.398
G0 X122.662 Y116.423
G0 X122.954 Y116.618
G0 X123.057 Y116.952
G0 X122.852 Y118.026
;TYPE:WALL-INNER
G1 F1800 X122.86 Y118.014 E4.19484
G1 X122.866 Y118.005 E4.19533
G1 X122.966 Y117.864 E4.20311
G1 X123.152 Y117.6 E4.21765
G1 X123.225 Y117.468 E4.22444
G1 X123.251 Y117.401 E4.22768
G1 X123.267 Y117.359 E4.2297
G1 X123.28 Y117.327 E4.23126
G1 X123.321 Y117.157 E4.23913
G1 X123.325 Y117.085 E4.24238
G1 X123.355 Y117.135
G1 X123.42 Y117.24 E4.24491
G1 X123.468 Y117.318 E4.24565
G1 X123.565 Y117.475 E4.25153
G1 X123.566 Y117.523 E4.25333
G1 X123.494 Y117.637 E4.25851
G1 X123.414 Y117.764 E4.26381
G1 X123.233 Y118.051 E4.27602
G1 X123.119 Y118.195 E4.28271
G1 X122.95 Y118.064 E4.29234
G1 X122.852 Y118.026 E4.29346
G0 F7500 X123.069 Y116.99
G0 X122.954 Y116.618
G0 X122.662 Y116.423
G0 X116.96 Y116.408
G0 X115.639 Y117.212
G0 X115.493 Y116.592
G0 X115.189 Y116.116
G0 X114.816 Y115.845
G0 X114.001 Y115.686
G0 X113.111 Y115.711
G0 X112.853 Y115.854
G0 X112.712 Y116.143
G0 X112.731 Y118.807
G0 X112.836 Y119.078
G0 X113.121 Y119.283
G0 X118.365 Y119.751
G0 X118.307 Y120.095
G0 X118.452 Y120.435
G0 X118.808 Y120.643
G0 X119.353 Y120.556
G0 X119.75 Y120.274
G0 X120.723 Y119.447
G0 X121.656 Y119.639
G1 F1800 X121.462 Y119.781 E4.30428
G1 X121.375 Y119.845 E4.30915
G1 X121.262 Y119.929 E4.31549
G1 X121.216 Y119.953 E4.31782
G1 X120.38 Y120.403 E4.36057
G1 X120.119 Y120.499 E4.37309
G1 X119.99 Y120.546 E4.37928
G1 X119.858 Y120.594 E4.3856
G1 X119.74 Y120.638 E4.39127
G1 X119.843 Y120.554 E4.39178
G1 X119.951 Y120.442 E4.39352
G1 X120.048 Y120.308 E4.39702
G1 X120.084 Y120.242 E4.39792
G1 X120.195 Y120.038 E4.40838
G1 X120.474 Y119.335 E4.44244
G1 X120.513 Y119.225 E4.44769
G1 X120.556 Y119.104 E4.45347
G1 X120.633 Y119.267 E4.45617
G1 X120.776 Y119.45 E4.46358
G1 X121.028 Y119.605 E4.4769
G1 X121.227 Y119.645 E4.48523
G1 X121.274 Y119.647 E4.48588
G1 X121.365 Y119.651 E4.48779
G1 X121.656 Y119.639 E4.49179
G1 F1500 E-1.50821
G0 F7500 X120.953 Y119.252
G0 X120.773 Y118.907
G0 X120.803 Y118.646
G0 X121.036 Y117.45
G0 X120.996 Y117.103
G0 X121.092 Y117.021
G0 X120.917 Y116.963
;TYPE:WALL-OUTER
G1 F1500 E4.49179
G1 F1800 X120.918 Y116.989 E4.4929
G1 X120.922 Y117.058 E4.49585
