;FLAVOR:Marlin
;TIME:7796
;Filament used: 2.3368m
;Layer height: 0.12
;MINX:81.102
;MINY:104.2
;MINZ:0.12
;MAXX:138.898
;MAXY:115.802
;MAXZ:50.4
;Generated with Cura_SteamEngine 4.7.0
M140 S60
M105
M190 S60
M104 S214
M105
M109 S214
M82 ;absolute extrusion mode
; Ender 3 Custom Start G-code
G92 E0 ; Reset Extruder
G28 ; Home all axes
G1 Z2.0 F3000 ; Move Z Axis up little to prevent scratching of Heat Bed
G1 X0.1 Y20 Z0.3 F5000.0 ; Move to start position
G1 X0.1 Y200.0 Z0.3 F1500.0 E15 ; Draw the first line
G1 X0.4 Y200.0 Z0.3 F5000.0 ; Move to side a little
G1 X0.4 Y20 Z0.3 F1500.0 E30 ; Draw the second line
G92 E0 ; Reset Extruder
G1 Z2.0 F3000 ; Move Z Axis up little to prevent scratching of Heat Bed
G1 X5 Y20 Z0.3 F5000.0 ; Move over to prevent blob squish
G92 E0
G92 E0
G1 F1500 E-6.5
;LAYER_COUNT:420
;LAYER:0
M107
G0 F6000 X82.749 Y104.953 Z0.12
;TYPE:SKIRT
G1 F1500 E0
G1 F1200 X83.213 Y104.656 E0.01099
G1 X83.716 Y104.43 E0.022
G1 X84.246 Y104.279 E0.033
G1 X85.02 Y104.2 E0.04852
G1 X89.542 Y104.201 E0.13876
G1 X90.091 Y104.241 E0.14975
G1 X90.629 Y104.36 E0.16074
G1 X91.144 Y104.556 E0.17174
G1 X91.626 Y104.824 E0.18275
G1 X91.695 Y104.877 E0.18448
G1 X92.041 Y104.656 E0.19268
G1 X92.544 Y104.43 E0.20368
G1 X93.074 Y104.279 E0.21468
G1 X93.847 Y104.2 E0.23018
G1 X105.894 Y104.2 E0.4706
G1 X106.444 Y104.24 E0.4816
G1 X106.982 Y104.359 E0.4926
G1 X107.123 Y104.413 E0.49561
G1 X107.593 Y104.279 E0.50536
G1 X108.366 Y104.2 E0.52087
G1 X111.633 Y104.2 E0.58607
G1 X112.183 Y104.24 E0.59707
G1 X112.721 Y104.359 E0.60807
G1 X112.872 Y104.416 E0.61129
G1 X113.112 Y104.332 E0.61636
G1 X113.653 Y104.227 E0.62736
G1 X114.106 Y104.2 E0.63642
G1 X126.152 Y104.2 E0.87681
G1 X126.702 Y104.24 E0.88781
G1 X127.24 Y104.359 E0.89881
G1 X127.755 Y104.555 E0.9098
G1 X128.236 Y104.823 E0.92079
G1 X128.556 Y105.082 E0.92901
G1 X128.797 Y104.886 E0.93521
G1 X129.27 Y104.604 E0.9462
G1 X129.779 Y104.393 E0.95719
G1 X130.314 Y104.258 E0.9682
G1 X130.975 Y104.2 E0.98144
G1 X134.981 Y104.2 E1.06139
G1 X135.531 Y104.24 E1.07239
G1 X136.069 Y104.359 E1.08339
G1 X136.584 Y104.555 E1.09439
G1 X137.065 Y104.823 E1.10537
G1 X137.668 Y105.313 E1.12088
G1 X137.785 Y105.43 E1.12418
G1 X138.145 Y105.847 E1.13518
G1 X138.442 Y106.311 E1.14617
G1 X138.668 Y106.814 E1.15717
G1 X138.819 Y107.344 E1.16817
G1 X138.898 Y108.117 E1.18368
G1 X138.898 Y111.701 E1.2552
G1 X138.858 Y112.251 E1.26621
G1 X138.739 Y112.789 E1.2772
G1 X138.543 Y113.304 E1.2882
G1 X138.275 Y113.785 E1.29919
G1 X137.785 Y114.388 E1.31469
G1 X137.486 Y114.687 E1.32313
G1 X137.069 Y115.047 E1.33412
G1 X136.605 Y115.344 E1.34512
G1 X136.102 Y115.57 E1.35612
G1 X135.572 Y115.721 E1.36712
G1 X134.8 Y115.8 E1.38261
G1 X131.856 Y115.801 E1.44136
G1 X129.301 Y115.781 E1.49235
G1 X128.752 Y115.737 E1.50334
G1 X128.215 Y115.613 E1.51434
G1 X127.765 Y115.439 E1.52396
G1 X127.456 Y115.576 E1.53071
G1 X126.926 Y115.724 E1.54169
G1 X126.162 Y115.8 E1.55701
G1 X120.142 Y115.787 E1.67715
G1 X119.811 Y115.798 E1.68376
G1 X119.652 Y115.8 E1.68693
G1 X119.002 Y115.794 E1.6999
G1 X118.247 Y115.8 E1.71497
G1 X117.366 Y115.8 E1.73255
G1 X116.791 Y115.802 E1.74403
G1 X116.357 Y115.8 E1.75269
G1 X114.106 Y115.8 E1.79761
G1 X113.556 Y115.76 E1.80861
G1 X113.018 Y115.641 E1.81961
G1 X112.875 Y115.587 E1.82266
G1 X112.403 Y115.721 E1.83245
G1 X111.63 Y115.8 E1.84796
G1 X108.367 Y115.8 E1.91307
G1 X107.817 Y115.76 E1.92408
G1 X107.279 Y115.641 E1.93508
G1 X107.128 Y115.584 E1.9383
G1 X106.888 Y115.668 E1.94337
G1 X106.347 Y115.773 E1.95437
G1 X105.894 Y115.8 E1.96342
G1 X93.847 Y115.8 E2.20384
G1 X93.297 Y115.76 E2.21484
G1 X92.759 Y115.641 E2.22584
G1 X92.244 Y115.445 E2.23683
G1 X91.763 Y115.177 E2.24782
G1 X91.29 Y114.792 E2.25999
G1 X91.098 Y114.931 E2.26472
G1 X90.61 Y115.186 E2.27571
G1 X90.09 Y115.368 E2.2867
G1 X89.724 Y115.439 E2.29414
G1 X89.636 Y115.485 E2.29613
G1 X89.116 Y115.668 E2.30713
G1 X88.575 Y115.773 E2.31812
G1 X88.122 Y115.8 E2.32718
G1 X85.019 Y115.8 E2.3891
G1 X84.469 Y115.76 E2.40011
G1 X83.931 Y115.641 E2.41111
G1 X83.416 Y115.445 E2.4221
G1 X82.935 Y115.177 E2.43309
G1 X82.332 Y114.687 E2.4486
G1 X82.215 Y114.57 E2.4519
G1 X81.855 Y114.153 E2.46289
G1 X81.558 Y113.689 E2.47389
G1 X81.332 Y113.186 E2.48489
G1 X81.181 Y112.656 E2.49589
G1 X81.102 Y111.883 E2.51139
G1 X81.102 Y108.117 E2.58655
G1 X81.142 Y107.567 E2.59755
G1 X81.261 Y107.029 E2.60855
G1 X81.457 Y106.514 E2.61955
G1 X81.725 Y106.033 E2.63053
G1 X82.215 Y105.43 E2.64604
G1 X82.332 Y105.313 E2.64934
G1 X82.749 Y104.953 E2.66034
G0 F6000 X83.011 Y105.257
G1 F1200 X83.453 Y104.982 E2.67072
G1 X83.933 Y104.778 E2.68113
G1 X84.438 Y104.65 E2.69153
G1 X85.02 Y104.6 E2.70319
G1 X89.542 Y104.601 E2.79343
G1 X90.061 Y104.641 E2.80382
G1 X90.569 Y104.76 E2.81423
G1 X91.052 Y104.955 E2.82462
G1 X91.5 Y105.222 E2.83503
G1 X91.693 Y105.382 E2.84003
G1 X91.839 Y105.257 E2.84387
G1 X92.281 Y104.982 E2.85426
G1 X92.761 Y104.778 E2.86466
G1 X93.266 Y104.65 E2.87506
G1 X93.847 Y104.6 E2.8867
G1 X105.894 Y104.6 E3.12711
G1 X106.414 Y104.64 E3.13752
G1 X106.921 Y104.759 E3.14791
G1 X107.128 Y104.843 E3.15237
G1 X107.28 Y104.778 E3.15567
G1 X107.785 Y104.65 E3.16606
G1 X108.366 Y104.6 E3.1777
G1 X111.633 Y104.6 E3.2429
G1 X112.153 Y104.64 E3.25331
G1 X112.66 Y104.759 E3.2637
G1 X112.864 Y104.841 E3.26809
G1 X112.961 Y104.798 E3.2702
G1 X113.464 Y104.661 E3.28061
G1 X114.106 Y104.6 E3.29348
G1 X126.152 Y104.6 E3.53387
G1 X126.672 Y104.64 E3.54427
G1 X127.179 Y104.759 E3.55467
G1 X127.662 Y104.954 E3.56506
G1 X128.11 Y105.22 E3.57546
G1 X128.546 Y105.586 E3.58682
G1 X128.568 Y105.608 E3.58744
G1 X128.879 Y105.323 E3.59586
G1 X129.313 Y105.034 E3.60626
G1 X129.786 Y104.815 E3.61667
G1 X130.287 Y104.67 E3.62707
G1 X130.975 Y104.6 E3.64088
G1 X134.981 Y104.6 E3.72082
G1 X135.501 Y104.64 E3.73123
G1 X136.008 Y104.759 E3.74162
G1 X136.491 Y104.954 E3.75201
G1 X136.939 Y105.22 E3.76241
G1 X137.385 Y105.596 E3.77405
G1 X137.502 Y105.713 E3.77736
G1 X137.841 Y106.109 E3.78776
G1 X138.116 Y106.551 E3.79815
G1 X138.32 Y107.031 E3.80855
G1 X138.448 Y107.536 E3.81895
G1 X138.498 Y108.117 E3.83059
G1 X138.498 Y111.701 E3.90211
G1 X138.458 Y112.221 E3.91252
G1 X138.339 Y112.728 E3.92291
G1 X138.144 Y113.211 E3.93331
G1 X137.878 Y113.659 E3.9437
G1 X137.502 Y114.105 E3.95535
G1 X137.203 Y114.404 E3.96378
G1 X136.807 Y114.743 E3.97419
G1 X136.365 Y115.018 E3.98457
G1 X135.885 Y115.222 E3.99498
G1 X135.38 Y115.35 E4.00538
G1 X134.8 Y115.4 E4.017
G1 X131.859 Y115.401 E4.07569
G1 X129.304 Y115.381 E4.12668
G1 X128.785 Y115.337 E4.13707
G1 X128.279 Y115.214 E4.14746
G1 X127.797 Y115.015 E4.15787
G1 X127.767 Y114.997 E4.15857
G1 X127.721 Y115.025 E4.15964
G1 X127.241 Y115.227 E4.17004
G1 X126.735 Y115.353 E4.18044
G1 X126.163 Y115.4 E4.19189
G1 X120.13 Y115.387 E4.31229
G1 X119.798 Y115.398 E4.31892
G1 X119.656 Y115.4 E4.32175
G1 X119.003 Y115.394 E4.33478
G1 X118.244 Y115.4 E4.34993
G1 X117.365 Y115.4 E4.36747
G1 X116.793 Y115.402 E4.37889
G1 X116.359 Y115.4 E4.38755
G1 X114.106 Y115.4 E4.43251
G1 X113.586 Y115.36 E4.44292
G1 X113.079 Y115.241 E4.45331
G1 X112.87 Y115.157 E4.45781
G1 X112.716 Y115.222 E4.46114
G1 X112.211 Y115.35 E4.47154
G1 X111.63 Y115.4 E4.48318
G1 X108.367 Y115.4 E4.54829
G1 X107.847 Y115.36 E4.5587
G1 X107.34 Y115.241 E4.56909
G1 X107.136 Y115.159 E4.57348
G1 X107.039 Y115.202 E4.5756
G1 X106.536 Y115.339 E4.586
G1 X105.894 Y115.4 E4.59887
G1 X93.847 Y115.4 E4.83928
G1 X93.327 Y115.36 E4.84969
G1 X92.82 Y115.241 E4.86008
G1 X92.337 Y115.046 E4.87048
G1 X91.889 Y114.78 E4.88087
G1 X91.443 Y114.404 E4.89252
G1 X91.326 Y114.287 E4.89582
G1 X91.31 Y114.269 E4.8963
G1 X91.154 Y114.408 E4.90047
G1 X90.717 Y114.69 E4.91085
G1 X90.241 Y114.902 E4.92125
G1 X89.738 Y115.039 E4.93165
G1 X89.601 Y115.052 E4.9344
G1 X89.267 Y115.202 E4.9417
G1 X88.764 Y115.339 E4.95211
G1 X88.122 Y115.4 E4.96498
G1 X85.019 Y115.4 E5.0269
G1 X84.499 Y115.36 E5.03731
G1 X83.992 Y115.241 E5.0477
G1 X83.509 Y115.046 E5.05809
G1 X83.061 Y114.78 E5.06849
G1 X82.615 Y114.404 E5.08013
G1 X82.498 Y114.287 E5.08343
G1 X82.159 Y113.891 E5.09384
G1 X81.884 Y113.449 E5.10423
G1 X81.68 Y112.969 E5.11463
G1 X81.552 Y112.464 E5.12503
G1 X81.502 Y111.883 E5.13667
G1 X81.502 Y108.117 E5.21182
G1 X81.542 Y107.597 E5.22223
G1 X81.661 Y107.09 E5.23262
G1 X81.856 Y106.607 E5.24302
G1 X82.122 Y106.159 E5.25342
G1 X82.498 Y105.713 E5.26506
G1 X82.615 Y105.596 E5.26836
G1 X83.011 Y105.257 E5.27876
G0 F6000 X83.271 Y105.562
G1 F1200 X83.691 Y105.31 E5.28854
G1 X84.146 Y105.13 E5.2983
G1 X84.624 Y105.026 E5.30806
G1 X85.02 Y105 E5.31598
G1 X89.542 Y105.001 E5.40622
G1 X90.03 Y105.041 E5.416
G1 X90.504 Y105.16 E5.42575
G1 X90.954 Y105.354 E5.43553
G1 X91.365 Y105.619 E5.44529
G1 X91.691 Y105.914 E5.45406
G1 X91.726 Y105.879 E5.45505
G1 X92.099 Y105.562 E5.46482
G1 X92.519 Y105.31 E5.47459
G1 X92.974 Y105.13 E5.48436
G1 X93.452 Y105.026 E5.49412
G1 X93.847 Y105 E5.50202
G1 X105.894 Y105 E5.74243
G1 X106.382 Y105.04 E5.7522
G1 X106.857 Y105.159 E5.76197
G1 X107.126 Y105.275 E5.76782
G1 X107.493 Y105.13 E5.77569
G1 X107.971 Y105.026 E5.78545
G1 X108.366 Y105 E5.79335
G1 X111.633 Y105 E5.85855
G1 X112.121 Y105.04 E5.86832
G1 X112.596 Y105.159 E5.87809
G1 X112.859 Y105.272 E5.88381
G1 X113.323 Y105.104 E5.89365
G1 X113.804 Y105.015 E5.90342
G1 X114.106 Y105 E5.90945
G1 X126.152 Y105 E6.14984
G1 X126.64 Y105.04 E6.15961
G1 X127.115 Y105.159 E6.16938
G1 X127.564 Y105.353 E6.17915
G1 X127.976 Y105.618 E6.18892
G1 X128.264 Y105.87 E6.19656
G1 X128.382 Y105.987 E6.19987
G1 X128.576 Y106.213 E6.20582
G1 X128.659 Y106.093 E6.20873
G1 X129.001 Y105.741 E6.21852
G1 X129.394 Y105.45 E6.22828
G1 X129.83 Y105.227 E6.23806
G1 X130.296 Y105.078 E6.24782
G1 X130.975 Y105 E6.26146
G1 X134.981 Y105 E6.3414
G1 X135.469 Y105.04 E6.35117
G1 X135.944 Y105.159 E6.36095
G1 X136.393 Y105.353 E6.37071
G1 X136.805 Y105.618 E6.38048
G1 X137.102 Y105.879 E6.38837
G1 X137.219 Y105.996 E6.39167
G1 X137.536 Y106.369 E6.40144
G1 X137.788 Y106.789 E6.41122
G1 X137.968 Y107.244 E6.42098
G1 X138.072 Y107.722 E6.43074
G1 X138.098 Y108.117 E6.43864
G1 X138.098 Y111.701 E6.51017
G1 X138.058 Y112.189 E6.51994
G1 X137.939 Y112.664 E6.52971
G1 X137.745 Y113.113 E6.53947
G1 X137.48 Y113.525 E6.54925
G1 X137.219 Y113.822 E6.55714
G1 X136.92 Y114.121 E6.56558
G1 X136.547 Y114.438 E6.57534
G1 X136.127 Y114.69 E6.58512
G1 X135.672 Y114.87 E6.59488
G1 X135.194 Y114.974 E6.60465
G1 X134.8 Y115 E6.61253
G1 X131.863 Y115.001 E6.67114
G1 X129.308 Y114.981 E6.72213
G1 X128.82 Y114.937 E6.7319
G1 X128.346 Y114.815 E6.74167
G1 X127.898 Y114.617 E6.75145
G1 X127.765 Y114.53 E6.75462
G1 X127.486 Y114.696 E6.7611
G1 X127.03 Y114.874 E6.77087
G1 X126.551 Y114.976 E6.78064
G1 X126.164 Y115 E6.78838
G1 X120.116 Y114.987 E6.90907
G1 X119.784 Y114.998 E6.9157
G1 X119.659 Y115 E6.91819
G1 X119.003 Y114.994 E6.93129
G1 X118.241 Y115 E6.94649
G1 X117.363 Y115 E6.96402
G1 X116.795 Y115.002 E6.97535
G1 X116.361 Y115 E6.98401
G1 X114.106 Y115 E7.02901
G1 X113.618 Y114.96 E7.03878
G1 X113.143 Y114.841 E7.04856
G1 X112.872 Y114.724 E7.05445
G1 X112.503 Y114.87 E7.06237
G1 X112.025 Y114.974 E7.07213
G1 X111.63 Y115 E7.08003
G1 X108.367 Y115 E7.14514
G1 X107.879 Y114.96 E7.15492
G1 X107.404 Y114.841 E7.16469
G1 X107.141 Y114.728 E7.1704
G1 X106.677 Y114.896 E7.18025
G1 X106.196 Y114.985 E7.19001
G1 X105.894 Y115 E7.19604
G1 X93.847 Y115 E7.43645
G1 X93.359 Y114.96 E7.44623
G1 X92.884 Y114.841 E7.456
G1 X92.435 Y114.647 E7.46576
G1 X92.023 Y114.382 E7.47553
G1 X91.726 Y114.121 E7.48342
G1 X91.609 Y114.004 E7.48673
G1 X91.336 Y113.683 E7.49514
G1 X91.15 Y113.888 E7.50066
G1 X90.767 Y114.193 E7.51043
G1 X90.34 Y114.431 E7.52019
G1 X89.879 Y114.597 E7.52996
G1 X89.469 Y114.672 E7.53828
G1 X89.365 Y114.73 E7.54066
G1 X88.905 Y114.896 E7.55042
G1 X88.424 Y114.985 E7.56018
G1 X88.122 Y115 E7.56621
G1 X85.019 Y115 E7.62814
G1 X84.531 Y114.96 E7.63791
G1 X84.056 Y114.841 E7.64768
G1 X83.607 Y114.647 E7.65744
G1 X83.195 Y114.382 E7.66722
G1 X82.898 Y114.121 E7.67511
G1 X82.781 Y114.004 E7.67841
G1 X82.464 Y113.631 E7.68818
G1 X82.212 Y113.211 E7.69795
G1 X82.032 Y112.756 E7.70772
G1 X81.928 Y112.278 E7.71748
G1 X81.902 Y111.883 E7.72538
G1 X81.902 Y108.117 E7.80053
G1 X81.942 Y107.629 E7.81031
G1 X82.061 Y107.154 E7.82008
G1 X82.255 Y106.705 E7.82984
G1 X82.52 Y106.293 E7.83961
G1 X82.781 Y105.996 E7.8475
G1 X82.898 Y105.879 E7.85081
G1 X83.271 Y105.562 E7.86057
G0 F6000 X83.53 Y105.869
G1 F1200 X83.925 Y105.642 E7.86967
G1 X84.353 Y105.487 E7.87875
G1 X85.02 Y105.4 E7.89217
G1 X89.542 Y105.401 E7.98242
G1 X89.995 Y105.441 E7.99149
G1 X90.435 Y105.56 E8.00059
G1 X90.848 Y105.753 E8.00968
G1 X91.22 Y106.016 E8.01878
G1 X91.541 Y106.34 E8.02788
G1 X91.685 Y106.548 E8.03293
G1 X91.892 Y106.279 E8.0397
G1 X92.009 Y106.162 E8.043
G1 X92.358 Y105.869 E8.0521
G1 X92.753 Y105.642 E8.06119
G1 X93.181 Y105.487 E8.07027
G1 X93.847 Y105.4 E8.08367
G1 X105.894 Y105.4 E8.32409
G1 X106.348 Y105.44 E8.33318
G1 X106.788 Y105.558 E8.34227
G1 X107.134 Y105.721 E8.3499
G1 X107.272 Y105.642 E8.35308
G1 X107.7 Y105.487 E8.36216
G1 X108.366 Y105.4 E8.37557
G1 X111.633 Y105.4 E8.44076
G1 X112.087 Y105.44 E8.44986
G1 X112.527 Y105.558 E8.45895
G1 X112.868 Y105.719 E8.46647
G1 X113.233 Y105.551 E8.47449
G1 X113.674 Y105.436 E8.48359
G1 X114.106 Y105.4 E8.49224
G1 X126.152 Y105.4 E8.73263
G1 X126.606 Y105.44 E8.74172
G1 X127.046 Y105.558 E8.75081
G1 X127.458 Y105.752 E8.7599
G1 X127.983 Y106.154 E8.7731
G1 X128.101 Y106.271 E8.77641
G1 X128.395 Y106.619 E8.78551
G1 X128.597 Y106.966 E8.79352
G1 X128.631 Y106.876 E8.79544
G1 X128.863 Y106.484 E8.80453
G1 X129.16 Y106.138 E8.81363
G1 X129.513 Y105.85 E8.82272
G1 X129.911 Y105.628 E8.83181
G1 X130.341 Y105.478 E8.8409
G1 X130.975 Y105.4 E8.85365
G1 X134.981 Y105.4 E8.93359
G1 X135.435 Y105.44 E8.94269
G1 X135.875 Y105.558 E8.95178
G1 X136.287 Y105.752 E8.96087
G1 X136.819 Y106.162 E8.97427
G1 X136.936 Y106.279 E8.97757
G1 X137.229 Y106.628 E8.98667
G1 X137.456 Y107.023 E8.99576
G1 X137.611 Y107.451 E9.00484
G1 X137.698 Y108.117 E9.01825
G1 X137.698 Y111.701 E9.08977
G1 X137.658 Y112.155 E9.09886
G1 X137.54 Y112.595 E9.10796
G1 X137.346 Y113.007 E9.11704
G1 X136.936 Y113.539 E9.13045
G1 X136.637 Y113.838 E9.13889
G1 X136.288 Y114.131 E9.14798
G1 X135.893 Y114.358 E9.15707
G1 X135.465 Y114.513 E9.16615
G1 X134.8 Y114.6 E9.17954
G1 X131.866 Y114.601 E9.23809
G1 X129.311 Y114.581 E9.28908
G1 X128.857 Y114.537 E9.29818
G1 X128.418 Y114.415 E9.30727
G1 X128.007 Y114.219 E9.31636
G1 X127.763 Y114.044 E9.32235
G1 X127.649 Y114.138 E9.3253
G1 X127.253 Y114.364 E9.3344
G1 X126.824 Y114.516 E9.34348
G1 X126.164 Y114.6 E9.35676
G1 X120.133 Y114.587 E9.47712
G1 X119.771 Y114.599 E9.48434
G1 X119.663 Y114.6 E9.4865
G1 X119.004 Y114.594 E9.49965
G1 X118.238 Y114.6 E9.51494
G1 X117.362 Y114.6 E9.53242
G1 X116.797 Y114.602 E9.54369
G1 X116.363 Y114.6 E9.55236
G1 X114.106 Y114.6 E9.5974
G1 X113.652 Y114.56 E9.60649
G1 X113.212 Y114.442 E9.61558
G1 X112.863 Y114.278 E9.62328
G1 X112.724 Y114.358 E9.62648
G1 X112.296 Y114.513 E9.63556
G1 X111.63 Y114.6 E9.64897
G1 X108.367 Y114.6 E9.71408
G1 X107.913 Y114.56 E9.72318
G1 X107.473 Y114.442 E9.73227
G1 X107.132 Y114.281 E9.73979
G1 X106.767 Y114.449 E9.74781
G1 X106.326 Y114.564 E9.75691
G1 X105.894 Y114.6 E9.76556
G1 X93.847 Y114.6 E10.00597
G1 X93.393 Y114.56 E10.01507
G1 X92.953 Y114.442 E10.02416
G1 X92.541 Y114.248 E10.03324
G1 X92.009 Y113.838 E10.04665
G1 X91.892 Y113.721 E10.04995
G1 X91.599 Y113.372 E10.05904
G1 X91.372 Y112.977 E10.06813
G1 X91.367 Y112.962 E10.06845
G1 X91.345 Y113.008 E10.06947
G1 X91.082 Y113.38 E10.07856
G1 X90.759 Y113.701 E10.08765
G1 X90.384 Y113.96 E10.09674
G1 X89.97 Y114.15 E10.10583
G1 X89.529 Y114.264 E10.11492
G1 X89.369 Y114.277 E10.11813
G1 X88.995 Y114.449 E10.12634
G1 X88.554 Y114.564 E10.13544
G1 X88.122 Y114.6 E10.14409
G1 X85.019 Y114.6 E10.20601
G1 X84.565 Y114.56 E10.21511
G1 X84.125 Y114.442 E10.2242
G1 X83.713 Y114.248 E10.23328
G1 X83.181 Y113.838 E10.24669
G1 X83.064 Y113.721 E10.24999
G1 X82.771 Y113.372 E10.25908
G1 X82.544 Y112.977 E10.26818
