;FLAVOR:Marlin
;TIME:628
;Filament used: 0.312347m
;Layer height: 0.28
;MINX:110.566
;MINY:110.575
;MINZ:0.285
;MAXX:124.479
;MAXY:124.425
;MAXZ:17.085
;Generated with Cura_SteamEngine 4.6.2
M140 S60
M105
M190 S60
M104 S200
M105
M109 S200
M82 ;absolute extrusion mode
; Ender 3 Custom Start G-code
G92 E0 ; Reset Extruder
G28 ; Home all axes
G1 Z2.0 F3000 ; Move Z Axis up little to prevent scratching of Heat Bed
G1 X0.1 Y20 Z0.3 F5000.0 ; Move to start position
G1 X0.1 Y200.0 Z0.3 F1500.0 E15 ; Draw the first line
G1 X0.4 Y200.0 Z0.3 F5000.0 ; Move to side a little
G1 X0.4 Y20 Z0.3 F1500.0 E30 ; Draw the second line
G92 E0 ; Reset Extruder
G1 Z2.0 F3000 ; Move Z Axis up little to prevent scratching of Heat Bed
G1 X5 Y20 Z0.3 F5000.0 ; Move over to prevent blob squish
G92 E0
G92 E0
G1 F1500 E-6
;LAYER_COUNT:62
;LAYER:0
M107
M204 S500
M205 X8 Y8
;MESH:calicat.stl
G0 F7500 X115.234 Y110.975 Z0.285
;TYPE:WALL-INNER
G1 F1500 E0
G1 F1800 X118.034 Y110.975 E0.12607
G1 X118.034 Y114.275 E0.27466
G1 X115.234 Y114.275 E0.40073
G1 X115.234 Y110.975 E0.54932
G0 F7500 X114.834 Y110.575
;TYPE:WALL-OUTER
G1 F1800 X118.434 Y110.575 E0.7033
G1 X118.434 Y114.675 E0.87868
G1 X114.834 Y114.675 E1.03267
G1 X114.834 Y110.575 E1.20805
G0 F7500 X115.234 Y110.575
G0 X115.274 Y111.015
G0 X115.624 Y111.365
;TYPE:SKIN
G1 F1800 X117.644 Y111.365 E1.299
G1 X117.644 Y113.885 E1.41246
G1 X115.624 Y113.885 E1.50342
G1 X115.624 Y111.365 E1.61688
G0 F7500 X115.624 Y111.085
G0 X117.852 Y111.157
G0 X117.924 Y111.826
G0 X117.483 Y111.826
G1 F1800 X117.181 Y111.524 E1.63611
G0 F7500 X116.616 Y111.524
G1 F1800 X117.483 Y112.392 E1.69135
G0 F7500 X117.483 Y112.958
G1 F1800 X116.05 Y111.524 E1.78263
G0 F7500 X115.783 Y111.823
G1 F1800 X117.483 Y113.523 E1.89088
G0 F7500 X117.118 Y113.724
G1 F1800 X115.783 Y112.388 E1.97592
G0 F7500 X115.783 Y112.954
G1 F1800 X116.553 Y113.724 E2.02495
G0 F7500 X115.987 Y113.724
G1 F1800 X115.783 Y113.52 E2.03794
G0 F7500 X115.434 Y113.52
G1 F1500 E-3.96206
G0 F7500 X115.344 Y113.52
G0 X115.234 Y114.455
G0 X115.234 Y116.795
G0 X115.234 Y116.975
;TYPE:WALL-INNER
G1 F1500 E2.03794
G1 F1800 X118.034 Y116.975 E2.16401
G1 X118.034 Y119.475 E2.27658
G1 X121.234 Y119.475 E2.42066
G1 X121.234 Y116.975 E2.53322
G1 X124.034 Y116.975 E2.6593
G1 X124.034 Y120.275 E2.80788
G1 X120.284 Y120.275 E2.97673
G1 X120.284 Y124.025 E3.14558
G1 X116.574 Y124.025 E3.31262
G1 X116.573 Y122.924 E3.3622
G1 X116.573 Y122.725 E3.37116
G1 X116.772 Y122.725 E3.37695
G1 X118.984 Y122.725 E3.47655
G1 X118.984 Y120.275 E3.58686
G1 X115.234 Y120.275 E3.75571
G1 X115.234 Y116.975 E3.9043
G0 F7500 X114.834 Y116.575
;TYPE:WALL-OUTER
G1 F1800 X118.434 Y116.575 E4.05829
G1 X118.434 Y119.075 E4.16522
G1 X120.834 Y119.075 E4.26788
G1 X120.834 Y116.575 E4.37482
G1 X124.434 Y116.575 E4.52881
G1 X124.434 Y120.675 E4.70418
G1 X120.684 Y120.675 E4.86459
G1 X120.684 Y124.425 E5.02499
G1 X116.174 Y124.425 E5.21791
G1 X116.173 Y122.525 E5.29918
G1 X116.173 Y122.325 E5.30773
G1 X116.373 Y122.325 E5.31327
G1 X118.584 Y122.325 E5.40785
G1 X118.584 Y120.675 E5.47842
G1 X114.834 Y120.675 E5.63883
G1 X114.834 Y116.575 E5.81421
G0 F7500 X115.234 Y116.575
G0 X115.274 Y117.015
G0 X115.624 Y117.365
;TYPE:SKIN
G1 F1800 X117.644 Y117.365 E5.90516
G1 X117.644 Y119.865 E6.01772
G1 X121.624 Y119.865 E6.19693
G1 X121.624 Y117.365 E6.30949
G1 X123.644 Y117.365 E6.40044
G1 X123.644 Y119.885 E6.51391
G1 X119.894 Y119.885 E6.68275
G1 X119.894 Y123.635 E6.8516
G1 X116.964 Y123.635 E6.98353
G1 X116.963 Y123.115 E7.00694
G1 X119.374 Y123.115 E7.1155
G1 X119.374 Y119.885 E7.26093
G1 X115.624 Y119.885 E7.42978
G1 X115.624 Y117.365 E7.54325
G0 F7500 X115.624 Y117.085
G0 X115.416 Y117.157
G0 X115.416 Y120.093
G0 X118.812 Y120.447
G0 X118.812 Y122.553
G0 X116.755 Y122.907
G0 X116.756 Y123.843
G0 X117.251 Y123.915
G0 X117.251 Y123.474
G1 F1800 X117.123 Y123.345 E7.55143
G0 F7500 X117.618 Y123.274
G1 F1800 X117.817 Y123.474 E7.56413
G0 F7500 X118.183 Y123.274
G1 F1800 X118.383 Y123.474 E7.57687
G0 F7500 X118.749 Y123.274
G1 F1800 X118.948 Y123.474 E7.58957
G0 F7500 X119.315 Y123.274
G1 F1800 X119.514 Y123.474 E7.60227
G0 F7500 X119.734 Y123.128
G1 F1800 X119.533 Y122.927 E7.61507
G0 F7500 X119.734 Y122.562
G1 F1800 X119.533 Y122.362 E7.62784
G0 F7500 X119.734 Y121.997
G1 F1800 X119.533 Y121.796 E7.64064
G0 F7500 X119.734 Y121.431
G1 F1800 X119.533 Y121.23 E7.65344
G0 F7500 X119.734 Y120.865
G1 F1800 X119.533 Y120.664 E7.66624
G0 F7500 X119.734 Y120.3
G1 F1800 X119.533 Y120.099 E7.67903
G0 F7500 X119.094 Y120.099
G0 X117.461 Y120.165
G0 X117.461 Y119.724
G1 F1800 X115.783 Y118.046 E7.78588
G0 F7500 X115.827 Y117.524
G1 F1800 X117.484 Y119.181 E7.8914
G0 F7500 X117.484 Y118.615
G1 F1800 X116.393 Y117.524 E7.96087
G0 F7500 X116.958 Y117.524
G1 F1800 X117.484 Y118.05 E7.99436
G0 F7500 X117.924 Y118.05
G0 X117.852 Y117.157
G0 X115.416 Y117.157
G0 X115.416 Y120.093
G0 X116.896 Y120.165
G0 X116.896 Y119.724
G1 F1800 X115.783 Y118.612 E8.0652
G0 F7500 X115.783 Y119.177
G1 F1800 X116.33 Y119.724 E8.10003
G0 F7500 X116.33 Y120.165
G0 X115.416 Y120.093
G0 X115.416 Y117.157
G0 X117.852 Y117.157
G0 X117.852 Y119.407
G0 X121.344 Y119.52
G0 X121.782 Y119.52
G1 F1800 X121.987 Y119.724 E8.11305
G0 F7500 X122.552 Y119.724
G1 F1800 X121.782 Y118.954 E8.16208
G0 F7500 X121.782 Y118.388
G1 F1800 X123.118 Y119.724 E8.24715
G0 F7500 X123.483 Y119.523
G1 F1800 X121.782 Y117.823 E8.35544
G0 F7500 X122.05 Y117.525
G1 F1800 X123.483 Y118.957 E8.44665
G0 F7500 X123.483 Y118.392
G1 F1800 X122.616 Y117.525 E8.50186
G0 F7500 X123.182 Y117.525
G1 F1800 X123.483 Y117.826 E8.52103
G0 F7500 X123.834 Y117.826
G1 F1500 E2.52103
G0 F7500 X123.924 Y117.826
G0 X124.034 Y116.795
G0 X124.034 Y114.455
G0 X124.034 Y114.275
;TYPE:WALL-INNER
G1 F1500 E8.52103
G1 F1800 X121.234 Y114.275 E8.6471
G1 X121.234 Y110.975 E8.79568
G1 X124.034 Y110.975 E8.92176
G1 X124.034 Y114.275 E9.07034
G0 F7500 X124.434 Y114.675
;TYPE:WALL-OUTER
G1 F1800 X120.834 Y114.675 E9.22433
G1 X120.834 Y110.575 E9.39971
G1 X124.434 Y110.575 E9.5537
G1 X124.434 Y114.675 E9.72907
G0 F7500 X124.034 Y114.675
G0 X123.994 Y114.235
G0 X123.644 Y113.885
;TYPE:SKIN
G1 F1800 X121.624 Y113.885 E9.82002
G1 X121.624 Y111.365 E9.93349
G1 X123.644 Y111.365 E10.02444
G1 X123.644 Y113.885 E10.13791
G0 F7500 X123.924 Y113.885
G0 X123.86 Y114.072
G0 X122.21 Y114.165
G0 X122.21 Y113.725
G1 F1800 X121.783 Y113.298 E10.1651
G0 F7500 X121.783 Y112.732
G1 F1800 X122.776 Y113.725 E10.22833
G0 F7500 X123.342 Y113.725
G1 F1800 X121.783 Y112.166 E10.3276
G0 F7500 X121.783 Y111.601
G1 F1800 X123.483 Y113.301 E10.43585
G0 F7500 X123.483 Y112.735
G1 F1800 X122.272 Y111.524 E10.51296
G0 F7500 X122.838 Y111.524
G1 F1800 X123.483 Y112.169 E10.55403
G0 F7500 X123.483 Y111.604
G1 F1800 X123.404 Y111.524 E10.55909
G0 F7500 X123.404 Y111.175
G1 F1500 E4.55909
;MESH:NONMESH
G0 F300 X123.404 Y111.175 Z0.565
G0 F7500 X123.404 Y111.085
G0 X121.054 Y110.975
G0 X118.214 Y110.975
G0 X115.234 Y110.975
;TIME_ELAPSED:22.618518
;LAYER:1
M140 S60
M106 S85
;TYPE:WALL-INNER
;MESH:calicat.stl
G1 F1500 E10.55909
G1 F1993.7 X118.034 Y110.975 E10.68947
G1 X118.034 Y114.275 E10.84313
G1 X115.234 Y114.275 E10.97351
G1 X115.234 Y110.975 E11.12718
G0 F8250 X114.834 Y110.575
;TYPE:WALL-OUTER
G1 F1495.3 X118.434 Y110.575 E11.28643
G1 X118.434 Y114.675 E11.46779
G1 X114.834 Y114.675 E11.62704
G1 X114.834 Y110.575 E11.80841
G0 F8250 X115.234 Y110.575
G0 X115.274 Y111.015
G0 X115.624 Y111.365
;TYPE:SKIN
G1 F1495.3 X117.644 Y111.365 E11.90247
G1 X117.644 Y113.885 E12.01981
G1 X115.624 Y113.885 E12.11387
G1 X115.624 Y111.365 E12.23121
G0 F8250 X115.88 Y111.524
G1 F1495.3 X115.783 Y111.622 E12.23763
G0 F8250 X115.783 Y112.188
G1 F1495.3 X116.446 Y111.524 E12.28133
G0 F8250 X117.012 Y111.524
G1 F1495.3 X115.783 Y112.753 E12.36226
G0 F8250 X115.783 Y113.319
G1 F1495.3 X117.482 Y111.619 E12.47417
G0 F8250 X117.482 Y112.185
G1 F1495.3 X115.942 Y113.725 E12.57558
G0 F8250 X116.508 Y113.725
G1 F1495.3 X117.482 Y112.751 E12.63972
G0 F8250 X117.482 Y113.316
G1 F1495.3 X117.074 Y113.725 E12.66662
G0 F8250 X117.074 Y114.075
G1 F1500 E6.66662
G0 F8250 X117.074 Y114.165
G0 X118.034 Y114.455
G0 X118.034 Y116.795
G0 X118.034 Y116.975
;TYPE:WALL-INNER
G1 F1500 E12.66662
G1 F1993.7 X118.034 Y119.475 E12.78304
G1 X121.234 Y119.475 E12.93204
G1 X121.234 Y116.975 E13.04845
G1 X124.034 Y116.975 E13.17883
G1 X124.034 Y120.275 E13.33249
G1 X120.284 Y120.275 E13.50711
G1 X120.284 Y124.025 E13.68172
G1 X116.291 Y124.025 E13.86765
G1 X116.29 Y122.924 E13.91892
G1 X116.29 Y122.725 E13.92819
G1 X116.489 Y122.725 E13.93418
G1 X118.984 Y122.725 E14.05036
G1 X118.984 Y120.275 E14.16444
G1 X115.234 Y120.275 E14.33906
G1 X115.234 Y116.975 E14.49272
G1 X118.034 Y116.975 E14.6231
G0 F8250 X118.434 Y116.575
;TYPE:WALL-OUTER
G1 F1495.3 X118.434 Y119.075 E14.73369
G1 X120.834 Y119.075 E14.83986
G1 X120.834 Y116.575 E14.95045
G1 X124.434 Y116.575 E15.1097
G1 X124.434 Y120.675 E15.29106
G1 X120.684 Y120.675 E15.45695
G1 X120.684 Y124.425 E15.62283
G1 X115.891 Y124.425 E15.83486
G1 X115.89 Y122.525 E15.91891
G1 X115.89 Y122.325 E15.92775
G1 X116.09 Y122.325 E15.93348
G1 X118.584 Y122.325 E16.04381
G1 X118.584 Y120.675 E16.11679
G1 X114.834 Y120.675 E16.28268
G1 X114.834 Y116.575 E16.46405
G1 X118.434 Y116.575 E16.6233
G0 F8250 X118.434 Y116.975
G0 X117.994 Y117.015
G0 X117.644 Y117.365
;TYPE:SKIN
G1 F1495.3 X117.644 Y119.865 E16.73971
G1 X121.624 Y119.865 E16.92503
G1 X121.624 Y117.365 E17.04144
G1 X123.644 Y117.365 E17.1355
G1 X123.644 Y119.885 E17.25284
G1 X119.894 Y119.885 E17.42746
G1 X119.894 Y123.635 E17.60208
G1 X116.681 Y123.635 E17.75169
G1 X116.68 Y123.115 E17.7759
G1 X119.374 Y123.115 E17.90134
G1 X119.374 Y119.885 E18.05175
G1 X115.624 Y119.885 E18.22636
G1 X115.624 Y117.365 E18.3437
G1 X117.644 Y117.365 E18.43776
G0 F8250 X117.644 Y117.085
G0 X115.416 Y117.157
G0 X115.344 Y117.843
G0 X115.784 Y117.843
G1 F1495.3 X116.104 Y117.523 E18.45884
G0 F8250 X116.669 Y117.523
G1 F1495.3 X115.784 Y118.409 E18.51715
G0 F8250 X115.784 Y118.974
G1 F1495.3 X117.235 Y117.523 E18.6127
G0 F8250 X117.484 Y117.84
G1 F1495.3 X115.784 Y119.54 E18.72465
G0 F8250 X116.166 Y119.724
G1 F1495.3 X117.484 Y118.406 E18.81144
G0 F8250 X117.484 Y118.972
G1 F1495.3 X116.732 Y119.724 E18.86096
G0 F8250 X117.297 Y119.724
G1 F1495.3 X117.484 Y119.537 E18.87327
G0 F8250 X117.924 Y119.537
G0 X117.852 Y117.157
G0 X115.416 Y117.157
G0 X115.416 Y120.093
G0 X119.094 Y120.317
G0 X119.533 Y120.317
G1 F1495.3 X119.733 Y120.116 E18.88648
G0 F8250 X119.733 Y120.682
G1 F1495.3 X119.533 Y120.882 E18.89965
G0 F8250 X119.733 Y121.248
G1 F1495.3 X119.533 Y121.448 E18.91282
G0 F8250 X119.733 Y121.813
G1 F1495.3 X119.533 Y122.014 E18.92602
G0 F8250 X119.733 Y122.379
G1 F1495.3 X119.533 Y122.579 E18.93919
G0 F8250 X119.733 Y122.945
G1 F1495.3 X119.533 Y123.145 E18.95236
G0 F8250 X119.404 Y123.274
G1 F1495.3 X119.204 Y123.474 E18.96553
G0 F8250 X118.839 Y123.274
G1 F1495.3 X118.639 Y123.474 E18.9787
G0 F8250 X118.273 Y123.274
G1 F1495.3 X118.073 Y123.474 E18.99187
G0 F8250 X117.707 Y123.274
G1 F1495.3 X117.507 Y123.474 E19.00504
G0 F8250 X117.142 Y123.274
G1 F1495.3 X116.942 Y123.474 E19.01821
G0 F8250 X116.942 Y123.915
G0 X120.102 Y123.843
G0 X120.456 Y120.447
G0 X121.822 Y120.165
G0 X121.822 Y119.725
G1 F1495.3 X123.483 Y118.064 E19.12759
G0 F8250 X123.456 Y117.525
G1 F1495.3 X121.783 Y119.198 E19.23776
G0 F8250 X121.783 Y118.632
G1 F1495.3 X122.89 Y117.525 E19.31066
G0 F8250 X122.325 Y117.525
G1 F1495.3 X121.783 Y118.067 E19.34635
G0 F8250 X121.344 Y118.067
G0 X121.416 Y117.157
G0 X123.852 Y117.157
G0 X123.852 Y120.093
G0 X122.388 Y120.165
G0 X122.388 Y119.725
G1 F1495.3 X123.483 Y118.629 E19.41849
G0 F8250 X123.483 Y119.195
G1 F1495.3 X122.953 Y119.725 E19.45339
G0 F8250 X122.953 Y120.075
G1 F1500 E13.45339
G0 F8250 X122.953 Y120.165
G0 X123.852 Y120.093
G0 X124.034 Y116.795
G0 X124.034 Y114.455
G0 X124.034 Y114.275
;TYPE:WALL-INNER
G1 F1500 E19.45339
G1 F1993.7 X121.234 Y114.275 E19.58377
G1 X121.234 Y110.975 E19.73744
G1 X124.034 Y110.975 E19.86782
G1 X124.034 Y114.275 E20.02148
G0 F8250 X124.434 Y114.675
;TYPE:WALL-OUTER
G1 F1495.3 X120.834 Y114.675 E20.18073
G1 X120.834 Y110.575 E20.36209
G1 X124.434 Y110.575 E20.52134
G1 X124.434 Y114.675 E20.70271
G0 F8250 X124.034 Y114.675
G0 X123.994 Y114.235
G0 X123.644 Y113.885
;TYPE:SKIN
G1 F1495.3 X121.624 Y113.885 E20.79677
G1 X121.624 Y111.365 E20.91411
G1 X123.644 Y111.365 E21.00817
G1 X123.644 Y113.885 E21.12551
G0 F8250 X123.483 Y113.538
G1 F1495.3 X123.296 Y113.725 E21.13783
G0 F8250 X122.731 Y113.725
G1 F1495.3 X123.483 Y112.973 E21.18735
G0 F8250 X123.483 Y112.407
G1 F1495.3 X122.165 Y113.725 E21.27414
G0 F8250 X121.783 Y113.541
G1 F1495.3 X123.483 Y111.841 E21.38609
G0 F8250 X123.234 Y111.524
G1 F1495.3 X121.783 Y112.975 E21.48164
G0 F8250 X121.783 Y112.41
G1 F1495.3 X122.668 Y111.524 E21.53995
G0 F8250 X122.103 Y111.524
G1 F1495.3 X121.783 Y111.844 E21.56102
G0 F8250 X121.434 Y111.844
G1 F1500 E15.56102
;MESH:NONMESH
G0 F300 X121.434 Y111.844 Z0.845
G0 F8250 X121.344 Y111.844
G0 X121.054 Y110.975
G0 X118.214 Y110.975
G0 X115.234 Y110.975
;TIME_ELAPSED:41.223269
;LAYER:2
M106 S170
;TYPE:WALL-INNER
;MESH:calicat.stl
G1 F1500 E21.56102
G1 F1306.5 X118.034 Y110.975 E21.6914
G1 X118.034 Y114.275 E21.84507
G1 X115.234 Y114.275 E21.97545
G1 X115.234 Y110.975 E22.12911
G0 F9000 X114.834 Y110.575
;TYPE:WALL-OUTER
G1 F783.9 X118.434 Y110.575 E22.28836
G1 X118.434 Y114.675 E22.46973
G1 X114.834 Y114.675 E22.62897
G1 X114.834 Y110.575 E22.81034
G0 F9000 X115.234 Y110.575
G0 X115.274 Y111.015
G0 X115.434 Y111.175
G1 F1500 E16.81034
G0 F9000 X115.234 Y114.455
G0 X115.234 Y116.795
G0 X115.234 Y116.975
;TYPE:WALL-INNER
G1 F1500 E22.81034
G1 F1306.5 X118.034 Y116.975 E22.94072
G1 X118.034 Y119.475 E23.05713
G1 X121.234 Y119.475 E23.20614
G1 X121.234 Y116.975 E23.32255
G1 X124.034 Y116.975 E23.45293
G1 X124.034 Y120.275 E23.60659
G1 X120.284 Y120.275 E23.78121
G1 X120.284 Y124.025 E23.95582
G1 X116.011 Y124.025 E24.15479
G1 X116.01 Y122.924 E24.20606
G1 X116.01 Y122.725 E24.21532
G1 X116.209 Y122.725 E24.22132
G1 X118.984 Y122.725 E24.35053
G1 X118.984 Y120.275 E24.46462
G1 X115.234 Y120.275 E24.63923
G1 X115.234 Y116.975 E24.79289
G0 F9000 X114.834 Y116.575
;TYPE:WALL-OUTER
G1 F783.9 X118.434 Y116.575 E24.95214
G1 X118.434 Y119.075 E25.06273
G1 X120.834 Y119.075 E25.1689
G1 X120.834 Y116.575 E25.27949
G1 X124.434 Y116.575 E25.43874
G1 X124.434 Y120.675 E25.62011
G1 X120.684 Y120.675 E25.78599
G1 X120.684 Y124.425 E25.95188
G1 X115.611 Y124.425 E26.17629
G1 X115.61 Y122.525 E26.26033
G1 X115.61 Y122.325 E26.26918
G1 X115.81 Y122.325 E26.27491
G1 X118.584 Y122.325 E26.39762
G1 X118.584 Y120.675 E26.47061
G1 X114.834 Y120.675 E26.63649
G1 X114.834 Y116.575 E26.81786
G0 F9000 X115.234 Y116.575
G0 X115.274 Y117.015
G0 X117.055 Y117.055
;TYPE:FILL
G1 F1567.8 X117.953 Y117.953 E26.877
G0 F9000 X117.945 Y117.054
G1 F1567.8 X115.314 Y119.685 E27.05025
G0 F9000 X119.555 Y119.555
G1 F1567.8 X120.203 Y120.203 E27.09292
G0 F9000 X120.202 Y120.193
G1 F1500 E21.09292
G0 F9000 X120.056 Y120.093
G0 X120.056 Y119.657
G0 X121.062 Y119.303
G0 X121.234 Y116.795
G0 X121.234 Y114.455
G0 X121.234 Y114.275
;TYPE:WALL-INNER
G1 F1500 E27.09292
G1 F1306.5 X121.234 Y110.975 E27.24659
G1 X124.034 Y110.975 E27.37697
G1 X124.034 Y114.275 E27.53063
G1 X121.234 Y114.275 E27.66101
G0 F9000 X120.834 Y114.675
;TYPE:WALL-OUTER
G1 F783.9 X120.834 Y110.575 E27.84238
G1 X124.434 Y110.575 E28.00163
G1 X124.434 Y114.675 E28.18299
G1 X120.834 Y114.675 E28.34224
G0 F9000 X120.834 Y114.275
G0 X121.274 Y114.235
G0 X121.313 Y113.686
;TYPE:FILL
G1 F1567.8 X123.945 Y111.054 E28.51556
G0 F9000 X123.834 Y111.175
G1 F1500 E22.51556
;MESH:NONMESH
G0 F300 X123.834 Y111.175 Z1.125
G0 F9000 X121.054 Y110.975
G0 X118.214 Y110.975
G0 X115.234 Y110.975
;TIME_ELAPSED:54.518819
;LAYER:3
M106 S255
;TYPE:WALL-INNER
;MESH:calicat.stl
G1 F1500 E28.51556
G1 F1318.3 X118.034 Y110.975 E28.64594
G1 X118.034 Y114.275 E28.79961
G1 X115.234 Y114.275 E28.92999
G1 X115.234 Y110.975 E29.08365
G0 F9000 X114.834 Y110.575
;TYPE:WALL-OUTER
