;FLAVOR:Marlin
;TIME:1603
;Filament used: 0.851232m
;Layer height: 0.2
;MINX:94.009
;MINY:34.013
;MINZ:0.2
;MAXX:140.984
;MAXY:80.989
;MAXZ:10
;Generated with Cura_SteamEngine 4.6.2
M140 S60
M105
M190 S60
M104 S200
M105
M109 S200
M82 ;absolute extrusion mode
; Ender 3 Custom Start G-code
G92 E0 ; Reset Extruder
G28 ; Home all axes
G1 Z2.0 F3000 ; Move Z Axis up little to prevent scratching of Heat Bed
G1 X0.1 Y20 Z0.3 F5000.0 ; Move to start position
G1 X0.1 Y200.0 Z0.3 F1500.0 E15 ; Draw the first line
G1 X0.4 Y200.0 Z0.3 F5000.0 ; Move to side a little
G1 X0.4 Y20 Z0.3 F1500.0 E30 ; Draw the second line
G92 E0 ; Reset Extruder
G1 Z2.0 F3000 ; Move Z Axis up little to prevent scratching of Heat Bed
G1 X5 Y20 Z0.3 F5000.0 ; Move over to prevent blob squish
G92 E0
G92 E0
G1 F1500 E-6
;LAYER_COUNT:50
;LAYER:0
M107
M204 S500
M205 X8 Y8
G0 F7500 X118.582 Y34.837 Z0.2
;TYPE:SKIRT
G1 F1500 E0
G1 X119.186 Y34.875 E0.01912
G1 X120.236 Y34.978 E0.05246
G1 X120.645 Y35.029 E0.06548
G1 X121.228 Y35.119 E0.08412
G1 X122.148 Y35.293 E0.11371
G1 X122.585 Y35.387 E0.12783
G1 X123.172 Y35.532 E0.14693
G1 X124.09 Y35.791 E0.17707
G1 X124.518 Y35.923 E0.19123
G1 X125.102 Y36.123 E0.21073
G1 X126.027 Y36.476 E0.24201
G1 X126.427 Y36.641 E0.25569
G1 X126.944 Y36.871 E0.27356
G1 X127.855 Y37.313 E0.30556
G1 X128.231 Y37.508 E0.31894
G1 X128.743 Y37.793 E0.33746
G1 X129.547 Y38.275 E0.36708
G1 X129.938 Y38.523 E0.38171
G1 X130.449 Y38.869 E0.40121
G1 X131.223 Y39.434 E0.43148
G1 X131.563 Y39.695 E0.44503
G1 X132.025 Y40.071 E0.46385
G1 X132.767 Y40.719 E0.49498
G1 X133.102 Y41.027 E0.50936
G1 X133.532 Y41.447 E0.52835
G1 X134.169 Y42.113 E0.55747
G1 X134.479 Y42.453 E0.57201
G1 X134.878 Y42.917 E0.59134
G1 X135.306 Y43.447 E0.61287
G1 X135.499 Y43.694 E0.62277
G1 X135.762 Y44.041 E0.63653
G1 X136.086 Y44.493 E0.6541
G1 X136.45 Y45.032 E0.67465
G1 X136.64 Y45.325 E0.68569
G1 X136.885 Y45.716 E0.70027
G1 X137.161 Y46.184 E0.71743
G1 X137.47 Y46.741 E0.73756
G1 X137.629 Y47.038 E0.7482
G1 X137.837 Y47.444 E0.76262
G1 X138.092 Y47.981 E0.7814
G1 X138.48 Y48.871 E0.81208
G1 X138.647 Y49.283 E0.82613
G1 X138.855 Y49.844 E0.84503
G1 X139.16 Y50.757 E0.87545
G1 X139.286 Y51.168 E0.88903
G1 X139.448 Y51.76 E0.90842
G1 X139.662 Y52.659 E0.93762
G1 X139.751 Y53.073 E0.951
G1 X139.867 Y53.712 E0.97152
G1 X140.009 Y54.694 E1.00287
G1 X140.063 Y55.15 E1.01738
G1 X140.114 Y55.718 E1.0354
G1 X140.167 Y56.63 E1.06427
G1 X140.183 Y57.121 E1.07979
G1 X140.184 Y57.726 E1.09891
G1 X140.154 Y58.681 E1.1291
G1 X140.128 Y59.128 E1.14324
G1 X140.077 Y59.712 E1.16177
G1 X139.957 Y60.703 E1.19331
G1 X139.899 Y61.099 E1.20595
G1 X139.796 Y61.685 E1.22475
G1 X139.659 Y62.348 E1.24615
G1 X139.586 Y62.674 E1.2567
G1 X139.479 Y63.118 E1.27113
G1 X139.335 Y63.653 E1.28864
G1 X139.147 Y64.281 E1.30935
G1 X139.047 Y64.595 E1.31976
G1 X138.905 Y65.019 E1.33389
G1 X138.699 Y65.579 E1.35275
G1 X138.34 Y66.461 E1.38283
G1 X138.158 Y66.877 E1.39718
G1 X137.917 Y67.389 E1.41506
G1 X137.629 Y67.959 E1.43524
G1 X137.471 Y68.258 E1.44593
G1 X137.241 Y68.678 E1.46106
G1 X136.955 Y69.168 E1.47898
G1 X136.609 Y69.724 E1.49968
G1 X136.418 Y70.02 E1.51081
G1 X136.175 Y70.382 E1.52458
G1 X135.851 Y70.836 E1.54221
G1 X135.267 Y71.605 E1.57272
G1 X134.987 Y71.955 E1.58688
G1 X134.588 Y72.423 E1.60631
G1 X134.164 Y72.892 E1.62629
G1 X133.942 Y73.13 E1.63657
G1 X133.623 Y73.461 E1.6511
G1 X133.224 Y73.853 E1.66877
G1 X132.74 Y74.303 E1.68965
G1 X132.479 Y74.538 E1.70075
G1 X132.132 Y74.839 E1.71526
G1 X131.693 Y75.199 E1.7332
G1 X130.934 Y75.781 E1.76342
G1 X130.587 Y76.034 E1.77699
G1 X130.081 Y76.38 E1.79636
G1 X129.541 Y76.726 E1.81663
G1 X129.261 Y76.899 E1.82703
G1 X128.845 Y77.147 E1.84233
G1 X128.361 Y77.418 E1.85986
G1 X127.814 Y77.705 E1.87937
G1 X127.515 Y77.856 E1.88996
G1 X127.091 Y78.061 E1.90484
G1 X126.571 Y78.295 E1.92286
G1 X125.968 Y78.546 E1.94349
G1 X125.665 Y78.666 E1.95379
G1 X125.222 Y78.834 E1.96876
G1 X124.66 Y79.029 E1.98756
G1 X124.058 Y79.218 E2.0075
G1 X123.752 Y79.308 E2.01757
G1 X123.334 Y79.425 E2.03129
G1 X122.782 Y79.564 E2.04928
G1 X122.102 Y79.714 E2.07128
G1 X121.788 Y79.778 E2.0814
G1 X121.378 Y79.855 E2.09458
G1 X120.812 Y79.945 E2.11269
G1 X120.182 Y80.027 E2.13277
G1 X119.871 Y80.062 E2.14266
G1 X119.407 Y80.108 E2.15739
G1 X118.796 Y80.15 E2.17674
G1 X117.796 Y80.185 E2.20836
G1 X117.35 Y80.189 E2.22245
G1 X116.758 Y80.177 E2.24116
G1 X115.887 Y80.13 E2.26872
G1 X115.432 Y80.095 E2.28314
G1 X114.822 Y80.03 E2.30252
G1 X114.067 Y79.926 E2.3266
G1 X113.399 Y79.817 E2.34799
G1 X112.792 Y79.696 E2.36755
G1 X111.849 Y79.473 E2.39816
G1 X111.423 Y79.361 E2.41208
G1 X110.857 Y79.194 E2.43073
G1 X109.95 Y78.894 E2.46091
G1 X109.504 Y78.734 E2.47589
G1 X108.944 Y78.514 E2.4949
G1 X108.09 Y78.145 E2.52429
G1 X107.709 Y77.969 E2.53755
G1 X107.164 Y77.697 E2.5568
G1 X106.519 Y77.351 E2.57993
G1 X106.226 Y77.188 E2.59052
G1 X105.862 Y76.977 E2.60381
G1 X105.388 Y76.684 E2.62142
G1 X104.606 Y76.166 E2.65106
G1 X104.232 Y75.904 E2.66549
G1 X103.762 Y75.554 E2.684
G1 X103.21 Y75.118 E2.70623
G1 X102.948 Y74.904 E2.71692
G1 X102.625 Y74.631 E2.73028
G1 X102.211 Y74.261 E2.74783
G1 X101.754 Y73.83 E2.76767
G1 X101.505 Y73.587 E2.77867
G1 X101.198 Y73.277 E2.79245
G1 X100.816 Y72.87 E2.81009
G1 X100.13 Y72.091 E2.84289
G1 X99.86 Y71.768 E2.85619
G1 X99.47 Y71.271 E2.87615
G1 X98.941 Y70.545 E2.90454
G1 X98.679 Y70.167 E2.91907
G1 X98.353 Y69.666 E2.93795
G1 X97.846 Y68.827 E2.96893
G1 X97.627 Y68.444 E2.98287
G1 X97.332 Y67.889 E3.00273
G1 X96.931 Y67.064 E3.03171
G1 X96.735 Y66.634 E3.04664
G1 X96.512 Y66.106 E3.06475
G1 X96.15 Y65.164 E3.09664
G1 X96.004 Y64.751 E3.11048
G1 X95.825 Y64.192 E3.12903
G1 X95.567 Y63.287 E3.15876
G1 X95.448 Y62.822 E3.17393
G1 X95.324 Y62.275 E3.19165
G1 X95.197 Y61.634 E3.2123
G1 X95.139 Y61.31 E3.2227
G1 X95.066 Y60.867 E3.23689
G1 X94.987 Y60.287 E3.25538
G1 X94.889 Y59.322 E3.28603
G1 X94.869 Y59.055 E3.29449
G1 X94.85 Y58.725 E3.30493
G1 X94.82 Y58.017 E3.32732
G1 X94.809 Y57.457 E3.34502
G1 X94.829 Y56.676 E3.36971
G1 X94.9 Y55.579 E3.40444
G1 X94.931 Y55.205 E3.4163
G1 X94.965 Y54.871 E3.42691
G1 X95.044 Y54.276 E3.44587
G1 X95.202 Y53.329 E3.47621
G1 X95.292 Y52.864 E3.49117
G1 X95.422 Y52.285 E3.50992
G1 X95.661 Y51.363 E3.54002
G1 X95.782 Y50.939 E3.55395
G1 X95.968 Y50.354 E3.57335
G1 X96.267 Y49.513 E3.60155
G1 X96.431 Y49.084 E3.61606
G1 X96.672 Y48.509 E3.63576
G1 X97.081 Y47.618 E3.66674
G1 X97.27 Y47.231 E3.68035
G1 X97.557 Y46.685 E3.69984
G1 X98.025 Y45.866 E3.72964
G1 X98.262 Y45.474 E3.74412
G1 X98.588 Y44.97 E3.76308
G1 X99.138 Y44.178 E3.79355
G1 X99.421 Y43.793 E3.80865
G1 X99.779 Y43.335 E3.82702
G1 X100.351 Y42.649 E3.85524
G1 X100.667 Y42.289 E3.87037
G1 X101.076 Y41.85 E3.88933
G1 X101.775 Y41.149 E3.92061
G1 X102.087 Y40.851 E3.93424
G1 X102.545 Y40.439 E3.95371
G1 X103.271 Y39.831 E3.98363
G1 X103.597 Y39.571 E3.99681
G1 X104.074 Y39.213 E4.01565
G1 X104.901 Y38.634 E4.04755
G1 X105.268 Y38.391 E4.06146
G1 X105.785 Y38.07 E4.08069
G1 X106.596 Y37.605 E4.11022
G1 X106.982 Y37.396 E4.12409
G1 X107.526 Y37.123 E4.14333
G1 X108.439 Y36.702 E4.17509
G1 X108.862 Y36.521 E4.18963
G1 X109.383 Y36.316 E4.20732
G1 X110.254 Y36.003 E4.23657
G1 X110.711 Y35.852 E4.25177
G1 X111.287 Y35.68 E4.27077
G1 X112.162 Y35.451 E4.29935
G1 X112.614 Y35.344 E4.31402
G1 X113.221 Y35.22 E4.3336
G1 X113.89 Y35.104 E4.35505
G1 X114.21 Y35.054 E4.36529
G1 X114.643 Y34.993 E4.3791
G1 X115.202 Y34.93 E4.39688
G1 X115.861 Y34.874 E4.41777
G1 X116.209 Y34.85 E4.4288
G1 X116.683 Y34.826 E4.44379
G1 X117.235 Y34.813 E4.46124
G1 X117.782 Y34.815 E4.47852
G0 F1350 X117.8 Y34.815
G0 X118.582 Y34.837
G0 F7500 X118.595 Y34.437
G1 F1500 X119.223 Y34.477 E4.49841
G1 X120.286 Y34.581 E4.53215
G1 X120.695 Y34.632 E4.54518
G1 X121.3 Y34.726 E4.56452
G1 X122.232 Y34.902 E4.59449
G1 X122.669 Y34.996 E4.60862
G1 X123.279 Y35.146 E4.62846
G1 X124.208 Y35.409 E4.65897
G1 X124.636 Y35.541 E4.67312
G1 X125.243 Y35.748 E4.69339
G1 X125.868 Y35.983 E4.71449
G1 X126.179 Y36.106 E4.72505
G1 X126.579 Y36.271 E4.73873
G1 X127.117 Y36.511 E4.75734
G1 X128.039 Y36.958 E4.78971
G1 X128.415 Y37.153 E4.8031
G1 X128.947 Y37.449 E4.82233
G1 X129.762 Y37.938 E4.85237
G1 X130.153 Y38.186 E4.867
G1 X130.683 Y38.545 E4.88722
G1 X131.467 Y39.117 E4.91789
G1 X131.807 Y39.378 E4.93143
G1 X132.286 Y39.769 E4.95097
G1 X133.037 Y40.425 E4.98248
G1 X133.372 Y40.733 E4.99685
G1 X133.82 Y41.169 E5.01661
G1 X134.465 Y41.843 E5.04608
G1 X134.775 Y42.183 E5.06062
G1 X135.189 Y42.665 E5.0807
G1 X135.617 Y43.195 E5.10222
G1 X135.818 Y43.452 E5.11253
G1 X136.081 Y43.799 E5.12629
G1 X136.417 Y44.27 E5.14457
G1 X136.781 Y44.809 E5.16512
G1 X136.979 Y45.113 E5.17658
G1 X137.224 Y45.504 E5.19116
G1 X137.511 Y45.99 E5.209
G1 X137.82 Y46.547 E5.22912
G1 X137.985 Y46.856 E5.24019
G1 X138.193 Y47.262 E5.25461
G1 X138.459 Y47.82 E5.27414
G1 X138.851 Y48.721 E5.30519
G1 X139.018 Y49.133 E5.31923
G1 X139.234 Y49.715 E5.33885
G1 X139.542 Y50.64 E5.36965
G1 X139.668 Y51.051 E5.38324
G1 X139.837 Y51.666 E5.40339
G1 X140.053 Y52.575 E5.43291
G1 X140.142 Y52.989 E5.44629
G1 X140.263 Y53.653 E5.46762
G1 X140.364 Y54.33 E5.48924
G1 X140.406 Y54.647 E5.49935
G1 X140.46 Y55.103 E5.51386
G1 X140.514 Y55.693 E5.53258
G1 X140.552 Y56.305 E5.55195
G1 X140.566 Y56.617 E5.56182
G1 X140.582 Y57.108 E5.57734
G1 X140.584 Y57.736 E5.59719
G1 X140.567 Y58.372 E5.61729
G1 X140.553 Y58.705 E5.62782
G1 X140.527 Y59.152 E5.64197
G1 X140.474 Y59.759 E5.66122
G1 X140.353 Y60.761 E5.69311
G1 X140.295 Y61.157 E5.70576
G1 X140.188 Y61.766 E5.72529
G1 X140.051 Y62.429 E5.74668
G1 X139.975 Y62.767 E5.75763
G1 X139.868 Y63.211 E5.77206
G1 X139.718 Y63.768 E5.79029
G1 X139.53 Y64.396 E5.811
G1 X139.426 Y64.722 E5.82181
G1 X139.284 Y65.146 E5.83594
G1 X139.07 Y65.728 E5.85554
G1 X138.706 Y66.622 E5.88604
G1 X138.524 Y67.038 E5.90038
G1 X138.274 Y67.569 E5.91893
G1 X137.986 Y68.139 E5.93911
G1 X137.822 Y68.45 E5.95022
G1 X137.592 Y68.87 E5.96535
G1 X137.295 Y69.38 E5.98399
G1 X136.949 Y69.936 E6.00469
G1 X136.75 Y70.243 E6.01625
G1 X136.507 Y70.605 E6.03002
G1 X136.171 Y71.077 E6.04833
G1 X135.579 Y71.855 E6.07922
G1 X135.299 Y72.205 E6.09338
G1 X134.885 Y72.692 E6.11358
G1 X134.461 Y73.161 E6.13355
G1 X134.23 Y73.408 E6.14424
G1 X133.911 Y73.739 E6.15877
G1 X133.497 Y74.146 E6.17711
G1 X133.013 Y74.596 E6.19799
G1 X132.741 Y74.84 E6.20954
G1 X132.394 Y75.141 E6.22405
G1 X131.938 Y75.515 E6.24269
G1 X131.17 Y76.104 E6.27327
G1 X130.823 Y76.357 E6.28684
G1 X130.297 Y76.717 E6.30698
G1 X129.757 Y77.063 E6.32724
G1 X129.466 Y77.243 E6.33805
G1 X129.05 Y77.491 E6.35336
G1 X128.547 Y77.772 E6.37156
G1 X128 Y78.059 E6.39108
G1 X127.689 Y78.216 E6.40209
G1 X127.265 Y78.421 E6.41697
G1 X126.724 Y78.664 E6.43571
G1 X126.121 Y78.915 E6.45634
G1 X125.807 Y79.04 E6.46702
G1 X125.364 Y79.208 E6.48199
G1 X124.78 Y79.41 E6.50152
G1 X123.86 Y79.694 E6.53194
G1 X123.442 Y79.811 E6.54566
G1 X122.868 Y79.954 E6.56435
G1 X121.862 Y80.171 E6.59687
G1 X121.452 Y80.248 E6.61005
G1 X120.863 Y80.341 E6.62889
G1 X119.911 Y80.46 E6.6592
G1 X119.447 Y80.506 E6.67394
G1 X118.812 Y80.55 E6.69405
G1 X117.8 Y80.585 E6.72604
G1 X117.354 Y80.589 E6.74014
G1 X116.739 Y80.576 E6.75957
G1 X115.856 Y80.529 E6.78751
G1 X115.401 Y80.494 E6.80193
G1 X114.768 Y80.426 E6.82205
G1 X113.693 Y80.273 E6.85636
G1 X113.332 Y80.212 E6.86793
G1 X112.702 Y80.086 E6.88823
G1 X111.748 Y79.86 E6.9192
G1 X111.322 Y79.748 E6.93312
G1 X110.733 Y79.574 E6.95253
G1 X109.815 Y79.27 E6.98308
G1 X109.369 Y79.11 E6.99805
G1 X108.787 Y78.882 E7.01781
G1 X107.922 Y78.508 E7.04758
G1 X107.541 Y78.332 E7.06084
G1 X106.975 Y78.05 E7.08082
G1 X106.33 Y77.704 E7.10395
G1 X106.025 Y77.534 E7.11498
G1 X105.661 Y77.323 E7.12828
G1 X105.168 Y77.019 E7.14658
G1 X104.649 Y76.679 E7.16618
G1 X104.376 Y76.494 E7.1766
G1 X104.002 Y76.232 E7.19103
G1 X103.514 Y75.868 E7.21027
G1 X102.962 Y75.432 E7.23249
G1 X102.69 Y75.21 E7.24359
G1 X102.367 Y74.937 E7.25695
G1 X101.936 Y74.552 E7.27521
G1 X101.479 Y74.121 E7.29506
G1 X101.22 Y73.869 E7.30648
G1 X100.913 Y73.559 E7.32026
G1 X100.517 Y73.136 E7.33857
G1 X99.823 Y72.347 E7.37177
G1 X99.553 Y72.024 E7.38508
G1 X99.148 Y71.508 E7.4058
G1 X98.612 Y70.772 E7.43457
G1 X98.35 Y70.394 E7.4491
G1 X98.012 Y69.875 E7.46867
G1 X97.499 Y69.026 E7.50002
G1 X97.28 Y68.643 E7.51396
G1 X96.973 Y68.066 E7.53461
G1 X96.703 Y67.518 E7.55391
G1 X96.567 Y67.229 E7.564
G1 X96.371 Y66.799 E7.57893
G1 X96.139 Y66.252 E7.59771
G1 X95.89 Y65.613 E7.61938
G1 X95.773 Y65.297 E7.63003
G1 X95.627 Y64.884 E7.64387
G1 X95.441 Y64.304 E7.66311
G1 X95.269 Y63.711 E7.68262
G1 X95.18 Y63.386 E7.69327
G1 X95.061 Y62.921 E7.70843
G1 X94.932 Y62.353 E7.72684
G1 X94.805 Y61.712 E7.74749
G1 X94.744 Y61.375 E7.75831
G1 X94.671 Y60.932 E7.77249
G1 X94.589 Y60.33 E7.79169
G1 X94.52 Y59.681 E7.81231
G1 X94.471 Y59.085 E7.83121
G1 X94.451 Y58.742 E7.84206
G1 X94.412 Y57.712 E7.87463
G1 X94.409 Y57.462 E7.88253
G1 X94.43 Y56.65 E7.9082
G1 X94.501 Y55.553 E7.94293
G1 X94.533 Y55.165 E7.95523
G1 X94.567 Y54.831 E7.96584
G1 X94.649 Y54.212 E7.98557
G1 X94.809 Y53.253 E8.01629
G1 X94.899 Y52.788 E8.03126
G1 X95.034 Y52.186 E8.05075
G1 X95.276 Y51.253 E8.08121
G1 X95.397 Y50.829 E8.09514
G1 X95.59 Y50.222 E8.11526
G1 X95.894 Y49.37 E8.14385
G1 X96.058 Y48.941 E8.15836
G1 X96.308 Y48.343 E8.17884
G1 X96.721 Y47.442 E8.21016
G1 X96.91 Y47.055 E8.22377
G1 X97.209 Y46.488 E8.24402
G1 X97.683 Y45.659 E8.27419
G1 X97.92 Y45.267 E8.28867
G1 X98.258 Y44.743 E8.30837
G1 X98.624 Y44.211 E8.32877
G1 X98.816 Y43.941 E8.33924
G1 X99.099 Y43.556 E8.35434
G1 X99.47 Y43.08 E8.37341
G1 X100.051 Y42.385 E8.40203
G1 X100.367 Y42.025 E8.41717
G1 X100.792 Y41.569 E8.43686
G1 X101.499 Y40.86 E8.4685
G1 X101.811 Y40.562 E8.48213
G1 X102.287 Y40.133 E8.50238
G1 X102.786 Y39.711 E8.52303
G1 X103.022 Y39.518 E8.53266
G1 X103.348 Y39.258 E8.54584
G1 X103.843 Y38.886 E8.5654
G1 X104.68 Y38.301 E8.59767
G1 X105.047 Y38.058 E8.61158
G1 X105.585 Y37.724 E8.63158
G1 X106.406 Y37.254 E8.66148
G1 X106.792 Y37.045 E8.67534
G1 X107.357 Y36.76 E8.69534
G1 X107.97 Y36.474 E8.71671
G1 X108.282 Y36.335 E8.72751
G1 X108.705 Y36.154 E8.74204
G1 X109.246 Y35.94 E8.76043
G1 X110.128 Y35.623 E8.79004
G1 X110.585 Y35.472 E8.80525
G1 X111.184 Y35.294 E8.82499
G1 X112.07 Y35.062 E8.85393
G1 X112.522 Y34.955 E8.86861
G1 X113.153 Y34.826 E8.88896
G1 X113.822 Y34.71 E8.91041
G1 X114.154 Y34.658 E8.92103
G1 X114.587 Y34.597 E8.93485
G1 X115.168 Y34.531 E8.95332
G1 X115.827 Y34.475 E8.97422
G1 X116.189 Y34.451 E8.98568
G1 X116.663 Y34.427 E9.00068
G1 X117.237 Y34.413 E9.01882
G1 X117.795 Y34.415 E9.03645
G0 F1350 X117.802 Y34.415
G0 X118.595 Y34.437
G0 F7500 X118.609 Y34.037
G1 F1500 X119.26 Y34.079 E9.05707
G1 X119.998 Y34.148 E9.08049
G1 X120.335 Y34.185 E9.0912
G1 X120.744 Y34.236 E9.10422
G1 X121.372 Y34.332 E9.1243
G1 X121.992 Y34.446 E9.14421
G1 X122.316 Y34.511 E9.15466
G1 X122.753 Y34.605 E9.16878
G1 X123.386 Y34.761 E9.18938
G1 X124.326 Y35.027 E9.22025
G1 X124.754 Y35.159 E9.2344
G1 X125.383 Y35.374 E9.2554
G1 X126.332 Y35.736 E9.2875
G1 X126.732 Y35.901 E9.30117
G1 X127.29 Y36.15 E9.32047
G1 X127.912 Y36.448 E9.34227
G1 X128.223 Y36.603 E9.35325
G1 X128.599 Y36.798 E9.36663
G1 X129.151 Y37.105 E9.38659
G1 X129.976 Y37.6 E9.41699
G1 X130.367 Y37.848 E9.43162
G1 X130.917 Y38.221 E9.45261
G1 X131.71 Y38.799 E9.48362
G1 X132.05 Y39.06 E9.49716
G1 X132.548 Y39.466 E9.51747
G1 X133.059 Y39.908 E9.53881
G1 X133.308 Y40.13 E9.54935
G1 X133.643 Y40.438 E9.56373
G1 X134.107 Y40.891 E9.58422
G1 X134.761 Y41.574 E9.6141
G1 X135.071 Y41.914 E9.62864
G1 X135.5 Y42.414 E9.64946
G1 X135.928 Y42.944 E9.67098
G1 X136.137 Y43.211 E9.6817
G1 X136.4 Y43.558 E9.69545
G1 X136.749 Y44.046 E9.71441
G1 X137.113 Y44.585 E9.73496
G1 X137.318 Y44.9 E9.74684
G1 X137.563 Y45.291 E9.76142
G1 X137.861 Y45.796 E9.77994
G1 X138.17 Y46.353 E9.80007
G1 X138.341 Y46.673 E9.81153
G1 X138.549 Y47.079 E9.82595
G1 X138.825 Y47.658 E9.84621
G1 X139.093 Y48.266 E9.86721
G1 X139.221 Y48.571 E9.87766
G1 X139.388 Y48.983 E9.89171
G1 X139.613 Y49.587 E9.91207
