;FLAVOR:Marlin
;TIME:5865
;Filament used: 2.47612m
;Layer height: 0.12
;MINX:100.768
;MINY:92.25
;MINZ:0.12
;MAXX:142.768
;MAXY:142.75
;MAXZ:34.56
;Generated with Cura_SteamEngine 4.6.2
M140 S60
M105
M190 S60
M104 S200
M105
M109 S200
M82 ;absolute extrusion mode
; Ender 3 Custom Start G-code
G92 E0 ; Reset Extruder
G28 ; Home all axes
G1 Z2.0 F3000 ; Move Z Axis up little to prevent scratching of Heat Bed
G1 X0.1 Y20 Z0.3 F5000.0 ; Move to start position
G1 X0.1 Y200.0 Z0.3 F1500.0 E15 ; Draw the first line
G1 X0.4 Y200.0 Z0.3 F5000.0 ; Move to side a little
G1 X0.4 Y20 Z0.3 F1500.0 E30 ; Draw the second line
G92 E0 ; Reset Extruder
G1 Z2.0 F3000 ; Move Z Axis up little to prevent scratching of Heat Bed
G1 X5 Y20 Z0.3 F5000.0 ; Move over to prevent blob squish
G92 E0
G92 E0
G1 F1500 E-6.5
;LAYER_COUNT:291
;LAYER:0
M107
G0 F6000 X120.371 Y93.067 Z0.12
;TYPE:SKIRT
G1 F1500 E0
G1 F1200 X123.058 Y93.067 E0.05362
G1 X124.081 Y93.05 E0.07404
G1 X131.207 Y93.051 E0.21625
G1 X131.905 Y93.061 E0.23018
G1 X132.807 Y93.114 E0.24821
G1 X133.7 Y93.246 E0.26622
G1 X134.578 Y93.457 E0.28424
G1 X135.434 Y93.745 E0.30227
G1 X136.261 Y94.107 E0.32028
G1 X137.053 Y94.542 E0.33831
G1 X137.804 Y95.044 E0.35634
G1 X138.507 Y95.611 E0.37437
G1 X139.157 Y96.238 E0.39239
G1 X139.749 Y96.92 E0.41041
G1 X140.279 Y97.651 E0.42843
G1 X140.741 Y98.427 E0.44645
G1 X141.134 Y99.24 E0.46447
G1 X141.452 Y100.085 E0.48249
G1 X141.695 Y100.955 E0.50052
G1 X141.86 Y101.843 E0.51854
G1 X141.955 Y102.973 E0.54117
G1 X141.968 Y103.58 E0.55329
G1 X141.967 Y111.659 E0.71451
G1 X141.96 Y112.134 E0.72399
G1 X141.968 Y115.54 E0.79196
G1 X141.967 Y123.666 E0.95413
G1 X141.957 Y124.383 E0.96844
G1 X141.904 Y125.285 E0.98647
G1 X141.772 Y126.178 E1.00448
G1 X141.562 Y127.056 E1.0225
G1 X141.274 Y127.913 E1.04054
G1 X140.912 Y128.74 E1.05855
G1 X140.478 Y129.532 E1.07658
G1 X139.976 Y130.283 E1.0946
G1 X139.41 Y130.986 E1.11262
G1 X138.683 Y131.73 E1.13337
G1 X138.417 Y131.976 E1.1406
G1 X136.479 Y133.784 E1.1935
G1 X134.698 Y135.542 E1.24344
G1 X132.921 Y137.398 E1.29471
G1 X132.49 Y137.872 E1.3075
G1 X131.731 Y138.688 E1.32974
G1 X131.087 Y139.321 E1.34776
G1 X130.39 Y139.895 E1.36578
G1 X129.644 Y140.405 E1.38381
G1 X128.857 Y140.847 E1.40182
G1 X128.033 Y141.218 E1.41986
G1 X127.18 Y141.515 E1.43788
G1 X126.304 Y141.734 E1.4559
G1 X125.412 Y141.876 E1.47393
G1 X124.545 Y141.937 E1.49127
G1 X123.938 Y141.95 E1.50339
G1 X115.233 Y141.949 E1.67711
G1 X114.535 Y141.939 E1.69104
G1 X113.633 Y141.886 E1.70907
G1 X112.74 Y141.754 E1.72708
G1 X111.862 Y141.543 E1.7451
G1 X111.006 Y141.255 E1.76313
G1 X110.179 Y140.893 E1.78114
G1 X109.387 Y140.458 E1.79917
G1 X108.636 Y139.956 E1.8172
G1 X107.933 Y139.389 E1.83522
G1 X107.283 Y138.762 E1.85325
G1 X106.691 Y138.08 E1.87127
G1 X106.161 Y137.349 E1.88929
G1 X105.699 Y136.573 E1.90731
G1 X105.306 Y135.76 E1.92533
G1 X105.072 Y135.162 E1.93815
G1 X104.708 Y134.14 E1.9598
G1 X103.815 Y131.73 E2.01109
G1 X102.87 Y129.382 E2.0616
G1 X102.37 Y128.189 E2.08741
G1 X102.059 Y127.341 E2.10543
G1 X101.823 Y126.469 E2.12346
G1 X101.666 Y125.58 E2.14148
G1 X101.585 Y124.59 E2.1613
G1 X101.574 Y124.26 E2.16789
G1 X101.568 Y123.92 E2.17468
G1 X101.569 Y115.827 E2.33618
G1 X101.576 Y115.362 E2.34546
G1 X101.568 Y111.96 E2.41335
G1 X101.569 Y103.786 E2.57647
G1 X101.578 Y103.121 E2.58974
G1 X101.63 Y102.219 E2.60778
G1 X101.762 Y101.326 E2.62579
G1 X101.972 Y100.448 E2.64381
G1 X102.259 Y99.591 E2.66184
G1 X102.621 Y98.764 E2.67986
G1 X103.054 Y97.972 E2.69787
G1 X103.556 Y97.221 E2.7159
G1 X104.123 Y96.517 E2.73394
G1 X104.749 Y95.867 E2.75194
G1 X105.43 Y95.274 E2.76996
G1 X106.162 Y94.744 E2.788
G1 X106.937 Y94.281 E2.80602
G1 X107.75 Y93.888 E2.82404
G1 X108.595 Y93.568 E2.84207
G1 X109.464 Y93.325 E2.86007
G1 X110.352 Y93.159 E2.8781
G1 X111.491 Y93.063 E2.90091
G1 X112.098 Y93.05 E2.91303
G1 X119.227 Y93.051 E3.0553
G1 X120.371 Y93.067 E3.07813
G0 F6000 X120.376 Y92.667
G1 F1200 X123.051 Y92.667 E3.13151
G1 X124.081 Y92.65 E3.15207
G1 X131.213 Y92.651 E3.2944
G1 X131.911 Y92.661 E3.30833
G1 X132.83 Y92.714 E3.3267
G1 X133.741 Y92.847 E3.34507
G1 X134.637 Y93.058 E3.36344
G1 X135.511 Y93.346 E3.3818
G1 X136.358 Y93.709 E3.40019
G1 X137.169 Y94.144 E3.41856
G1 X137.939 Y94.648 E3.43692
G1 X138.663 Y95.217 E3.4553
G1 X139.335 Y95.847 E3.47368
G1 X139.95 Y96.532 E3.49205
G1 X140.503 Y97.268 E3.51042
G1 X140.99 Y98.049 E3.52879
G1 X141.407 Y98.87 E3.54717
G1 X141.752 Y99.724 E3.56555
G1 X142.021 Y100.604 E3.58391
G1 X142.213 Y101.505 E3.6023
G1 X142.326 Y102.418 E3.62065
G1 X142.355 Y102.962 E3.63153
G1 X142.368 Y103.58 E3.64386
G1 X142.367 Y111.665 E3.80521
G1 X142.36 Y112.139 E3.81467
G1 X142.368 Y115.539 E3.88252
G1 X142.367 Y123.672 E4.04482
G1 X142.357 Y124.389 E4.05913
G1 X142.304 Y125.308 E4.0775
G1 X142.172 Y126.219 E4.09587
G1 X141.961 Y127.115 E4.11424
G1 X141.673 Y127.99 E4.13262
G1 X141.31 Y128.836 E4.15099
G1 X140.876 Y129.647 E4.16935
G1 X140.372 Y130.418 E4.18773
G1 X139.804 Y131.142 E4.2061
G1 X138.955 Y132.023 E4.23051
G1 X138.689 Y132.269 E4.23774
G1 X136.768 Y134.06 E4.29016
G1 X134.967 Y135.838 E4.34066
G1 X133.205 Y137.678 E4.3915
G1 X132.783 Y138.144 E4.40405
G1 X132.024 Y138.96 E4.42629
G1 X131.368 Y139.607 E4.44467
G1 X130.658 Y140.194 E4.46306
G1 X129.901 Y140.717 E4.48142
G1 X129.101 Y141.172 E4.49979
G1 X128.264 Y141.556 E4.51816
G1 X127.397 Y141.867 E4.53654
G1 X126.507 Y142.101 E4.55491
G1 X125.6 Y142.256 E4.57327
G1 X124.556 Y142.337 E4.59417
G1 X123.938 Y142.35 E4.6065
G1 X115.227 Y142.349 E4.78034
G1 X114.529 Y142.339 E4.79427
G1 X113.61 Y142.286 E4.81264
G1 X112.699 Y142.153 E4.83101
G1 X111.803 Y141.942 E4.84938
G1 X110.929 Y141.654 E4.86775
G1 X110.082 Y141.291 E4.88614
G1 X109.271 Y140.856 E4.9045
G1 X108.501 Y140.352 E4.92287
G1 X107.777 Y139.783 E4.94124
G1 X107.105 Y139.153 E4.95963
G1 X106.49 Y138.468 E4.978
G1 X105.937 Y137.732 E4.99637
G1 X105.45 Y136.951 E5.01474
G1 X105.033 Y136.13 E5.03311
G1 X104.695 Y135.296 E5.05107
G1 X104.331 Y134.274 E5.07272
G1 X103.447 Y131.887 E5.12352
G1 X102.501 Y129.537 E5.17407
G1 X102.001 Y128.343 E5.1999
G1 X101.683 Y127.479 E5.21828
G1 X101.441 Y126.591 E5.23665
G1 X101.277 Y125.685 E5.25502
G1 X101.185 Y124.603 E5.27669
G1 X101.174 Y124.273 E5.28328
G1 X101.168 Y123.92 E5.29032
G1 X101.169 Y115.821 E5.45195
G1 X101.176 Y115.357 E5.46121
G1 X101.168 Y111.961 E5.52898
G1 X101.169 Y103.781 E5.69222
G1 X101.178 Y103.116 E5.70549
G1 X101.23 Y102.196 E5.72388
G1 X101.362 Y101.285 E5.74225
G1 X101.573 Y100.389 E5.76062
G1 X101.86 Y99.514 E5.779
G1 X102.223 Y98.668 E5.79737
G1 X102.657 Y97.856 E5.81574
G1 X103.16 Y97.085 E5.83411
G1 X103.729 Y96.361 E5.85249
G1 X104.357 Y95.689 E5.87085
G1 X105.042 Y95.073 E5.88923
G1 X105.778 Y94.52 E5.9076
G1 X106.559 Y94.032 E5.92598
G1 X107.379 Y93.614 E5.94435
G1 X108.233 Y93.269 E5.96273
G1 X109.113 Y92.999 E5.9811
G1 X110.013 Y92.807 E5.99946
G1 X110.927 Y92.693 E6.01784
G1 X111.48 Y92.663 E6.02889
G1 X112.098 Y92.65 E6.04123
G1 X119.232 Y92.651 E6.1836
G1 X120.376 Y92.667 E6.20643
G0 F6000 X120.382 Y92.267
G1 F1200 X123.044 Y92.267 E6.25955
G1 X124.081 Y92.25 E6.28025
G1 X131.219 Y92.251 E6.4227
G1 X131.917 Y92.261 E6.43663
G1 X132.853 Y92.315 E6.45534
G1 X133.781 Y92.447 E6.47404
G1 X134.695 Y92.659 E6.49277
G1 X135.587 Y92.948 E6.51148
G1 X136.452 Y93.311 E6.5302
G1 X137.282 Y93.747 E6.54891
G1 X138.073 Y94.252 E6.56764
G1 X138.817 Y94.823 E6.58635
G1 X139.51 Y95.455 E6.60507
G1 X140.147 Y96.143 E6.62378
G1 X140.722 Y96.884 E6.6425
G1 X141.233 Y97.67 E6.66121
G1 X141.675 Y98.498 E6.67994
G1 X142.044 Y99.36 E6.69865
G1 X142.339 Y100.25 E6.71736
G1 X142.557 Y101.162 E6.73607
G1 X142.697 Y102.09 E6.7548
G1 X142.755 Y102.951 E6.77202
G1 X142.768 Y103.58 E6.78458
G1 X142.767 Y111.671 E6.94604
G1 X142.76 Y112.144 E6.95548
G1 X142.768 Y115.538 E7.02321
G1 X142.767 Y123.677 E7.18564
G1 X142.757 Y124.394 E7.19995
G1 X142.704 Y125.331 E7.21867
G1 X142.571 Y126.259 E7.23738
G1 X142.36 Y127.173 E7.2561
G1 X142.072 Y128.065 E7.27481
G1 X141.708 Y128.93 E7.29354
G1 X141.273 Y129.761 E7.31226
G1 X140.768 Y130.551 E7.33097
G1 X140.198 Y131.296 E7.34969
G1 X139.566 Y131.989 E7.3684
G1 X139.227 Y132.317 E7.37782
G1 X138.961 Y132.563 E7.38505
G1 X137.039 Y134.355 E7.43749
G1 X135.254 Y136.117 E7.48754
G1 X133.508 Y137.941 E7.53793
G1 X133.075 Y138.417 E7.55077
G1 X132.316 Y139.233 E7.57301
G1 X131.649 Y139.892 E7.59172
G1 X130.928 Y140.491 E7.61043
G1 X130.158 Y141.027 E7.62915
G1 X129.346 Y141.496 E7.64786
G1 X128.496 Y141.893 E7.66658
G1 X127.616 Y142.217 E7.6853
G1 X126.712 Y142.465 E7.70401
G1 X125.789 Y142.634 E7.72273
G1 X124.567 Y142.737 E7.7472
G1 X123.938 Y142.75 E7.75976
G1 X115.221 Y142.749 E7.93372
G1 X114.523 Y142.739 E7.94765
G1 X113.587 Y142.685 E7.96636
G1 X112.659 Y142.553 E7.98506
G1 X111.745 Y142.341 E8.00379
G1 X110.853 Y142.052 E8.0225
G1 X109.988 Y141.689 E8.04122
G1 X109.158 Y141.253 E8.05993
G1 X108.367 Y140.748 E8.07866
G1 X107.623 Y140.177 E8.09737
G1 X106.93 Y139.545 E8.11609
G1 X106.293 Y138.857 E8.1348
G1 X105.718 Y138.116 E8.15352
G1 X105.207 Y137.33 E8.17223
G1 X104.765 Y136.502 E8.19096
G1 X104.319 Y135.431 E8.21411
G1 X104.001 Y134.538 E8.23303
G1 X103.057 Y131.989 E8.28727
G1 X102.132 Y129.693 E8.33667
G1 X101.632 Y128.498 E8.36252
G1 X101.307 Y127.618 E8.38124
G1 X101.058 Y126.714 E8.39995
G1 X100.888 Y125.791 E8.41868
G1 X100.785 Y124.616 E8.44222
G1 X100.774 Y124.286 E8.44881
G1 X100.768 Y123.92 E8.45611
G1 X100.769 Y115.815 E8.61786
G1 X100.776 Y115.352 E8.6271
G1 X100.768 Y111.962 E8.69475
G1 X100.769 Y103.775 E8.85813
G1 X100.778 Y103.11 E8.8714
G1 X100.831 Y102.174 E8.89011
G1 X100.963 Y101.245 E8.90884
G1 X101.174 Y100.331 E8.92756
G1 X101.462 Y99.439 E8.94626
G1 X101.825 Y98.574 E8.96498
G1 X102.26 Y97.743 E8.9837
G1 X102.764 Y96.953 E9.0024
G1 X103.334 Y96.208 E9.02112
G1 X103.966 Y95.514 E9.03985
G1 X104.654 Y94.877 E9.05856
G1 X105.394 Y94.301 E9.07728
G1 X106.18 Y93.789 E9.096
G1 X107.007 Y93.347 E9.11471
G1 X107.869 Y92.977 E9.13343
G1 X108.759 Y92.681 E9.15215
G1 X109.671 Y92.463 E9.17086
G1 X110.598 Y92.322 E9.18957
G1 X111.469 Y92.263 E9.20699
G1 X112.098 Y92.25 E9.21955
G1 X119.238 Y92.251 E9.36203
G1 X120.382 Y92.267 E9.38487
G1 F1500 E2.88487
;MESH:calicat.stl
G0 F6000 X120.421 Y112.903
G0 X119.354 Y114.585
G0 X119.354 Y115.664
G0 X112.95 Y116.432
G0 X112.95 Y123.068
G0 X119.696 Y123.822
G0 X119.696 Y127.178
G0 X115.853 Y127.932
G0 X115.672 Y130.75
;TYPE:WALL-INNER
G1 F1500 E9.38487
G1 F1200 X115.671 Y127.949 E9.44076
G1 X115.671 Y127.75 E9.44474
G1 X115.87 Y127.75 E9.4473
G1 X120.268 Y127.75 E9.53507
G1 X120.268 Y123.25 E9.62487
G1 X112.768 Y123.25 E9.77454
G1 X112.768 Y116.25 E9.91424
G1 X118.768 Y116.25 E10.03397
G1 X118.768 Y121.25 E10.13375
G1 X124.768 Y121.25 E10.25349
G1 X124.768 Y116.25 E10.35327
G1 X130.768 Y116.25 E10.47301
G1 X130.768 Y123.25 E10.6127
G1 X123.268 Y123.25 E10.76237
G1 X123.268 Y130.75 E10.91204
G1 X115.672 Y130.75 E11.06363
G0 F6000 X115.272 Y131.15
G1 F1200 X115.271 Y127.549 E11.13549
G1 X115.271 Y127.35 E11.13946
G1 X115.47 Y127.35 E11.14203
G1 X119.868 Y127.35 E11.2298
G1 X119.868 Y123.65 E11.30363
G1 X112.368 Y123.65 E11.4533
G1 X112.368 Y115.85 E11.60896
G1 X119.168 Y115.85 E11.74466
G1 X119.168 Y120.85 E11.84444
G1 X124.368 Y120.85 E11.94822
G1 X124.368 Y115.85 E12.048
G1 X131.168 Y115.85 E12.1837
G1 X131.168 Y123.65 E12.33935
G1 X123.668 Y123.65 E12.48903
G1 X123.668 Y131.15 E12.6387
G1 X115.272 Y131.15 E12.80625
G0 F6000 X114.872 Y131.55
;TYPE:WALL-OUTER
G1 F1200 X114.871 Y126.95 E12.89805
G1 X119.468 Y126.95 E12.98978
G1 X119.468 Y124.05 E13.04766
G1 X111.968 Y124.05 E13.19733
G1 X111.968 Y115.45 E13.36895
G1 X119.568 Y115.45 E13.52062
G1 X119.568 Y120.45 E13.6204
G1 X123.968 Y120.45 E13.7082
G1 X123.968 Y115.45 E13.80798
G1 X131.568 Y115.45 E13.95965
G1 X131.568 Y124.05 E14.13127
G1 X124.068 Y124.05 E14.28094
G1 X124.068 Y131.55 E14.43061
G1 X114.872 Y131.55 E14.61413
G0 F6000 X115.142 Y131.28
G0 X116.062 Y130.64
G0 X116.062 Y130.36
;TYPE:SKIN
G1 F1200 X116.061 Y128.14 E14.65843
G1 X120.658 Y128.14 E14.75017
G1 X120.658 Y122.86 E14.85554
G1 X113.158 Y122.86 E15.00521
G1 X113.158 Y116.64 E15.12933
G1 X118.378 Y116.64 E15.23351
G1 X118.378 Y121.64 E15.33329
G1 X125.158 Y121.64 E15.46859
G1 X125.158 Y116.64 E15.56837
G1 X130.378 Y116.64 E15.67254
G1 X130.378 Y122.86 E15.79667
G1 X122.878 Y122.86 E15.94634
G1 X122.878 Y130.36 E16.09601
G1 X116.062 Y130.36 E16.23203
G0 F6000 X116.622 Y130.198
G1 F1200 X116.221 Y129.797 E16.24334
G0 F6000 X116.22 Y129.231
G1 F1200 X117.188 Y130.198 E16.27065
G0 F6000 X117.753 Y130.198
G1 F1200 X116.22 Y128.665 E16.31391
G0 F6000 X116.42 Y128.299
G1 F1200 X118.319 Y130.198 E16.36751
G0 F6000 X118.885 Y130.198
G1 F1200 X116.985 Y128.299 E16.42112
G0 F6000 X117.551 Y128.299
G1 F1200 X119.45 Y130.198 E16.47471
G0 F6000 X120.016 Y130.198
G1 F1200 X118.117 Y128.299 E16.5283
G0 F6000 X118.682 Y128.299
G1 F1200 X120.582 Y130.198 E16.58191
G0 F6000 X121.147 Y130.198
G1 F1200 X119.248 Y128.299 E16.63551
G0 F6000 X119.814 Y128.299
G1 F1200 X121.713 Y130.198 E16.6891
G0 F6000 X122.279 Y130.198
G1 F1200 X120.379 Y128.299 E16.74271
G0 F6000 X120.818 Y128.172
G1 F1200 X122.718 Y130.072 E16.79633
G0 F6000 X122.718 Y129.506
G1 F1200 X120.818 Y127.606 E16.84995
G0 F6000 X120.818 Y127.04
G1 F1200 X122.718 Y128.94 E16.90357
G0 F6000 X122.718 Y128.375
G1 F1200 X120.818 Y126.475 E16.9572
G0 F6000 X120.818 Y125.909
G1 F1200 X122.718 Y127.809 E17.01082
G0 F6000 X122.718 Y127.243
G1 F1200 X120.818 Y125.343 E17.06444
G0 F6000 X120.818 Y124.778
G1 F1200 X122.718 Y126.678 E17.11806
G0 F6000 X122.717 Y126.111
G1 F1200 X120.818 Y124.212 E17.17166
G0 F6000 X120.818 Y123.646
G1 F1200 X122.717 Y125.546 E17.22526
G0 F6000 X122.717 Y124.98
G1 F1200 X120.818 Y123.081 E17.27886
G0 F6000 X120.436 Y122.699
G1 F1200 X119.537 Y121.799 E17.30424
G0 F6000 X120.102 Y121.799
G1 F1200 X122.717 Y124.414 E17.37805
G0 F6000 X122.717 Y123.849
G1 F1200 X120.668 Y121.799 E17.43589
G0 F6000 X121.234 Y121.799
G1 F1200 X122.717 Y123.283 E17.47775
G0 F6000 X122.717 Y122.717
G1 F1200 X121.799 Y121.799 E17.50366
G0 F6000 X122.365 Y121.799
G1 F1200 X123.265 Y122.699 E17.52906
G0 F6000 X123.831 Y122.699
G1 F1200 X122.931 Y121.799 E17.55446
G0 F6000 X123.496 Y121.799
G1 F1200 X124.397 Y122.699 E17.57988
G0 F6000 X124.962 Y122.699
G1 F1200 X124.062 Y121.799 E17.60528
G0 F6000 X124.628 Y121.799
G1 F1200 X125.528 Y122.699 E17.63068
G0 F6000 X126.094 Y122.699
G1 F1200 X125.193 Y121.799 E17.65609
G0 F6000 X125.316 Y121.357
G1 F1200 X126.659 Y122.699 E17.69398
G0 F6000 X127.225 Y122.699
G1 F1200 X125.316 Y120.791 E17.74784
G0 F6000 X125.316 Y120.225
G1 F1200 X127.791 Y122.699 E17.81768
G0 F6000 X128.356 Y122.699
G1 F1200 X125.316 Y119.66 E17.90346
G0 F6000 X125.316 Y119.094
G1 F1200 X128.922 Y122.699 E18.00521
G0 F6000 X129.488 Y122.699
G1 F1200 X125.316 Y118.528 E18.12294
G0 F6000 X125.316 Y117.963
G1 F1200 X130.053 Y122.699 E18.25662
G0 F6000 X130.217 Y122.298
G1 F1200 X125.316 Y117.397 E18.39493
G0 F6000 X125.316 Y116.831
G1 F1200 X130.217 Y121.732 E18.53325
G0 F6000 X130.217 Y121.166
G1 F1200 X125.851 Y116.8 E18.65647
G0 F6000 X126.417 Y116.8
G1 F1200 X130.217 Y120.601 E18.76372
G0 F6000 X130.217 Y120.035
G1 F1200 X126.982 Y116.8 E18.85502
G0 F6000 X127.548 Y116.8
G1 F1200 X130.217 Y119.469 E18.93035
G0 F6000 X130.217 Y118.904
G1 F1200 X128.114 Y116.8 E18.98971
G0 F6000 X128.679 Y116.8
G1 F1200 X130.217 Y118.338 E19.03312
G0 F6000 X130.217 Y117.772
G1 F1200 X129.245 Y116.8 E19.06055
G0 F6000 X129.811 Y116.8
G1 F1200 X130.217 Y117.207 E19.07202
G1 F1500 E12.57202
G0 F6000 X130.658 Y117.207
G0 X130.586 Y116.432
G0 X124.95 Y116.432
G0 X124.942 Y120.349
G0 X122.959 Y121.44
G0 X118.586 Y121.432
G0 X118.586 Y116.432
G0 X112.95 Y116.432
G0 X112.95 Y123.068
G0 X119.87 Y123.14
G0 X119.87 Y122.699
G1 F1500 E19.07202
G1 F1200 X118.971 Y121.799 E19.09741
G0 F6000 X118.405 Y121.799
G1 F1200 X119.305 Y122.699 E19.12281
G0 F6000 X118.739 Y122.699
G1 F1200 X113.317 Y117.277 E19.27583
G0 F6000 X113.405 Y116.799
G1 F1200 X118.218 Y121.612 E19.41166
G0 F6000 X118.218 Y121.046
