;FLAVOR:Marlin
;TIME:3908
;Filament used: 2.5546m
;Layer height: 0.16
;MINX:100.768
;MINY:92.25
;MINZ:0.2
;MAXX:142.768
;MAXY:142.75
;MAXZ:34.56
;Generated with Cura_SteamEngine 4.6.2
M140 S60
M105
M190 S60
M104 S200
M105
M109 S200
M82 ;absolute extrusion mode
; Ender 3 Custom Start G-code
G92 E0 ; Reset Extruder
G28 ; Home all axes
G1 Z2.0 F3000 ; Move Z Axis up little to prevent scratching of Heat Bed
G1 X0.1 Y20 Z0.3 F5000.0 ; Move to start position
G1 X0.1 Y200.0 Z0.3 F1500.0 E15 ; Draw the first line
G1 X0.4 Y200.0 Z0.3 F5000.0 ; Move to side a little
G1 X0.4 Y20 Z0.3 F1500.0 E30 ; Draw the second line
G92 E0 ; Reset Extruder
G1 Z2.0 F3000 ; Move Z Axis up little to prevent scratching of Heat Bed
G1 X5 Y20 Z0.3 F5000.0 ; Move over to prevent blob squish
G92 E0
G92 E0
G1 F1500 E-6.5
;LAYER_COUNT:190
;LAYER:0
M107
G0 F6000 X120.371 Y93.067 Z0.2
;TYPE:SKIRT
G1 F1500 E0
G1 F1200 X123.058 Y93.067 E0.08937
G1 X124.081 Y93.05 E0.1234
G1 X131.207 Y93.051 E0.36041
G1 X131.905 Y93.061 E0.38363
G1 X132.807 Y93.114 E0.41368
G1 X133.7 Y93.246 E0.44371
G1 X134.578 Y93.457 E0.47374
G1 X135.434 Y93.745 E0.50378
G1 X136.261 Y94.107 E0.5338
G1 X137.053 Y94.542 E0.56386
G1 X137.804 Y95.044 E0.5939
G1 X138.507 Y95.611 E0.62394
G1 X139.157 Y96.238 E0.65398
G1 X139.749 Y96.92 E0.68402
G1 X140.279 Y97.651 E0.71405
G1 X140.741 Y98.427 E0.74409
G1 X141.134 Y99.24 E0.77412
G1 X141.452 Y100.085 E0.80415
G1 X141.695 Y100.955 E0.83419
G1 X141.86 Y101.843 E0.86423
G1 X141.955 Y102.973 E0.90195
G1 X141.968 Y103.58 E0.92214
G1 X141.967 Y111.659 E1.19085
G1 X141.96 Y112.134 E1.20665
G1 X141.968 Y115.54 E1.31994
G1 X141.967 Y123.666 E1.59021
G1 X141.957 Y124.383 E1.61406
G1 X141.904 Y125.285 E1.64411
G1 X141.772 Y126.178 E1.67414
G1 X141.562 Y127.056 E1.70416
G1 X141.274 Y127.913 E1.73423
G1 X140.912 Y128.74 E1.76426
G1 X140.478 Y129.532 E1.7943
G1 X139.976 Y130.283 E1.82434
G1 X139.41 Y130.986 E1.85436
G1 X138.683 Y131.73 E1.88896
G1 X138.417 Y131.976 E1.90101
G1 X136.479 Y133.784 E1.98916
G1 X134.698 Y135.542 E2.07239
G1 X132.921 Y137.398 E2.15786
G1 X132.49 Y137.872 E2.17917
G1 X131.731 Y138.688 E2.21623
G1 X131.087 Y139.321 E2.24627
G1 X130.39 Y139.895 E2.2763
G1 X129.644 Y140.405 E2.30635
G1 X128.857 Y140.847 E2.33637
G1 X128.033 Y141.218 E2.36643
G1 X127.18 Y141.515 E2.39647
G1 X126.304 Y141.734 E2.4265
G1 X125.412 Y141.876 E2.45655
G1 X124.545 Y141.937 E2.48545
G1 X123.938 Y141.95 E2.50565
G1 X115.093 Y141.949 E2.79983
G1 X114.395 Y141.939 E2.82305
G1 X113.493 Y141.886 E2.8531
G1 X112.6 Y141.754 E2.88313
G1 X111.722 Y141.543 E2.91316
G1 X110.866 Y141.255 E2.9432
G1 X110.039 Y140.893 E2.97323
G1 X109.247 Y140.458 E3.00328
G1 X108.496 Y139.956 E3.03333
G1 X107.793 Y139.389 E3.06336
G1 X107.143 Y138.762 E3.0934
G1 X106.551 Y138.08 E3.12344
G1 X106.021 Y137.349 E3.15347
G1 X105.559 Y136.573 E3.18351
G1 X105.166 Y135.76 E3.21354
G1 X104.884 Y135.024 E3.23976
G1 X104.049 Y132.567 E3.32607
G1 X103.163 Y130.175 E3.41091
G1 X102.41 Y128.302 E3.47805
G1 X102.257 Y127.904 E3.49223
G1 X101.971 Y127.047 E3.52228
G1 X101.761 Y126.169 E3.55231
G1 X101.63 Y125.275 E3.58236
G1 X101.583 Y124.559 E3.60623
G1 X101.568 Y123.92 E3.62748
G1 X101.569 Y115.827 E3.89666
G1 X101.576 Y115.362 E3.91213
G1 X101.568 Y111.96 E4.02528
G1 X101.569 Y103.786 E4.29715
G1 X101.578 Y103.121 E4.31927
G1 X101.63 Y102.219 E4.34932
G1 X101.762 Y101.326 E4.37934
G1 X101.972 Y100.448 E4.40937
G1 X102.259 Y99.591 E4.43943
G1 X102.621 Y98.764 E4.46945
G1 X103.054 Y97.972 E4.49947
G1 X103.556 Y97.221 E4.52952
G1 X104.123 Y96.517 E4.55958
G1 X104.749 Y95.867 E4.5896
G1 X105.43 Y95.274 E4.61963
G1 X106.162 Y94.744 E4.64969
G1 X106.937 Y94.281 E4.67972
G1 X107.75 Y93.888 E4.70975
G1 X108.595 Y93.568 E4.7398
G1 X109.464 Y93.325 E4.76982
G1 X110.352 Y93.159 E4.79986
G1 X111.491 Y93.063 E4.83788
G1 X112.098 Y93.05 E4.85807
G1 X119.227 Y93.051 E5.09519
G1 X120.371 Y93.067 E5.13324
G0 F6000 X120.376 Y92.667
G1 F1200 X123.051 Y92.667 E5.22221
G1 X124.081 Y92.65 E5.25647
G1 X131.213 Y92.651 E5.49368
G1 X131.911 Y92.661 E5.5169
G1 X132.83 Y92.714 E5.54752
G1 X133.741 Y92.847 E5.57814
G1 X134.637 Y93.058 E5.60876
G1 X135.511 Y93.346 E5.63936
G1 X136.358 Y93.709 E5.67001
G1 X137.169 Y94.144 E5.70062
G1 X137.939 Y94.648 E5.73123
G1 X138.663 Y95.217 E5.76186
G1 X139.335 Y95.847 E5.79249
G1 X139.95 Y96.532 E5.82311
G1 X140.503 Y97.268 E5.85373
G1 X140.99 Y98.049 E5.88434
G1 X141.407 Y98.87 E5.91497
G1 X141.752 Y99.724 E5.94561
G1 X142.021 Y100.604 E5.97621
G1 X142.213 Y101.505 E6.00685
G1 X142.326 Y102.418 E6.03745
G1 X142.355 Y102.962 E6.05557
G1 X142.368 Y103.58 E6.07613
G1 X142.367 Y111.665 E6.34504
G1 X142.36 Y112.139 E6.3608
G1 X142.368 Y115.539 E6.47389
G1 X142.367 Y123.672 E6.74439
G1 X142.357 Y124.389 E6.76824
G1 X142.304 Y125.308 E6.79886
G1 X142.172 Y126.219 E6.82948
G1 X141.961 Y127.115 E6.86009
G1 X141.673 Y127.99 E6.89073
G1 X141.31 Y128.836 E6.92135
G1 X140.876 Y129.647 E6.95194
G1 X140.372 Y130.418 E6.98258
G1 X139.804 Y131.142 E7.01319
G1 X138.955 Y132.023 E7.05388
G1 X138.689 Y132.269 E7.06593
G1 X136.768 Y134.06 E7.15328
G1 X134.967 Y135.838 E7.23746
G1 X133.205 Y137.678 E7.32219
G1 X132.783 Y138.144 E7.3431
G1 X132.024 Y138.96 E7.38017
G1 X131.368 Y139.607 E7.41081
G1 X130.658 Y140.194 E7.44145
G1 X129.901 Y140.717 E7.47206
G1 X129.101 Y141.172 E7.50267
G1 X128.264 Y141.556 E7.5333
G1 X127.397 Y141.867 E7.56393
G1 X126.507 Y142.101 E7.59454
G1 X125.6 Y142.256 E7.62514
G1 X124.556 Y142.337 E7.65997
G1 X123.938 Y142.35 E7.68053
G1 X115.087 Y142.349 E7.97492
G1 X114.389 Y142.339 E7.99813
G1 X113.47 Y142.286 E8.02875
G1 X112.559 Y142.153 E8.05937
G1 X111.663 Y141.942 E8.08999
G1 X110.789 Y141.654 E8.12059
G1 X109.942 Y141.291 E8.15124
G1 X109.131 Y140.856 E8.18185
G1 X108.361 Y140.352 E8.21246
G1 X107.637 Y139.783 E8.24309
G1 X106.965 Y139.153 E8.27373
G1 X106.35 Y138.468 E8.30434
G1 X105.797 Y137.732 E8.33496
G1 X105.31 Y136.951 E8.36558
G1 X104.893 Y136.13 E8.3962
G1 X104.505 Y135.152 E8.4312
G1 X103.67 Y132.697 E8.51745
G1 X102.788 Y130.315 E8.60193
G1 X102.037 Y128.446 E8.66892
G1 X101.884 Y128.048 E8.6831
G1 X101.591 Y127.175 E8.71373
G1 X101.375 Y126.28 E8.74435
G1 X101.238 Y125.369 E8.77499
G1 X101.183 Y124.571 E8.8016
G1 X101.173 Y124.247 E8.81238
G1 X101.168 Y123.92 E8.82326
G1 X101.169 Y115.821 E9.09263
G1 X101.176 Y115.357 E9.10807
G1 X101.168 Y111.961 E9.22102
G1 X101.169 Y103.781 E9.49309
G1 X101.178 Y103.116 E9.51521
G1 X101.23 Y102.196 E9.54585
G1 X101.362 Y101.285 E9.57647
G1 X101.573 Y100.389 E9.60709
G1 X101.86 Y99.514 E9.63771
G1 X102.223 Y98.668 E9.66833
G1 X102.657 Y97.856 E9.69896
G1 X103.16 Y97.085 E9.72958
G1 X103.729 Y96.361 E9.7602
G1 X104.357 Y95.689 E9.79079
G1 X105.042 Y95.073 E9.82143
G1 X105.778 Y94.52 E9.85205
G1 X106.559 Y94.032 E9.88268
G1 X107.379 Y93.614 E9.9133
G1 X108.233 Y93.269 E9.94393
G1 X109.113 Y92.999 E9.97455
G1 X110.013 Y92.807 E10.00515
G1 X110.927 Y92.693 E10.03579
G1 X111.48 Y92.663 E10.05421
G1 X112.098 Y92.65 E10.07477
G1 X119.232 Y92.651 E10.31205
G1 X120.376 Y92.667 E10.3501
G0 F6000 X120.382 Y92.267
G1 F1200 X123.044 Y92.267 E10.43864
G1 X124.081 Y92.25 E10.47313
G1 X131.219 Y92.251 E10.71054
G1 X131.917 Y92.261 E10.73376
G1 X132.853 Y92.315 E10.76495
G1 X133.781 Y92.447 E10.79612
G1 X134.695 Y92.659 E10.82733
G1 X135.587 Y92.948 E10.85851
G1 X136.452 Y93.311 E10.88972
G1 X137.282 Y93.747 E10.9209
G1 X138.073 Y94.252 E10.95211
G1 X138.817 Y94.823 E10.9833
G1 X139.51 Y95.455 E11.0145
G1 X140.147 Y96.143 E11.04568
G1 X140.722 Y96.884 E11.07688
G1 X141.233 Y97.67 E11.10806
G1 X141.675 Y98.498 E11.13928
G1 X142.044 Y99.36 E11.17047
G1 X142.339 Y100.25 E11.20165
G1 X142.557 Y101.162 E11.23284
G1 X142.697 Y102.09 E11.26405
G1 X142.755 Y102.951 E11.29276
G1 X142.768 Y103.58 E11.31368
G1 X142.767 Y111.671 E11.58279
G1 X142.76 Y112.144 E11.59852
G1 X142.768 Y115.538 E11.71141
G1 X142.767 Y123.677 E11.98211
G1 X142.757 Y124.394 E12.00596
G1 X142.704 Y125.331 E12.03718
G1 X142.571 Y126.259 E12.06836
G1 X142.36 Y127.173 E12.09956
G1 X142.072 Y128.065 E12.13073
G1 X141.708 Y128.93 E12.16195
G1 X141.273 Y129.761 E12.19314
G1 X140.768 Y130.551 E12.22433
G1 X140.198 Y131.296 E12.25553
G1 X139.566 Y131.989 E12.28672
G1 X139.227 Y132.317 E12.30241
G1 X138.961 Y132.563 E12.31446
G1 X137.039 Y134.355 E12.40186
G1 X135.254 Y136.117 E12.48528
G1 X133.508 Y137.941 E12.56927
G1 X133.075 Y138.417 E12.59067
G1 X132.316 Y139.233 E12.62773
G1 X131.649 Y139.892 E12.65892
G1 X130.928 Y140.491 E12.6901
G1 X130.158 Y141.027 E12.7213
G1 X129.346 Y141.496 E12.75249
G1 X128.496 Y141.893 E12.78369
G1 X127.616 Y142.217 E12.81488
G1 X126.712 Y142.465 E12.84606
G1 X125.789 Y142.634 E12.87727
G1 X124.567 Y142.737 E12.91806
G1 X123.938 Y142.75 E12.93898
G1 X115.081 Y142.749 E13.23357
G1 X114.383 Y142.739 E13.25679
G1 X113.447 Y142.685 E13.28797
G1 X112.519 Y142.553 E13.31914
G1 X111.605 Y142.341 E13.35035
G1 X110.713 Y142.052 E13.38154
G1 X109.848 Y141.689 E13.41274
G1 X109.018 Y141.253 E13.44392
G1 X108.227 Y140.748 E13.47513
G1 X107.483 Y140.177 E13.50633
G1 X106.79 Y139.545 E13.53752
G1 X106.153 Y138.857 E13.56871
G1 X105.578 Y138.116 E13.5999
G1 X105.067 Y137.33 E13.63109
G1 X104.625 Y136.502 E13.6623
G1 X104.127 Y135.281 E13.70616
G1 X103.296 Y132.837 E13.79202
G1 X102.423 Y130.478 E13.87568
G1 X101.664 Y128.589 E13.94339
G1 X101.511 Y128.191 E13.95757
G1 X101.212 Y127.302 E13.98877
G1 X100.99 Y126.391 E14.01996
G1 X100.846 Y125.464 E14.05116
G1 X100.783 Y124.583 E14.08053
G1 X100.773 Y124.259 E14.09132
G1 X100.768 Y123.92 E14.10259
G1 X100.769 Y115.815 E14.37217
G1 X100.776 Y115.352 E14.38757
G1 X100.768 Y111.962 E14.50032
G1 X100.769 Y103.775 E14.77262
G1 X100.778 Y103.11 E14.79474
G1 X100.831 Y102.174 E14.82592
G1 X100.963 Y101.245 E14.85713
G1 X101.174 Y100.331 E14.88833
G1 X101.462 Y99.439 E14.91951
G1 X101.825 Y98.574 E14.95071
G1 X102.26 Y97.743 E14.9819
G1 X102.764 Y96.953 E15.01307
G1 X103.334 Y96.208 E15.04427
G1 X103.966 Y95.514 E15.07549
G1 X104.654 Y94.877 E15.10667
G1 X105.394 Y94.301 E15.13786
G1 X106.18 Y93.789 E15.16906
G1 X107.007 Y93.347 E15.20025
G1 X107.869 Y92.977 E15.23145
G1 X108.759 Y92.681 E15.26265
G1 X109.671 Y92.463 E15.29384
G1 X110.598 Y92.322 E15.32502
G1 X111.469 Y92.263 E15.35406
G1 X112.098 Y92.25 E15.37498
G1 X119.238 Y92.251 E15.61246
G1 X120.382 Y92.267 E15.65051
G1 F1500 E9.15051
;MESH:calicat.stl
G0 F6000 X120.421 Y112.903
G0 X119.354 Y114.585
G0 X119.354 Y115.664
G0 X112.95 Y116.432
G0 X112.95 Y123.068
G0 X119.696 Y123.822
G0 X119.696 Y127.178
G0 X115.713 Y127.932
G0 X115.532 Y130.75
;TYPE:WALL-INNER
G1 F1500 E15.65051
G1 F1200 X115.531 Y127.949 E15.74368
G1 X115.531 Y127.75 E15.75029
G1 X115.73 Y127.75 E15.75458
G1 X120.268 Y127.75 E15.90551
G1 X120.268 Y123.25 E16.05518
G1 X112.768 Y123.25 E16.30463
G1 X112.768 Y116.25 E16.53745
G1 X118.768 Y116.25 E16.73701
G1 X118.768 Y121.25 E16.90332
G1 X124.768 Y121.25 E17.10288
G1 X124.768 Y116.25 E17.26918
G1 X130.768 Y116.25 E17.46874
G1 X130.768 Y123.25 E17.70156
G1 X123.268 Y123.25 E17.95101
G1 X123.268 Y130.75 E18.20046
G1 X115.532 Y130.75 E18.45776
G0 F6000 X115.132 Y131.15
G1 F1200 X115.131 Y127.549 E18.57753
G1 X115.131 Y127.35 E18.58415
G1 X115.33 Y127.35 E18.58843
G1 X119.868 Y127.35 E18.73937
G1 X119.868 Y123.65 E18.86243
G1 X112.368 Y123.65 E19.11188
G1 X112.368 Y115.85 E19.37131
G1 X119.168 Y115.85 E19.59748
G1 X119.168 Y120.85 E19.76378
G1 X124.368 Y120.85 E19.93673
G1 X124.368 Y115.85 E20.10303
G1 X131.168 Y115.85 E20.3292
G1 X131.168 Y123.65 E20.58863
G1 X123.668 Y123.65 E20.83808
G1 X123.668 Y131.15 E21.08753
G1 X115.132 Y131.15 E21.37144
G0 F6000 X114.732 Y131.55
;TYPE:WALL-OUTER
G1 F1200 X114.731 Y126.95 E21.52444
G1 X119.468 Y126.95 E21.68199
G1 X119.468 Y124.05 E21.77844
G1 X111.968 Y124.05 E22.0279
G1 X111.968 Y115.45 E22.31393
G1 X119.568 Y115.45 E22.56671
G1 X119.568 Y120.45 E22.73301
G1 X123.968 Y120.45 E22.87935
G1 X123.968 Y115.45 E23.04566
G1 X131.568 Y115.45 E23.29843
G1 X131.568 Y124.05 E23.58447
G1 X124.068 Y124.05 E23.83392
G1 X124.068 Y131.55 E24.08337
G1 X114.732 Y131.55 E24.39389
G0 F6000 X115.002 Y131.28
G0 X115.922 Y130.64
G0 X115.922 Y130.36
;TYPE:SKIN
G1 F1200 X115.921 Y128.14 E24.46773
G1 X120.658 Y128.14 E24.62528
G1 X120.658 Y122.86 E24.80089
G1 X113.158 Y122.86 E25.05034
G1 X113.158 Y116.64 E25.25722
G1 X118.378 Y116.64 E25.43084
G1 X118.378 Y121.64 E25.59714
G1 X125.158 Y121.64 E25.82264
G1 X125.158 Y116.64 E25.98894
G1 X130.378 Y116.64 E26.16256
G1 X130.378 Y122.86 E26.36944
G1 X122.878 Y122.86 E26.61889
G1 X122.878 Y130.36 E26.86834
G1 X115.922 Y130.36 E27.0997
G0 F6000 X116.622 Y130.198
G1 F1200 X116.081 Y129.657 E27.12515
G0 F6000 X116.08 Y129.091
G1 F1200 X117.188 Y130.198 E27.17724
G0 F6000 X117.753 Y130.198
G1 F1200 X116.08 Y128.525 E27.25593
G0 F6000 X116.42 Y128.299
G1 F1200 X118.319 Y130.198 E27.34526
G0 F6000 X118.885 Y130.198
G1 F1200 X116.985 Y128.299 E27.4346
G0 F6000 X117.551 Y128.299
G1 F1200 X119.45 Y130.198 E27.52393
G0 F6000 X120.016 Y130.198
G1 F1200 X118.117 Y128.299 E27.61325
G0 F6000 X118.682 Y128.299
G1 F1200 X120.582 Y130.198 E27.7026
G0 F6000 X121.147 Y130.198
G1 F1200 X119.248 Y128.299 E27.79192
G0 F6000 X119.814 Y128.299
G1 F1200 X121.713 Y130.198 E27.88124
G0 F6000 X122.279 Y130.198
G1 F1200 X120.379 Y128.299 E27.97059
G0 F6000 X120.818 Y128.172
G1 F1200 X122.718 Y130.072 E28.05996
G0 F6000 X122.718 Y129.506
G1 F1200 X120.818 Y127.606 E28.14933
G0 F6000 X120.818 Y127.04
G1 F1200 X122.718 Y128.94 E28.2387
G0 F6000 X122.718 Y128.375
G1 F1200 X120.818 Y126.475 E28.32807
G0 F6000 X120.818 Y125.909
G1 F1200 X122.718 Y127.809 E28.41744
G0 F6000 X122.718 Y127.243
G1 F1200 X120.818 Y125.343 E28.50681
G0 F6000 X120.818 Y124.778
G1 F1200 X122.718 Y126.678 E28.59618
G0 F6000 X122.717 Y126.111
G1 F1200 X120.818 Y124.212 E28.6855
G0 F6000 X120.818 Y123.646
G1 F1200 X122.717 Y125.546 E28.77485
G0 F6000 X122.717 Y124.98
G1 F1200 X120.818 Y123.081 E28.86417
G0 F6000 X120.436 Y122.699
G1 F1200 X119.537 Y121.799 E28.90648
G0 F6000 X120.102 Y121.799
G1 F1200 X122.717 Y124.414 E29.02948
G0 F6000 X122.717 Y123.849
G1 F1200 X120.668 Y121.799 E29.12589
G0 F6000 X121.234 Y121.799
G1 F1200 X122.717 Y123.283 E29.19567
G0 F6000 X122.717 Y122.717
G1 F1200 X121.799 Y121.799 E29.23885
G0 F6000 X122.365 Y121.799
G1 F1200 X123.265 Y122.699 E29.28118
G0 F6000 X123.831 Y122.699
G1 F1200 X122.931 Y121.799 E29.32351
G0 F6000 X123.496 Y121.799
G1 F1200 X124.397 Y122.699 E29.36587
G0 F6000 X124.962 Y122.699
G1 F1200 X124.062 Y121.799 E29.4082
G0 F6000 X124.628 Y121.799
G1 F1200 X125.528 Y122.699 E29.45054
G0 F6000 X126.094 Y122.699
G1 F1200 X125.193 Y121.799 E29.49289
G0 F6000 X125.316 Y121.357
G1 F1200 X126.659 Y122.699 E29.55604
G0 F6000 X127.225 Y122.699
G1 F1200 X125.316 Y120.791 E29.64581
G0 F6000 X125.316 Y120.225
G1 F1200 X127.791 Y122.699 E29.7622
G0 F6000 X128.356 Y122.699
G1 F1200 X125.316 Y119.66 E29.90517
G0 F6000 X125.316 Y119.094
G1 F1200 X128.922 Y122.699 E30.07476
G0 F6000 X129.488 Y122.699
G1 F1200 X125.316 Y118.528 E30.27098
G0 F6000 X125.316 Y117.963
G1 F1200 X130.053 Y122.699 E30.49377
G0 F6000 X130.217 Y122.298
G1 F1200 X125.316 Y117.397 E30.7243
G0 F6000 X125.316 Y116.831
G1 F1200 X130.217 Y121.732 E30.95482
G0 F6000 X130.217 Y121.166
G1 F1200 X125.851 Y116.8 E31.16019
G0 F6000 X126.417 Y116.8
G1 F1200 X130.217 Y120.601 E31.33895
G0 F6000 X130.217 Y120.035
G1 F1200 X126.982 Y116.8 E31.49112
G0 F6000 X127.548 Y116.8
G1 F1200 X130.217 Y119.469 E31.61666
G0 F6000 X130.217 Y118.904
G1 F1200 X128.114 Y116.8 E31.7156
G0 F6000 X128.679 Y116.8
G1 F1200 X130.217 Y118.338 E31.78794
G0 F6000 X130.217 Y117.772
G1 F1200 X129.245 Y116.8 E31.83366
G0 F6000 X129.811 Y116.8
G1 F1200 X130.217 Y117.207 E31.85278
G1 F1500 E25.35278
G0 F6000 X130.658 Y117.207
G0 X130.586 Y116.432
G0 X124.95 Y116.432
G0 X124.942 Y120.349
G0 X122.959 Y121.44
G0 X118.586 Y121.432
G0 X118.586 Y116.432
G0 X112.95 Y116.432
G0 X112.95 Y123.068
G0 X119.87 Y123.14
G0 X119.87 Y122.699
G1 F1500 E31.85278
G1 F1200 X118.971 Y121.799 E31.89509
G0 F6000 X118.405 Y121.799
G1 F1200 X119.305 Y122.699 E31.93743
G0 F6000 X118.739 Y122.699
