;FLAVOR:Marlin
;TIME:2651
;Filament used: 2.36211m
;Layer height: 0.28
;MINX:100.768
;MINY:92.25
;MINZ:0.28
;MAXX:142.768
;MAXY:142.75
;MAXZ:34.72
;Generated with Cura_SteamEngine 4.6.2
M140 S60
M105
M190 S60
M104 S200
M105
M109 S200
M82 ;absolute extrusion mode
; Ender 3 Custom Start G-code
G92 E0 ; Reset Extruder
G28 ; Home all axes
G1 Z2.0 F3000 ; Move Z Axis up little to prevent scratching of Heat Bed
G1 X0.1 Y20 Z0.3 F5000.0 ; Move to start position
G1 X0.1 Y200.0 Z0.3 F1500.0 E15 ; Draw the first line
G1 X0.4 Y200.0 Z0.3 F5000.0 ; Move to side a little
G1 X0.4 Y20 Z0.3 F1500.0 E30 ; Draw the second line
G92 E0 ; Reset Extruder
G1 Z2.0 F3000 ; Move Z Axis up little to prevent scratching of Heat Bed
G1 X5 Y20 Z0.3 F5000.0 ; Move over to prevent blob squish
G92 E0
G92 E0
G1 F1500 E-6.5
;LAYER_COUNT:125
;LAYER:0
M107
G0 F6000 X120.371 Y93.067 Z0.28
;TYPE:SKIRT
G1 F1500 E0
G1 F1200 X123.058 Y93.067 E0.12512
G1 X124.081 Y93.05 E0.17276
G1 X131.207 Y93.051 E0.50458
G1 X131.905 Y93.061 E0.53708
G1 X132.807 Y93.114 E0.57915
G1 X133.7 Y93.246 E0.62119
G1 X134.578 Y93.457 E0.66324
G1 X135.434 Y93.745 E0.70529
G1 X136.261 Y94.107 E0.74733
G1 X137.053 Y94.542 E0.7894
G1 X137.804 Y95.044 E0.83146
G1 X138.507 Y95.611 E0.87352
G1 X139.157 Y96.238 E0.91557
G1 X139.749 Y96.92 E0.95762
G1 X140.279 Y97.651 E0.99967
G1 X140.741 Y98.427 E1.04172
G1 X141.134 Y99.24 E1.08377
G1 X141.452 Y100.085 E1.12581
G1 X141.695 Y100.955 E1.16787
G1 X141.86 Y101.843 E1.20993
G1 X141.955 Y102.973 E1.26273
G1 X141.968 Y103.58 E1.291
G1 X141.967 Y111.659 E1.66719
G1 X141.96 Y112.134 E1.68931
G1 X141.968 Y115.54 E1.84791
G1 X141.967 Y123.666 E2.22629
G1 X141.957 Y124.383 E2.25968
G1 X141.904 Y125.285 E2.30176
G1 X141.772 Y126.178 E2.34379
G1 X141.562 Y127.056 E2.38583
G1 X141.274 Y127.913 E2.42792
G1 X140.912 Y128.74 E2.46996
G1 X140.478 Y129.532 E2.51201
G1 X139.976 Y130.283 E2.55408
G1 X139.41 Y130.986 E2.5961
G1 X138.683 Y131.73 E2.64454
G1 X138.417 Y131.976 E2.66141
G1 X136.479 Y133.784 E2.78482
G1 X134.698 Y135.542 E2.90135
G1 X132.921 Y137.398 E3.021
G1 X132.49 Y137.872 E3.05083
G1 X131.731 Y138.688 E3.10272
G1 X131.087 Y139.321 E3.14477
G1 X130.39 Y139.895 E3.18682
G1 X129.644 Y140.405 E3.22889
G1 X128.857 Y140.847 E3.27092
G1 X128.033 Y141.218 E3.313
G1 X127.18 Y141.515 E3.35506
G1 X126.304 Y141.734 E3.39711
G1 X125.412 Y141.876 E3.43916
G1 X124.545 Y141.937 E3.47964
G1 X123.938 Y141.95 E3.50791
G1 X115.153 Y141.949 E3.91697
G1 X114.454 Y141.939 E3.94952
G1 X113.553 Y141.886 E3.99155
G1 X112.659 Y141.754 E4.03363
G1 X111.781 Y141.543 E4.07568
G1 X110.925 Y141.255 E4.11773
G1 X110.098 Y140.893 E4.15977
G1 X109.306 Y140.459 E4.20182
G1 X108.555 Y139.956 E4.24391
G1 X107.852 Y139.389 E4.28597
G1 X107.202 Y138.762 E4.32802
G1 X106.61 Y138.08 E4.37007
G1 X106.081 Y137.349 E4.41209
G1 X105.618 Y136.573 E4.45416
G1 X105.226 Y135.76 E4.49619
G1 X104.989 Y135.156 E4.5264
G1 X104.7 Y134.339 E4.56676
G1 X104.331 Y133.247 E4.62043
G1 X103.451 Y130.867 E4.73859
G1 X102.321 Y128.069 E4.8791
G1 X102.021 Y127.218 E4.92111
G1 X101.796 Y126.343 E4.96318
G1 X101.65 Y125.452 E5.00522
G1 X101.585 Y124.59 E5.04548
G1 X101.574 Y124.261 E5.0608
G1 X101.568 Y123.92 E5.07668
G1 X101.569 Y115.827 E5.45353
G1 X101.576 Y115.362 E5.47518
G1 X101.568 Y111.96 E5.6336
G1 X101.569 Y103.786 E6.01421
G1 X101.578 Y103.121 E6.04518
G1 X101.63 Y102.219 E6.08725
G1 X101.762 Y101.326 E6.12928
G1 X101.972 Y100.448 E6.17132
G1 X102.259 Y99.591 E6.2134
G1 X102.621 Y98.764 E6.25544
G1 X103.054 Y97.972 E6.29747
G1 X103.556 Y97.221 E6.33953
G1 X104.123 Y96.517 E6.38162
G1 X104.749 Y95.867 E6.42365
G1 X105.43 Y95.274 E6.46569
G1 X106.162 Y94.744 E6.50777
G1 X106.937 Y94.281 E6.54981
G1 X107.75 Y93.888 E6.59186
G1 X108.595 Y93.568 E6.63393
G1 X109.464 Y93.325 E6.67595
G1 X110.352 Y93.159 E6.71801
G1 X111.491 Y93.063 E6.77124
G1 X112.098 Y93.05 E6.79951
G1 X119.227 Y93.051 E7.13147
G1 X120.371 Y93.067 E7.18474
G0 F6000 X120.376 Y92.667
G1 F1200 X123.051 Y92.667 E7.3093
G1 X124.081 Y92.65 E7.35727
G1 X131.213 Y92.651 E7.68936
G1 X131.911 Y92.661 E7.72187
G1 X132.83 Y92.714 E7.76473
G1 X133.741 Y92.847 E7.8076
G1 X134.637 Y93.058 E7.85046
G1 X135.511 Y93.346 E7.89331
G1 X136.358 Y93.709 E7.93622
G1 X137.169 Y94.144 E7.97908
G1 X137.939 Y94.648 E8.02193
G1 X138.663 Y95.217 E8.06481
G1 X139.335 Y95.847 E8.1077
G1 X139.95 Y96.532 E8.15056
G1 X140.503 Y97.268 E8.19343
G1 X140.99 Y98.049 E8.23629
G1 X141.407 Y98.87 E8.27917
G1 X141.752 Y99.724 E8.32205
G1 X142.021 Y100.604 E8.3649
G1 X142.213 Y101.505 E8.4078
G1 X142.326 Y102.418 E8.45064
G1 X142.355 Y102.962 E8.476
G1 X142.368 Y103.58 E8.50479
G1 X142.367 Y111.665 E8.88126
G1 X142.36 Y112.139 E8.90333
G1 X142.368 Y115.539 E9.06165
G1 X142.367 Y123.672 E9.44036
G1 X142.357 Y124.389 E9.47375
G1 X142.304 Y125.308 E9.51661
G1 X142.172 Y126.219 E9.55947
G1 X141.961 Y127.115 E9.60234
G1 X141.673 Y127.99 E9.64523
G1 X141.31 Y128.836 E9.6881
G1 X140.876 Y129.647 E9.73093
G1 X140.372 Y130.418 E9.77382
G1 X139.804 Y131.142 E9.81667
G1 X138.955 Y132.023 E9.87364
G1 X138.689 Y132.269 E9.89051
G1 X136.768 Y134.06 E10.0128
G1 X134.967 Y135.838 E10.13065
G1 X133.205 Y137.678 E10.24928
G1 X132.783 Y138.144 E10.27855
G1 X132.024 Y138.96 E10.33044
G1 X131.368 Y139.607 E10.37335
G1 X130.658 Y140.194 E10.41624
G1 X129.901 Y140.717 E10.45909
G1 X129.101 Y141.172 E10.50194
G1 X128.264 Y141.556 E10.54482
G1 X127.397 Y141.867 E10.58771
G1 X126.507 Y142.101 E10.63056
G1 X125.6 Y142.256 E10.67341
G1 X124.556 Y142.337 E10.72217
G1 X123.938 Y142.35 E10.75095
G1 X115.147 Y142.349 E11.16029
G1 X114.448 Y142.339 E11.19285
G1 X113.529 Y142.286 E11.23571
G1 X112.618 Y142.153 E11.27858
G1 X111.722 Y141.942 E11.32144
G1 X110.848 Y141.654 E11.36429
G1 X110.002 Y141.291 E11.40716
G1 X109.19 Y140.856 E11.45005
G1 X108.42 Y140.352 E11.4929
G1 X107.696 Y139.783 E11.53578
G1 X107.024 Y139.154 E11.57864
G1 X106.409 Y138.468 E11.62154
G1 X105.856 Y137.732 E11.66441
G1 X105.369 Y136.951 E11.70727
G1 X104.952 Y136.13 E11.75014
G1 X104.612 Y135.29 E11.79234
G1 X104.321 Y134.467 E11.83299
G1 X103.949 Y133.365 E11.88715
G1 X103.075 Y131 E12.00455
G1 X101.951 Y128.219 E12.14422
G1 X101.643 Y127.351 E12.18711
G1 X101.412 Y126.46 E12.22997
G1 X101.259 Y125.552 E12.27285
G1 X101.185 Y124.603 E12.31717
G1 X101.174 Y124.274 E12.3325
G1 X101.168 Y123.92 E12.34898
G1 X101.169 Y115.821 E12.72611
G1 X101.176 Y115.357 E12.74772
G1 X101.168 Y111.961 E12.90585
G1 X101.169 Y103.781 E13.28674
G1 X101.178 Y103.116 E13.31771
G1 X101.23 Y102.196 E13.36062
G1 X101.362 Y101.285 E13.40348
G1 X101.573 Y100.389 E13.44634
G1 X101.86 Y99.514 E13.48922
G1 X102.223 Y98.668 E13.53209
G1 X102.657 Y97.856 E13.57496
G1 X103.16 Y97.085 E13.61783
G1 X103.729 Y96.361 E13.66071
G1 X104.357 Y95.689 E13.70353
G1 X105.042 Y95.073 E13.74643
G1 X105.778 Y94.52 E13.7893
G1 X106.559 Y94.032 E13.83218
G1 X107.379 Y93.614 E13.87504
G1 X108.233 Y93.269 E13.91793
G1 X109.113 Y92.999 E13.96079
G1 X110.013 Y92.807 E14.00364
G1 X110.927 Y92.693 E14.04653
G1 X111.48 Y92.663 E14.07232
G1 X112.098 Y92.65 E14.1011
G1 X119.232 Y92.651 E14.43329
G1 X120.376 Y92.667 E14.48656
G0 F6000 X120.382 Y92.267
G1 F1200 X123.044 Y92.267 E14.61052
G1 X124.081 Y92.25 E14.65881
G1 X131.219 Y92.251 E14.99118
G1 X131.917 Y92.261 E15.02369
G1 X132.853 Y92.315 E15.06735
G1 X133.781 Y92.447 E15.11099
G1 X134.695 Y92.659 E15.15468
G1 X135.587 Y92.948 E15.19834
G1 X136.452 Y93.311 E15.24202
G1 X137.282 Y93.747 E15.28568
G1 X138.073 Y94.252 E15.32938
G1 X138.817 Y94.823 E15.37305
G1 X139.51 Y95.455 E15.41672
G1 X140.147 Y96.143 E15.46038
G1 X140.722 Y96.884 E15.50406
G1 X141.233 Y97.67 E15.54771
G1 X141.675 Y98.498 E15.59141
G1 X142.044 Y99.36 E15.63508
G1 X142.339 Y100.25 E15.67873
G1 X142.557 Y101.162 E15.7224
G1 X142.697 Y102.09 E15.7661
G1 X142.755 Y102.951 E15.80628
G1 X142.768 Y103.58 E15.83558
G1 X142.767 Y111.671 E16.21233
G1 X142.76 Y112.144 E16.23435
G1 X142.768 Y115.538 E16.39239
G1 X142.767 Y123.677 E16.77138
G1 X142.757 Y124.394 E16.80477
G1 X142.704 Y125.331 E16.84847
G1 X142.571 Y126.259 E16.89212
G1 X142.36 Y127.173 E16.9358
G1 X142.072 Y128.065 E16.97945
G1 X141.708 Y128.93 E17.02315
G1 X141.273 Y129.761 E17.06682
G1 X140.768 Y130.551 E17.11048
G1 X140.198 Y131.296 E17.15416
G1 X139.566 Y131.989 E17.19783
G1 X139.227 Y132.317 E17.2198
G1 X138.961 Y132.563 E17.23667
G1 X137.039 Y134.355 E17.35903
G1 X135.254 Y136.117 E17.47582
G1 X133.508 Y137.941 E17.5934
G1 X133.075 Y138.417 E17.62336
G1 X132.316 Y139.233 E17.67525
G1 X131.649 Y139.892 E17.71891
G1 X130.928 Y140.491 E17.76256
G1 X130.158 Y141.027 E17.80624
G1 X129.346 Y141.496 E17.84991
G1 X128.496 Y141.893 E17.89359
G1 X127.616 Y142.217 E17.93726
G1 X126.712 Y142.465 E17.98091
G1 X125.789 Y142.634 E18.0246
G1 X124.567 Y142.737 E18.0817
G1 X123.938 Y142.75 E18.111
G1 X115.142 Y142.749 E18.52058
G1 X114.443 Y142.739 E18.55313
G1 X113.506 Y142.685 E18.59683
G1 X112.578 Y142.553 E18.64048
G1 X111.664 Y142.341 E18.68417
G1 X110.772 Y142.052 E18.72783
G1 X109.907 Y141.689 E18.77151
G1 X109.077 Y141.253 E18.81517
G1 X108.287 Y140.748 E18.85882
G1 X107.542 Y140.177 E18.90253
G1 X106.849 Y139.545 E18.94621
G1 X106.212 Y138.857 E18.98986
G1 X105.637 Y138.116 E19.03354
G1 X105.126 Y137.33 E19.07719
G1 X104.684 Y136.502 E19.1209
G1 X104.235 Y135.424 E19.17527
G1 X103.942 Y134.595 E19.21622
G1 X103.571 Y133.496 E19.27023
G1 X102.704 Y131.152 E19.3866
G1 X101.58 Y128.369 E19.52636
G1 X101.266 Y127.485 E19.57004
G1 X101.028 Y126.578 E19.6137
G1 X100.869 Y125.654 E19.65736
G1 X100.785 Y124.617 E19.70581
G1 X100.774 Y124.288 E19.72114
G1 X100.768 Y123.92 E19.73827
G1 X100.769 Y115.815 E20.11568
G1 X100.776 Y115.352 E20.13724
G1 X100.768 Y111.962 E20.29509
G1 X100.769 Y103.775 E20.67631
G1 X100.778 Y103.11 E20.70728
G1 X100.831 Y102.174 E20.75093
G1 X100.963 Y101.245 E20.79463
G1 X101.174 Y100.331 E20.83831
G1 X101.462 Y99.439 E20.88195
G1 X101.825 Y98.574 E20.92563
G1 X102.26 Y97.743 E20.96931
G1 X102.764 Y96.953 E21.01294
G1 X103.334 Y96.208 E21.05662
G1 X103.966 Y95.514 E21.10033
G1 X104.654 Y94.877 E21.14399
G1 X105.394 Y94.301 E21.18765
G1 X106.18 Y93.789 E21.23133
G1 X107.007 Y93.347 E21.275
G1 X107.869 Y92.977 E21.31868
G1 X108.759 Y92.681 E21.36235
G1 X109.671 Y92.463 E21.40601
G1 X110.598 Y92.322 E21.44968
G1 X111.469 Y92.263 E21.49033
G1 X112.098 Y92.25 E21.51962
G1 X119.238 Y92.251 E21.85209
G1 X120.382 Y92.267 E21.90536
G1 F1500 E15.40536
;MESH:calicat.stl
G0 F6000 X120.421 Y112.903
G0 X119.354 Y114.585
G0 X119.354 Y115.664
G0 X112.55 Y116.032
G0 X112.55 Y123.468
G0 X119.696 Y123.822
G0 X119.696 Y127.178
G0 X115.373 Y127.532
G0 X115.192 Y131.15
;TYPE:WALL-INNER
G1 F1500 E21.90536
G1 F1200 X115.191 Y127.549 E22.07304
G1 X115.191 Y127.35 E22.08231
G1 X115.39 Y127.35 E22.0883
G1 X119.868 Y127.35 E22.29682
G1 X119.868 Y123.65 E22.4691
G1 X112.368 Y123.65 E22.81834
G1 X112.368 Y115.85 E23.18154
G1 X119.168 Y115.85 E23.49817
G1 X119.168 Y120.85 E23.73099
G1 X124.368 Y120.85 E23.97313
G1 X124.368 Y115.85 E24.20595
G1 X131.168 Y115.85 E24.52259
G1 X131.168 Y123.65 E24.88579
G1 X123.668 Y123.65 E25.23502
G1 X123.668 Y131.15 E25.58425
G1 X115.192 Y131.15 E25.97893
G0 F6000 X114.792 Y131.55
;TYPE:WALL-OUTER
G1 F1200 X114.791 Y126.95 E26.19312
G1 X119.468 Y126.95 E26.4109
G1 X119.468 Y124.05 E26.54594
G1 X111.968 Y124.05 E26.89517
G1 X111.968 Y115.45 E27.29562
G1 X119.568 Y115.45 E27.64951
G1 X119.568 Y120.45 E27.88233
G1 X123.968 Y120.45 E28.08721
G1 X123.968 Y115.45 E28.32003
G1 X131.568 Y115.45 E28.67392
G1 X131.568 Y124.05 E29.07437
G1 X124.068 Y124.05 E29.42361
G1 X124.068 Y131.55 E29.77284
G1 X114.792 Y131.55 E30.20477
G0 F6000 X115.062 Y131.28
G0 X115.582 Y131.04
G0 X115.582 Y130.76
;TYPE:SKIN
G1 F1200 X115.581 Y127.74 E30.34539
G1 X120.258 Y127.74 E30.56317
G1 X120.258 Y123.26 E30.77178
G1 X112.758 Y123.26 E31.12101
G1 X112.758 Y116.24 E31.44789
G1 X118.778 Y116.24 E31.72821
G1 X118.778 Y121.24 E31.96103
G1 X124.758 Y121.24 E32.23948
G1 X124.758 Y116.24 E32.4723
G1 X130.778 Y116.24 E32.75262
G1 X130.778 Y123.26 E33.0795
G1 X123.278 Y123.26 E33.42873
G1 X123.278 Y130.76 E33.77796
G1 X115.582 Y130.76 E34.13632
G0 F6000 X115.891 Y130.599
G1 F1200 X115.741 Y130.449 E34.1462
G0 F6000 X115.741 Y129.883
G1 F1200 X116.456 Y130.599 E34.19332
G0 F6000 X117.022 Y130.599
G1 F1200 X115.741 Y129.317 E34.2777
G0 F6000 X115.741 Y128.752
G1 F1200 X117.588 Y130.599 E34.39933
G0 F6000 X118.154 Y130.599
G1 F1200 X115.741 Y128.186 E34.55823
G0 F6000 X116.019 Y127.899
G1 F1200 X118.719 Y130.599 E34.73603
G0 F6000 X119.285 Y130.599
G1 F1200 X116.585 Y127.899 E34.91383
G0 F6000 X117.151 Y127.899
G1 F1200 X119.851 Y130.599 E35.09163
G0 F6000 X120.416 Y130.599
G1 F1200 X117.717 Y127.899 E35.2694
G0 F6000 X118.282 Y127.899
G1 F1200 X120.982 Y130.599 E35.4472
G0 F6000 X121.548 Y130.599
G1 F1200 X118.848 Y127.899 E35.625
G0 F6000 X119.414 Y127.899
G1 F1200 X122.113 Y130.599 E35.80276
G0 F6000 X122.679 Y130.599
G1 F1200 X119.979 Y127.899 E35.98056
G0 F6000 X120.418 Y127.772
G1 F1200 X123.117 Y130.471 E36.1583
G0 F6000 X123.117 Y129.906
G1 F1200 X120.418 Y127.206 E36.33606
G0 F6000 X120.418 Y126.64
G1 F1200 X123.117 Y129.34 E36.51383
G0 F6000 X123.117 Y128.774
G1 F1200 X120.418 Y126.075 E36.69156
G0 F6000 X120.418 Y125.509
G1 F1200 X123.117 Y128.209 E36.86933
G0 F6000 X123.117 Y127.643
G1 F1200 X120.418 Y124.943 E37.0471
G0 F6000 X120.418 Y124.377
G1 F1200 X123.117 Y127.077 E37.22486
G0 F6000 X123.117 Y126.512
G1 F1200 X120.418 Y123.812 E37.40263
G0 F6000 X120.418 Y123.246
G1 F1200 X123.117 Y125.946 E37.5804
G0 F6000 X123.117 Y125.38
G1 F1200 X119.137 Y121.4 E37.84249
G0 F6000 X119.703 Y121.4
G1 F1200 X123.117 Y124.814 E38.06731
G0 F6000 X123.117 Y124.249
G1 F1200 X120.268 Y121.4 E38.25492
G0 F6000 X120.834 Y121.4
G1 F1200 X123.117 Y123.683 E38.40526
G0 F6000 X123.117 Y123.117
G1 F1200 X121.4 Y121.4 E38.51832
G0 F6000 X121.966 Y121.4
G1 F1200 X123.665 Y123.099 E38.63021
G0 F6000 X124.23 Y123.099
G1 F1200 X122.531 Y121.4 E38.74209
G0 F6000 X123.097 Y121.4
G1 F1200 X124.796 Y123.099 E38.85397
G0 F6000 X125.362 Y123.099
G1 F1200 X123.663 Y121.4 E38.96585
G0 F6000 X124.228 Y121.4
G1 F1200 X125.927 Y123.099 E39.07773
G0 F6000 X126.493 Y123.099
G1 F1200 X124.794 Y121.4 E39.18962
G0 F6000 X124.917 Y120.957
G1 F1200 X127.059 Y123.099 E39.33067
G0 F6000 X127.624 Y123.099
G1 F1200 X124.917 Y120.392 E39.50893
G0 F6000 X124.917 Y119.826
G1 F1200 X128.19 Y123.099 E39.72446
G0 F6000 X128.756 Y123.099
G1 F1200 X124.917 Y119.26 E39.97727
G0 F6000 X124.917 Y118.694
G1 F1200 X129.322 Y123.099 E40.26735
G0 F6000 X129.887 Y123.099
G1 F1200 X124.917 Y118.129 E40.59463
G0 F6000 X124.917 Y117.563
G1 F1200 X130.453 Y123.099 E40.95918
G0 F6000 X130.617 Y122.697
G1 F1200 X124.917 Y116.997 E41.33454
G0 F6000 X124.917 Y116.432
G1 F1200 X130.617 Y122.132 E41.70989
G0 F6000 X130.617 Y121.566
G1 F1200 X125.451 Y116.4 E42.05008
G0 F6000 X126.017 Y116.4
G1 F1200 X130.617 Y121 E42.353
G0 F6000 X130.617 Y120.435
G1 F1200 X126.582 Y116.4 E42.61871
G0 F6000 X127.148 Y116.4
G1 F1200 X130.617 Y119.869 E42.84715
G0 F6000 X130.617 Y119.303
G1 F1200 X127.714 Y116.4 E43.03832
G0 F6000 X128.279 Y116.4
G1 F1200 X130.617 Y118.738 E43.19228
G0 F6000 X130.617 Y118.172
G1 F1200 X128.845 Y116.4 E43.30897
G0 F6000 X129.411 Y116.4
G1 F1200 X130.617 Y117.606 E43.38839
G0 F6000 X130.617 Y117.041
G1 F1200 X129.976 Y116.4 E43.4306
G0 F6000 X130.542 Y116.4
G1 F1200 X130.617 Y116.475 E43.43554
G0 F6000 X131.058 Y116.475
G0 X130.986 Y116.032
G0 X124.55 Y116.032
G0 X124.196 Y120.678
G0 X119.34 Y120.678
G0 X119.058 Y116.92
G0 X118.617 Y116.92
G1 F1200 X118.096 Y116.399 E43.46985
G0 F6000 X117.531 Y116.399
G1 F1200 X118.617 Y117.486 E43.54139
G0 F6000 X118.617 Y118.052
G1 F1200 X116.965 Y116.399 E43.65021
G0 F6000 X116.399 Y116.399
G1 F1200 X118.617 Y118.617 E43.79627
G0 F6000 X118.617 Y119.183
G1 F1200 X115.833 Y116.399 E43.9796
G0 F6000 X115.268 Y116.399
G1 F1200 X118.617 Y119.749 E44.20017
G0 F6000 X118.617 Y120.314
G1 F1200 X114.702 Y116.399 E44.45798
G0 F6000 X114.136 Y116.399
G1 F1200 X118.617 Y120.88 E44.75306
G0 F6000 X119.058 Y120.88
G0 X118.986 Y116.032
