;FLAVOR:Marlin
;TIME:3632
;Filament used: 1.24982m
;Layer height: 0.2
;MINX:100.7
;MINY:110.123
;MINZ:0.2
;MAXX:136.815
;MAXY:124.878
;MAXZ:62.6
;POSTPROCESSED
;ChangeAtZ instances: 1
;Generated with Cura_SteamEngine 4.6.2
M140 S60
M105
M190 S60
M104 S220
M105
M109 S220
M82 ;absolute extrusion mode
; Ender 3 Custom Start G-code
G92 E0 ; Reset Extruder
G28 ; Home all axes
G1 Z2.0 F3000 ; Move Z Axis up little to prevent scratching of Heat Bed
G1 X0.1 Y20 Z0.3 F5000.0 ; Move to start position
G1 X0.1 Y200.0 Z0.3 F1500.0 E15 ; Draw the first line
G1 X0.4 Y200.0 Z0.3 F5000.0 ; Move to side a little
G1 X0.4 Y20 Z0.3 F1500.0 E30 ; Draw the second line
G92 E0 ; Reset Extruder
G1 Z2.0 F3000 ; Move Z Axis up little to prevent scratching of Heat Bed
G1 X5 Y20 Z0.3 F5000.0 ; Move over to prevent blob squish
G92 E0
G92 E0
G1 F1500 E-6
;LAYER_COUNT:313
;LAYER:0
M107
M204 S500
M205 X8 Y8
G0 F7500 X104.042 Y111.681 Z0.2
;TYPE:SKIRT
G1 F1500 E0
G1 X104.506 Y111.251 E0.01999
G1 X105.02 Y110.883 E0.03996
G1 X105.576 Y110.582 E0.05994
G1 X106.165 Y110.354 E0.0799
G1 X106.779 Y110.203 E0.09988
G1 X107.669 Y110.123 E0.12811
G1 X131.29 Y110.126 E0.87447
G1 X131.943 Y110.159 E0.89513
G1 X132.28 Y110.191 E0.90582
G1 X132.904 Y110.291 E0.92579
G1 X133.511 Y110.468 E0.94577
G1 X134.09 Y110.721 E0.96573
G1 X134.633 Y111.044 E0.9857
G1 X135.131 Y111.434 E1.00568
G1 X135.576 Y111.883 E1.02566
G1 X135.96 Y112.385 E1.04563
G1 X136.278 Y112.931 E1.06559
G1 X136.525 Y113.513 E1.08557
G1 X136.696 Y114.122 E1.10556
G1 X136.789 Y114.747 E1.12552
G1 X136.807 Y115.16 E1.13858
G1 X136.815 Y119.82 E1.28583
G1 X136.776 Y120.451 E1.3058
G1 X136.658 Y121.072 E1.32577
G1 X136.462 Y121.673 E1.34575
G1 X136.192 Y122.245 E1.36574
G1 X135.853 Y122.778 E1.38569
G1 X135.448 Y123.264 E1.40568
G1 X134.986 Y123.695 E1.42565
G1 X134.473 Y124.064 E1.44561
G1 X133.917 Y124.366 E1.46561
G1 X133.328 Y124.595 E1.48557
G1 X132.714 Y124.747 E1.50556
G1 X132.262 Y124.809 E1.51998
G1 X131.816 Y124.849 E1.53413
G1 X131.513 Y124.867 E1.54372
G1 X131.092 Y124.877 E1.55702
G1 X107.669 Y124.878 E2.29712
G1 X107.038 Y124.838 E2.3171
G1 X106.418 Y124.719 E2.33705
G1 X105.817 Y124.522 E2.35703
G1 X105.246 Y124.251 E2.377
G1 X104.713 Y123.911 E2.39698
G1 X104.228 Y123.506 E2.41694
G1 X103.798 Y123.042 E2.43693
G1 X103.429 Y122.529 E2.4569
G1 X103.129 Y121.972 E2.47689
G1 X102.901 Y121.383 E2.49685
G1 X102.749 Y120.769 E2.51683
G1 X102.669 Y119.885 E2.54488
G1 X102.668 Y119.204 E2.5664
G1 X102.669 Y115.122 E2.69537
G1 X102.709 Y114.491 E2.71535
G1 X102.829 Y113.87 E2.73534
G1 X103.025 Y113.269 E2.75531
G1 X103.296 Y112.698 E2.77528
G1 X103.546 Y112.308 E2.78992
G0 F1350 X103.637 Y112.166
G0 X104.042 Y111.681
G0 F7500 X104.437 Y111.85
G1 F1500 X104.895 Y111.453 E2.80907
G1 X105.402 Y111.12 E2.82824
G1 X105.948 Y110.857 E2.84739
G1 X106.524 Y110.668 E2.86654
G1 X107.12 Y110.556 E2.8857
G1 X107.669 Y110.523 E2.90308
G1 X131.274 Y110.526 E3.64893
G1 X131.905 Y110.558 E3.66889
G1 X132.242 Y110.59 E3.67959
G1 X132.84 Y110.687 E3.69873
G1 X133.421 Y110.861 E3.7179
G1 X133.973 Y111.111 E3.73704
G1 X134.488 Y111.431 E3.7562
G1 X134.957 Y111.816 E3.77537
G1 X135.37 Y112.26 E3.79453
G1 X135.722 Y112.754 E3.8137
G1 X136.005 Y113.289 E3.83282
G1 X136.216 Y113.858 E3.852
G1 X136.35 Y114.449 E3.87115
G1 X136.407 Y115.161 E3.89372
G1 X136.415 Y119.821 E4.04096
G1 X136.376 Y120.426 E4.06011
G1 X136.258 Y121.021 E4.07928
G1 X136.063 Y121.595 E4.09844
G1 X135.793 Y122.138 E4.1176
G1 X135.455 Y122.641 E4.13675
G1 X135.054 Y123.096 E4.15591
G1 X134.596 Y123.493 E4.17506
G1 X134.09 Y123.827 E4.19422
G1 X133.544 Y124.092 E4.21339
G1 X132.969 Y124.282 E4.23253
G1 X132.226 Y124.411 E4.25636
G1 X131.78 Y124.451 E4.27051
G1 X131.502 Y124.467 E4.2793
G1 X131.092 Y124.477 E4.29226
G1 X107.669 Y124.478 E5.03236
G1 X107.064 Y124.438 E5.05152
G1 X106.47 Y124.319 E5.07066
G1 X105.896 Y124.123 E5.08983
G1 X105.353 Y123.853 E5.10899
G1 X104.851 Y123.513 E5.12815
G1 X104.397 Y123.111 E5.14731
G1 X104 Y122.653 E5.16646
G1 X103.667 Y122.146 E5.18562
G1 X103.404 Y121.6 E5.20477
G1 X103.214 Y121.024 E5.22394
G1 X103.102 Y120.428 E5.2431
G1 X103.069 Y119.885 E5.26029
G1 X103.068 Y119.204 E5.28181
G1 X103.069 Y115.122 E5.41078
G1 X103.109 Y114.517 E5.42994
G1 X103.228 Y113.922 E5.44912
G1 X103.425 Y113.349 E5.46826
G1 X103.695 Y112.806 E5.48742
G1 X103.926 Y112.464 E5.50046
G0 F1350 X104.034 Y112.304
G0 X104.437 Y111.85
G0 F7500 X104.431 Y112.448
G1 F1500 X104.83 Y112.028 E5.51877
G1 X105.283 Y111.667 E5.53707
G1 X105.781 Y111.371 E5.55537
G1 X106.315 Y111.147 E5.57367
G1 X106.875 Y110.999 E5.59197
G1 X107.669 Y110.923 E5.61718
G1 X131.259 Y110.925 E6.36255
G1 X131.867 Y110.956 E6.38179
G1 X132.204 Y110.988 E6.39248
G1 X132.776 Y111.082 E6.4108
G1 X133.329 Y111.254 E6.4291
G1 X133.853 Y111.501 E6.4474
G1 X134.338 Y111.817 E6.46569
G1 X134.775 Y112.198 E6.48401
G1 X135.156 Y112.634 E6.50231
G1 X135.473 Y113.119 E6.52062
G1 X135.72 Y113.643 E6.53892
G1 X135.893 Y114.196 E6.55723
G1 X135.988 Y114.768 E6.57555
G1 X136.007 Y115.162 E6.58801
G1 X136.015 Y119.822 E6.73526
G1 X135.976 Y120.4 E6.75356
G1 X135.858 Y120.967 E6.77186
G1 X135.663 Y121.512 E6.79015
G1 X135.395 Y122.026 E6.80847
G1 X135.058 Y122.498 E6.82679
G1 X134.66 Y122.918 E6.84507
G1 X134.208 Y123.281 E6.86339
G1 X133.71 Y123.577 E6.8817
G1 X133.177 Y123.802 E6.89998
G1 X132.617 Y123.952 E6.91829
G1 X132.19 Y124.012 E6.93192
G1 X131.744 Y124.052 E6.94607
G1 X131.49 Y124.067 E6.95411
G1 X131.092 Y124.077 E6.96669
G1 X107.669 Y124.078 E7.70679
G1 X107.091 Y124.038 E7.72509
G1 X106.524 Y123.919 E7.7434
G1 X105.979 Y123.723 E7.7617
G1 X105.466 Y123.454 E7.78
G1 X104.995 Y123.117 E7.7983
G1 X104.575 Y122.718 E7.81661
G1 X104.213 Y122.265 E7.83493
G1 X103.918 Y121.767 E7.85322
G1 X103.694 Y121.233 E7.87151
G1 X103.545 Y120.673 E7.88982
G1 X103.469 Y119.884 E7.91487
G1 X103.468 Y119.203 E7.93639
G1 X103.469 Y115.122 E8.06534
G1 X103.509 Y114.544 E8.08364
G1 X103.628 Y113.977 E8.10195
G1 X103.824 Y113.432 E8.12025
G1 X103.991 Y113.114 E8.1316
G0 F1350 X104.094 Y112.919
G0 X104.431 Y112.448
G0 F7500 X104.827 Y112.601
G1 F1500 X105.222 Y112.216 E8.14903
G1 X105.668 Y111.893 E8.16643
G1 X106.156 Y111.637 E8.18384
G1 X106.676 Y111.455 E8.20125
G1 X107.217 Y111.35 E8.21866
G1 X107.669 Y111.323 E8.23297
G1 X131.243 Y111.325 E8.97784
G1 X131.829 Y111.354 E8.99638
G1 X132.166 Y111.386 E9.00707
G1 X132.71 Y111.478 E9.0245
G1 X133.234 Y111.647 E9.0419
G1 X133.728 Y111.89 E9.0593
G1 X134.182 Y112.203 E9.07672
G1 X134.586 Y112.577 E9.09412
G1 X134.932 Y113.007 E9.11156
G1 X135.212 Y113.481 E9.12895
G1 X135.42 Y113.991 E9.14635
G1 X135.552 Y114.526 E9.16376
G1 X135.607 Y115.162 E9.18394
G1 X135.615 Y119.822 E9.33118
G1 X135.576 Y120.372 E9.3486
G1 X135.458 Y120.91 E9.366
G1 X135.263 Y121.426 E9.38343
G1 X134.996 Y121.908 E9.40084
G1 X134.662 Y122.346 E9.41825
G1 X134.268 Y122.731 E9.43565
G1 X133.823 Y123.055 E9.45305
G1 X133.335 Y123.312 E9.47047
G1 X132.815 Y123.495 E9.48789
G1 X132.154 Y123.614 E9.50911
G1 X131.708 Y123.654 E9.52326
G1 X131.479 Y123.667 E9.53051
G1 X131.092 Y123.677 E9.54274
G1 X107.669 Y123.678 E10.28284
G1 X107.12 Y123.638 E10.30023
G1 X106.582 Y123.519 E10.31764
G1 X106.066 Y123.324 E10.33507
G1 X105.585 Y123.056 E10.35247
G1 X105.147 Y122.721 E10.3699
G1 X104.763 Y122.326 E10.3873
G1 X104.439 Y121.88 E10.40472
G1 X104.184 Y121.392 E10.42212
G1 X104.001 Y120.872 E10.43954
G1 X103.896 Y120.331 E10.45695
G1 X103.869 Y119.884 E10.4711
G1 X103.868 Y119.203 E10.49262
G1 X103.869 Y115.122 E10.62156
G1 X103.909 Y114.573 E10.63896
G1 X104.028 Y114.035 E10.65637
G1 X104.224 Y113.519 E10.67381
G1 X104.371 Y113.256 E10.68333
G0 F1350 X104.492 Y113.038
G0 X104.827 Y112.601
G0 F7500 X105.222 Y112.762
G1 F1500 X105.611 Y112.416 E10.69978
G1 X106.049 Y112.134 E10.71624
G1 X106.525 Y111.921 E10.73272
G1 X107.028 Y111.784 E10.74919
G1 X107.669 Y111.723 E10.76953
G1 X131.227 Y111.725 E11.5139
G1 X131.791 Y111.752 E11.53174
G1 X132.128 Y111.784 E11.54244
G1 X132.642 Y111.873 E11.55892
G1 X133.136 Y112.039 E11.57538
G1 X133.599 Y112.279 E11.59186
G1 X134.019 Y112.587 E11.60832
G1 X134.388 Y112.955 E11.62479
G1 X134.696 Y113.376 E11.64127
G1 X134.936 Y113.838 E11.65772
G1 X135.102 Y114.332 E11.67418
G1 X135.192 Y114.846 E11.69067
G1 X135.207 Y115.163 E11.7007
G1 X135.215 Y119.823 E11.84794
G1 X135.176 Y120.343 E11.86442
G1 X135.058 Y120.85 E11.88087
G1 X134.864 Y121.334 E11.89734
G1 X134.598 Y121.782 E11.91381
G1 X134.267 Y122.185 E11.93028
G1 X133.878 Y122.532 E11.94676
G1 X133.441 Y122.815 E11.96321
G1 X132.965 Y123.029 E11.9797
G1 X132.463 Y123.167 E11.99615
G1 X132.119 Y123.215 E12.00712
G1 X131.673 Y123.255 E12.02127
G1 X131.467 Y123.268 E12.02779
G1 X131.092 Y123.277 E12.03964
G1 X107.669 Y123.278 E12.77974
G1 X107.15 Y123.238 E12.79619
G1 X106.642 Y123.119 E12.81268
G1 X106.159 Y122.924 E12.82914
G1 X105.711 Y122.658 E12.8456
G1 X105.309 Y122.326 E12.86207
G1 X104.963 Y121.936 E12.87855
G1 X104.68 Y121.499 E12.895
G1 X104.468 Y121.023 E12.91146
G1 X104.33 Y120.52 E12.92794
G1 X104.269 Y119.883 E12.94816
G1 X104.268 Y119.202 E12.96968
G1 X104.269 Y115.122 E13.09859
G1 X104.309 Y114.603 E13.11504
G1 X104.428 Y114.095 E13.13153
G1 X104.623 Y113.612 E13.14799
G1 X104.748 Y113.403 E13.15568
G0 F1350 X104.89 Y113.164
G0 X105.222 Y112.762
G0 F7500 X105.616 Y112.936
G1 F1500 X105.999 Y112.631 E13.17115
G1 X106.426 Y112.393 E13.1866
G1 X106.887 Y112.227 E13.20208
G1 X107.368 Y112.138 E13.21754
G1 X107.669 Y112.123 E13.22706
G1 X131.211 Y112.124 E13.97092
G1 X131.754 Y112.15 E13.98809
G1 X132.091 Y112.182 E13.99879
G1 X132.572 Y112.268 E14.01423
G1 X133.034 Y112.431 E14.02971
G1 X133.463 Y112.667 E14.04518
G1 X133.848 Y112.97 E14.06066
G1 X134.178 Y113.331 E14.07611
G1 X134.445 Y113.741 E14.09157
G1 X134.642 Y114.189 E14.10704
G1 X134.764 Y114.663 E14.1225
G1 X134.807 Y115.164 E14.13839
G1 X134.815 Y119.824 E14.28563
G1 X134.776 Y120.312 E14.3011
G1 X134.658 Y120.787 E14.31657
G1 X134.464 Y121.236 E14.33202
G1 X134.2 Y121.649 E14.34751
G1 X133.873 Y122.012 E14.36295
G1 X133.49 Y122.318 E14.37844
G1 X133.063 Y122.557 E14.3939
G1 X132.603 Y122.724 E14.40936
G1 X132.083 Y122.817 E14.42605
G1 X131.637 Y122.857 E14.4402
G1 X131.456 Y122.868 E14.44593
G1 X131.092 Y122.877 E14.45744
G1 X107.669 Y122.878 E15.19754
G1 X107.181 Y122.838 E15.21301
G1 X106.706 Y122.719 E15.22848
G1 X106.257 Y122.525 E15.24393
G1 X105.845 Y122.26 E15.25941
G1 X105.482 Y121.932 E15.27487
G1 X105.177 Y121.549 E15.29034
G1 X104.939 Y121.122 E15.30579
G1 X104.773 Y120.661 E15.32127
G1 X104.684 Y120.18 E15.33673
G1 X104.669 Y119.882 E15.34615
G1 X104.668 Y119.201 E15.36767
G1 X104.669 Y115.122 E15.49656
G1 X104.709 Y114.634 E15.51203
G1 X104.828 Y114.16 E15.52747
G1 X105.022 Y113.71 E15.54295
G1 X105.119 Y113.56 E15.5486
G0 F1350 X105.287 Y113.299
G0 X105.616 Y112.936
G0 F7500 X105.684 Y113.444
G1 F1500 X106.008 Y113.123 E15.56301
G1 X106.382 Y112.864 E15.57738
G1 X106.796 Y112.674 E15.59178
G1 X107.237 Y112.559 E15.60618
G1 X107.669 Y112.523 E15.61987
G1 X131.195 Y112.524 E16.36323
G1 X131.716 Y112.549 E16.37971
G1 X132.053 Y112.581 E16.3904
G1 X132.501 Y112.663 E16.4048
G1 X132.928 Y112.823 E16.4192
G1 X133.32 Y113.055 E16.4336
G1 X133.666 Y113.351 E16.44798
G1 X133.955 Y113.704 E16.4624
G1 X134.178 Y114.101 E16.47679
G1 X134.328 Y114.531 E16.49118
G1 X134.407 Y115.165 E16.51136
G1 X134.415 Y119.825 E16.65861
G1 X134.376 Y120.278 E16.67297
G1 X134.258 Y120.719 E16.6874
G1 X134.065 Y121.131 E16.70177
G1 X133.803 Y121.504 E16.71617
G1 X133.48 Y121.826 E16.73059
G1 X133.106 Y122.086 E16.74498
G1 X132.692 Y122.276 E16.75937
G1 X132.047 Y122.419 E16.78025
G1 X131.601 Y122.459 E16.7944
G1 X131.444 Y122.468 E16.79936
G1 X131.092 Y122.477 E16.81049
G1 X107.669 Y122.478 E17.55059
G1 X107.215 Y122.438 E17.56499
G1 X106.775 Y122.32 E17.57938
G1 X106.363 Y122.126 E17.59377
G1 X105.99 Y121.864 E17.60818
G1 X105.67 Y121.54 E17.62256
G1 X105.41 Y121.165 E17.63698
G1 X105.22 Y120.751 E17.65138
G1 X105.105 Y120.31 E17.66578
G1 X105.069 Y119.882 E17.67935
G1 X105.068 Y119.201 E17.70087
G1 X105.069 Y115.122 E17.82975
G1 X105.109 Y114.668 E17.84415
G1 X105.228 Y114.229 E17.85852
G1 X105.275 Y114.129 E17.86201
G0 F1350 X105.421 Y113.816
G0 X105.684 Y113.444
G0 F7500 X106.079 Y113.602
G1 F1500 X106.397 Y113.328 E17.87528
G1 X106.76 Y113.12 E17.8885
G1 X107.156 Y112.984 E17.90173
G1 X107.669 Y112.923 E17.91805
G1 X131.179 Y112.924 E18.6609
G1 X131.678 Y112.947 E18.67668
G1 X132.015 Y112.979 E18.68738
G1 X132.426 Y113.058 E18.7006
G1 X132.815 Y113.214 E18.71384
G1 X133.168 Y113.44 E18.72709
G1 X133.471 Y113.73 E18.74034
G1 X133.714 Y114.071 E18.75357
G1 X133.887 Y114.453 E18.76682
G1 X133.985 Y114.86 E18.78005
G1 X134.007 Y115.165 E18.78971
G1 X134.015 Y119.825 E18.93695
G1 X133.976 Y120.242 E18.95019
G1 X133.858 Y120.645 E18.96346
G1 X133.666 Y121.017 E18.97668
G1 X133.408 Y121.347 E18.98992
G1 X133.091 Y121.621 E19.00316
G1 X132.728 Y121.831 E19.01641
G1 X132.332 Y121.967 E19.02964
G1 X132.012 Y122.02 E19.03989
G1 X131.433 Y122.068 E19.05825
G1 X131.092 Y122.077 E19.06902
G1 X107.669 Y122.078 E19.80912
G1 X107.252 Y122.038 E19.82236
G1 X106.85 Y121.92 E19.8356
G1 X106.478 Y121.728 E19.84883
G1 X106.149 Y121.468 E19.86207
G1 X105.875 Y121.151 E19.87531
G1 X105.666 Y120.788 E19.88855
G1 X105.53 Y120.391 E19.90181
G1 X105.469 Y119.881 E19.91804
G1 X105.468 Y119.2 E19.93956
G1 X105.469 Y115.122 E20.06841
G1 X105.509 Y114.705 E20.08165
G1 X105.627 Y114.303 E20.09488
G1 X105.645 Y114.27 E20.09607
G0 F1350 X105.82 Y113.931
G0 X106.079 Y113.602
G0 F7500 X106.473 Y113.778
G1 F1500 X106.781 Y113.557 E20.10805
G1 X107.128 Y113.406 E20.12001
G1 X107.669 Y113.323 E20.1373
G1 X131.163 Y113.323 E20.87964
G1 X131.64 Y113.345 E20.89473
G1 X131.977 Y113.377 E20.90543
G1 X132.349 Y113.452 E20.91742
G1 X132.696 Y113.604 E20.92939
G1 X133.004 Y113.825 E20.94137
G1 X133.259 Y114.105 E20.95333
G1 X133.449 Y114.432 E20.96528
G1 X133.567 Y114.793 E20.97728
G1 X133.607 Y115.166 E20.98914
G1 X133.615 Y119.826 E21.13638
G1 X133.576 Y120.203 E21.14835
G1 X133.458 Y120.563 E21.16032
G1 X133.268 Y120.891 E21.1723
G1 X133.014 Y121.172 E21.18427
G1 X132.706 Y121.393 E21.19625
G1 X132.359 Y121.545 E21.20822
G1 X131.976 Y121.622 E21.22056
G1 X131.421 Y121.668 E21.23816
G1 X131.092 Y121.677 E21.24856
G1 X107.669 Y121.678 E21.98866
G1 X107.292 Y121.638 E22.00064
G1 X106.932 Y121.52 E22.01261
G1 X106.605 Y121.33 E22.02456
G1 X106.324 Y121.075 E22.03655
G1 X106.104 Y120.767 E22.04851
G1 X105.952 Y120.419 E22.06051
G1 X105.869 Y119.881 E22.07771
G1 X105.868 Y119.2 E22.09922
G1 X105.869 Y115.123 E22.22804
G1 X105.909 Y114.746 E22.24002
G1 X106.014 Y114.426 E22.25066
G0 F1350 X106.027 Y114.386
G0 X106.218 Y114.058
G0 X106.473 Y113.778
G0 F7500 X106.614 Y114.202
G1 F1500 X106.863 Y113.979 E22.26123
G1 X107.157 Y113.82 E22.27179
G1 X107.48 Y113.736 E22.28233
G1 X107.669 Y113.723 E22.28832
G1 X131.148 Y113.723 E23.03019
G1 X131.602 Y113.743 E23.04455
G1 X131.939 Y113.775 E23.05524
G1 X132.266 Y113.846 E23.06582
G1 X132.566 Y113.993 E23.07637
G1 X132.823 Y114.206 E23.08692
G1 X133.022 Y114.474 E23.09747
G1 X133.152 Y114.782 E23.10803
G1 X133.207 Y115.167 E23.12032
G1 X133.215 Y119.827 E23.26756
G1 X133.176 Y120.158 E23.27809
G1 X133.059 Y120.471 E23.28865
G1 X132.871 Y120.748 E23.29923
G1 X132.624 Y120.972 E23.30976
G1 X132.33 Y121.131 E23.32032
G1 X131.94 Y121.223 E23.33299
G1 X131.409 Y121.268 E23.34982
G1 X131.132 Y121.276 E23.35858
G1 X107.669 Y121.278 E24.09994
G1 X107.337 Y121.238 E24.11051
G1 X107.025 Y121.121 E24.12104
G1 X106.748 Y120.933 E24.13162
G1 X106.525 Y120.685 E24.14215
G1 X106.366 Y120.391 E24.15272
G1 X106.282 Y120.067 E24.16329
G1 X106.269 Y119.88 E24.16921
G1 X106.268 Y119.199 E24.19073
G1 X106.269 Y115.123 E24.31952
G1 X106.294 Y114.923 E24.32589
G0 F1350 X106.309 Y114.791
G0 X106.426 Y114.478
G0 X106.614 Y114.202
G0 F7500 X107.009 Y114.372
G1 F1500 X107.245 Y114.217 E24.33481
G1 X107.514 Y114.135 E24.3437
G1 X107.669 Y114.123 E24.34861
G1 X131.092 Y114.122 E25.08871
G1 X131.565 Y114.141 E25.10367
G1 X131.902 Y114.173 E25.11436
