;FLAVOR:Marlin
;TIME:2478
;Filament used: 1.16444m
;Layer height: 0.2
;MINX:93.266
;MINY:84.75
;MINZ:0.2
;MAXX:135.268
;MAXY:135.25
;MAXZ:34.6
;Generated with Cura_SteamEngine 4.7.0
M140 S60
M105
M190 S60
M104 S200
M105
M109 S200
M82 ;absolute extrusion mode
; Ender 3 Custom Start G-code
G92 E0 ; Reset Extruder
G28 ; Home all axes
G1 Z2.0 F3000 ; Move Z Axis up little to prevent scratching of Heat Bed
G1 X0.1 Y20 Z0.3 F5000.0 ; Move to start position
G1 X0.1 Y200.0 Z0.3 F1500.0 E15 ; Draw the first line
G1 X0.4 Y200.0 Z0.3 F5000.0 ; Move to side a little
G1 X0.4 Y20 Z0.3 F1500.0 E30 ; Draw the second line
G92 E0 ; Reset Extruder
G1 Z2.0 F3000 ; Move Z Axis up little to prevent scratching of Heat Bed
G1 X5 Y20 Z0.3 F5000.0 ; Move over to prevent blob squish
G92 E0
G92 E0
G1 F1500 E-6
;LAYER_COUNT:175
;LAYER:0
M107
M204 S500
M205 X8 Y8
G0 F7500 X96.466 Y88.014 Z0.2
;TYPE:SKIRT
G1 F1500 E0
G1 X97.154 Y87.377 E0.02963
G1 X97.894 Y86.801 E0.05926
G1 X98.68 Y86.289 E0.0889
G1 X99.507 Y85.847 E0.11852
G1 X100.369 Y85.477 E0.14816
G1 X101.259 Y85.181 E0.1778
G1 X102.171 Y84.963 E0.20743
G1 X103.098 Y84.822 E0.23706
G1 X103.969 Y84.763 E0.26464
G1 X104.29 Y84.754 E0.27479
G1 X104.598 Y84.75 E0.28452
G1 X111.738 Y84.751 E0.51012
G1 X112.882 Y84.767 E0.54627
G1 X115.522 Y84.767 E0.62969
G1 X116.229 Y84.752 E0.65203
G1 X116.5 Y84.75 E0.6606
G1 X123.719 Y84.751 E0.8887
G1 X124.417 Y84.761 E0.91075
G1 X125.353 Y84.815 E0.94038
G1 X126.281 Y84.947 E0.97
G1 X127.195 Y85.159 E0.99964
G1 X128.087 Y85.448 E1.02927
G1 X128.952 Y85.811 E1.05891
G1 X129.782 Y86.247 E1.08853
G1 X130.573 Y86.752 E1.11819
G1 X131.317 Y87.323 E1.14782
G1 X132.01 Y87.955 E1.17745
G1 X132.647 Y88.643 E1.20708
G1 X133.222 Y89.384 E1.23672
G1 X133.733 Y90.17 E1.26634
G1 X134.175 Y90.998 E1.296
G1 X134.544 Y91.86 E1.32562
G1 X134.839 Y92.75 E1.35525
G1 X135.057 Y93.662 E1.38488
G1 X135.197 Y94.59 E1.41453
G1 X135.255 Y95.451 E1.4418
G1 X135.264 Y95.771 E1.45191
G1 X135.268 Y96.08 E1.46168
G1 X135.267 Y104.171 E1.71733
G1 X135.26 Y104.659 E1.73275
G1 X135.26 Y107.278 E1.8155
G1 X135.265 Y107.543 E1.82388
G1 X135.268 Y107.989 E1.83797
G1 X135.267 Y116.176 E2.09666
G1 X135.257 Y116.898 E2.11947
G1 X135.204 Y117.835 E2.14913
G1 X135.071 Y118.763 E2.17875
G1 X134.86 Y119.677 E2.20839
G1 X134.572 Y120.569 E2.238
G1 X134.209 Y121.434 E2.26765
G1 X133.773 Y122.265 E2.2973
G1 X133.269 Y123.055 E2.32691
G1 X132.699 Y123.8 E2.35655
G1 X132.067 Y124.493 E2.38618
G1 X131.644 Y124.898 E2.40468
G1 X131.42 Y125.101 E2.41424
G1 X129.539 Y126.855 E2.4955
G1 X127.754 Y128.617 E2.57475
G1 X126.008 Y130.441 E2.65453
G1 X125.673 Y130.811 E2.6703
G1 X124.816 Y131.733 E2.71008
G1 X124.149 Y132.392 E2.73971
G1 X123.428 Y132.991 E2.76932
G1 X122.658 Y133.527 E2.79897
G1 X121.846 Y133.996 E2.8286
G1 X120.996 Y134.393 E2.85824
G1 X120.116 Y134.717 E2.88787
G1 X119.212 Y134.965 E2.91749
G1 X118.289 Y135.134 E2.94714
G1 X117.067 Y135.237 E2.98589
G1 X116.743 Y135.246 E2.99613
G1 X116.438 Y135.25 E3.00577
G1 X107.677 Y135.249 E3.28259
G1 X106.996 Y135.239 E3.30411
G1 X106.06 Y135.185 E3.33373
G1 X105.132 Y135.052 E3.36335
G1 X104.218 Y134.84 E3.393
G1 X103.326 Y134.551 E3.42263
G1 X102.462 Y134.187 E3.45225
G1 X101.631 Y133.751 E3.4819
G1 X100.841 Y133.245 E3.51155
G1 X100.097 Y132.675 E3.54116
G1 X99.404 Y132.043 E3.57079
G1 X98.691 Y131.262 E3.60421
G1 X98.657 Y131.221 E3.60589
G1 X98.089 Y130.474 E3.63554
G1 X97.588 Y129.681 E3.66518
G1 X97.155 Y128.849 E3.69482
G1 X96.754 Y127.869 E3.72827
G1 X96.344 Y126.707 E3.76721
G1 X96.24 Y126.4 E3.77745
G1 X95.386 Y124.09 E3.85527
G1 X94.38 Y121.588 E3.94048
G1 X94.123 Y120.971 E3.96159
G1 X93.8 Y120.09 E3.99124
G1 X93.552 Y119.186 E4.02086
G1 X93.383 Y118.263 E4.05051
G1 X93.281 Y117.049 E4.08901
G1 X93.272 Y116.729 E4.09912
G1 X93.268 Y116.42 E4.10889
G1 X93.269 Y108.315 E4.36498
G1 X93.276 Y107.836 E4.38012
G1 X93.276 Y105.222 E4.46271
G1 X93.271 Y104.947 E4.4714
G1 X93.266 Y103.991 E4.50161
G1 X93.268 Y103.378 E4.52098
G1 X93.269 Y96.275 E4.74541
G1 X93.278 Y95.61 E4.76643
G1 X93.331 Y94.674 E4.79605
G1 X93.463 Y93.745 E4.8257
G1 X93.674 Y92.831 E4.85534
G1 X93.962 Y91.939 E4.88495
G1 X94.325 Y91.074 E4.9146
G1 X94.76 Y90.243 E4.94423
G1 X95.264 Y89.453 E4.97384
G1 X95.834 Y88.708 E5.00348
G1 X95.927 Y88.605 E5.00787
G0 F1350 X96.466 Y88.014
G0 F7500 X96.857 Y88.189
G1 F1500 X97.542 Y87.573 E5.03697
G1 X98.278 Y87.02 E5.06606
G1 X99.059 Y86.532 E5.09516
G1 X99.879 Y86.114 E5.12424
G1 X100.733 Y85.769 E5.15335
G1 X101.613 Y85.499 E5.18243
G1 X102.513 Y85.307 E5.21151
G1 X103.427 Y85.193 E5.24061
G1 X103.98 Y85.163 E5.25811
G1 X104.301 Y85.154 E5.26826
G1 X104.598 Y85.15 E5.27764
G1 X111.584 Y85.15 E5.49838
G1 X112.876 Y85.167 E5.53921
G1 X115.531 Y85.167 E5.6231
G1 X116.232 Y85.152 E5.64525
G1 X116.503 Y85.15 E5.65381
G1 X123.713 Y85.151 E5.88163
G1 X124.411 Y85.161 E5.90369
G1 X125.33 Y85.214 E5.93277
G1 X126.241 Y85.347 E5.96186
G1 X127.137 Y85.558 E5.99095
G1 X128.011 Y85.846 E6.02003
G1 X128.858 Y86.209 E6.04914
G1 X129.669 Y86.644 E6.07822
G1 X130.439 Y87.148 E6.1073
G1 X131.163 Y87.717 E6.13639
G1 X131.835 Y88.347 E6.1655
G1 X132.45 Y89.032 E6.19459
G1 X133.003 Y89.768 E6.22368
G1 X133.49 Y90.549 E6.25276
G1 X133.907 Y91.37 E6.28185
G1 X134.252 Y92.224 E6.31096
G1 X134.521 Y93.104 E6.34003
G1 X134.713 Y94.005 E6.36914
G1 X134.826 Y94.918 E6.39821
G1 X134.855 Y95.462 E6.41542
G1 X134.864 Y95.782 E6.42554
G1 X134.868 Y96.08 E6.43495
G1 X134.867 Y104.165 E6.69042
G1 X134.86 Y104.653 E6.70584
G1 X134.86 Y107.287 E6.78906
G1 X134.865 Y107.546 E6.79725
G1 X134.868 Y107.992 E6.81134
G1 X134.867 Y116.171 E7.06977
G1 X134.857 Y116.893 E7.09259
G1 X134.804 Y117.812 E7.12168
G1 X134.672 Y118.723 E7.15076
G1 X134.461 Y119.619 E7.17985
G1 X134.173 Y120.494 E7.20895
G1 X133.811 Y121.34 E7.23803
G1 X133.376 Y122.152 E7.26714
G1 X132.873 Y122.922 E7.2962
G1 X132.304 Y123.647 E7.32532
G1 X131.375 Y124.601 E7.36739
G1 X131.161 Y124.794 E7.3765
G1 X129.268 Y126.56 E7.4583
G1 X127.467 Y128.338 E7.53826
G1 X125.705 Y130.178 E7.61876
G1 X125.283 Y130.644 E7.63862
G1 X124.524 Y131.46 E7.67384
G1 X123.868 Y132.107 E7.70295
G1 X123.158 Y132.694 E7.73206
G1 X122.401 Y133.217 E7.76113
G1 X121.601 Y133.672 E7.79021
G1 X120.764 Y134.056 E7.81931
G1 X119.897 Y134.367 E7.84841
G1 X119.007 Y134.601 E7.87749
G1 X118.1 Y134.756 E7.90656
G1 X117.056 Y134.837 E7.93965
G1 X116.732 Y134.846 E7.94989
G1 X116.438 Y134.85 E7.95918
G1 X107.683 Y134.849 E8.23581
G1 X107.002 Y134.839 E8.25733
G1 X106.083 Y134.785 E8.28642
G1 X105.172 Y134.652 E8.31551
G1 X104.276 Y134.441 E8.3446
G1 X103.402 Y134.152 E8.37368
G1 X102.556 Y133.789 E8.40277
G1 X101.745 Y133.354 E8.43185
G1 X100.974 Y132.85 E8.46096
G1 X100.251 Y132.28 E8.49005
G1 X99.579 Y131.651 E8.51913
G1 X98.999 Y131.006 E8.54654
G1 X98.965 Y130.965 E8.54822
G1 X98.408 Y130.232 E8.57731
G1 X97.918 Y129.453 E8.60639
G1 X97.496 Y128.634 E8.6355
G1 X97.131 Y127.735 E8.66616
G1 X96.723 Y126.579 E8.70489
G1 X96.619 Y126.27 E8.71519
G1 X95.745 Y123.907 E8.7948
G1 X94.787 Y121.525 E8.87592
G1 X94.492 Y120.817 E8.90016
G1 X94.176 Y119.953 E8.92923
G1 X93.935 Y119.064 E8.95833
G1 X93.772 Y118.158 E8.98742
G1 X93.681 Y117.038 E9.02292
G1 X93.672 Y116.718 E9.03304
G1 X93.668 Y116.42 E9.04246
G1 X93.669 Y108.321 E9.29836
G1 X93.676 Y107.842 E9.3135
G1 X93.676 Y105.213 E9.39657
G1 X93.671 Y104.945 E9.40504
G1 X93.666 Y103.992 E9.43515
G1 X93.668 Y103.379 E9.45452
G1 X93.669 Y96.281 E9.67879
G1 X93.678 Y95.616 E9.69981
G1 X93.73 Y94.696 E9.72892
G1 X93.862 Y93.785 E9.75801
G1 X94.073 Y92.889 E9.78709
G1 X94.36 Y92.014 E9.81619
G1 X94.723 Y91.168 E9.84528
G1 X95.157 Y90.356 E9.87437
G1 X95.66 Y89.585 E9.90346
G1 X96.229 Y88.861 E9.93255
G1 X96.311 Y88.773 E9.93635
G0 F1350 X96.857 Y88.189
G0 F7500 X97.249 Y88.367
G1 F1500 X97.93 Y87.774 E9.96489
G1 X98.662 Y87.244 E9.99344
G1 X99.437 Y86.781 E10.02197
G1 X100.25 Y86.388 E10.0505
G1 X101.095 Y86.068 E10.07905
G1 X101.964 Y85.825 E10.10756
G1 X102.852 Y85.659 E10.13611
G1 X103.991 Y85.563 E10.17222
G1 X104.312 Y85.554 E10.18237
G1 X104.598 Y85.55 E10.19141
G1 X111.584 Y85.55 E10.41214
G1 X112.871 Y85.567 E10.45281
G1 X115.495 Y85.567 E10.53572
G1 X116.086 Y85.554 E10.5544
G1 X116.506 Y85.55 E10.56767
G1 X123.707 Y85.551 E10.7952
G1 X124.405 Y85.561 E10.81726
G1 X125.307 Y85.614 E10.84581
G1 X126.2 Y85.746 E10.87433
G1 X127.078 Y85.957 E10.90287
G1 X127.934 Y86.245 E10.9314
G1 X128.761 Y86.607 E10.95993
G1 X129.553 Y87.042 E10.98848
G1 X130.304 Y87.544 E11.01702
G1 X131.007 Y88.111 E11.04556
G1 X131.657 Y88.738 E11.07409
G1 X132.249 Y89.42 E11.10263
G1 X132.779 Y90.151 E11.13116
G1 X133.241 Y90.927 E11.1597
G1 X133.634 Y91.74 E11.18823
G1 X133.952 Y92.585 E11.21676
G1 X134.195 Y93.455 E11.2453
G1 X134.36 Y94.343 E11.27384
G1 X134.455 Y95.473 E11.30967
G1 X134.464 Y95.793 E11.31978
G1 X134.468 Y96.08 E11.32885
G1 X134.467 Y104.159 E11.58412
G1 X134.46 Y104.647 E11.59954
G1 X134.46 Y107.296 E11.68325
G1 X134.465 Y107.548 E11.69121
G1 X134.468 Y107.994 E11.7053
G1 X134.467 Y116.165 E11.96348
G1 X134.457 Y116.887 E11.9863
G1 X134.405 Y117.789 E12.01485
G1 X134.273 Y118.682 E12.04337
G1 X134.062 Y119.56 E12.0719
G1 X133.775 Y120.417 E12.10046
G1 X133.413 Y121.244 E12.12898
G1 X132.979 Y122.036 E12.15752
G1 X132.477 Y122.787 E12.18606
G1 X131.91 Y123.49 E12.2146
G1 X131.107 Y124.305 E12.25075
G1 X130.869 Y124.521 E12.2609
G1 X128.979 Y126.284 E12.34257
G1 X127.198 Y128.042 E12.42164
G1 X125.421 Y129.898 E12.50283
G1 X124.99 Y130.372 E12.52308
G1 X124.231 Y131.188 E12.55829
G1 X123.587 Y131.821 E12.58682
G1 X122.89 Y132.395 E12.61535
G1 X122.144 Y132.905 E12.6439
G1 X121.357 Y133.347 E12.67242
G1 X120.533 Y133.718 E12.70098
G1 X119.68 Y134.015 E12.72952
G1 X118.804 Y134.234 E12.75805
G1 X117.912 Y134.376 E12.78659
G1 X117.045 Y134.437 E12.81405
G1 X116.721 Y134.446 E12.82429
G1 X116.438 Y134.45 E12.83323
G1 X107.689 Y134.449 E13.10968
G1 X107.008 Y134.439 E13.1312
G1 X106.107 Y134.386 E13.15972
G1 X105.213 Y134.253 E13.18827
G1 X104.335 Y134.042 E13.21681
G1 X103.479 Y133.754 E13.24534
G1 X102.652 Y133.391 E13.27388
G1 X101.861 Y132.956 E13.3024
G1 X101.11 Y132.454 E13.33095
G1 X100.408 Y131.887 E13.35946
G1 X99.758 Y131.26 E13.388
G1 X99.306 Y130.751 E13.4095
G1 X99.272 Y130.71 E13.41119
G1 X98.727 Y129.99 E13.43972
G1 X98.248 Y129.225 E13.46824
G1 X97.838 Y128.42 E13.49678
G1 X97.508 Y127.602 E13.52465
G1 X97.102 Y126.452 E13.56319
G1 X96.997 Y126.141 E13.57356
G1 X96.115 Y123.756 E13.65391
G1 X95.13 Y121.306 E13.73734
G1 X94.862 Y120.663 E13.75935
G1 X94.552 Y119.815 E13.78788
G1 X94.318 Y118.943 E13.81641
G1 X94.162 Y118.053 E13.84496
G1 X94.081 Y117.027 E13.87748
G1 X94.072 Y116.707 E13.88759
G1 X94.068 Y116.42 E13.89666
G1 X94.069 Y108.327 E14.15238
G1 X94.076 Y107.848 E14.16752
G1 X94.076 Y105.204 E14.25106
G1 X94.071 Y104.943 E14.25931
G1 X94.066 Y103.994 E14.28929
G1 X94.068 Y103.381 E14.30866
G1 X94.069 Y96.286 E14.53284
G1 X94.078 Y95.621 E14.55386
G1 X94.13 Y94.719 E14.58241
G1 X94.262 Y93.826 E14.61093
G1 X94.472 Y92.948 E14.63945
G1 X94.759 Y92.091 E14.66801
G1 X95.121 Y91.264 E14.69654
G1 X95.554 Y90.472 E14.72506
G1 X96.056 Y89.721 E14.7536
G1 X96.623 Y89.017 E14.78216
G1 X96.694 Y88.943 E14.7854
G0 F1350 X97.249 Y88.367
G1 F1500 E8.7854
;MESH:calicat.stl(2)
G0 F7500 X112.921 Y95.097
G0 X112.949 Y96.887
G0 X112.932 Y98.421
G0 X109.337 Y98.683
G0 X109.376 Y98.945
G0 X109.83 Y99.471
G0 X110.231 Y99.795
G0 X110.255 Y99.905
;TYPE:WALL-OUTER
G1 F1500 E14.7854
G1 X110.254 Y99.905 E14.78543
G1 X110.211 Y99.91 E14.78673
G1 X110.15 Y99.906 E14.78857
G1 X110.105 Y99.895 E14.78996
G1 X110.099 Y99.893 E14.79015
G1 X110.03 Y99.863 E14.7924
G1 X109.997 Y99.845 E14.79353
G1 X109.914 Y99.791 E14.7965
G1 X109.873 Y99.762 E14.79801
G1 X109.824 Y99.723 E14.79989
G1 X109.732 Y99.642 E14.80357
G1 X109.623 Y99.536 E14.80814
G1 X109.47 Y99.371 E14.81489
G1 X109.378 Y99.259 E14.81924
G1 X109.304 Y99.159 E14.82298
G1 X109.274 Y99.112 E14.82465
G1 X109.228 Y99.031 E14.82744
G1 X109.207 Y98.988 E14.82888
G1 X109.177 Y98.91 E14.83139
G1 X109.165 Y98.855 E14.83308
G1 X109.163 Y98.803 E14.83464
G1 X109.163 Y98.796 E14.83485
G1 X109.171 Y98.742 E14.83649
G1 X109.184 Y98.703 E14.83772
G1 X109.186 Y98.696 E14.83794
G1 X109.216 Y98.645 E14.83972
G1 X109.252 Y98.6 E14.84145
G1 X109.304 Y98.554 E14.84353
G1 X109.342 Y98.53 E14.84488
G1 X109.381 Y98.516 E14.84613
G1 X109.424 Y98.511 E14.84743
G1 X109.431 Y98.511 E14.84764
G1 X109.482 Y98.515 E14.84917
G1 X109.533 Y98.527 E14.85074
G1 X109.54 Y98.53 E14.85097
G1 X109.602 Y98.556 E14.85299
G1 X109.672 Y98.596 E14.85541
G1 X109.721 Y98.628 E14.85717
G1 X109.758 Y98.655 E14.85854
G1 X109.859 Y98.738 E14.86247
G1 X109.903 Y98.778 E14.86425
G1 X110.01 Y98.881 E14.86871
G1 X110.064 Y98.937 E14.87104
G1 X110.173 Y99.058 E14.87593
G1 X110.219 Y99.112 E14.87806
G1 X110.295 Y99.208 E14.88174
G1 X110.329 Y99.257 E14.88353
G1 X110.391 Y99.354 E14.88698
G1 X110.432 Y99.434 E14.88968
G1 X110.46 Y99.508 E14.89206
G1 X110.473 Y99.573 E14.89405
G1 X110.475 Y99.624 E14.89558
G1 X110.466 Y99.679 E14.89725
G1 X110.459 Y99.7 E14.89792
G0 F1350 X110.454 Y99.717
G0 X110.452 Y99.723
G0 X110.423 Y99.773
G0 X110.383 Y99.822
G0 X110.335 Y99.865
G0 X110.292 Y99.892
G0 X110.255 Y99.905
G0 F7500 X110.254 Y99.905
G0 X110.211 Y99.91
G0 X110.15 Y99.906
G0 X110.105 Y99.895
G0 X110.099 Y99.893
G0 X110.03 Y99.863
G0 X109.997 Y99.845
G0 X109.914 Y99.791
G0 X109.888 Y99.773
G0 X110.493 Y99.16
G1 F1500 E8.89792
G0 F7500 X110.543 Y99.129
G0 X110.664 Y99.638
G0 X110.521 Y99.952
G0 X110.209 Y100.099
G0 X109.722 Y100.026
G0 X109.506 Y99.842
G0 X109.434 Y99.918
G0 X109.469 Y99.967
G0 X109.25 Y101.794
G0 X108.887 Y102.309
G0 X108.469 Y102.604
G0 X108.126 Y102.749
G0 X107.595 Y102.121
G0 X107.349 Y102.205
G0 X107.255 Y102.269
G0 X107.086 Y101.881
G0 X106.777 Y102.071
G0 X106.957 Y102.242
G1 F1500 E14.89792
G1 X106.982 Y102.298 E14.89976
G1 X106.996 Y102.347 E14.90129
G1 X107.003 Y102.394 E14.90271
G1 X107.004 Y102.44 E14.90409
G1 X107 Y102.488 E14.90554
G1 X106.993 Y102.519 E14.90649
G1 X106.972 Y102.57 E14.90815
G1 X106.955 Y102.602 E14.90924
G1 X106.925 Y102.642 E14.91074
G1 X106.88 Y102.687 E14.91265
G1 X106.853 Y102.709 E14.91369
G1 X106.814 Y102.735 E14.9151
G1 X106.783 Y102.747 E14.9161
G1 X106.75 Y102.755 E14.91712
G1 X106.699 Y102.756 E14.91865
G1 X106.672 Y102.751 E14.91947
G1 X106.625 Y102.735 E14.92096
G1 X106.589 Y102.718 E14.92216
G1 X106.548 Y102.69 E14.92365
G1 X106.54 Y102.683 E14.92397
G1 X106.553 Y102.669
G1 X106.568 Y102.653
G1 X106.578 Y102.643
G1 X106.602 Y102.617 E14.92424
G1 X106.622 Y102.596 E14.92444
G1 X106.643 Y102.574 E14.92473
G1 X106.674 Y102.541 E14.92547
G1 X106.698 Y102.516 E14.926
G1 X106.742 Y102.47 E14.92724
G1 X106.776 Y102.434 E14.92811
G1 X106.8 Y102.408 E14.9286
G1 X106.835 Y102.371 E14.92939
G1 X106.854 Y102.351 E14.92951
G1 X106.88 Y102.324 E14.92977
G1 X106.902 Y102.3 E14.92981
G1 X106.923 Y102.278
G1 X106.94 Y102.26
G1 X106.957 Y102.242
G0 F7500 X106.982 Y102.298
G0 X106.996 Y102.347
G0 X107.003 Y102.394
G0 X107.004 Y102.44
G0 X107 Y102.488
G0 X106.993 Y102.519
G0 X106.972 Y102.57
G0 X106.955 Y102.602
G0 X106.94 Y102.622
G1 F1500 E8.92981
G0 F7500 X106.843 Y102.58
G0 X106.722 Y102.649
G0 X105.49 Y103.591
G0 X105.43 Y104.035
G0 X105.421 Y104.156
G1 F1500 E14.92981
G1 X105.373 Y104.158 E14.93125
G1 X105.326 Y104.153 E14.93267
G1 X105.28 Y104.143 E14.93408
G1 X105.225 Y104.121 E14.93586
G1 X105.167 Y104.09 E14.93783
G1 X105.101 Y104.042 E14.94028
G1 X105.039 Y103.99 E14.94271
G1 X105.007 Y103.959 E14.94405
G1 X104.941 Y103.89 E14.94692
G1 X104.91 Y103.853 E14.94836
G1 X104.861 Y103.789 E14.95078
G1 X104.816 Y103.718 E14.95331
G1 X104.787 Y103.659 E14.95528
G1 X104.763 Y103.595 E14.95733
G1 X104.75 Y103.532 E14.95926
G1 X104.745 Y103.484 E14.96071
G1 X104.747 Y103.429 E14.96236
G1 X104.756 Y103.391 E14.96354
G1 X104.775 Y103.343 E14.96509
G1 X104.8 Y103.3 E14.96658
G1 X104.831 Y103.262 E14.96805
G1 X104.883 Y103.213 E14.9702
G1 X104.936 Y103.173 E14.97219
G1 X104.982 Y103.147 E14.97378
G1 X105.016 Y103.136 E14.97485
G1 X105.062 Y103.129 E14.97624
