;FLAVOR:Marlin
;TIME:12237
;Filament used: 7.69651m
;Layer height: 0.2
;MINX:36.887
;MINY:26.014
;MINZ:0.2
;MAXX:183.113
;MAXY:141.278
;MAXZ:44
;Generated with Cura_SteamEngine 4.7.0
M140 S60
M105
M190 S60
M104 S200
M105
M109 S200
M82 ;absolute extrusion mode
; Ender 3 Custom Start G-code
G92 E0 ; Reset Extruder
G28 ; Home all axes
G1 Z2.0 F3000 ; Move Z Axis up little to prevent scratching of Heat Bed
G1 X0.1 Y20 Z0.3 F5000.0 ; Move to start position
G1 X0.1 Y200.0 Z0.3 F1500.0 E15 ; Draw the first line
G1 X0.4 Y200.0 Z0.3 F5000.0 ; Move to side a little
G1 X0.4 Y20 Z0.3 F1500.0 E30 ; Draw the second line
G92 E0 ; Reset Extruder
G1 Z2.0 F3000 ; Move Z Axis up little to prevent scratching of Heat Bed
G1 X5 Y20 Z0.3 F5000.0 ; Move over to prevent blob squish
G92 E0
G92 E0
G1 F1500 E-6.5
;LAYER_COUNT:220
;LAYER:0
M107
M204 S500
M205 X8 Y8
G0 F6000 X67.821 Y32.033 Z0.2
;TYPE:SKIRT
G1 F1500 E0
G1 F1200 X68.282 Y31.216 E0.0312
G1 X68.81 Y30.441 E0.06239
G1 X69.403 Y29.714 E0.0936
G1 X70.055 Y29.041 E0.12476
G1 X70.763 Y28.425 E0.15597
G1 X71.52 Y27.872 E0.18716
G1 X72.322 Y27.385 E0.21836
G1 X73.162 Y26.969 E0.24954
G1 X74.035 Y26.625 E0.28075
G1 X74.934 Y26.357 E0.31195
G1 X75.852 Y26.167 E0.34313
G1 X76.783 Y26.055 E0.37432
G1 X77.316 Y26.027 E0.39207
G1 X77.637 Y26.018 E0.40275
G1 X77.945 Y26.014 E0.413
G1 X141.679 Y26.015 E2.5328
G1 X141.837 Y26.016 E2.53805
G1 X142.535 Y26.026 E2.56127
G1 X143.471 Y26.08 E2.59245
G1 X144.399 Y26.212 E2.62363
G1 X145.313 Y26.424 E2.65484
G1 X146.205 Y26.713 E2.68602
G1 X147.07 Y27.076 E2.71722
G1 X147.9 Y27.512 E2.74841
G1 X148.691 Y28.017 E2.77962
G1 X149.435 Y28.588 E2.81081
G1 X150.128 Y29.22 E2.84201
G1 X150.765 Y29.908 E2.87319
G1 X151.34 Y30.649 E2.90439
G1 X151.851 Y31.435 E2.93557
G1 X152.293 Y32.263 E2.96679
G1 X152.662 Y33.125 E2.99797
G1 X152.957 Y34.015 E3.02916
G1 X153.175 Y34.927 E3.06035
G1 X153.305 Y35.771 E3.08875
G1 X153.442 Y36.962 E3.12862
G1 X153.776 Y39.543 E3.21518
G1 X154.171 Y42.043 E3.29937
G1 X154.639 Y44.537 E3.38376
G1 X155.174 Y47.004 E3.46772
G1 X155.765 Y49.396 E3.54968
G1 X156.444 Y51.847 E3.63427
G1 X157.19 Y54.273 E3.71868
G1 X157.98 Y56.605 E3.80058
G1 X158.873 Y59.013 E3.886
G1 X159.804 Y61.322 E3.9688
G1 X160.805 Y63.615 E4.05202
G1 X161.891 Y65.923 E4.13686
G1 X163.025 Y68.166 E4.22045
G1 X164.229 Y70.391 E4.30459
G1 X165.463 Y72.52 E4.38644
G1 X166.802 Y74.691 E4.47128
G1 X168.202 Y76.822 E4.55608
G1 X169.613 Y78.841 E4.63801
G1 X171.126 Y80.884 E4.72256
G1 X172.682 Y82.863 E4.80629
G1 X174.294 Y84.799 E4.89009
G1 X175.958 Y86.686 E4.97376
G1 X177.674 Y88.525 E5.05742
G1 X179.488 Y90.362 E5.14329
G1 X179.843 Y90.712 E5.15987
G1 X180.481 Y91.398 E5.19103
G1 X181.059 Y92.137 E5.22223
G1 X181.572 Y92.923 E5.25345
G1 X182.016 Y93.749 E5.28464
G1 X182.388 Y94.61 E5.31584
G1 X182.685 Y95.499 E5.34701
G1 X182.905 Y96.411 E5.37822
G1 X183.047 Y97.338 E5.40941
G1 X183.113 Y98.549 E5.44975
G1 X183.043 Y99.789 E5.49105
G1 X183.016 Y100.024 E5.49892
G1 X182.77 Y102.533 E5.58277
G1 X182.594 Y105.076 E5.66755
G1 X182.489 Y107.609 E5.75187
G1 X182.457 Y110.091 E5.83443
G1 X182.497 Y112.622 E5.91862
G1 X182.607 Y115.164 E6.00325
G1 X182.784 Y117.613 E6.08492
G1 X182.923 Y118.934 E6.1291
G1 X182.931 Y119.066 E6.13349
G1 X183.062 Y120.417 E6.17864
G1 X183.112 Y121.353 E6.20982
G1 X183.083 Y122.291 E6.24103
G1 X182.974 Y123.222 E6.27221
G1 X182.786 Y124.141 E6.3034
G1 X182.52 Y125.04 E6.33459
G1 X182.178 Y125.914 E6.3658
G1 X181.764 Y126.755 E6.39698
G1 X181.279 Y127.558 E6.42818
G1 X180.728 Y128.317 E6.45938
G1 X180.114 Y129.026 E6.49057
G1 X179.442 Y129.68 E6.52176
G1 X178.716 Y130.274 E6.55296
G1 X177.943 Y130.805 E6.58415
G1 X177.127 Y131.268 E6.61536
G1 X176.275 Y131.659 E6.64653
G1 X175.393 Y131.977 E6.67772
G1 X174.486 Y132.218 E6.70893
G1 X173.681 Y132.365 E6.73615
G1 X173.364 Y132.409 E6.74679
G1 X170.993 Y132.708 E6.82628
G1 X168.489 Y133.097 E6.91056
G1 X166.042 Y133.547 E6.99331
G1 X163.572 Y134.075 E7.07732
G1 X161.151 Y134.662 E7.16018
G1 X158.699 Y135.334 E7.24474
G1 X156.277 Y136.07 E7.32893
G1 X153.923 Y136.86 E7.41152
G1 X151.539 Y137.735 E7.49598
G1 X149.213 Y138.664 E7.57929
G1 X146.543 Y139.824 E7.67611
G1 X145.533 Y140.282 E7.713
G1 X144.663 Y140.633 E7.7442
G1 X144.175 Y140.792 E7.76127
G1 X143.267 Y141.027 E7.79246
G1 X142.342 Y141.183 E7.82366
G1 X141.283 Y141.265 E7.85899
G1 X140.965 Y141.274 E7.86957
G1 X140.654 Y141.278 E7.87992
G1 X137.989 Y141.277 E7.96856
G1 X137.292 Y141.267 E7.99174
G1 X136.519 Y141.229 E8.01748
G1 X133.711 Y140.99 E8.11121
G1 X131.291 Y140.853 E8.19183
G1 X127.335 Y140.77 E8.32344
G1 X92.699 Y140.77 E9.47544
G1 X90.091 Y140.807 E9.56219
G1 X87.569 Y140.914 E9.64615
G1 X85.075 Y141.091 E9.72931
G1 X83.494 Y141.228 E9.78209
G1 X82.859 Y141.265 E9.80324
G1 X82.539 Y141.274 E9.81389
G1 X82.23 Y141.278 E9.82417
G1 X79.568 Y141.277 E9.91271
G1 X78.863 Y141.267 E9.93616
G1 X77.927 Y141.214 E9.96734
G1 X76.998 Y141.081 E9.99855
G1 X76.084 Y140.869 E10.02976
G1 X75.192 Y140.581 E10.06094
G1 X74.712 Y140.39 E10.07812
G1 X74.442 Y140.272 E10.08792
G1 X72.094 Y139.211 E10.17362
G1 X69.801 Y138.252 E10.25628
G1 X67.418 Y137.334 E10.34122
G1 X65.056 Y136.5 E10.42453
G1 X62.653 Y135.727 E10.50849
G1 X60.25 Y135.027 E10.59174
G1 X57.819 Y134.395 E10.67528
G1 X55.365 Y133.829 E10.75904
G1 X52.929 Y133.339 E10.84169
G1 X50.405 Y132.906 E10.92686
G1 X47.836 Y132.54 E11.01317
G1 X46.491 Y132.368 E11.05827
G1 X45.566 Y132.209 E11.08949
G1 X44.659 Y131.973 E11.12066
G1 X43.775 Y131.659 E11.15186
G1 X42.921 Y131.272 E11.18304
G1 X42.103 Y130.813 E11.21424
G1 X41.327 Y130.287 E11.24542
G1 X40.598 Y129.696 E11.27664
G1 X39.923 Y129.045 E11.30783
G1 X39.306 Y128.339 E11.33901
G1 X38.751 Y127.583 E11.3702
G1 X38.262 Y126.782 E11.40142
G1 X37.843 Y125.943 E11.43261
G1 X37.498 Y125.071 E11.4638
G1 X37.228 Y124.173 E11.49499
G1 X37.035 Y123.255 E11.52619
G1 X36.921 Y122.324 E11.55739
G1 X36.887 Y121.387 E11.58857
G1 X36.954 Y120.242 E11.62672
G1 X36.986 Y119.954 E11.63636
G1 X37.23 Y117.467 E11.71947
G1 X37.406 Y114.924 E11.80425
G1 X37.511 Y112.391 E11.88857
G1 X37.543 Y109.909 E11.97113
G1 X37.503 Y107.378 E12.05532
G1 X37.393 Y104.836 E12.13995
G1 X37.216 Y102.387 E12.22162
G1 X37.077 Y101.066 E12.2658
G1 X37.068 Y100.917 E12.27076
G1 X36.938 Y99.582 E12.31537
G1 X36.887 Y98.646 E12.34655
G1 X36.916 Y97.708 E12.37776
G1 X37.025 Y96.777 E12.40894
G1 X37.212 Y95.858 E12.44013
G1 X37.478 Y94.958 E12.47135
G1 X37.819 Y94.085 E12.50252
G1 X38.233 Y93.243 E12.53373
G1 X38.718 Y92.44 E12.56493
G1 X39.269 Y91.681 E12.59612
G1 X40.072 Y90.776 E12.63637
G1 X40.71 Y90.132 E12.66652
G1 X41.341 Y89.512 E12.69594
G1 X43.125 Y87.66 E12.78147
G1 X44.794 Y85.827 E12.86392
G1 X46.429 Y83.924 E12.94737
G1 X48.038 Y81.943 E13.03225
G1 X49.564 Y79.949 E13.11576
G1 X51.031 Y77.916 E13.19915
G1 X52.44 Y75.844 E13.28249
G1 X53.821 Y73.684 E13.36776
G1 X55.087 Y71.574 E13.4496
G1 X56.338 Y69.349 E13.5345
G1 X57.498 Y67.141 E13.61745
G1 X58.614 Y64.864 E13.70179
G1 X59.652 Y62.584 E13.78512
G1 X60.603 Y60.332 E13.86642
G1 X61.551 Y57.894 E13.95343
G1 X62.382 Y55.563 E14.03573
G1 X63.169 Y53.138 E14.12053
G1 X63.876 Y50.736 E14.20381
G1 X64.516 Y48.304 E14.28745
G1 X65.086 Y45.866 E14.37073
G1 X65.587 Y43.409 E14.45413
G1 X66.029 Y40.875 E14.53968
G1 X66.384 Y38.434 E14.62173
G1 X66.674 Y35.922 E14.70583
G1 X66.716 Y35.6 E14.71663
G1 X66.877 Y34.676 E14.74783
G1 X67.116 Y33.769 E14.77902
G1 X67.432 Y32.886 E14.81022
G1 X67.821 Y32.033 E14.8414
G0 F6000 X68.208 Y32.154
G1 F1200 X68.666 Y31.356 E14.872
G1 X69.192 Y30.6 E14.90263
G1 X69.781 Y29.892 E14.93326
G1 X70.429 Y29.239 E14.96386
G1 X71.132 Y28.644 E14.99449
G1 X71.884 Y28.112 E15.02513
G1 X72.678 Y27.647 E15.05574
G1 X73.511 Y27.254 E15.08637
G1 X74.374 Y26.934 E15.11698
G1 X75.262 Y26.69 E15.14761
G1 X76.167 Y26.524 E15.17822
G1 X77.327 Y26.427 E15.21693
G1 X77.648 Y26.418 E15.22761
G1 X77.945 Y26.414 E15.23749
G1 X141.679 Y26.415 E17.35729
G1 X142.529 Y26.426 E17.38557
G1 X143.448 Y26.479 E17.41618
G1 X144.359 Y26.612 E17.4468
G1 X145.255 Y26.823 E17.47742
G1 X146.129 Y27.111 E17.50803
G1 X146.976 Y27.474 E17.53868
G1 X147.787 Y27.909 E17.56929
G1 X148.557 Y28.413 E17.5999
G1 X149.281 Y28.982 E17.63052
G1 X149.953 Y29.612 E17.66116
G1 X150.568 Y30.297 E17.69178
G1 X151.121 Y31.033 E17.7224
G1 X151.608 Y31.814 E17.75301
G1 X152.025 Y32.635 E17.78364
G1 X152.37 Y33.489 E17.81427
G1 X152.639 Y34.369 E17.84488
G1 X152.831 Y35.27 E17.87552
G1 X152.908 Y35.817 E17.89389
G1 X153.051 Y37.061 E17.93554
G1 X153.378 Y39.586 E18.02022
G1 X153.777 Y42.108 E18.10515
G1 X154.242 Y44.59 E18.18913
G1 X154.79 Y47.113 E18.27501
G1 X155.386 Y49.527 E18.35771
G1 X156.059 Y51.957 E18.44157
G1 X156.791 Y54.339 E18.52445
G1 X157.614 Y56.767 E18.60972
G1 X158.503 Y59.166 E18.69482
G1 X159.437 Y61.483 E18.7779
G1 X160.44 Y63.781 E18.8613
G1 X161.529 Y66.095 E18.94636
G1 X162.673 Y68.358 E19.0307
G1 X163.866 Y70.561 E19.11403
G1 X165.135 Y72.751 E19.19821
G1 X166.47 Y74.915 E19.28278
G1 X167.856 Y77.025 E19.36674
G1 X169.296 Y79.086 E19.45037
G1 X170.806 Y81.123 E19.5347
G1 X172.375 Y83.121 E19.6192
G1 X173.985 Y85.054 E19.70287
G1 X175.666 Y86.96 E19.7874
G1 X177.38 Y88.796 E19.87094
G1 X179.158 Y90.597 E19.95511
G1 X179.562 Y90.996 E19.974
G1 X180.188 Y91.671 E20.00462
G1 X180.753 Y92.397 E20.03521
G1 X181.253 Y93.17 E20.06583
G1 X181.685 Y93.984 E20.09648
G1 X182.044 Y94.832 E20.12711
G1 X182.328 Y95.707 E20.15771
G1 X182.535 Y96.604 E20.18833
G1 X182.664 Y97.516 E20.21896
G1 X182.713 Y98.549 E20.25336
G1 X182.645 Y99.744 E20.29317
G1 X182.625 Y99.917 E20.29896
G1 X182.371 Y102.502 E20.38535
G1 X182.193 Y105.067 E20.47087
G1 X182.089 Y107.586 E20.55472
G1 X182.057 Y110.092 E20.63808
G1 X182.097 Y112.645 E20.723
G1 X182.207 Y115.177 E20.8073
G1 X182.386 Y117.65 E20.88977
G1 X182.525 Y118.975 E20.93408
G1 X182.532 Y119.096 E20.93811
G1 X182.664 Y120.455 E20.98352
G1 X182.713 Y121.375 E21.01416
G1 X182.681 Y122.295 E21.04478
G1 X182.571 Y123.209 E21.0754
G1 X182.381 Y124.11 E21.10603
G1 X182.114 Y124.991 E21.13665
G1 X181.771 Y125.845 E21.16726
G1 X181.356 Y126.667 E21.19788
G1 X180.87 Y127.449 E21.2285
G1 X180.319 Y128.187 E21.25914
G1 X179.706 Y128.873 E21.28974
G1 X179.036 Y129.504 E21.32035
G1 X178.313 Y130.075 E21.35099
G1 X177.544 Y130.58 E21.38159
G1 X176.733 Y131.017 E21.41223
G1 X175.888 Y131.382 E21.44284
G1 X175.014 Y131.672 E21.47347
G1 X174.119 Y131.886 E21.50408
G1 X173.624 Y131.969 E21.52077
G1 X173.314 Y132.012 E21.53118
G1 X170.914 Y132.315 E21.61164
G1 X168.467 Y132.694 E21.694
G1 X165.958 Y133.156 E21.77885
G1 X163.466 Y133.689 E21.86361
G1 X161.048 Y134.275 E21.94636
G1 X158.582 Y134.951 E22.03141
G1 X156.181 Y135.681 E22.11487
G1 X153.764 Y136.492 E22.19967
G1 X151.402 Y137.359 E22.28335
G1 X149.071 Y138.29 E22.36684
G1 X146.4 Y139.451 E22.4637
G1 X145.368 Y139.918 E22.50138
G1 X144.081 Y140.403 E22.54712
G1 X144.058 Y140.41 E22.54792
G1 X143.167 Y140.639 E22.57852
G1 X142.259 Y140.791 E22.60914
G1 X141.272 Y140.865 E22.64206
G1 X140.954 Y140.874 E22.65264
G1 X140.654 Y140.878 E22.66262
G1 X137.995 Y140.877 E22.75106
G1 X137.298 Y140.867 E22.77425
G1 X136.553 Y140.83 E22.79905
G1 X133.769 Y140.594 E22.89198
G1 X131.292 Y140.453 E22.9745
G1 X127.344 Y140.37 E23.10584
G1 X92.693 Y140.37 E24.25834
G1 X90.068 Y140.407 E24.34566
G1 X87.56 Y140.514 E24.42915
G1 X85.044 Y140.692 E24.51304
G1 X84.841 Y140.711 E24.51982
G1 X83.459 Y140.83 E24.56596
G1 X82.848 Y140.865 E24.58631
G1 X82.528 Y140.874 E24.59696
G1 X82.23 Y140.878 E24.60687
G1 X79.574 Y140.877 E24.69521
G1 X78.869 Y140.867 E24.71866
G1 X77.95 Y140.814 E24.74928
G1 X77.038 Y140.681 E24.77993
G1 X76.142 Y140.47 E24.81055
G1 X74.869 Y140.022 E24.85543
G1 X74.606 Y139.907 E24.86498
G1 X72.251 Y138.843 E24.95093
G1 X69.933 Y137.873 E25.03451
G1 X67.558 Y136.958 E25.11916
G1 X65.196 Y136.124 E25.20247
G1 X62.792 Y135.351 E25.28646
G1 X60.356 Y134.642 E25.37085
G1 X57.895 Y134.002 E25.45542
G1 X55.428 Y133.433 E25.53963
G1 X53.037 Y132.952 E25.62075
G1 X50.458 Y132.51 E25.70778
G1 X47.886 Y132.143 E25.79419
G1 X46.541 Y131.971 E25.83929
G1 X45.634 Y131.815 E25.8699
G1 X44.744 Y131.58 E25.90051
G1 X43.877 Y131.269 E25.93115
G1 X43.041 Y130.884 E25.96176
G1 X42.241 Y130.428 E25.99239
G1 X41.484 Y129.905 E26.02299
G1 X40.775 Y129.317 E26.05363
G1 X40.12 Y128.67 E26.08425
G1 X39.523 Y127.969 E26.11487
G1 X38.99 Y127.219 E26.14547
G1 X38.523 Y126.425 E26.17611
G1 X38.128 Y125.594 E26.20672
G1 X37.805 Y124.732 E26.23733
G1 X37.559 Y123.844 E26.26798
G1 X37.391 Y122.939 E26.29859
G1 X37.302 Y122.023 E26.3292
G1 X37.293 Y121.102 E26.35984
G1 X37.352 Y120.286 E26.38705
G1 X37.378 Y120.049 E26.39498
G1 X37.629 Y117.489 E26.48053
G1 X37.807 Y114.933 E26.56575
G1 X37.911 Y112.414 E26.64961
G1 X37.943 Y109.908 E26.73296
G1 X37.903 Y107.355 E26.81789
G1 X37.793 Y104.823 E26.90218
G1 X37.614 Y102.35 E26.98465
G1 X37.475 Y101.025 E27.02896
G1 X37.467 Y100.888 E27.03352
G1 X37.336 Y99.544 E27.07844
G1 X37.287 Y98.624 E27.10908
G1 X37.317 Y97.704 E27.1397
G1 X37.428 Y96.79 E27.17032
G1 X37.617 Y95.889 E27.20094
G1 X37.884 Y95.008 E27.23156
G1 X38.226 Y94.153 E27.26218
G1 X38.641 Y93.332 E27.29278
G1 X39.126 Y92.549 E27.32342
G1 X39.677 Y91.811 E27.35405
G1 X40.356 Y91.058 E27.38777
G1 X41.099 Y90.309 E27.42286
G1 X41.644 Y89.774 E27.44826
G1 X43.39 Y87.961 E27.53198
G1 X45.109 Y86.075 E27.61685
G1 X46.76 Y84.153 E27.70113
G1 X48.333 Y82.216 E27.78412
G1 X49.877 Y80.198 E27.86863
G1 X51.37 Y78.129 E27.95349
G1 X52.775 Y76.063 E28.03659
G1 X54.148 Y73.915 E28.12138
G1 X55.429 Y71.781 E28.20417
G1 X56.698 Y69.524 E28.29029
G1 X57.854 Y67.324 E28.37294
G1 X58.973 Y65.04 E28.45754
G1 X60.027 Y62.725 E28.54214
G1 X60.973 Y60.484 E28.62304
G1 X61.925 Y58.037 E28.71037
G1 X62.767 Y55.673 E28.79384
G1 X63.548 Y53.27 E28.87788
G1 X64.261 Y50.846 E28.96192
G1 X64.909 Y48.383 E29.04662
G1 X65.474 Y45.965 E29.12921
G1 X65.98 Y43.486 E29.21337
G1 X66.419 Y40.964 E29.29851
G1 X66.782 Y38.472 E29.38227
G1 X67.051 Y36.134 E29.46054
G1 X67.113 Y35.652 E29.47671
G1 X67.272 Y34.745 E29.50733
G1 X67.508 Y33.855 E29.53796
G1 X67.821 Y32.99 E29.56855
G1 X68.208 Y32.154 E29.59919
G0 F6000 X68.595 Y32.277
G1 F1200 X69.051 Y31.497 E29.62925
G1 X69.573 Y30.76 E29.65928
G1 X70.159 Y30.073 E29.68932
G1 X70.803 Y29.44 E29.71935
G1 X71.5 Y28.866 E29.74938
G1 X72.246 Y28.356 E29.77944
G1 X73.033 Y27.914 E29.80946
G1 X73.857 Y27.544 E29.8395
G1 X74.71 Y27.248 E29.86953
G1 X75.586 Y27.029 E29.89957
G1 X76.478 Y26.888 E29.9296
G1 X77.338 Y26.827 E29.95828
G1 X77.659 Y26.818 E29.96896
G1 X77.945 Y26.814 E29.97847
G1 X141.679 Y26.815 E32.09827
G1 X142.523 Y26.826 E32.12635
G1 X143.425 Y26.879 E32.1564
G1 X144.318 Y27.011 E32.18642
G1 X145.196 Y27.222 E32.21646
G1 X146.052 Y27.51 E32.2465
G1 X146.879 Y27.872 E32.27652
G1 X147.671 Y28.307 E32.30658
G1 X148.422 Y28.809 E32.33662
G1 X149.125 Y29.376 E32.36666
G1 X149.775 Y30.003 E32.3967
G1 X150.367 Y30.685 E32.42674
G1 X150.897 Y31.416 E32.45677
G1 X151.359 Y32.192 E32.4868
G1 X151.752 Y33.005 E32.51684
G1 X152.07 Y33.85 E32.54687
G1 X152.313 Y34.72 E32.57691
G1 X152.511 Y35.862 E32.61546
G1 X152.652 Y37.091 E32.65661
G1 X152.985 Y39.663 E32.74286
G1 X153.383 Y42.179 E32.82759
G1 X153.85 Y44.67 E32.91188
G1 X154.398 Y47.196 E32.99785
G1 X154.998 Y49.624 E33.08104
G1 X155.677 Y52.076 E33.16566
G1 X156.419 Y54.491 E33.24969
G1 X157.232 Y56.887 E33.33384
G1 X158.128 Y59.306 E33.41964
G1 X159.064 Y61.626 E33.50285
G1 X160.083 Y63.961 E33.58758
G1 X161.168 Y66.267 E33.67235
G1 X162.322 Y68.55 E33.75743
G1 X163.519 Y70.761 E33.84105
G1 X164.782 Y72.94 E33.92482
G1 X166.139 Y75.14 E34.01079
G1 X167.511 Y77.228 E34.09389
G1 X168.98 Y79.331 E34.17921
G1 X170.486 Y81.363 E34.26333
G1 X172.07 Y83.378 E34.34858
G1 X173.679 Y85.311 E34.43223
G1 X175.373 Y87.232 E34.51742
G1 X177.086 Y89.067 E34.60091
G1 X178.957 Y90.962 E34.68948
G1 X179.28 Y91.281 E34.70458
G1 X179.894 Y91.943 E34.73461
G1 X180.447 Y92.657 E34.76465
G1 X180.935 Y93.418 E34.79472
G1 X181.353 Y94.218 E34.82474
G1 X181.699 Y95.052 E34.85477
G1 X181.97 Y95.914 E34.88483
G1 X182.163 Y96.796 E34.91486
