;FLAVOR:Marlin
;TIME:5440
;Filament used: 2.14894m
;Layer height: 0.2
;MINX:71.404
;MINY:83.242
;MINZ:0.2
;MAXX:148.595
;MAXY:132.301
;MAXZ:144.952
;Generated with Cura_SteamEngine 4.7.0
M140 S60
M105
M190 S60
M104 S210
M105
M109 S210
M82 ;absolute extrusion mode
; Ender 3 Custom Start G-code
G92 E0 ; Reset Extruder
G28 ; Home all axes
G1 Z2.0 F3000 ; Move Z Axis up little to prevent scratching of Heat Bed
G1 X0.1 Y20 Z0.3 F5000.0 ; Move to start position
G1 X0.1 Y200.0 Z0.3 F1500.0 E15 ; Draw the first line
G1 X0.4 Y200.0 Z0.3 F5000.0 ; Move to side a little
G1 X0.4 Y20 Z0.3 F1500.0 E30 ; Draw the second line
G92 E0 ; Reset Extruder
G1 Z2.0 F3000 ; Move Z Axis up little to prevent scratching of Heat Bed
G1 X5 Y20 Z0.3 F5000.0 ; Move over to prevent blob squish
G92 E0
G92 E0
G1 F1500 E-6.5
;LAYER_COUNT:725
;LAYER:0
M107
M204 S500
M205 X8 Y8
G0 F6000 X77.121 Y104.754 Z0.2
;TYPE:SKIRT
G1 F1500 E0
G1 F1200 X78.03 Y104.16 E0.03612
G1 X78.313 Y103.996 E0.047
G1 X79.009 Y103.606 E0.07353
G1 X80.047 Y103.036 E0.11292
G1 X82.207 Y101.771 E0.19617
G1 X84.363 Y100.424 E0.28073
G1 X86.463 Y99.029 E0.36458
G1 X88.486 Y97.601 E0.44694
G1 X90.521 Y96.077 E0.5315
G1 X92.496 Y94.506 E0.61544
G1 X94.408 Y92.898 E0.69853
G1 X96.317 Y91.196 E0.78359
G1 X98.098 Y89.517 E0.865
G1 X99.612 Y87.989 E0.93655
G1 X100.46 Y87.148 E0.97627
G1 X101.154 Y86.516 E1.00749
G1 X101.564 Y86.189 E1.02493
G1 X101.968 Y85.883 E1.04179
G1 X102.302 Y85.64 E1.05553
G1 X102.392 Y85.577 E1.05918
G1 X103.182 Y85.073 E1.09035
G1 X103.927 Y84.679 E1.11838
G1 X104.145 Y84.574 E1.12643
G1 X104.971 Y84.217 E1.15636
G1 X105.395 Y84.054 E1.17146
G1 X106.284 Y83.755 E1.20266
G1 X107.195 Y83.533 E1.23385
G1 X107.742 Y83.438 E1.25231
G1 X108.014 Y83.398 E1.26146
G1 X108.399 Y83.348 E1.27437
G1 X108.786 Y83.305 E1.28732
G1 X109.722 Y83.242 E1.31852
G1 X110.66 Y83.258 E1.34972
G1 X111.244 Y83.309 E1.36922
G1 X111.578 Y83.347 E1.3804
G1 X111.827 Y83.378 E1.38875
G1 X112.141 Y83.421 E1.39929
G1 X113.064 Y83.587 E1.43048
G1 X114.026 Y83.85 E1.46365
G1 X114.582 Y84.044 E1.48324
G1 X114.835 Y84.14 E1.49224
G1 X115.156 Y84.268 E1.50373
G1 X115.447 Y84.389 E1.51421
G1 X116.143 Y84.707 E1.53966
G1 X116.175 Y84.723 E1.54085
G1 X116.996 Y85.178 E1.57207
G1 X117.58 Y85.562 E1.59532
G1 X117.886 Y85.777 E1.60776
G1 X118.162 Y85.977 E1.6191
G1 X118.29 Y86.073 E1.62442
G1 X119.039 Y86.688 E1.65665
G1 X119.225 Y86.855 E1.66497
G1 X119.72 Y87.329 E1.68776
G1 X120.336 Y87.955 E1.71697
G1 X122.211 Y89.808 E1.80465
G1 X124.032 Y91.509 E1.88753
G1 X125.939 Y93.191 E1.9721
G1 X127.861 Y94.791 E2.05528
G1 X129.848 Y96.353 E2.13934
G1 X131.873 Y97.855 E2.2232
G1 X133.927 Y99.289 E2.30652
G1 X136.01 Y100.66 E2.38946
G1 X138.158 Y101.985 E2.4734
G1 X140.391 Y103.277 E2.55921
G1 X141.831 Y104.087 E2.61416
G1 X142.627 Y104.582 E2.64534
G1 X143.128 Y104.944 E2.66589
G1 X143.231 Y105.023 E2.67021
G1 X143.651 Y105.361 E2.68814
G1 X143.98 Y105.64 E2.70249
G1 X144.655 Y106.264 E2.73306
G1 X145.289 Y106.955 E2.76425
G1 X145.633 Y107.384 E2.78254
G1 X145.928 Y107.772 E2.79875
G1 X146.161 Y108.09 E2.81187
G1 X146.24 Y108.202 E2.81643
G1 X146.747 Y108.99 E2.84759
G1 X147.157 Y109.76 E2.8766
G1 X147.255 Y109.963 E2.8841
G1 X147.611 Y110.783 E2.91384
G1 X147.777 Y111.213 E2.92917
G1 X148.077 Y112.102 E2.96037
G1 X148.269 Y112.861 E2.98641
G1 X148.412 Y113.661 E3.01344
G1 X148.447 Y113.909 E3.02177
G1 X148.486 Y114.213 E3.03197
G1 X148.53 Y114.603 E3.04502
G1 X148.595 Y115.538 E3.07619
G1 X148.58 Y116.476 E3.10739
G1 X148.528 Y117.083 E3.12766
G1 X148.49 Y117.416 E3.13881
G1 X148.458 Y117.673 E3.14742
G1 X148.413 Y117.999 E3.15836
G1 X148.245 Y118.922 E3.18957
G1 X147.999 Y119.827 E3.22076
G1 X147.802 Y120.394 E3.24073
G1 X147.697 Y120.671 E3.25058
G1 X147.58 Y120.967 E3.26116
G1 X147.462 Y121.253 E3.27145
G1 X147.132 Y121.977 E3.29792
G1 X147.113 Y122.015 E3.29933
G1 X146.658 Y122.836 E3.33055
G1 X146.272 Y123.423 E3.35392
G1 X146.073 Y123.706 E3.36542
G1 X145.672 Y124.241 E3.38766
G1 X145.494 Y124.464 E3.39715
G1 X144.878 Y125.172 E3.42837
G1 X144.111 Y125.906 E3.46368
G1 X143.669 Y126.29 E3.48315
G1 X143.131 Y126.728 E3.50622
G1 X143.076 Y126.77 E3.50853
G1 X142.307 Y127.307 E3.53972
G1 X141.265 Y127.894 E3.5795
G1 X140.904 Y128.072 E3.59289
G1 X140.56 Y128.234 E3.60553
G1 X140.336 Y128.335 E3.61371
G1 X139.466 Y128.683 E3.64487
G1 X138.483 Y128.979 E3.67902
G1 X138.427 Y128.993 E3.68094
G1 X137.988 Y129.093 E3.69591
G1 X137.785 Y129.135 E3.70281
G1 X137.499 Y129.19 E3.71249
G1 X137.109 Y129.26 E3.72567
G1 X136.18 Y129.386 E3.75685
G1 X135.239 Y129.433 E3.78819
G1 X133.983 Y129.441 E3.82997
G1 X131.369 Y129.497 E3.91693
G1 X128.847 Y129.621 E4.00091
G1 X126.357 Y129.814 E4.08398
G1 X123.841 Y130.081 E4.16813
G1 X121.337 Y130.419 E4.25217
G1 X118.887 Y130.821 E4.33474
G1 X116.429 Y131.295 E4.418
G1 X115.19 Y131.577 E4.46027
G1 X114.778 Y131.652 E4.4742
G1 X113.82 Y131.865 E4.50684
G1 X113.495 Y131.932 E4.51787
G1 X112.97 Y132.032 E4.53565
G1 X112.645 Y132.089 E4.54662
G1 X112.269 Y132.149 E4.55929
G1 X111.344 Y132.256 E4.59026
G1 X111.249 Y132.263 E4.59343
G1 X110.64 Y132.291 E4.6137
G1 X110.143 Y132.3 E4.63024
G1 X109.819 Y132.301 E4.64101
G1 X109.554 Y132.298 E4.64983
G1 X108.892 Y132.271 E4.67186
G1 X108.655 Y132.254 E4.67977
G1 X108.101 Y132.2 E4.69828
G1 X107.657 Y132.138 E4.71319
G1 X107.393 Y132.096 E4.72208
G1 X107.14 Y132.053 E4.73062
G1 X106.643 Y131.962 E4.74742
G1 X106.316 Y131.897 E4.75851
G1 X105.657 Y131.755 E4.78093
G1 X104.195 Y131.42 E4.83082
G1 X101.735 Y130.928 E4.91426
G1 X99.257 Y130.505 E4.99787
G1 X96.776 Y130.154 E5.08121
G1 X94.247 Y129.868 E5.16586
G1 X91.772 Y129.66 E5.24847
G1 X89.242 Y129.519 E5.33275
G1 X86.737 Y129.45 E5.4161
G1 X86.307 Y129.451 E5.4304
G1 X86.116 Y129.443 E5.43676
G1 X84.754 Y129.433 E5.48206
G1 X83.474 Y129.348 E5.52473
G1 X83.442 Y129.344 E5.5258
G1 X82.514 Y129.188 E5.5571
G1 X81.899 Y129.057 E5.57801
G1 X80.991 Y128.822 E5.60921
G1 X79.727 Y128.352 E5.65406
G1 X79.236 Y128.134 E5.67193
G1 X78.396 Y127.717 E5.70312
G1 X77.634 Y127.256 E5.73274
G1 X77.398 Y127.1 E5.74215
G1 X76.319 Y126.288 E5.78706
G1 X75.976 Y125.995 E5.80207
G1 X75.29 Y125.356 E5.83325
G1 X74.66 Y124.661 E5.86445
G1 X74.35 Y124.27 E5.88105
G1 X74.051 Y123.875 E5.89752
G1 X73.819 Y123.556 E5.91064
G1 X73.746 Y123.452 E5.91487
G1 X73.24 Y122.662 E5.94607
G1 X72.843 Y121.914 E5.97424
G1 X72.745 Y121.711 E5.98173
G1 X72.545 Y121.273 E5.99775
G1 X72.361 Y120.822 E6.01395
G1 X72.206 Y120.416 E6.0284
G1 X71.91 Y119.527 E6.05957
G1 X71.628 Y118.273 E6.10232
G1 X71.579 Y117.958 E6.11292
G1 X71.55 Y117.751 E6.11987
G1 X71.514 Y117.464 E6.12949
G1 X71.47 Y117.076 E6.14248
G1 X71.404 Y116.141 E6.17366
G1 X71.418 Y115.203 E6.20486
G1 X71.471 Y114.59 E6.22532
G1 X71.509 Y114.257 E6.23647
G1 X71.54 Y114.012 E6.24468
G1 X71.583 Y113.698 E6.25523
G1 X71.749 Y112.775 E6.28642
G1 X72.068 Y111.645 E6.32547
G1 X72.217 Y111.229 E6.34017
G1 X72.308 Y110.99 E6.34867
G1 X72.437 Y110.666 E6.36027
G1 X72.561 Y110.369 E6.37098
G1 X72.937 Y109.562 E6.40059
G1 X72.953 Y109.531 E6.40175
G1 X73.418 Y108.717 E6.43293
G1 X73.719 Y108.264 E6.45102
G1 X73.918 Y107.98 E6.46255
G1 X74.353 Y107.401 E6.48664
G1 X74.529 Y107.182 E6.49598
G1 X75.147 Y106.477 E6.52717
G1 X75.901 Y105.759 E6.56179
G1 X76.387 Y105.338 E6.58318
G1 X77.121 Y104.754 E6.61438
G0 F6000 X77.37 Y105.068
G1 F1200 X78.233 Y104.505 E6.64865
G1 X78.509 Y104.345 E6.65926
G1 X79.201 Y103.957 E6.68565
G1 X80.235 Y103.39 E6.72487
G1 X82.441 Y102.098 E6.8099
G1 X84.566 Y100.77 E6.89324
G1 X86.653 Y99.384 E6.97657
G1 X88.75 Y97.903 E7.06196
G1 X90.764 Y96.394 E7.14566
G1 X92.758 Y94.809 E7.23038
G1 X94.668 Y93.202 E7.3134
G1 X96.575 Y91.503 E7.39835
G1 X98.373 Y89.806 E7.48058
G1 X99.827 Y88.339 E7.54928
G1 X100.742 Y87.432 E7.59213
G1 X101.423 Y86.812 E7.62276
G1 X101.806 Y86.508 E7.63903
G1 X102.21 Y86.202 E7.65588
G1 X102.531 Y85.968 E7.66909
G1 X102.621 Y85.905 E7.67275
G1 X103.398 Y85.41 E7.70339
G1 X104.1 Y85.039 E7.7298
G1 X104.318 Y84.934 E7.73785
G1 X105.114 Y84.59 E7.76669
G1 X105.538 Y84.427 E7.7818
G1 X106.411 Y84.134 E7.81242
G1 X107.306 Y83.918 E7.84305
G1 X107.8 Y83.834 E7.85971
G1 X108.072 Y83.794 E7.86886
G1 X108.443 Y83.746 E7.8813
G1 X108.83 Y83.703 E7.89425
G1 X109.749 Y83.641 E7.92489
G1 X110.669 Y83.659 E7.95549
G1 X111.199 Y83.706 E7.97319
G1 X111.533 Y83.744 E7.98437
G1 X111.773 Y83.774 E7.99241
G1 X112.087 Y83.817 E8.00295
G1 X112.993 Y83.981 E8.03358
G1 X113.903 Y84.231 E8.06497
G1 X114.441 Y84.418 E8.08391
G1 X114.694 Y84.514 E8.09291
G1 X115.003 Y84.637 E8.10397
G1 X115.294 Y84.758 E8.11445
G1 X115.964 Y85.065 E8.13897
G1 X115.996 Y85.081 E8.14016
G1 X116.801 Y85.528 E8.17078
G1 X117.35 Y85.889 E8.19264
G1 X117.656 Y86.104 E8.20507
G1 X117.922 Y86.297 E8.216
G1 X118.05 Y86.393 E8.22133
G1 X118.772 Y86.986 E8.2524
G1 X118.958 Y87.153 E8.26072
G1 X119.435 Y87.609 E8.28266
G1 X120.086 Y88.272 E8.31357
G1 X121.921 Y90.084 E8.39934
G1 X123.777 Y91.818 E8.48382
G1 X125.664 Y93.482 E8.5675
G1 X127.603 Y95.097 E8.65143
G1 X129.625 Y96.686 E8.73697
G1 X131.634 Y98.176 E8.82016
G1 X133.7 Y99.619 E8.90397
G1 X135.786 Y100.991 E8.98702
G1 X137.969 Y102.338 E9.07233
G1 X140.199 Y103.628 E9.15802
G1 X141.634 Y104.436 E9.21279
G1 X142.416 Y104.922 E9.24342
G1 X142.884 Y105.261 E9.26264
G1 X142.987 Y105.34 E9.26695
G1 X143.392 Y105.667 E9.28427
G1 X143.721 Y105.946 E9.29861
G1 X144.372 Y106.547 E9.32808
G1 X144.994 Y107.225 E9.35869
G1 X145.315 Y107.626 E9.37577
G1 X145.61 Y108.014 E9.39198
G1 X145.834 Y108.32 E9.40459
G1 X145.913 Y108.432 E9.40915
G1 X146.41 Y109.207 E9.43977
G1 X146.797 Y109.934 E9.46717
G1 X146.895 Y110.137 E9.47466
G1 X147.238 Y110.927 E9.50331
G1 X147.404 Y111.357 E9.51864
G1 X147.698 Y112.23 E9.54928
G1 X147.878 Y112.946 E9.57383
G1 X148.016 Y113.717 E9.59988
G1 X148.051 Y113.965 E9.60821
G1 X148.088 Y114.258 E9.61804
G1 X148.132 Y114.648 E9.63109
G1 X148.196 Y115.566 E9.6617
G1 X148.179 Y116.487 E9.69234
G1 X148.131 Y117.038 E9.71073
G1 X148.093 Y117.371 E9.72188
G1 X148.061 Y117.618 E9.73016
G1 X148.016 Y117.944 E9.74111
G1 X147.851 Y118.85 E9.77174
G1 X147.608 Y119.738 E9.80236
G1 X147.428 Y120.252 E9.82047
G1 X147.323 Y120.529 E9.83033
G1 X147.21 Y120.815 E9.84055
G1 X147.092 Y121.101 E9.85084
G1 X146.774 Y121.798 E9.87632
G1 X146.755 Y121.836 E9.87774
G1 X146.308 Y122.641 E9.90836
G1 X145.945 Y123.193 E9.93034
G1 X145.746 Y123.476 E9.94184
G1 X145.359 Y123.992 E9.9633
G1 X145.181 Y124.215 E9.97279
G1 X144.576 Y124.909 E10.00341
G1 X143.849 Y125.604 E10.03686
G1 X143.407 Y125.988 E10.05633
G1 X142.888 Y126.411 E10.0786
G1 X142.833 Y126.453 E10.08091
G1 X142.078 Y126.979 E10.11151
G1 X141.088 Y127.535 E10.14927
G1 X140.727 Y127.713 E10.16266
G1 X140.396 Y127.869 E10.17483
G1 X140.172 Y127.97 E10.18301
G1 X139.317 Y128.312 E10.21363
G1 X138.386 Y128.591 E10.24596
G1 X138.33 Y128.605 E10.24788
G1 X137.907 Y128.701 E10.26231
G1 X137.704 Y128.743 E10.2692
G1 X137.429 Y128.796 E10.27852
G1 X137.039 Y128.866 E10.29169
G1 X136.126 Y128.989 E10.32233
G1 X135.237 Y129.033 E10.35194
G1 X133.972 Y129.041 E10.39401
G1 X131.339 Y129.097 E10.48161
G1 X128.832 Y129.221 E10.56509
G1 X126.32 Y129.416 E10.64889
G1 X123.782 Y129.685 E10.73378
G1 X121.32 Y130.017 E10.81641
G1 X118.783 Y130.433 E10.90192
G1 X116.354 Y130.902 E10.9842
G1 X115.101 Y131.187 E11.02694
G1 X114.685 Y131.263 E11.041
G1 X113.733 Y131.474 E11.07343
G1 X113.42 Y131.539 E11.08407
G1 X112.895 Y131.639 E11.10184
G1 X112.582 Y131.694 E11.11241
G1 X112.206 Y131.754 E11.12508
G1 X111.315 Y131.857 E11.15491
G1 X111.22 Y131.864 E11.15808
G1 X110.633 Y131.891 E11.17762
G1 X110.136 Y131.9 E11.19415
G1 X109.824 Y131.901 E11.20453
G1 X109.559 Y131.898 E11.21335
G1 X108.921 Y131.872 E11.23458
G1 X108.684 Y131.855 E11.24249
G1 X108.15 Y131.803 E11.26033
G1 X107.72 Y131.743 E11.27477
G1 X107.456 Y131.701 E11.28366
G1 X107.212 Y131.66 E11.29189
G1 X106.715 Y131.569 E11.3087
G1 X106.4 Y131.506 E11.31938
G1 X105.746 Y131.365 E11.34163
G1 X104.29 Y131.031 E11.39132
G1 X101.809 Y130.536 E11.47546
G1 X99.309 Y130.109 E11.55982
G1 X96.806 Y129.754 E11.6439
G1 X94.327 Y129.474 E11.72688
G1 X91.756 Y129.258 E11.81269
G1 X89.275 Y129.119 E11.89534
G1 X86.746 Y129.05 E11.97948
G1 X86.306 Y129.051 E11.99412
G1 X86.118 Y129.043 E12.00038
G1 X84.757 Y129.033 E12.04564
G1 X83.523 Y128.951 E12.08678
G1 X83.491 Y128.947 E12.08785
G1 X82.598 Y128.796 E12.11797
G1 X81.983 Y128.665 E12.13889
G1 X81.091 Y128.435 E12.16953
G1 X79.89 Y127.986 E12.21217
G1 X79.399 Y127.768 E12.23004
G1 X78.574 Y127.358 E12.26068
G1 X77.855 Y126.923 E12.28863
G1 X77.619 Y126.767 E12.29804
G1 X76.579 Y125.984 E12.34134
G1 X76.236 Y125.691 E12.35634
G1 X75.563 Y125.063 E12.38696
G1 X74.669 Y124.029 E12.43242
G1 X74.37 Y123.634 E12.4489
G1 X74.146 Y123.326 E12.46157
G1 X74.073 Y123.222 E12.46579
G1 X73.577 Y122.446 E12.49642
G1 X73.203 Y121.74 E12.523
G1 X73.105 Y121.537 E12.53049
G1 X72.912 Y121.114 E12.54596
G1 X72.735 Y120.68 E12.56155
G1 X72.58 Y120.274 E12.576
G1 X72.289 Y119.4 E12.60664
G1 X72.023 Y118.208 E12.64726
G1 X71.976 Y117.903 E12.65752
G1 X71.947 Y117.696 E12.66448
G1 X71.912 Y117.419 E12.67376
G1 X71.868 Y117.031 E12.68675
G1 X71.804 Y116.113 E12.71736
G1 X71.82 Y115.192 E12.748
G1 X71.868 Y114.635 E12.76659
G1 X71.906 Y114.302 E12.77774
G1 X71.936 Y114.066 E12.78565
G1 X71.979 Y113.752 E12.79619
G1 X72.143 Y112.846 E12.82681
G1 X72.447 Y111.774 E12.86388
G1 X72.591 Y111.371 E12.87811
G1 X72.682 Y111.132 E12.88661
G1 X72.806 Y110.82 E12.89778
G1 X72.93 Y110.523 E12.90849
G1 X73.293 Y109.745 E12.93704
G1 X73.309 Y109.714 E12.9382
G1 X73.766 Y108.915 E12.96882
G1 X74.047 Y108.493 E12.98568
G1 X74.246 Y108.209 E12.99721
G1 X74.665 Y107.652 E13.02039
G1 X74.841 Y107.433 E13.02974
G1 X75.448 Y106.741 E13.06036
G1 X76.163 Y106.061 E13.09317
G1 X76.649 Y105.64 E13.11456
G1 X77.37 Y105.068 E13.14517
G0 F6000 X77.619 Y105.382
G1 F1200 X78.435 Y104.85 E13.17757
G1 X78.705 Y104.694 E13.18794
G1 X79.394 Y104.307 E13.21422
G1 X80.436 Y103.736 E13.25374
G1 X82.65 Y102.439 E13.33909
G1 X84.777 Y101.11 E13.42251
G1 X86.9 Y99.7 E13.50727
G1 X88.999 Y98.218 E13.59273
G1 X90.986 Y96.729 E13.67532
G1 X93.001 Y95.127 E13.76094
G1 X94.946 Y93.49 E13.84549
G1 X96.85 Y91.794 E13.9303
G1 X98.65 Y90.096 E14.0126
G1 X100.175 Y88.557 E14.08466
G1 X101.023 Y87.716 E14.12438
G1 X101.692 Y87.109 E14.15443
G1 X102.047 Y86.827 E14.16951
G1 X102.451 Y86.521 E14.18637
G1 X102.761 Y86.296 E14.19911
G1 X102.851 Y86.233 E14.20276
G1 X103.613 Y85.748 E14.2328
G1 X104.274 Y85.399 E14.25766
G1 X104.492 Y85.294 E14.26571
G1 X105.258 Y84.963 E14.29346
G1 X105.682 Y84.8 E14.30857
G1 X106.538 Y84.514 E14.33859
G1 X107.858 Y84.23 E14.3835
G1 X108.13 Y84.19 E14.39264
G1 X108.488 Y84.143 E14.40465
G1 X108.875 Y84.1 E14.4176
G1 X109.776 Y84.04 E14.44764
G1 X110.679 Y84.061 E14.47768
G1 X111.154 Y84.103 E14.49354
G1 X111.488 Y84.141 E14.50472
G1 X111.719 Y84.17 E14.51246
G1 X112.033 Y84.213 E14.523
G1 X112.921 Y84.375 E14.55303
G1 X113.78 Y84.612 E14.58266
G1 X114.299 Y84.792 E14.60094
G1 X114.552 Y84.888 E14.60994
G1 X114.849 Y85.007 E14.62058
G1 X115.14 Y85.128 E14.63106
G1 X115.786 Y85.423 E14.65468
G1 X115.818 Y85.439 E14.65587
G1 X116.607 Y85.878 E14.6859
G1 X117.12 Y86.216 E14.70633
G1 X117.426 Y86.431 E14.71877
G1 X117.682 Y86.617 E14.7293
G1 X117.81 Y86.713 E14.73462
G1 X118.504 Y87.283 E14.76449
G1 X118.69 Y87.45 E14.7728
G1 X119.15 Y87.889 E14.79395
G1 X119.803 Y88.553 E14.82493
G1 X121.65 Y90.378 E14.91129
G1 X123.505 Y92.111 E14.99572
G1 X125.407 Y93.788 E15.08006
G1 X127.367 Y95.42 E15.16489
G1 X129.363 Y96.989 E15.24933
G1 X131.413 Y98.51 E15.33423
G1 X133.457 Y99.937 E15.41715
G1 X135.578 Y101.332 E15.50158
G1 X137.79 Y102.697 E15.58803
G1 X139.959 Y103.952 E15.67138
G1 X141.438 Y104.784 E15.72782
G1 X142.205 Y105.262 E15.75788
G1 X142.641 Y105.578 E15.77579
G1 X142.744 Y105.657 E15.78011
G1 X143.133 Y105.972 E15.79675
G1 X143.462 Y106.251 E15.8111
G1 X144.089 Y106.83 E15.83949
G1 X144.699 Y107.496 E15.86953
G1 X144.997 Y107.869 E15.88541
G1 X145.292 Y108.257 E15.90162
G1 X145.507 Y108.551 E15.91373
