;FLAVOR:Marlin
;TIME:2044
;Filament used: 0.707623m
;Layer height: 0.12
;MINX:93.717
;MINY:92.813
;MINZ:0.12
;MAXX:127.512
;MAXY:127.191
;MAXZ:16.92
;Generated with Cura_SteamEngine 4.7.0
M140 S60
M105
M190 S60
M104 S200
M105
M109 S200
M82 ;absolute extrusion mode
; Ender 3 Custom Start G-code
G92 E0 ; Reset Extruder
G28 ; Home all axes
G1 Z2.0 F3000 ; Move Z Axis up little to prevent scratching of Heat Bed
G1 X0.1 Y20 Z0.3 F5000.0 ; Move to start position
G1 X0.1 Y200.0 Z0.3 F1500.0 E15 ; Draw the first line
G1 X0.4 Y200.0 Z0.3 F5000.0 ; Move to side a little
G1 X0.4 Y20 Z0.3 F1500.0 E30 ; Draw the second line
G92 E0 ; Reset Extruder
G1 Z2.0 F3000 ; Move Z Axis up little to prevent scratching of Heat Bed
G1 X5 Y20 Z0.3 F5000.0 ; Move over to prevent blob squish
G92 E0
G92 E0
G1 F1500 E-6.5
;LAYER_COUNT:141
;LAYER:0
M107
G0 F6000 X96.927 Y98.425 Z0.12
;TYPE:SKIRT
G1 F1500 E0
G1 F1200 X97.616 Y97.789 E0.01871
G1 X98.356 Y97.214 E0.03741
G1 X99.143 Y96.704 E0.05613
G1 X99.971 Y96.262 E0.07486
G1 X101.105 Y95.794 E0.09934
G1 X102.08 Y95.454 E0.11995
G1 X102.305 Y95.379 E0.12468
G1 X108.057 Y93.512 E0.24536
G1 X108.739 Y93.3 E0.25962
G1 X109.645 Y93.06 E0.27832
G1 X110.569 Y92.898 E0.29704
G1 X111.503 Y92.815 E0.31575
G1 X112.441 Y92.813 E0.33447
G1 X113.376 Y92.89 E0.35319
G1 X114.301 Y93.046 E0.37191
G1 X115.209 Y93.281 E0.39063
G1 X116.093 Y93.592 E0.40933
G1 X116.948 Y93.978 E0.42805
G1 X117.767 Y94.435 E0.44677
G1 X118.545 Y94.96 E0.4655
G1 X119.274 Y95.549 E0.4842
G1 X119.951 Y96.198 E0.50292
G1 X120.774 Y97.164 E0.52824
G1 X121.382 Y97.967 E0.54834
G1 X121.511 Y98.141 E0.55266
G1 X125.021 Y102.972 E0.67183
G1 X125.488 Y103.63 E0.68793
G1 X125.997 Y104.417 E0.70664
G1 X126.438 Y105.245 E0.72536
G1 X126.806 Y106.108 E0.74408
G1 X127.099 Y106.999 E0.7628
G1 X127.316 Y107.911 E0.78151
G1 X127.454 Y108.839 E0.80023
G1 X127.512 Y109.775 E0.81895
G1 X127.49 Y110.713 E0.83767
G1 X127.389 Y111.645 E0.85638
G1 X127.209 Y112.565 E0.87508
G1 X126.95 Y113.467 E0.89381
G1 X126.616 Y114.343 E0.91252
G1 X126.209 Y115.188 E0.93124
G1 X125.536 Y116.284 E0.9569
G1 X124.964 Y117.104 E0.97686
G1 X124.841 Y117.277 E0.98109
G1 X121.358 Y122.07 E1.09933
G1 X120.837 Y122.769 E1.11673
G1 X120.245 Y123.496 E1.13544
G1 X119.593 Y124.17 E1.15415
G1 X118.885 Y124.786 E1.17288
G1 X118.128 Y125.34 E1.1916
G1 X117.327 Y125.827 E1.21031
G1 X116.487 Y126.244 E1.22902
G1 X115.614 Y126.588 E1.24775
G1 X114.715 Y126.856 E1.26647
G1 X113.797 Y127.047 E1.28518
G1 X112.866 Y127.159 E1.30389
G1 X111.929 Y127.191 E1.3226
G1 X110.992 Y127.143 E1.34133
G1 X110.063 Y127.015 E1.36004
G1 X108.84 Y126.721 E1.38514
G1 X107.9 Y126.437 E1.40474
G1 X107.682 Y126.369 E1.4093
G1 X101.846 Y124.472 E1.53176
G1 X101.196 Y124.251 E1.54546
G1 X100.322 Y123.911 E1.56417
G1 X99.48 Y123.498 E1.58289
G1 X98.676 Y123.015 E1.60161
G1 X97.916 Y122.466 E1.62032
G1 X97.205 Y121.853 E1.63905
G1 X96.55 Y121.183 E1.65775
G1 X95.954 Y120.458 E1.67648
G1 X95.422 Y119.686 E1.69519
G1 X94.957 Y118.871 E1.71391
G1 X94.564 Y118.02 E1.73262
G1 X94.244 Y117.138 E1.75134
G1 X94.001 Y116.232 E1.77006
G1 X93.836 Y115.309 E1.78877
G1 X93.739 Y114.057 E1.81383
G1 X93.719 Y113.063 E1.83367
G1 X93.717 Y112.842 E1.83808
G1 X93.718 Y106.686 E1.96093
G1 X93.728 Y106.017 E1.97429
G1 X93.782 Y105.08 E1.99302
G1 X93.916 Y104.152 E2.01173
G1 X94.128 Y103.238 E2.03045
G1 X94.417 Y102.346 E2.04916
G1 X94.781 Y101.482 E2.06787
G1 X95.218 Y100.652 E2.08659
G1 X95.723 Y99.862 E2.1053
G1 X96.294 Y99.118 E2.12402
G1 X96.927 Y98.425 E2.14275
G0 F6000 X97.318 Y98.6
G1 F1200 X98.004 Y97.986 E2.16112
G1 X98.74 Y97.433 E2.17949
G1 X99.522 Y96.947 E2.19787
G1 X100.343 Y96.53 E2.21624
G1 X101.237 Y96.172 E2.23546
G1 X102.212 Y95.832 E2.25607
G1 X102.428 Y95.759 E2.26062
G1 X108.048 Y93.934 E2.37854
G1 X108.858 Y93.682 E2.39547
G1 X109.748 Y93.447 E2.41383
G1 X110.655 Y93.29 E2.4322
G1 X111.572 Y93.213 E2.45057
G1 X112.493 Y93.215 E2.46895
G1 X113.41 Y93.298 E2.48732
G1 X114.316 Y93.459 E2.50569
G1 X115.205 Y93.699 E2.52406
G1 X116.07 Y94.015 E2.54244
G1 X116.904 Y94.405 E2.56081
G1 X117.701 Y94.865 E2.57918
G1 X118.455 Y95.393 E2.59755
G1 X119.161 Y95.985 E2.61593
G1 X119.812 Y96.635 E2.63429
G1 X120.455 Y97.405 E2.65431
G1 X121.063 Y98.208 E2.67441
G1 X121.188 Y98.376 E2.67859
G1 X124.698 Y103.207 E2.79776
G1 X125.162 Y103.861 E2.81376
G1 X125.661 Y104.634 E2.83212
G1 X126.091 Y105.448 E2.85049
G1 X126.449 Y106.297 E2.86888
G1 X126.732 Y107.173 E2.88725
G1 X126.938 Y108.07 E2.90562
G1 X127.066 Y108.982 E2.924
G1 X127.114 Y109.901 E2.94236
G1 X127.081 Y110.821 E2.96073
G1 X126.97 Y111.735 E2.97911
G1 X126.779 Y112.636 E2.99749
G1 X126.511 Y113.516 E3.01584
G1 X126.167 Y114.371 E3.03423
G1 X125.751 Y115.192 E3.0526
G1 X125.208 Y116.055 E3.07295
G1 X124.636 Y116.875 E3.0929
G1 X124.517 Y117.042 E3.09699
G1 X120.955 Y121.943 E3.2179
G1 X120.517 Y122.53 E3.23252
G1 X119.935 Y123.243 E3.25088
G1 X119.293 Y123.903 E3.26926
G1 X118.596 Y124.505 E3.28764
G1 X117.85 Y125.045 E3.30602
G1 X117.06 Y125.517 E3.32438
G1 X116.231 Y125.919 E3.34277
G1 X115.371 Y126.248 E3.36114
G1 X114.486 Y126.5 E3.37951
G1 X113.582 Y126.675 E3.39788
G1 X112.667 Y126.771 E3.41624
G1 X111.746 Y126.787 E3.43462
G1 X110.828 Y126.724 E3.45299
G1 X109.918 Y126.58 E3.47137
G1 X108.955 Y126.338 E3.49119
G1 X108.015 Y126.054 E3.51078
G1 X107.806 Y125.988 E3.51516
G1 X101.975 Y124.093 E3.63751
G1 X101.325 Y123.872 E3.65121
G1 X100.467 Y123.538 E3.66959
G1 X99.641 Y123.131 E3.68796
G1 X98.854 Y122.653 E3.70634
G1 X98.111 Y122.11 E3.7247
G1 X97.418 Y121.504 E3.74307
G1 X96.78 Y120.84 E3.76145
G1 X96.203 Y120.123 E3.77982
G1 X95.689 Y119.358 E3.79821
G1 X95.244 Y118.553 E3.81656
G1 X94.871 Y117.711 E3.83494
G1 X94.572 Y116.84 E3.85332
G1 X94.349 Y115.947 E3.87169
G1 X94.205 Y115.038 E3.89005
G1 X94.139 Y114.049 E3.90983
G1 X94.119 Y113.055 E3.92968
G1 X94.117 Y112.842 E3.93393
G1 X94.118 Y106.692 E4.05666
G1 X94.128 Y106.023 E4.07001
G1 X94.182 Y105.103 E4.0884
G1 X94.315 Y104.193 E4.10675
G1 X94.527 Y103.297 E4.12513
G1 X94.816 Y102.422 E4.14352
G1 X95.179 Y101.577 E4.16187
G1 X95.615 Y100.765 E4.18026
G1 X96.119 Y99.995 E4.19863
G1 X96.688 Y99.272 E4.21699
G1 X97.318 Y98.6 E4.23537
G0 F6000 X97.709 Y98.779
G1 F1200 X98.392 Y98.187 E4.25341
G1 X99.124 Y97.658 E4.27143
G1 X99.899 Y97.196 E4.28944
G1 X100.713 Y96.804 E4.30747
G1 X101.368 Y96.55 E4.32148
G1 X102.343 Y96.21 E4.34209
G1 X102.552 Y96.14 E4.34649
G1 X108.294 Y94.276 E4.46696
G1 X108.976 Y94.064 E4.48122
G1 X109.85 Y93.834 E4.49925
G1 X110.74 Y93.683 E4.51727
G1 X111.64 Y93.61 E4.53529
G1 X112.543 Y93.618 E4.55331
G1 X113.442 Y93.706 E4.57133
G1 X114.33 Y93.873 E4.58937
G1 X115.199 Y94.117 E4.60738
G1 X116.043 Y94.438 E4.6254
G1 X116.856 Y94.832 E4.64343
G1 X117.631 Y95.296 E4.66145
G1 X118.361 Y95.827 E4.67947
G1 X119.042 Y96.421 E4.6975
G1 X119.667 Y97.072 E4.71551
G1 X120.136 Y97.647 E4.73032
G1 X120.744 Y98.45 E4.75042
G1 X120.864 Y98.612 E4.75444
G1 X124.443 Y103.539 E4.87597
G1 X124.835 Y104.092 E4.88949
G1 X125.325 Y104.851 E4.90752
G1 X125.745 Y105.651 E4.92555
G1 X126.092 Y106.484 E4.94356
G1 X126.365 Y107.345 E4.96159
G1 X126.56 Y108.227 E4.97961
G1 X126.677 Y109.123 E4.99765
G1 X126.714 Y110.025 E5.01566
G1 X126.671 Y110.927 E5.03368
G1 X126.548 Y111.822 E5.05171
G1 X126.347 Y112.702 E5.06973
G1 X126.069 Y113.561 E5.08774
G1 X125.715 Y114.393 E5.10579
G1 X125.29 Y115.189 E5.12379
G1 X124.88 Y115.827 E5.13893
G1 X124.308 Y116.647 E5.15888
G1 X120.634 Y121.704 E5.28362
G1 X120.196 Y122.291 E5.29824
G1 X119.624 Y122.99 E5.31626
G1 X118.993 Y123.636 E5.33428
G1 X118.307 Y124.224 E5.35231
G1 X117.572 Y124.748 E5.37033
G1 X116.794 Y125.206 E5.38834
G1 X115.977 Y125.592 E5.40637
G1 X115.13 Y125.906 E5.4244
G1 X114.259 Y126.142 E5.44241
G1 X113.37 Y126.301 E5.46043
G1 X112.47 Y126.381 E5.47846
G1 X111.567 Y126.381 E5.49648
G1 X110.668 Y126.301 E5.5145
G1 X109.779 Y126.141 E5.53252
G1 X109.071 Y125.955 E5.54713
G1 X108.131 Y125.671 E5.56673
G1 X107.929 Y125.608 E5.57095
G1 X102.235 Y123.758 E5.69043
G1 X101.454 Y123.493 E5.70688
G1 X100.612 Y123.165 E5.72492
G1 X99.803 Y122.763 E5.74295
G1 X99.033 Y122.292 E5.76096
G1 X98.307 Y121.754 E5.77899
G1 X97.632 Y121.155 E5.797
G1 X97.013 Y120.497 E5.81503
G1 X96.454 Y119.788 E5.83305
G1 X95.96 Y119.032 E5.85107
G1 X95.534 Y118.235 E5.8691
G1 X95.181 Y117.404 E5.88712
G1 X94.903 Y116.545 E5.90514
G1 X94.702 Y115.664 E5.92317
G1 X94.58 Y114.77 E5.94118
G1 X94.539 Y114.041 E5.95575
G1 X94.519 Y113.047 E5.97559
G1 X94.517 Y112.842 E5.97968
G1 X94.518 Y106.698 E6.10229
G1 X94.528 Y106.029 E6.11564
G1 X94.582 Y105.127 E6.13367
G1 X94.715 Y104.234 E6.15169
G1 X94.926 Y103.356 E6.16971
G1 X95.214 Y102.5 E6.18774
G1 X95.577 Y101.673 E6.20576
G1 X96.012 Y100.881 E6.22379
G1 X96.515 Y100.131 E6.24181
G1 X97.082 Y99.429 E6.25982
G1 X97.709 Y98.779 E6.27784
G1 F1500 E-0.22216
;MESH:D12_17mm.stl
G0 F6000 X104.73 Y105.458
G0 X105.033 Y106.39
G0 X105.917 Y109.228
G0 X106.419 Y109.917
G0 X107.6 Y110.872
;TYPE:WALL-INNER
G1 F1500 E6.27784
G1 F1200 X109.564 Y111.864 E6.32175
G1 X109.639 Y111.762 E6.32428
G1 X109.654 Y111.778
G1 X110.691 Y112.876 E6.35442
G1 X111.099 Y113.297 E6.36612
G1 X111.571 Y113.012 E6.37712
G1 X111.649 Y112.961 E6.37898
G1 X111.745 Y112.893 E6.38133
G1 X111.857 Y112.804 E6.38418
G1 X111.979 Y112.699 E6.3874
G1 X112.111 Y112.574 E6.39102
G1 X112.238 Y112.441 E6.39469
G1 X112.38 Y112.274 E6.39907
G1 X112.521 Y112.084 E6.40379
G1 X112.659 Y111.872 E6.40884
G1 X112.793 Y111.629 E6.41438
G1 X112.932 Y111.305 E6.42141
G1 X113.034 Y110.968 E6.42844
G1 X113.093 Y110.626 E6.43536
G1 X113.111 Y110.288 E6.44212
G1 X113.09 Y109.952 E6.44884
G1 X113.026 Y109.622 E6.45555
G1 X112.921 Y109.306 E6.46219
G1 X112.775 Y109.007 E6.46883
G1 X112.589 Y108.731 E6.47547
G1 X112.366 Y108.48 E6.48217
G1 X112.089 Y108.254 E6.48931
G1 X112.027 Y108.221 E6.49071
G1 X111.807 Y108.087 E6.49585
G1 X111.569 Y107.988 E6.50099
G1 X111.305 Y107.914 E6.50646
G1 X111.248 Y107.911 E6.5076
G1 X111.082 Y107.887 E6.51095
G1 X110.831 Y107.886 E6.51596
G1 X110.585 Y107.916 E6.52091
G1 X110.341 Y107.977 E6.52592
G1 X110.304 Y107.992 E6.52672
G1 X110.089 Y108.076 E6.53133
G1 X110.031 Y108.11 E6.53267
G1 X109.878 Y108.19 E6.53612
G1 X109.659 Y108.34 E6.54141
G1 X109.607 Y108.383 E6.54276
G1 X109.64 Y108.329 E6.54277
G1 X109.769 Y108.123 E6.54392
G1 X109.847 Y107.997 E6.54569
G1 X109.879 Y107.946 E6.54581
G1 X110.001 Y107.75 E6.54958
G1 X110.086 Y107.615 E6.55276
G1 X108.294 Y106.316 E6.59693
G1 X108.094 Y106.172 E6.60185
G1 X107.995 Y106.398 E6.60486
G1 X107.14 Y108.345 E6.64729
G1 X106.2 Y109.922 E6.68393
G1 X106.198 Y109.924 E6.68399
G1 X106.091 Y110.105 E6.68818
G1 X106.28 Y110.201 E6.69087
G1 X107.6 Y110.872 E6.72042
G1 F1500 E0.22042
G0 F6000 X106.475 Y109.994
G0 X108.209 Y106.595
G0 X109.722 Y107.687
G0 X108.676 Y109.439
G0 X108.437 Y109.506
;TYPE:WALL-OUTER
G1 F1500 E6.72042
G1 F1200 X109.549 Y107.72 E6.76241
G1 X108.261 Y106.787 E6.79415
G1 X107.494 Y108.533 E6.8322
G1 X106.654 Y109.942 E6.86494
G1 X107.781 Y110.515 E6.89017
G1 X109.442 Y111.354 E6.92731
G1 X110.198 Y110.322 E6.95284
G1 X110.298 Y110.194 E6.95608
G1 X110.384 Y110.098 E6.95865
G1 X110.478 Y110.012 E6.96119
G1 X110.566 Y109.944 E6.96341
G1 X110.646 Y109.894 E6.96529
G1 X110.737 Y109.854 E6.96728
G1 X110.822 Y109.829 E6.96905
G1 X110.896 Y109.818 E6.97054
G1 X110.977 Y109.818 E6.97216
G1 X111.042 Y109.826 E6.97346
G1 X111.129 Y109.849 E6.97526
G1 X111.222 Y109.889 E6.97728
G1 X111.286 Y109.928 E6.97877
G1 X111.336 Y109.971 E6.98009
G1 X111.379 Y110.022 E6.98142
G1 X111.415 Y110.082 E6.98282
G1 X111.445 Y110.151 E6.98432
G1 X111.465 Y110.223 E6.98581
G1 X111.476 Y110.303 E6.98742
G1 X111.478 Y110.391 E6.98918
G1 X111.469 Y110.478 E6.99092
G1 X111.448 Y110.579 E6.99298
G1 X111.419 Y110.67 E6.99489
G1 X111.376 Y110.766 E6.99699
G1 X111.302 Y110.89 E6.99987
G1 X111.217 Y111.002 E7.00268
G1 X111.122 Y111.107 E7.0055
G1 X111.021 Y111.201 E7.00825
G1 X110.911 Y111.292 E7.0111
G1 X110.8 Y111.373 E7.01385
G1 X110.689 Y111.448 E7.01652
G1 X110.588 Y111.511 E7.01889
G1 X110.456 Y111.583 E7.02189
G1 X110.156 Y111.727 E7.02854
G1 X110.98 Y112.599 E7.05248
G1 X111.165 Y112.79 E7.05778
G1 X111.358 Y112.674 E7.06228
G1 X111.423 Y112.631 E7.06383
G1 X111.505 Y112.573 E7.06584
G1 X111.602 Y112.496 E7.06831
G1 X111.711 Y112.402 E7.07118
G1 X111.829 Y112.29 E7.07443
G1 X111.941 Y112.173 E7.07766
G1 X112.067 Y112.025 E7.08154
G1 X112.192 Y111.856 E7.08573
G1 X112.316 Y111.666 E7.09026
G1 X112.433 Y111.453 E7.09511
G1 X112.556 Y111.168 E7.10131
G1 X112.644 Y110.876 E7.10739
G1 X112.695 Y110.581 E7.11337
G1 X112.71 Y110.29 E7.11918
G1 X112.692 Y110.003 E7.12492
G1 X112.638 Y109.723 E7.13061
G1 X112.55 Y109.457 E7.1362
G1 X112.428 Y109.207 E7.14175
G1 X112.273 Y108.977 E7.14729
G1 X112.088 Y108.77 E7.15283
G1 X111.866 Y108.588 E7.15856
G1 X111.825 Y108.566 E7.15949
G1 X111.625 Y108.445 E7.16415
G1 X111.438 Y108.367 E7.16819
G1 X111.238 Y108.311 E7.17234
G1 X111.205 Y108.309 E7.173
G1 X111.052 Y108.287 E7.17608
G1 X110.854 Y108.286 E7.18003
G1 X110.658 Y108.31 E7.18397
G1 X110.463 Y108.359 E7.18799
G1 X110.266 Y108.436 E7.19221
G1 X110.236 Y108.454 E7.19291
G1 X110.085 Y108.533 E7.19631
G1 X109.902 Y108.659 E7.20074
G1 X109.728 Y108.805 E7.20527
G1 X109.561 Y108.975 E7.21003
G1 X109.406 Y109.165 E7.21492
G1 X108.956 Y109.768 E7.22994
G1 X108.437 Y109.506 E7.24154
G0 F6000 X108.676 Y109.439
G0 X109.722 Y107.687
G0 X108.209 Y106.595
G0 X106.475 Y109.994
G0 X109.481 Y111.52
G0 X109.9 Y111.406
;TYPE:WALL-INNER
G1 F1200 X110.117 Y111.109 E7.24888
G1 X110.186 Y111.015 E7.25121
G1 X110.242 Y110.938 E7.25311
G1 X110.301 Y110.858 E7.25509
G1 X110.374 Y110.759 E7.25755
G1 X110.434 Y110.677 E7.25957
G1 X110.461 Y110.639 E7.2605
G1 X110.521 Y110.558 E7.26252
G1 X110.601 Y110.456 E7.2651
G1 X110.67 Y110.378 E7.26718
G1 X110.706 Y110.345 E7.26816
G1 X110.732 Y110.322 E7.26885
G1 X110.784 Y110.282 E7.27016
G1 X110.802 Y110.268 E7.27061
G1 X110.833 Y110.248 E7.27135
G1 X110.871 Y110.232 E7.27217
G1 X110.908 Y110.221 E7.27294
G1 X110.928 Y110.218 E7.27335
G1 X110.952 Y110.218 E7.27382
G1 X111.002 Y110.229 E7.27485
G1 X111.033 Y110.243 E7.27552
G1 X111.053 Y110.256 E7.276
G1 X111.059 Y110.266 E7.27623
G1 X111.068 Y110.287 E7.27669
G1 X111.073 Y110.304 E7.27704
G1 X111.076 Y110.329 E7.27755
G1 X111.077 Y110.375 E7.27846
G1 X111.073 Y110.415 E7.27927
G1 X111.059 Y110.482 E7.28063
G1 X111.046 Y110.524 E7.28151
G1 X111.018 Y110.585 E7.28275
G1 X111.001 Y110.615 E7.28344
G1 X110.974 Y110.66 E7.28449
G1 X110.906 Y110.75 E7.28674
G1 X110.84 Y110.822 E7.28869
G1 X110.783 Y110.875 E7.29024
G1 X110.749 Y110.907 E7.29117
G1 X110.668 Y110.974 E7.29319
G1 X110.564 Y111.05 E7.29555
G1 X110.477 Y111.109 E7.29719
G1 X110.39 Y111.163 E7.29861
G1 X110.277 Y111.225 E7.30036
G1 X109.9 Y111.406 E7.30298
G0 F6000 X109.523 Y111.508
G0 X105.717 Y109.951
G1 F1200 X105.717 Y109.228 E7.31741
G1 X105.717 Y109.227 E7.31743
G1 X105.717 Y106.886 E7.36414
G1 X107.192 Y106.407 E7.39509
G1 X107.614 Y106.271 E7.40394
G1 X107.436 Y106.677 E7.40875
G1 X106.786 Y108.157 E7.44101
G1 X106.087 Y109.329 E7.46824
G1 X105.717 Y109.951 E7.47572
G0 F6000 X105.895 Y112.985
G0 X111.636 Y115.036
G1 F1200 X105.717 Y113.115 E7.59991
G1 X105.717 Y110.689 E7.64832
G1 X105.717 Y110.688 E7.64834
G1 X105.717 Y110.364 E7.65481
G1 X106.006 Y110.511 E7.65852
G1 X107.419 Y111.229 E7.69015
G1 X109.648 Y112.355 E7.73999
G1 X110.402 Y113.153 E7.7619
G1 X111.033 Y113.804 E7.77999
G1 X111.784 Y113.351 E7.79749
G1 X111.874 Y113.292 E7.79964
G1 X111.985 Y113.213 E7.80236
G1 X112.112 Y113.112 E7.8056
G1 X112.247 Y112.996 E7.80915
G1 X112.393 Y112.858 E7.81316
G1 X112.535 Y112.709 E7.81726
G1 X112.693 Y112.523 E7.82214
G1 X112.85 Y112.313 E7.82737
G1 X113.002 Y112.078 E7.83295
G1 X113.153 Y111.805 E7.83918
G1 X113.308 Y111.442 E7.84706
G1 X113.424 Y111.06 E7.85502
G1 X113.491 Y110.671 E7.8629
G1 X113.512 Y110.286 E7.87059
G1 X113.488 Y109.901 E7.87829
G1 X113.414 Y109.52 E7.88604
G1 X113.292 Y109.155 E7.89372
G1 X113.122 Y108.807 E7.90145
G1 X112.906 Y108.485 E7.90918
G1 X112.644 Y108.19 E7.91706
