;FLAVOR:Marlin
;TIME:18005
;Filament used: 11.2673m
;Layer height: 0.2
;MINX:66.645
;MINY:66.645
;MINZ:0.2
;MAXX:168.357
;MAXY:168.35
;MAXZ:99
;Generated with Cura_SteamEngine 4.6.2
M140 S60
M105
M190 S60
M104 S200
M105
M109 S200
M82 ;absolute extrusion mode
; Ender 3 Custom Start G-code
G92 E0 ; Reset Extruder
G28 ; Home all axes
G1 Z2.0 F3000 ; Move Z Axis up little to prevent scratching of Heat Bed
G1 X0.1 Y20 Z0.3 F5000.0 ; Move to start position
G1 X0.1 Y200.0 Z0.3 F1500.0 E15 ; Draw the first line
G1 X0.4 Y200.0 Z0.3 F5000.0 ; Move to side a little
G1 X0.4 Y20 Z0.3 F1500.0 E30 ; Draw the second line
G92 E0 ; Reset Extruder
G1 Z2.0 F3000 ; Move Z Axis up little to prevent scratching of Heat Bed
G1 X5 Y20 Z0.3 F5000.0 ; Move over to prevent blob squish
G92 E0
G92 E0
G1 F1500 E-6
;LAYER_COUNT:495
;LAYER:0
M107
M204 S500
M205 X8 Y8
G0 F7500 X117.956 Y67.562 Z0.2
;TYPE:SKIRT
G1 F1500 E0
G1 X118.58 Y67.661 E0.01996
G1 X118.756 Y67.69 E0.0256
G1 X121.503 Y68.177 E0.11375
G1 X122.234 Y68.316 E0.13726
G1 X123.113 Y68.523 E0.1658
G1 X124.047 Y68.838 E0.19694
G1 X124.702 Y69.096 E0.21918
G1 X148.291 Y78.869 E1.02596
G1 X148.939 Y79.15 E1.04828
G1 X149.751 Y79.546 E1.07683
G1 X150.525 Y80.011 E1.10536
G1 X151.254 Y80.544 E1.13389
G1 X151.933 Y81.139 E1.16242
G1 X152.558 Y81.792 E1.19098
G1 X153.142 Y82.525 E1.22059
G1 X153.668 Y83.253 E1.24897
G1 X155.175 Y85.404 E1.33196
G1 X155.629 Y86.071 E1.35745
G1 X156.104 Y86.839 E1.38598
G1 X156.477 Y87.576 E1.41208
G1 X156.681 Y88.033 E1.4279
G1 X156.824 Y88.37 E1.43946
G1 X166.553 Y111.862 E2.24288
G1 X166.836 Y112.57 E2.26697
G1 X167.134 Y113.423 E2.29552
G1 X167.355 Y114.298 E2.32404
G1 X167.498 Y115.19 E2.35258
G1 X167.562 Y116.091 E2.38112
G1 X167.545 Y116.994 E2.40966
G1 X167.436 Y117.975 E2.44085
G1 X167.291 Y118.865 E2.46934
G1 X166.822 Y121.523 E2.55462
G1 X166.685 Y122.241 E2.57772
G1 X166.477 Y123.119 E2.60623
G1 X166.172 Y124.026 E2.63646
G1 X165.914 Y124.683 E2.65877
G1 X156.127 Y148.306 E3.46671
G1 X155.855 Y148.934 E3.48833
G1 X155.46 Y149.746 E3.51687
G1 X154.994 Y150.52 E3.54541
G1 X154.462 Y151.249 E3.57393
G1 X153.867 Y151.929 E3.60248
G1 X153.215 Y152.554 E3.63102
G1 X152.487 Y153.134 E3.66043
G1 X151.734 Y153.679 E3.6898
G1 X149.531 Y155.221 E3.77476
G1 X148.936 Y155.626 E3.7975
G1 X148.168 Y156.101 E3.82604
G1 X147.453 Y156.463 E3.85136
G1 X146.673 Y156.807 E3.8783
G1 X123.059 Y166.587 E4.68589
G1 X122.448 Y166.831 E4.70668
G1 X121.595 Y167.128 E4.73522
G1 X120.719 Y167.349 E4.76377
G1 X119.828 Y167.492 E4.79228
G1 X118.927 Y167.555 E4.82082
G1 X118.024 Y167.538 E4.84935
G1 X117.195 Y167.452 E4.87569
G1 X116.467 Y167.346 E4.89893
G1 X116.166 Y167.297 E4.90857
G1 X113.487 Y166.824 E4.99453
G1 X112.766 Y166.687 E5.01772
G1 X111.887 Y166.479 E5.04626
G1 X110.952 Y166.164 E5.07743
G1 X110.319 Y165.914 E5.09894
G1 X86.714 Y156.135 E5.90626
G1 X86.085 Y155.864 E5.9279
G1 X85.272 Y155.47 E5.95645
G1 X84.498 Y155.006 E5.98496
G1 X83.767 Y154.475 E6.01351
G1 X83.086 Y153.882 E6.04204
G1 X82.46 Y153.23 E6.0706
G1 X81.852 Y152.468 E6.1014
G1 X81.316 Y151.724 E6.13037
G1 X79.764 Y149.505 E6.21594
G1 X79.366 Y148.918 E6.23835
G1 X78.892 Y148.149 E6.26689
G1 X78.473 Y147.304 E6.29669
G1 X78.159 Y146.586 E6.32145
G1 X68.435 Y123.106 E7.12446
G1 X68.161 Y122.418 E7.14786
G1 X67.864 Y121.565 E7.1764
G1 X67.644 Y120.689 E7.20494
G1 X67.502 Y119.797 E7.23347
G1 X67.44 Y118.896 E7.26201
G1 X67.458 Y117.993 E7.29055
G1 X67.565 Y117.033 E7.32107
G1 X67.707 Y116.155 E7.34917
G1 X68.175 Y113.504 E7.43423
G1 X68.319 Y112.75 E7.45849
G1 X68.528 Y111.871 E7.48704
G1 X68.84 Y110.945 E7.51791
G1 X69.099 Y110.289 E7.54019
G1 X78.849 Y86.76 E8.34495
G1 X79.148 Y86.069 E8.36874
G1 X79.543 Y85.257 E8.39727
G1 X80.008 Y84.483 E8.4258
G1 X80.54 Y83.753 E8.45434
G1 X81.134 Y83.073 E8.48287
G1 X81.787 Y82.449 E8.51141
G1 X82.526 Y81.859 E8.54129
G1 X83.254 Y81.333 E8.56967
G1 X85.448 Y79.796 E8.65431
G1 X86.078 Y79.368 E8.67837
G1 X86.847 Y78.894 E8.70692
G1 X87.576 Y78.525 E8.73273
G1 X88.033 Y78.321 E8.74855
G1 X88.37 Y78.178 E8.76011
G1 X111.887 Y68.439 E9.56438
G1 X112.563 Y68.168 E9.58739
G1 X113.415 Y67.87 E9.61591
G1 X114.29 Y67.648 E9.64444
G1 X115.182 Y67.504 E9.67299
G1 X116.083 Y67.44 E9.70153
G1 X116.986 Y67.455 E9.73006
G1 X117.161 Y67.475 E9.73563
G0 F1350 X117.956 Y67.562
G0 F7500 X118.019 Y67.167
G1 F1500 X118.643 Y67.266 E9.75559
G1 X118.825 Y67.297 E9.76143
G1 X121.578 Y67.784 E9.84976
G1 X122.309 Y67.923 E9.87327
G1 X123.205 Y68.134 E9.90236
G1 X124.193 Y68.465 E9.93528
G1 X124.856 Y68.727 E9.95781
G1 X148.45 Y78.502 E10.76476
G1 X149.098 Y78.783 E10.78708
G1 X149.926 Y79.186 E10.81617
G1 X150.716 Y79.659 E10.84527
G1 X151.462 Y80.198 E10.87435
G1 X152.158 Y80.801 E10.90345
G1 X152.799 Y81.461 E10.93252
G1 X153.466 Y82.29 E10.96614
G1 X153.995 Y83.023 E10.9947
G1 X155.506 Y85.179 E11.07789
G1 X155.96 Y85.846 E11.10338
G1 X156.444 Y86.628 E11.13244
G1 X156.84 Y87.41 E11.16014
G1 X157.05 Y87.877 E11.17631
G1 X157.193 Y88.217 E11.18797
G1 X166.925 Y111.714 E11.99157
G1 X167.208 Y112.422 E12.01566
G1 X167.512 Y113.291 E12.04475
G1 X167.74 Y114.183 E12.07384
G1 X167.889 Y115.091 E12.10291
G1 X167.959 Y116.009 E12.132
G1 X167.949 Y116.93 E12.16111
G1 X167.831 Y118.039 E12.19635
G1 X167.685 Y118.935 E12.22503
G1 X167.215 Y121.598 E12.31047
G1 X167.078 Y122.316 E12.33357
G1 X166.866 Y123.212 E12.36266
G1 X166.545 Y124.171 E12.39462
G1 X166.284 Y124.836 E12.41719
G1 X156.494 Y148.465 E13.22534
G1 X156.222 Y149.093 E13.24697
G1 X155.82 Y149.921 E13.27605
G1 X155.347 Y150.711 E13.30514
G1 X154.808 Y151.457 E13.33422
G1 X154.206 Y152.154 E13.36333
G1 X153.545 Y152.795 E13.39242
G1 X152.722 Y153.458 E13.42581
G1 X151.963 Y154.007 E13.45541
G1 X149.757 Y155.552 E13.54051
G1 X149.162 Y155.957 E13.56325
G1 X148.379 Y156.441 E13.59234
G1 X147.62 Y156.827 E13.61924
G1 X146.826 Y157.176 E13.64665
G1 X123.207 Y166.958 E14.45441
G1 X122.596 Y167.202 E14.4752
G1 X121.727 Y167.506 E14.50429
G1 X120.835 Y167.733 E14.53337
G1 X119.927 Y167.883 E14.56245
G1 X119.009 Y167.952 E14.59154
G1 X118.088 Y167.942 E14.62064
G1 X117.138 Y167.847 E14.65081
G1 X116.096 Y167.691 E14.6841
G1 X113.412 Y167.217 E14.77022
G1 X112.691 Y167.08 E14.79341
G1 X111.795 Y166.869 E14.82249
G1 X110.806 Y166.537 E14.85546
G1 X110.166 Y166.284 E14.8772
G1 X86.556 Y156.502 E15.6847
G1 X85.927 Y156.231 E15.70635
G1 X85.098 Y155.83 E15.73544
G1 X84.307 Y155.359 E15.76453
G1 X83.56 Y154.821 E15.79362
G1 X82.862 Y154.221 E15.8227
G1 X82.219 Y153.562 E15.85179
G1 X81.528 Y152.703 E15.88663
G1 X80.988 Y151.953 E15.91583
G1 X79.433 Y149.73 E16.00155
G1 X79.035 Y149.143 E16.02396
G1 X78.551 Y148.359 E16.05307
G1 X78.107 Y147.466 E16.08458
G1 X77.79 Y146.739 E16.10964
G1 X68.063 Y123.254 E16.91283
G1 X67.789 Y122.566 E16.93623
G1 X67.486 Y121.697 E16.96531
G1 X67.259 Y120.804 E16.99442
G1 X67.111 Y119.896 E17.02349
G1 X67.042 Y118.978 E17.05258
G1 X67.053 Y118.057 E17.08168
G1 X67.17 Y116.97 E17.11623
G1 X67.313 Y116.085 E17.14455
G1 X67.782 Y113.429 E17.22977
G1 X67.926 Y112.675 E17.25403
G1 X68.138 Y111.779 E17.28312
G1 X68.467 Y110.799 E17.31578
G1 X68.729 Y110.136 E17.33831
G1 X78.482 Y86.601 E18.14327
G1 X78.781 Y85.91 E18.16706
G1 X79.183 Y85.082 E18.19615
G1 X79.655 Y84.292 E18.22522
G1 X80.194 Y83.546 E18.2543
G1 X80.796 Y82.849 E18.2834
G1 X81.456 Y82.207 E18.3125
G1 X82.291 Y81.535 E18.34636
G1 X83.025 Y81.005 E18.37497
G1 X85.223 Y79.465 E18.45977
G1 X85.853 Y79.037 E18.48384
G1 X86.637 Y78.553 E18.51295
G1 X87.41 Y78.162 E18.54032
G1 X87.877 Y77.952 E18.5565
G1 X88.217 Y77.809 E18.56815
G1 X111.738 Y68.068 E19.37256
G1 X112.414 Y67.797 E19.39557
G1 X113.282 Y67.492 E19.42464
G1 X114.174 Y67.263 E19.45374
G1 X115.082 Y67.113 E19.48282
G1 X116 Y67.042 E19.51191
G1 X116.921 Y67.051 E19.54102
G1 X117.224 Y67.083 E19.55064
G0 F1350 X118.019 Y67.167
G0 F7500 X118.082 Y66.772
G1 F1500 X118.706 Y66.871 E19.57061
G1 X118.895 Y66.903 E19.57666
G1 X121.653 Y67.391 E19.66516
G1 X122.384 Y67.53 E19.68867
G1 X123.297 Y67.744 E19.7183
G1 X124.339 Y68.093 E19.75303
G1 X125.009 Y68.357 E19.77578
G1 X148.609 Y78.135 E20.58294
G1 X149.257 Y78.416 E20.60526
G1 X150.101 Y78.825 E20.63489
G1 X150.907 Y79.305 E20.66454
G1 X151.669 Y79.852 E20.69417
G1 X152.382 Y80.462 E20.72382
G1 X153.04 Y81.13 E20.75345
G1 X153.79 Y82.056 E20.7911
G1 X154.323 Y82.793 E20.81984
G1 X155.836 Y84.953 E20.90317
G1 X156.29 Y85.62 E20.92866
G1 X156.785 Y86.418 E20.95833
G1 X157.204 Y87.244 E20.9876
G1 X157.418 Y87.721 E21.00412
G1 X157.563 Y88.064 E21.01588
G1 X167.296 Y111.565 E21.81961
G1 X167.579 Y112.273 E21.8437
G1 X167.89 Y113.158 E21.87334
G1 X168.124 Y114.066 E21.90297
G1 X168.28 Y114.991 E21.93261
G1 X168.357 Y115.926 E21.96225
G1 X168.353 Y116.864 E21.99189
G1 X168.225 Y118.102 E22.03122
G1 X168.079 Y119.004 E22.06009
G1 X167.608 Y121.673 E22.14573
G1 X167.471 Y122.391 E22.16882
G1 X167.256 Y123.304 E22.19846
G1 X166.918 Y124.316 E22.23217
G1 X166.653 Y124.989 E22.25503
G1 X156.861 Y148.624 E23.06338
G1 X156.589 Y149.252 E23.085
G1 X156.18 Y150.096 E23.11464
G1 X155.7 Y150.902 E23.14428
G1 X155.154 Y151.664 E23.1739
G1 X154.545 Y152.377 E23.20353
G1 X153.877 Y153.035 E23.23315
G1 X152.957 Y153.782 E23.2706
G1 X152.193 Y154.335 E23.3004
G1 X149.982 Y155.882 E23.38566
G1 X149.387 Y156.287 E23.40841
G1 X148.589 Y156.782 E23.43808
G1 X147.787 Y157.19 E23.46651
G1 X147.334 Y157.395 E23.48222
G1 X146.979 Y157.546 E23.49441
G1 X123.356 Y167.33 E24.30232
G1 X122.745 Y167.574 E24.3231
G1 X121.86 Y167.884 E24.35273
G1 X120.951 Y168.118 E24.38239
G1 X120.026 Y168.273 E24.41203
G1 X119.092 Y168.35 E24.44164
G1 X118.154 Y168.346 E24.47128
G1 X117.08 Y168.243 E24.50537
G1 X116.027 Y168.085 E24.53901
G1 X113.338 Y167.61 E24.62529
G1 X112.617 Y167.473 E24.64848
G1 X111.704 Y167.258 E24.67812
G1 X110.66 Y166.909 E24.7129
G1 X110.013 Y166.653 E24.73489
G1 X86.398 Y156.869 E25.54256
G1 X85.769 Y156.598 E25.5642
G1 X84.924 Y156.191 E25.59383
G1 X84.117 Y155.713 E25.62347
G1 X83.354 Y155.168 E25.6531
G1 X82.639 Y154.56 E25.68275
G1 X81.98 Y153.893 E25.71238
G1 X81.204 Y152.937 E25.75129
G1 X80.661 Y152.183 E25.78065
G1 X79.101 Y149.954 E25.86661
G1 X78.703 Y149.367 E25.88902
G1 X78.211 Y148.569 E25.91864
G1 X77.741 Y147.627 E25.9519
G1 X77.42 Y146.892 E25.97725
G1 X67.692 Y123.402 E26.78059
G1 X67.418 Y122.714 E26.80399
G1 X67.108 Y121.829 E26.83362
G1 X66.875 Y120.92 E26.86327
G1 X66.72 Y119.995 E26.89291
G1 X66.645 Y119.06 E26.92255
G1 X66.649 Y118.122 E26.95218
G1 X66.775 Y116.907 E26.99078
G1 X66.919 Y116.016 E27.0193
G1 X67.389 Y113.353 E27.10474
G1 X67.533 Y112.599 E27.129
G1 X67.748 Y111.687 E27.1586
G1 X68.095 Y110.653 E27.19307
G1 X68.36 Y109.982 E27.21586
G1 X78.115 Y86.443 E28.02096
G1 X78.414 Y85.752 E28.04475
G1 X78.822 Y84.908 E28.07438
G1 X79.302 Y84.101 E28.10404
G1 X79.848 Y83.339 E28.13366
G1 X80.457 Y82.626 E28.16329
G1 X81.125 Y81.967 E28.19294
G1 X82.057 Y81.211 E28.23086
G1 X82.795 Y80.678 E28.25962
G1 X84.999 Y79.134 E28.34465
G1 X85.629 Y78.706 E28.36872
G1 X86.426 Y78.213 E28.39833
G1 X87.244 Y77.798 E28.42731
G1 X87.721 Y77.584 E28.44383
G1 X88.064 Y77.439 E28.4556
G1 X111.589 Y67.697 E29.26013
G1 X112.265 Y67.426 E29.28315
G1 X113.15 Y67.114 E29.3128
G1 X114.057 Y66.879 E29.3424
G1 X114.982 Y66.722 E29.37205
G1 X115.917 Y66.645 E29.40169
G1 X116.855 Y66.647 E29.43133
G1 X117.286 Y66.691 E29.44502
G0 F1350 X118.082 Y66.772
G1 F1500 E23.44502
;MESH:Pencil_holder.stl
G0 F7500 X116.561 Y76.986
G0 X116.394 Y77.958
G0 X116.742 Y78.348
G0 X116.797 Y78.843
G0 X91.465 Y89.482
G0 X90.45 Y90.196
G0 X79.275 Y116.101
G0 X79.063 Y117.321
G0 X87.696 Y137.51
G0 X89.214 Y143.475
;TYPE:WALL-INNER
G1 F1500 E29.44502
G1 X89.408 Y143.369 E29.452
G1 X89.882 Y143.108 E29.4691
G1 X79.269 Y117.486 E30.34539
G1 X79.099 Y117.505 E30.35079
G1 X78.836 Y117.533 E30.35915
G1 X78.881 Y117.273 E30.36415
G1 X78.882 Y117.272 E30.36419
G1 X79.092 Y116.086 E30.40225
G1 X79.13 Y115.867 E30.40927
G1 X79.343 Y115.93 E30.41368
G1 X79.863 Y116.084 E30.43081
G1 X90.476 Y90.456 E31.30727
G1 X90.346 Y90.351 E31.31255
G1 X90.14 Y90.185 E31.32091
G1 X90.357 Y90.033 E31.32593
G1 X91.346 Y89.34 E31.36409
G1 X91.527 Y89.213 E31.37107
G1 X91.633 Y89.407 E31.37546
G1 X91.894 Y89.882 E31.39258
G1 X117.517 Y79.269 E32.2689
G1 X117.498 Y79.1 E32.27427
G1 X117.469 Y78.836 E32.28266
G1 X117.73 Y78.881 E32.28768
G1 X117.731 Y78.882 E32.28773
G1 X118.918 Y79.093 E32.32582
G1 X119.137 Y79.131 E32.33284
G1 X119.074 Y79.344 E32.33724
G1 X118.92 Y79.863 E32.35435
G1 X144.546 Y90.476 E33.23075
G1 X144.651 Y90.346 E33.23603
G1 X144.817 Y90.14 E33.24439
G1 X144.969 Y90.357 E33.24941
G1 X145.662 Y91.346 E33.28757
G1 X145.789 Y91.527 E33.29455
G1 X145.595 Y91.633 E33.29894
G1 X145.12 Y91.894 E33.31606
G1 X155.733 Y117.516 E34.19235
G1 X155.902 Y117.497 E34.19772
G1 X156.165 Y117.469 E34.20608
G1 X156.12 Y117.729 E34.21108
G1 X156.119 Y117.73 E34.21113
G1 X155.909 Y118.918 E34.24924
G1 X155.871 Y119.137 E34.25627
G1 X155.658 Y119.074 E34.26067
G1 X155.139 Y118.92 E34.27778
G1 X144.526 Y144.546 E35.15418
G1 X144.656 Y144.651 E35.15946
G1 X144.862 Y144.817 E35.16782
G1 X144.645 Y144.969 E35.17284
G1 X143.656 Y145.662 E35.21099
G1 X143.475 Y145.789 E35.21798
G1 X143.369 Y145.595 E35.22236
G1 X143.108 Y145.12 E35.23949
G1 X117.486 Y155.733 E36.11577
G1 X117.505 Y155.903 E36.12118
G1 X117.533 Y156.166 E36.12954
G1 X117.273 Y156.121 E36.13454
G1 X117.272 Y156.12 E36.13458
G1 X116.086 Y155.91 E36.17264
G1 X115.867 Y155.872 E36.17966
G1 X115.93 Y155.659 E36.18407
G1 X116.084 Y155.139 E36.2012
G1 X90.456 Y144.526 E37.07766
G1 X90.351 Y144.656 E37.08294
G1 X90.185 Y144.862 E37.0913
G1 X90.033 Y144.645 E37.09632
G1 X89.341 Y143.656 E37.13446
G1 X89.214 Y143.475 E37.13884
G0 F7500 X88.824 Y143.233
G1 F1500 X89.375 Y142.93 E37.15871
G1 X79.014 Y117.916 E38.0142
G1 X78.614 Y117.96 E38.02692
G1 X78.35 Y117.989 E38.03531
G1 X78.396 Y117.728 E38.04033
G1 X78.776 Y115.575 E38.10941
G1 X78.814 Y115.356 E38.11644
G1 X79.027 Y115.419 E38.12084
G1 X79.631 Y115.598 E38.14074
G1 X89.992 Y90.58 E38.99635
G1 X89.68 Y90.329 E39.009
G1 X89.474 Y90.163 E39.01736
G1 X89.691 Y90.011 E39.02238
G1 X91.482 Y88.756 E39.09148
G1 X91.663 Y88.629 E39.09847
G1 X91.769 Y88.823 E39.10285
G1 X92.072 Y89.375 E39.12275
G1 X117.086 Y79.014 E39.97824
G1 X117.041 Y78.613 E39.99099
G1 X117.012 Y78.349 E39.99938
G1 X117.273 Y78.394 E40.0044
G1 X117.274 Y78.395 E40.00444
G1 X119.429 Y78.777 E40.0736
G1 X119.648 Y78.815 E40.08062
G1 X119.585 Y79.028 E40.08502
G1 X119.406 Y79.631 E40.1049
G1 X144.422 Y89.992 E40.96044
G1 X144.673 Y89.68 E40.9731
G1 X144.839 Y89.474 E40.98146
G1 X144.991 Y89.691 E40.98647
G1 X146.246 Y91.482 E41.05557
G1 X146.373 Y91.663 E41.06256
G1 X146.179 Y91.769 E41.06695
G1 X145.627 Y92.072 E41.08684
G1 X155.988 Y117.086 E41.94233
G1 X156.388 Y117.042 E41.95505
G1 X156.652 Y117.013 E41.96344
G1 X156.606 Y117.274 E41.96846
G1 X156.225 Y119.429 E42.03761
G1 X156.187 Y119.648 E42.04463
G1 X155.974 Y119.585 E42.04904
G1 X155.371 Y119.406 E42.06891
G1 X145.01 Y144.422 E42.92446
G1 X145.322 Y144.673 E42.93711
G1 X145.528 Y144.839 E42.94547
G1 X145.311 Y144.991 E42.95049
G1 X143.52 Y146.246 E43.01959
G1 X143.339 Y146.373 E43.02658
G1 X143.233 Y146.179 E43.03096
G1 X142.93 Y145.627 E43.05086
G1 X117.916 Y155.988 E43.90635
G1 X117.96 Y156.388 E43.91906
G1 X117.989 Y156.652 E43.92745
G1 X117.728 Y156.606 E43.93248
G1 X115.575 Y156.226 E44.00156
G1 X115.356 Y156.188 E44.00858
G1 X115.419 Y155.975 E44.01298
G1 X115.598 Y155.371 E44.03289
G1 X90.58 Y145.01 E44.8885
G1 X90.329 Y145.322 E44.90115
G1 X90.163 Y145.528 E44.90951
G1 X90.011 Y145.311 E44.91453
G1 X88.757 Y143.52 E44.98361
G1 X88.63 Y143.339 E44.9906
G1 X88.824 Y143.233 E44.99498
G0 F7500 X88.868 Y142.752
;TYPE:WALL-OUTER
G1 F1500 X78.759 Y118.347 E45.78791
G1 X78.553 Y118.37 E45.79413
G1 X78.461 Y118.38 E45.79691
G1 X78.416 Y118.636 E45.80471
G1 X78.451 Y118.721 E45.80747
G1 X83.396 Y130.661 E46.1954
G1 X88.32 Y142.549 E46.58165
G0 F1350 X88.349 Y142.619
G0 X88.363 Y142.653
G0 X88.555 Y142.924
G0 X88.587 Y142.907
G0 X88.868 Y142.752
G0 F7500 X88.715 Y142.383
G0 X89.122 Y142.216
