;FLAVOR:Marlin
;TIME:762
;Filament used: 0.350127m
;Layer height: 0.2
;MINX:84.334
;MINY:86.851
;MINZ:0.2
;MAXX:135.673
;MAXY:131.656
;MAXZ:5
;POSTPROCESSED
;Generated with Cura_SteamEngine 4.7.0
M140 S60
M105
M190 S60
M104 S200
M105
M109 S200
M82 ;absolute extrusion mode
; Ender 3 Custom Start G-code
G92 E0 ; Reset Extruder
G28 ; Home all axes
G1 Z2.0 F3000 ; Move Z Axis up little to prevent scratching of Heat Bed
G1 X0.1 Y20 Z0.3 F5000.0 ; Move to start position
G1 X0.1 Y200.0 Z0.3 F1500.0 E15 ; Draw the first line
G1 X0.4 Y200.0 Z0.3 F5000.0 ; Move to side a little
G1 X0.4 Y20 Z0.3 F1500.0 E30 ; Draw the second line
G92 E0 ; Reset Extruder
G1 Z2.0 F3000 ; Move Z Axis up little to prevent scratching of Heat Bed
G1 X5 Y20 Z0.3 F5000.0 ; Move over to prevent blob squish
G92 E0
G92 E0
G1 F1500 E-6.5
;LAYER_COUNT:25
;LAYER:0
M107
G0 F6000 X93.469 Y90.687 Z0.2
;TYPE:SKIRT
G1 F1500 E0
G1 F1200 X93.594 Y90.564 E0.00583
G1 X94.069 Y90.104 E0.02783
G1 X94.77 Y89.481 E0.05902
G1 X95.521 Y88.92 E0.0902
G1 X96.311 Y88.428 E0.12115
G1 X96.55 Y88.293 E0.13028
G1 X97.386 Y87.867 E0.16149
G1 X98.254 Y87.514 E0.19265
G1 X99.15 Y87.236 E0.22386
G1 X100.066 Y87.035 E0.25505
G1 X101.207 Y86.897 E0.29327
G1 X101.484 Y86.878 E0.30251
G1 X102.212 Y86.852 E0.32674
G1 X102.765 Y86.851 E0.34513
G1 X116.509 Y86.971 E0.80227
G1 X117.391 Y86.991 E0.83162
G1 X118.642 Y87.092 E0.87336
G1 X119.327 Y87.187 E0.89636
G1 X119.684 Y87.243 E0.90838
G1 X120.154 Y87.324 E0.92424
G1 X121.071 Y87.522 E0.95545
G1 X121.967 Y87.798 E0.98663
G1 X122.867 Y88.163 E1.01893
G1 X123.583 Y88.491 E1.04513
G1 X123.91 Y88.647 E1.05718
G1 X124.245 Y88.814 E1.06963
G1 X125.065 Y89.268 E1.1008
G1 X125.844 Y89.79 E1.13199
G1 X126.619 Y90.414 E1.16508
G1 X127.201 Y90.928 E1.19091
G1 X127.472 Y91.176 E1.20313
G1 X127.742 Y91.431 E1.21548
G1 X128.396 Y92.103 E1.24667
G1 X128.99 Y92.829 E1.27787
G1 X129.377 Y93.38 E1.30026
G1 X129.664 Y93.816 E1.31762
G1 X129.898 Y94.187 E1.33221
G1 X130.057 Y94.456 E1.3426
G1 X130.347 Y94.96 E1.36194
G1 X130.505 Y95.244 E1.37275
G1 X130.922 Y96.022 E1.40211
G1 X131.506 Y97.149 E1.44433
G1 X132.712 Y99.322 E1.52699
G1 X133.394 Y100.459 E1.57109
G1 X133.465 Y100.589 E1.57601
G1 X134.155 Y101.762 E1.62128
G1 X134.596 Y102.59 E1.65248
G1 X134.965 Y103.452 E1.68367
G1 X135.258 Y104.343 E1.71486
G1 X135.475 Y105.255 E1.74604
G1 X135.614 Y106.183 E1.77725
G1 X135.673 Y107.119 E1.80845
G1 X135.665 Y107.821 E1.8318
G1 X135.657 Y108.004 E1.83789
G1 X135.576 Y108.939 E1.8691
G1 X135.415 Y109.863 E1.9003
G1 X135.177 Y110.77 E1.93149
G1 X134.862 Y111.653 E1.96267
G1 X134.474 Y112.507 E1.99387
G1 X133.765 Y113.707 E2.04022
G1 X133.695 Y113.81 E2.04437
G1 X133.135 Y114.563 E2.07558
G1 X132.643 Y115.128 E2.1005
G1 X132.478 Y115.305 E2.10854
G1 X132.296 Y115.495 E2.1173
G1 X132.077 Y115.718 E2.12769
G1 X128.305 Y119.489 E2.30509
G1 X126.839 Y120.914 E2.37309
G1 X125.032 Y122.718 E2.45801
G1 X124.934 Y122.821 E2.46274
G1 X123.536 Y124.259 E2.52945
G1 X119.837 Y127.958 E2.70344
G1 X119.352 Y128.431 E2.72597
G1 X118.653 Y129.057 E2.75718
G1 X117.904 Y129.62 E2.78834
G1 X117.109 Y130.118 E2.81955
G1 X116.461 Y130.459 E2.8439
G1 X116.248 Y130.562 E2.85177
G1 X115.387 Y130.934 E2.88297
G1 X114.497 Y131.231 E2.91417
G1 X113.586 Y131.451 E2.94534
G1 X112.659 Y131.593 E2.97653
G1 X111.723 Y131.656 E3.00774
G1 X110.785 Y131.638 E3.03894
G1 X110.18 Y131.584 E3.05914
G1 X110.086 Y131.573 E3.06229
G1 X109.16 Y131.425 E3.09348
G1 X108.25 Y131.198 E3.12467
G1 X107.363 Y130.894 E3.15586
G1 X106.505 Y130.516 E3.18704
G1 X105.682 Y130.066 E3.21824
G1 X104.9 Y129.548 E3.24944
G1 X104.166 Y128.965 E3.28062
G1 X103.737 Y128.574 E3.29992
G1 X103.018 Y127.882 E3.33311
G1 X102.764 Y127.629 E3.34504
G1 X101.85 Y126.689 E3.38864
G1 X100.735 Y125.511 E3.44259
G1 X98.572 Y123.361 E3.54403
G1 X96.638 Y121.502 E3.63325
G1 X96.484 Y121.351 E3.64043
G1 X94.336 Y119.203 E3.74146
G1 X93.475 Y118.318 E3.78253
G1 X92.224 Y116.996 E3.84306
G1 X90.451 Y115.223 E3.92646
G1 X89.46 Y114.29 E3.97173
G1 X88.309 Y113.175 E4.02503
G1 X87.886 Y112.754 E4.04488
G1 X87.66 Y112.523 E4.05563
G1 X87.481 Y112.336 E4.06424
G1 X87.313 Y112.156 E4.07243
G1 X86.703 Y111.443 E4.10364
G1 X86.156 Y110.682 E4.13481
G1 X85.676 Y109.876 E4.16601
G1 X85.266 Y109.033 E4.19719
G1 X84.929 Y108.157 E4.2284
G1 X84.668 Y107.256 E4.2596
G1 X84.485 Y106.336 E4.2908
G1 X84.403 Y105.681 E4.31276
G1 X84.382 Y105.458 E4.32021
G1 X84.334 Y104.522 E4.35138
G1 X84.366 Y103.584 E4.3826
G1 X84.478 Y102.653 E4.41379
G1 X84.669 Y101.735 E4.44497
G1 X84.937 Y100.836 E4.47617
G1 X85.28 Y99.963 E4.50737
G1 X85.697 Y99.123 E4.53856
G1 X86.452 Y97.938 E4.58529
G1 X86.555 Y97.797 E4.5911
G1 X87.14 Y97.064 E4.62229
G1 X87.552 Y96.616 E4.64254
G1 X87.98 Y96.176 E4.66295
G1 X93.469 Y90.687 E4.92114
G0 F6000 X93.751 Y90.97
G1 F1200 X93.872 Y90.851 E4.92678
G1 X94.347 Y90.391 E4.94878
G1 X95.035 Y89.78 E4.97938
G1 X95.774 Y89.231 E5.01
G1 X96.508 Y88.777 E5.03871
G1 X96.747 Y88.642 E5.04784
G1 X97.567 Y88.224 E5.07845
G1 X98.421 Y87.879 E5.10908
G1 X99.301 Y87.61 E5.13969
G1 X100.202 Y87.418 E5.17033
G1 X101.235 Y87.296 E5.20493
G1 X101.512 Y87.277 E5.21416
G1 X102.212 Y87.252 E5.23746
G1 X102.762 Y87.251 E5.25575
G1 X116.506 Y87.371 E5.71289
G1 X117.382 Y87.391 E5.74204
G1 X118.587 Y87.488 E5.78225
G1 X119.272 Y87.583 E5.80525
G1 X119.616 Y87.637 E5.81683
G1 X120.086 Y87.718 E5.83269
G1 X120.986 Y87.914 E5.86333
G1 X121.865 Y88.187 E5.89394
G1 X122.701 Y88.527 E5.92396
G1 X123.417 Y88.855 E5.95015
G1 X123.731 Y89.005 E5.96173
G1 X124.066 Y89.172 E5.97418
G1 X124.871 Y89.619 E6.0048
G1 X125.635 Y90.133 E6.03543
G1 X126.354 Y90.714 E6.06617
G1 X126.936 Y91.228 E6.092
G1 X127.197 Y91.467 E6.10377
G1 X127.467 Y91.722 E6.11612
G1 X128.108 Y92.382 E6.14672
G1 X128.69 Y93.096 E6.17736
G1 X129.043 Y93.6 E6.19783
G1 X129.33 Y94.036 E6.21519
G1 X129.555 Y94.393 E6.22922
G1 X129.711 Y94.655 E6.23936
G1 X130.001 Y95.159 E6.2587
G1 X130.153 Y95.433 E6.26913
G1 X130.496 Y96.072 E6.29325
G1 X131.151 Y97.334 E6.34054
G1 X132.357 Y99.507 E6.4232
G1 X133.051 Y100.664 E6.46807
G1 X133.129 Y100.807 E6.47349
G1 X133.81 Y101.965 E6.51817
G1 X134.242 Y102.778 E6.54879
G1 X134.602 Y103.625 E6.5794
G1 X134.887 Y104.5 E6.61001
G1 X135.095 Y105.397 E6.64064
G1 X135.225 Y106.309 E6.67128
G1 X135.274 Y107.228 E6.70189
G1 X135.265 Y107.804 E6.72105
G1 X135.257 Y107.987 E6.72714
G1 X135.177 Y108.904 E6.75775
G1 X135.017 Y109.811 E6.78839
G1 X134.78 Y110.7 E6.81899
G1 X134.466 Y111.566 E6.84963
G1 X134.078 Y112.401 E6.88025
G1 X133.434 Y113.482 E6.9221
G1 X133.364 Y113.585 E6.92624
G1 X132.814 Y114.323 E6.95686
G1 X132.351 Y114.855 E6.98031
G1 X132.186 Y115.032 E6.98836
G1 X131.877 Y115.351 E7.00313
G1 X128.026 Y119.202 E7.18427
G1 X126.629 Y120.561 E7.24909
G1 X126.576 Y120.611 E7.25152
G1 X124.742 Y122.443 E7.33774
G1 X123.249 Y123.98 E7.409
G1 X119.558 Y127.672 E7.58264
G1 X119.073 Y128.145 E7.60517
G1 X118.386 Y128.758 E7.6358
G1 X117.649 Y129.31 E7.66642
G1 X116.867 Y129.796 E7.69705
G1 X116.287 Y130.099 E7.71881
G1 X116.074 Y130.202 E7.72668
G1 X115.228 Y130.566 E7.75731
G1 X114.354 Y130.856 E7.78794
G1 X113.459 Y131.069 E7.81854
G1 X112.548 Y131.203 E7.84917
G1 X111.629 Y131.258 E7.87979
G1 X110.708 Y131.232 E7.91043
G1 X110.227 Y131.187 E7.9265
G1 X110.133 Y131.176 E7.92965
G1 X109.224 Y131.03 E7.96027
G1 X108.331 Y130.805 E7.9909
G1 X107.461 Y130.503 E8.02153
G1 X106.621 Y130.127 E8.05214
G1 X105.816 Y129.68 E8.08276
G1 X105.054 Y129.164 E8.11337
G1 X104.014 Y128.285 E8.15866
G1 X103.295 Y127.593 E8.19185
G1 X103.05 Y127.35 E8.20333
G1 X102.244 Y126.522 E8.24176
G1 X101.041 Y125.252 E8.29994
G1 X98.848 Y123.072 E8.40279
G1 X96.915 Y121.214 E8.49197
G1 X96.767 Y121.068 E8.49888
G1 X94.622 Y118.924 E8.59975
G1 X93.761 Y118.039 E8.64082
G1 X92.497 Y116.703 E8.70199
G1 X90.742 Y114.949 E8.78452
G1 X89.846 Y114.105 E8.82546
G1 X88.485 Y112.787 E8.88847
G1 X88.172 Y112.474 E8.90319
G1 X87.946 Y112.243 E8.91394
G1 X87.774 Y112.063 E8.92222
G1 X87.606 Y111.883 E8.93041
G1 X87.007 Y111.183 E8.96106
G1 X86.472 Y110.434 E8.99167
G1 X86.004 Y109.641 E9.0223
G1 X85.606 Y108.811 E9.05291
G1 X85.282 Y107.949 E9.08354
G1 X85.033 Y107.063 E9.11415
G1 X84.863 Y106.158 E9.14478
G1 X84.802 Y105.644 E9.16199
G1 X84.781 Y105.421 E9.16944
G1 X84.734 Y104.501 E9.20008
G1 X84.768 Y103.581 E9.2307
G1 X84.881 Y102.668 E9.2613
G1 X85.073 Y101.767 E9.29194
G1 X85.343 Y100.887 E9.32256
G1 X85.687 Y100.033 E9.35318
G1 X86.105 Y99.213 E9.38379
G1 X86.775 Y98.174 E9.42491
G1 X86.878 Y98.033 E9.43072
G1 X87.452 Y97.314 E9.46132
G1 X87.839 Y96.895 E9.48029
G1 X88.37 Y96.35 E9.5056
G1 X93.751 Y90.97 E9.75868
G0 F6000 X94.034 Y91.253
G1 F1200 X94.625 Y90.679 E9.78608
G1 X95.301 Y90.08 E9.81612
G1 X96.027 Y89.543 E9.84616
G1 X96.704 Y89.125 E9.87262
G1 X96.943 Y88.99 E9.88175
G1 X97.749 Y88.581 E9.91181
G1 X98.587 Y88.245 E9.94184
G1 X99.452 Y87.984 E9.97189
G1 X100.336 Y87.801 E10.00192
G1 X101.262 Y87.695 E10.03292
G1 X101.539 Y87.676 E10.04215
G1 X102.213 Y87.652 E10.06458
G1 X102.758 Y87.651 E10.08271
G1 X116.502 Y87.771 E10.53985
G1 X117.372 Y87.791 E10.5688
G1 X118.532 Y87.885 E10.60751
G1 X119.217 Y87.98 E10.63051
G1 X119.548 Y88.031 E10.64165
G1 X120.018 Y88.112 E10.65751
G1 X120.901 Y88.305 E10.68757
G1 X121.762 Y88.575 E10.71758
G1 X122.534 Y88.891 E10.74533
G1 X123.25 Y89.219 E10.77152
G1 X123.553 Y89.363 E10.78268
G1 X123.888 Y89.53 E10.79513
G1 X124.677 Y89.969 E10.82516
G1 X125.425 Y90.475 E10.8552
G1 X126.089 Y91.014 E10.88364
G1 X126.671 Y91.528 E10.90947
G1 X126.923 Y91.757 E10.92079
G1 X127.193 Y92.012 E10.93314
G1 X127.821 Y92.661 E10.96318
G1 X128.39 Y93.363 E10.99324
G1 X128.709 Y93.82 E11.01177
G1 X128.996 Y94.256 E11.02913
G1 X129.213 Y94.6 E11.04266
G1 X129.364 Y94.855 E11.05252
G1 X129.654 Y95.359 E11.07186
G1 X129.8 Y95.622 E11.08186
G1 X130.212 Y96.391 E11.11088
G1 X130.804 Y97.533 E11.15366
G1 X132.009 Y99.705 E11.23628
G1 X132.708 Y100.87 E11.28147
G1 X132.776 Y100.996 E11.28623
G1 X133.466 Y102.168 E11.33146
G1 X133.889 Y102.965 E11.36147
G1 X134.24 Y103.797 E11.39151
G1 X134.516 Y104.657 E11.42155
G1 X134.714 Y105.538 E11.45158
G1 X134.835 Y106.433 E11.48162
G1 X134.865 Y107.786 E11.52663
G1 X134.857 Y107.969 E11.53272
G1 X134.778 Y108.869 E11.56277
G1 X134.619 Y109.758 E11.59281
G1 X134.383 Y110.63 E11.62286
G1 X134.07 Y111.477 E11.65289
G1 X133.683 Y112.293 E11.68293
G1 X133.103 Y113.257 E11.72035
G1 X133.033 Y113.36 E11.72449
G1 X132.493 Y114.084 E11.75453
G1 X132.058 Y114.582 E11.77652
G1 X131.893 Y114.759 E11.78457
G1 X131.724 Y114.936 E11.79271
G1 X131.591 Y115.072 E11.79904
G1 X127.747 Y118.915 E11.97982
G1 X126.3 Y120.322 E12.04695
G1 X124.484 Y122.134 E12.13228
G1 X122.962 Y123.701 E12.20493
G1 X119.279 Y127.385 E12.37819
G1 X118.794 Y127.858 E12.40073
G1 X118.12 Y128.46 E12.43078
G1 X117.395 Y128.999 E12.46083
G1 X116.626 Y129.472 E12.49086
G1 X116.112 Y129.739 E12.51012
G1 X115.899 Y129.842 E12.51799
G1 X115.07 Y130.198 E12.548
G1 X114.212 Y130.48 E12.57804
G1 X113.332 Y130.685 E12.60809
G1 X112.438 Y130.812 E12.63812
G1 X111.536 Y130.859 E12.66817
G1 X110.273 Y130.79 E12.71024
G1 X110.179 Y130.779 E12.71338
G1 X109.288 Y130.634 E12.74341
G1 X108.413 Y130.411 E12.77344
G1 X107.561 Y130.112 E12.80347
G1 X106.739 Y129.738 E12.83351
G1 X105.953 Y129.294 E12.86354
G1 X105.209 Y128.781 E12.89359
G1 X104.292 Y127.997 E12.93372
G1 X103.573 Y127.305 E12.96691
G1 X103.337 Y127.071 E12.97796
G1 X102.431 Y126.139 E13.0212
G1 X101.314 Y124.959 E13.07524
G1 X99.124 Y122.782 E13.17794
G1 X97.192 Y120.925 E13.26707
G1 X97.049 Y120.785 E13.27373
G1 X94.909 Y118.645 E13.37439
G1 X94.048 Y117.76 E13.41546
G1 X92.805 Y116.446 E13.47561
G1 X91.016 Y114.658 E13.55974
G1 X90.12 Y113.814 E13.60068
G1 X88.767 Y112.503 E13.66334
G1 X88.458 Y112.194 E13.67788
G1 X88.232 Y111.963 E13.68862
G1 X88.066 Y111.79 E13.6966
G1 X87.898 Y111.61 E13.70479
G1 X87.312 Y110.923 E13.73482
G1 X86.789 Y110.187 E13.76485
G1 X86.332 Y109.407 E13.79492
G1 X85.947 Y108.591 E13.82493
G1 X85.635 Y107.743 E13.85498
G1 X85.4 Y106.871 E13.88502
G1 X85.2 Y105.606 E13.92762
G1 X85.179 Y105.383 E13.93507
G1 X85.134 Y104.481 E13.9651
G1 X85.169 Y103.579 E13.99513
G1 X85.284 Y102.683 E14.02517
G1 X85.478 Y101.801 E14.05521
G1 X85.749 Y100.94 E14.08523
G1 X86.095 Y100.105 E14.11529
G1 X86.513 Y99.305 E14.14532
G1 X87.098 Y98.41 E14.18088
G1 X87.201 Y98.269 E14.18669
G1 X87.765 Y97.564 E14.21671
G1 X88.125 Y97.174 E14.23437
G1 X88.553 Y96.734 E14.25478
G1 X94.034 Y91.253 E14.51259
G1 F1500 E8.01259
;MESH:Magnet_test.stl
G0 F6000 X100.776 Y97.996
G0 X101.542 Y98.762
G0 X102.184 Y98.62
G0 X117.104 Y98.749
G0 X118.089 Y98.903
G0 X118.935 Y99.31
G0 X119.638 Y99.956
G0 X120.114 Y100.758
G0 X120.337 Y101.673
G0 X120.291 Y102.612
G0 X119.972 Y103.495
G0 X119.376 Y104.3
G0 X118.238 Y105.421
G0 X121.394 Y107.877
G0 X123.385 Y107.132
G0 X123.694 Y107.44
G0 X119.949 Y111.185
G0 X119.64 Y110.876
G0 X120.371 Y108.756
G0 X117.458 Y105.267
G0 X103.917 Y105.5
G0 X103.66 Y105.589
G0 X103.429 Y105.757
G0 X103.259 Y105.995
G0 X103.169 Y106.264
G0 X103.227 Y106.773
G0 X103.545 Y107.186
G0 X104.062 Y107.456
G0 X104.562 Y107.562
G0 X105.79 Y107.622
G0 X106.415 Y107.131
G0 X108.846 Y109.562
G0 X108.125 Y111.712
G0 X112.146 Y116.139
G0 X114.216 Y116.141
G0 X114.899 Y115.617
G0 X115.209 Y115.927
G0 X111.465 Y119.927
;TYPE:WALL-INNER
G1 F1500 E14.51259
G1 F1200 X110.898 Y119.36 E14.53926
G1 X111.182 Y119.075 E14.55264
G1 X111.221 Y119.018 E14.55494
G1 X111.527 Y118.596 E14.57228
G1 X111.718 Y117.999 E14.59313
G1 X111.73 Y117.876 E14.59724
G1 X111.731 Y117.368 E14.61413
G1 X111.709 Y117.253 E14.61803
G1 X111.563 Y116.799 E14.63389
G1 X111.512 Y116.669 E14.63853
G1 X111.165 Y116.192 E14.65815
G1 X108.269 Y113.296 E14.79437
G1 X107.785 Y112.945 E14.81426
G1 X107.659 Y112.898 E14.81873
G1 X107.186 Y112.744 E14.83528
G1 X107.056 Y112.731 E14.83962
G1 X106.535 Y112.73 E14.85695
G1 X106.425 Y112.755 E14.8607
G1 X105.862 Y112.936 E14.88037
G1 X105.366 Y113.296 E14.90075
G1 X105.1 Y113.562 E14.91327
G1 X102.552 Y111.017 E15.03305
G1 X102.412 Y110.877 E15.03963
G1 X102.552 Y110.737 E15.04388
G1 X102.71 Y110.579 E15.05131
G1 X102.746 Y110.517 E15.05369
G1 X103.039 Y110.113 E15.07029
G1 X103.244 Y109.478 E15.09249
G1 X103.246 Y108.924 E15.11091
G1 X103.233 Y108.791 E15.11536
G1 X103.078 Y108.314 E15.13204
G1 X103.027 Y108.184 E15.13668
G1 X102.68 Y107.706 E15.15633
G1 X99.784 Y104.812 E15.2925
G1 X99.29 Y104.452 E15.31283
G1 X98.701 Y104.26 E15.33344
G1 X98.594 Y104.246 E15.33702
G1 X98.101 Y104.245 E15.35342
G1 X97.968 Y104.258 E15.35787
G1 X97.379 Y104.45 E15.37847
G1 X96.881 Y104.811 E15.39893
G1 X96.616 Y105.077 E15.41142
G1 X96.189 Y104.651 E15.43148
G1 X96.049 Y104.511 E15.43806
G1 X96.189 Y104.371 E15.44231
G1 X102.113 Y98.447 E15.72096
G1 X102.118 Y98.446 E15.72113
G1 X117.114 Y98.578 E16.21991
G1 X118.142 Y98.739 E16.25452
G1 X119.033 Y99.168 E16.28741
G1 X119.772 Y99.847 E16.32079
G1 X120.273 Y100.692 E16.35347
G1 X120.509 Y101.657 E16.38651
G1 X120.46 Y102.647 E16.41948
G1 X120.125 Y103.577 E16.45235
G1 X119.506 Y104.411 E16.4869
G1 X118.635 Y105.281 E16.52784
G1 X118.495 Y105.421 E16.53443
G1 X118.635 Y105.561 E16.53867
G1 X120.217 Y107.141 E16.61304
G1 X120.701 Y107.492 E16.63292
G1 X120.828 Y107.539 E16.63743
G1 X121.299 Y107.692 E16.6539
G1 X121.406 Y107.706 E16.65749
G1 X121.899 Y107.707 E16.67389
G1 X122.032 Y107.694 E16.67833
G1 X122.621 Y107.502 E16.69894
G1 X123.119 Y107.141 E16.71939
G1 X123.384 Y106.875 E16.73188
G1 X123.81 Y107.3 E16.7519
G1 X123.811 Y107.301 E16.75194
G1 X123.951 Y107.44 E16.7585
G1 X123.811 Y107.58 E16.76275
G1 X120.09 Y111.302 E16.9378
G1 X119.95 Y111.442 E16.94438
G1 X119.81 Y111.302 E16.94863
G1 X119.384 Y110.876 E16.96867
G1 X119.68 Y110.578 E16.98264
G1 X119.716 Y110.518 E16.98496
G1 X120.009 Y110.113 E17.00159
G1 X120.214 Y109.478 E17.02378
G1 X120.216 Y108.924 E17.04221
G1 X120.203 Y108.791 E17.04665
G1 X120.048 Y108.314 E17.06334
G1 X119.997 Y108.184 E17.06798
G1 X119.65 Y107.707 E17.0876
G1 X117.385 Y105.44 E17.19418
G1 X104.078 Y105.324 E17.63679
G1 X103.882 Y105.342 E17.64334
