;FLAVOR:Marlin
;TIME:1595
;Filament used: 0.995054m
;Layer height: 0.2
;MINX:51.015
;MINY:54.819
;MINZ:0.2
;MAXX:183.988
;MAXY:180.185
;MAXZ:3.4
;Generated with Cura_SteamEngine 4.6.2
M140 S60
M105
M190 S60
M104 S200
M105
M109 S200
M82 ;absolute extrusion mode
; Ender 3 Custom Start G-code
G92 E0 ; Reset Extruder
G28 ; Home all axes
G1 Z2.0 F3000 ; Move Z Axis up little to prevent scratching of Heat Bed
G1 X0.1 Y20 Z0.3 F5000.0 ; Move to start position
G1 X0.1 Y200.0 Z0.3 F1500.0 E15 ; Draw the first line
G1 X0.4 Y200.0 Z0.3 F5000.0 ; Move to side a little
G1 X0.4 Y20 Z0.3 F1500.0 E30 ; Draw the second line
G92 E0 ; Reset Extruder
G1 Z2.0 F3000 ; Move Z Axis up little to prevent scratching of Heat Bed
G1 X5 Y20 Z0.3 F5000.0 ; Move over to prevent blob squish
G92 E0
G92 E0
G1 F1500 E-6
;LAYER_COUNT:17
;LAYER:0
M107
M204 S500
M205 X8 Y8
G0 F7500 X143.394 Y55.646 Z0.2
;TYPE:SKIRT
G1 F1500 E0
G1 X143.726 Y55.663 E0.0105
G1 X144.521 Y55.716 E0.03568
G1 X144.87 Y55.745 E0.04674
G1 X145.771 Y55.84 E0.07537
G1 X146.496 Y55.935 E0.09848
G1 X146.85 Y55.988 E0.10979
G1 X147.539 Y56.103 E0.13186
G1 X147.863 Y56.163 E0.14227
G1 X148.912 Y56.378 E0.1761
G1 X149.861 Y56.606 E0.20694
G1 X150.508 Y56.779 E0.2281
G1 X150.846 Y56.876 E0.23921
G1 X151.532 Y57.085 E0.26187
G1 X151.843 Y57.185 E0.2722
G1 X152.531 Y57.419 E0.29516
G1 X152.853 Y57.535 E0.30597
G1 X153.801 Y57.898 E0.33805
G1 X154.449 Y58.167 E0.36022
G1 X154.758 Y58.302 E0.37087
G1 X155.611 Y58.695 E0.40055
G1 X156.304 Y59.036 E0.42495
G1 X156.623 Y59.2 E0.43628
G1 X157.539 Y59.697 E0.46921
G1 X158.099 Y60.021 E0.48966
G1 X158.383 Y60.192 E0.50013
G1 X159.276 Y60.754 E0.53347
G1 X159.808 Y61.109 E0.55368
G1 X160.086 Y61.301 E0.56435
G1 X160.703 Y61.743 E0.58833
G1 X160.986 Y61.953 E0.59947
G1 X161.512 Y62.358 E0.62045
G1 X161.75 Y62.548 E0.63007
G1 X162.285 Y62.986 E0.65191
G1 X162.549 Y63.209 E0.66283
G1 X163.085 Y63.679 E0.68536
G1 X163.323 Y63.895 E0.69551
G1 X163.81 Y64.35 E0.71657
G1 X164.072 Y64.603 E0.72808
G1 X164.838 Y65.377 E0.76249
G1 X165.208 Y65.77 E0.77954
G1 X165.452 Y66.039 E0.79102
G1 X165.984 Y66.646 E0.81652
G1 X166.203 Y66.904 E0.82722
G1 X166.634 Y67.43 E0.8487
G1 X166.824 Y67.67 E0.85837
G1 X167.23 Y68.197 E0.8794
G1 X167.444 Y68.484 E0.89071
G1 X167.885 Y69.1 E0.91464
G1 X168.073 Y69.373 E0.92512
G1 X168.605 Y70.178 E0.95561
G1 X168.98 Y70.78 E0.97802
G1 X169.156 Y71.074 E0.98884
G1 X169.511 Y71.689 E1.01128
G1 X169.674 Y71.983 E1.0219
G1 X170.156 Y72.895 E1.0545
G1 X170.583 Y73.769 E1.08523
G1 X170.9 Y74.465 E1.1094
G1 X171.041 Y74.791 E1.12062
G1 X171.282 Y75.373 E1.14052
G1 X171.404 Y75.682 E1.15102
G1 X171.669 Y76.386 E1.17479
G1 X171.782 Y76.702 E1.18539
G1 X172.088 Y77.619 E1.21594
G1 X172.298 Y78.306 E1.23864
G1 X172.396 Y78.646 E1.24982
G1 X172.577 Y79.321 E1.2719
G1 X172.657 Y79.639 E1.28226
G1 X172.818 Y80.327 E1.30459
G1 X172.885 Y80.639 E1.31467
G1 X173.013 Y81.275 E1.33517
G1 X173.077 Y81.619 E1.34622
G1 X173.198 Y82.349 E1.3696
G1 X173.248 Y82.684 E1.38031
G1 X173.34 Y83.382 E1.40255
G1 X173.376 Y83.697 E1.41257
G1 X173.443 Y84.365 E1.43378
G1 X173.471 Y84.702 E1.44447
G1 X173.518 Y85.404 E1.4667
G1 X173.535 Y85.746 E1.47752
G1 X173.565 Y86.79 E1.51052
G1 X173.566 Y87.408 E1.53005
G1 X173.561 Y87.747 E1.54076
G1 X173.535 Y88.57 E1.56678
G1 X173.518 Y88.914 E1.57766
G1 X173.452 Y89.862 E1.60768
G1 X173.393 Y90.478 E1.62724
G1 X173.354 Y90.823 E1.63821
G1 X173.25 Y91.622 E1.66367
G1 X173.199 Y91.966 E1.67466
G1 X173.096 Y92.59 E1.69464
G1 X172.977 Y93.215 E1.71474
G1 X172.495 Y95.856 E1.79957
G1 X172.11 Y98.367 E1.87984
G1 X171.793 Y100.897 E1.9604
G1 X171.554 Y103.39 E2.03953
G1 X171.38 Y105.966 E2.12111
G1 X171.28 Y108.496 E2.20112
G1 X171.252 Y111.032 E2.28125
G1 X171.295 Y113.564 E2.36127
G1 X171.411 Y116.093 E2.44126
G1 X171.599 Y118.634 E2.52177
G1 X171.859 Y121.173 E2.60241
G1 X172.186 Y123.664 E2.6818
G1 X172.591 Y126.197 E2.76285
G1 X173.06 Y128.675 E2.84254
G1 X173.608 Y131.18 E2.92356
G1 X174.207 Y133.591 E3.00206
G1 X174.902 Y136.087 E3.08392
G1 X175.657 Y138.524 E3.16454
G1 X176.462 Y140.888 E3.24344
G1 X177.367 Y143.316 E3.32532
G1 X178.305 Y145.631 E3.40424
G1 X179.316 Y147.935 E3.48374
G1 X181.304 Y152.067 E3.62863
G1 X181.519 Y152.544 E3.64516
G1 X181.771 Y153.145 E3.66575
G1 X181.97 Y153.66 E3.68319
G1 X182.121 Y154.083 E3.69739
G1 X182.255 Y154.483 E3.71071
G1 X182.385 Y154.901 E3.72455
G1 X182.501 Y155.302 E3.73774
G1 X182.682 Y155.999 E3.76049
G1 X182.754 Y156.303 E3.77036
G1 X182.906 Y157.073 E3.79516
G1 X183.013 Y157.755 E3.81697
G1 X183.092 Y158.39 E3.83719
G1 X183.13 Y158.798 E3.85014
G1 X183.173 Y159.439 E3.87044
G1 X183.188 Y160.198 E3.89443
G1 X183.176 Y160.896 E3.91648
G1 X183.123 Y161.783 E3.94456
G1 X183.043 Y162.547 E3.96883
G1 X182.921 Y163.375 E3.99528
G1 X182.878 Y163.603 E4.00261
G1 X182.802 Y163.97 E4.01445
G1 X182.706 Y164.393 E4.02816
G1 X182.539 Y165.032 E4.04903
G1 X182.332 Y165.731 E4.07206
G1 X182.126 Y166.355 E4.09282
G1 X182.001 Y166.695 E4.10427
G1 X181.814 Y167.166 E4.12028
G1 X181.652 Y167.547 E4.13336
G1 X181.273 Y168.342 E4.16119
G1 X180.798 Y169.236 E4.19318
G1 X180.304 Y170.067 E4.22372
G1 X179.856 Y170.746 E4.24943
G1 X179.344 Y171.454 E4.27704
G1 X178.805 Y172.136 E4.3045
G1 X178.299 Y172.728 E4.32911
G1 X177.857 Y173.207 E4.3497
G1 X177.278 Y173.786 E4.37558
G1 X176.657 Y174.359 E4.40228
G1 X175.995 Y174.92 E4.42969
G1 X175.512 Y175.295 E4.44901
G1 X175.166 Y175.552 E4.46263
G1 X174.696 Y175.886 E4.48085
G1 X174.368 Y176.109 E4.49338
G1 X173.981 Y176.362 E4.50799
G1 X173.23 Y176.809 E4.53561
G1 X172.54 Y177.18 E4.56036
G1 X171.977 Y177.465 E4.5803
G1 X171.213 Y177.804 E4.60671
G1 X170.402 Y178.125 E4.63427
G1 X170.043 Y178.26 E4.64639
G1 X169.737 Y178.368 E4.65664
G1 X168.947 Y178.611 E4.68276
G1 X168.114 Y178.831 E4.70998
G1 X167.202 Y179.028 E4.73946
G1 X166.388 Y179.165 E4.76554
G1 X165.512 Y179.273 E4.79343
G1 X164.877 Y179.324 E4.81356
G1 X164.472 Y179.349 E4.82638
G1 X163.754 Y179.378 E4.84909
G1 X162.959 Y179.379 E4.87421
G1 X162.4 Y179.358 E4.89188
G1 X161.691 Y179.306 E4.91434
G1 X160.744 Y179.204 E4.94444
G1 X160.162 Y179.125 E4.963
G1 X159.609 Y179.033 E4.98071
G1 X159.034 Y178.92 E4.99923
G1 X158.428 Y178.783 E5.01886
G1 X157.94 Y178.66 E5.03476
G1 X157.459 Y178.526 E5.05054
G1 X157.102 Y178.419 E5.06231
G1 X156.257 Y178.15 E5.09033
G1 X155.71 Y177.962 E5.10861
G1 X155.259 Y177.79 E5.12386
G1 X154.979 Y177.677 E5.1334
G1 X151.568 Y176.236 E5.2504
G1 X149.15 Y175.283 E5.33252
G1 X146.793 Y174.434 E5.41168
G1 X144.377 Y173.638 E5.49206
G1 X141.983 Y172.924 E5.57099
G1 X139.503 Y172.26 E5.65211
G1 X137.027 Y171.67 E5.73254
G1 X134.51 Y171.146 E5.81377
G1 X132.033 Y170.704 E5.89328
G1 X129.534 Y170.331 E5.97311
G1 X127.012 Y170.025 E6.05339
G1 X124.46 Y169.79 E6.13436
G1 X121.97 Y169.631 E6.2132
G1 X119.402 Y169.54 E6.29439
G1 X116.866 Y169.521 E6.37452
G1 X114.337 Y169.575 E6.45445
G1 X111.759 Y169.702 E6.53601
G1 X109.274 Y169.895 E6.61476
G1 X106.729 Y170.166 E6.69563
G1 X104.215 Y170.506 E6.77579
G1 X101.695 Y170.919 E6.85648
G1 X99.233 Y171.395 E6.93571
G1 X96.729 Y171.953 E7.01677
G1 X94.292 Y172.568 E7.09619
G1 X91.827 Y173.264 E7.17712
G1 X89.399 Y174.024 E7.25751
G1 X87.005 Y174.852 E7.33755
G1 X84.643 Y175.743 E7.41731
G1 X82.249 Y176.723 E7.49905
G1 X80.966 Y177.288 E7.54335
G1 X80.638 Y177.426 E7.55459
G1 X79.641 Y177.824 E7.58851
G1 X79.051 Y178.042 E7.60838
G1 X78.68 Y178.167 E7.62075
G1 X77.667 Y178.487 E7.65432
G1 X77.214 Y178.619 E7.66923
G1 X76.894 Y178.704 E7.67969
G1 X76.476 Y178.806 E7.69329
G1 X75.933 Y178.926 E7.71086
G1 X75.614 Y178.991 E7.72114
G1 X75.289 Y179.052 E7.73159
G1 X74.811 Y179.13 E7.74689
G1 X74.156 Y179.221 E7.76779
G1 X73.609 Y179.284 E7.78519
G1 X73.079 Y179.327 E7.80199
G1 X72.014 Y179.38 E7.83568
G1 X71.805 Y179.385 E7.84229
G1 X71.303 Y179.385 E7.85815
G1 X70.829 Y179.373 E7.87313
G1 X70.352 Y179.349 E7.88822
G1 X69.84 Y179.312 E7.90444
G1 X69.312 Y179.261 E7.9212
G1 X68.767 Y179.193 E7.93856
G1 X68.235 Y179.112 E7.95556
G1 X67.849 Y179.043 E7.96795
G1 X67.38 Y178.948 E7.98307
G1 X66.91 Y178.841 E7.9983
G1 X66.442 Y178.722 E8.01356
G1 X65.96 Y178.588 E8.02937
G1 X65.481 Y178.442 E8.04519
G1 X65.071 Y178.306 E8.05884
G1 X64.569 Y178.125 E8.0757
G1 X64.262 Y178.005 E8.08611
G1 X63.721 Y177.776 E8.10468
G1 X62.797 Y177.352 E8.1368
G1 X62.079 Y176.987 E8.16225
G1 X61.676 Y176.762 E8.17683
G1 X61.228 Y176.497 E8.19328
G1 X60.831 Y176.248 E8.20809
G1 X60.291 Y175.884 E8.22866
G1 X59.598 Y175.385 E8.25565
G1 X59.017 Y174.935 E8.27887
G1 X58.53 Y174.528 E8.29892
G1 X58.067 Y174.117 E8.31848
G1 X57.797 Y173.862 E8.33022
G1 X57.399 Y173.463 E8.34802
G1 X56.743 Y172.771 E8.37815
G1 X56.218 Y172.173 E8.4033
G1 X55.873 Y171.747 E8.42062
G1 X55.515 Y171.278 E8.43926
G1 X54.989 Y170.53 E8.46815
G1 X54.636 Y169.975 E8.48894
G1 X54.188 Y169.218 E8.51673
G1 X53.903 Y168.703 E8.53533
G1 X53.777 Y168.459 E8.54401
G1 X53.544 Y167.978 E8.56089
G1 X53.357 Y167.564 E8.57525
G1 X53.138 Y167.04 E8.59319
G1 X52.854 Y166.294 E8.61841
G1 X52.758 Y166.022 E8.62753
G1 X52.573 Y165.442 E8.64676
G1 X52.486 Y165.139 E8.65672
G1 X52.351 Y164.619 E8.6737
G1 X52.194 Y163.939 E8.69575
G1 X52.059 Y163.244 E8.71812
G1 X52.012 Y162.948 E8.72759
G1 X51.932 Y162.315 E8.74775
G1 X51.862 Y161.58 E8.77108
G1 X51.822 Y160.968 E8.79046
G1 X51.814 Y160.738 E8.79773
G1 X51.818 Y159.942 E8.82288
G1 X51.857 Y159.041 E8.85138
G1 X51.918 Y158.278 E8.87556
G1 X51.959 Y157.933 E8.88654
G1 X52.038 Y157.393 E8.90378
G1 X52.093 Y157.076 E8.91395
G1 X52.226 Y156.432 E8.93473
G1 X52.389 Y155.755 E8.95673
G1 X52.498 Y155.344 E8.97017
G1 X52.613 Y154.941 E8.98341
G1 X52.729 Y154.562 E8.99593
G1 X52.871 Y154.129 E9.01033
G1 X52.998 Y153.765 E9.02251
G1 X53.135 Y153.395 E9.03498
G1 X53.363 Y152.825 E9.05438
G1 X53.553 Y152.395 E9.06923
G1 X54.249 Y150.919 E9.12079
G1 X54.987 Y149.428 E9.17336
G1 X56.043 Y147.132 E9.25321
G1 X57.042 Y144.79 E9.33366
G1 X57.967 Y142.439 E9.41349
G1 X58.839 Y140.025 E9.49459
G1 X59.631 Y137.62 E9.5746
G1 X60.365 Y135.163 E9.65562
G1 X61.008 Y132.763 E9.73413
G1 X61.61 Y130.233 E9.8163
G1 X62.121 Y127.766 E9.8959
G1 X62.568 Y125.267 E9.97612
G1 X62.938 Y122.797 E10.05504
G1 X63.247 Y120.234 E10.1366
G1 X63.481 Y117.694 E10.2172
G1 X63.64 Y115.204 E10.29604
G1 X63.731 Y112.636 E10.37723
G1 X63.75 Y110.1 E10.45736
G1 X63.696 Y107.57 E10.53732
G1 X63.569 Y105.006 E10.61844
G1 X63.374 Y102.499 E10.69789
G1 X63.104 Y99.964 E10.77844
G1 X62.764 Y97.45 E10.8586
G1 X62.347 Y94.904 E10.94012
G1 X62.101 Y93.589 E10.98239
G1 X61.9 Y92.555 E11.01567
G1 X61.791 Y91.904 E11.03653
G1 X61.75 Y91.626 E11.04541
G1 X61.66 Y90.939 E11.0673
G1 X61.621 Y90.595 E11.07824
G1 X61.549 Y89.85 E11.10189
G1 X61.523 Y89.528 E11.1121
G1 X61.477 Y88.818 E11.13458
G1 X61.461 Y88.468 E11.14565
G1 X61.435 Y87.452 E11.17776
G1 X61.436 Y86.793 E11.19858
G1 X61.442 Y86.47 E11.20879
G1 X61.466 Y85.747 E11.23165
G1 X61.483 Y85.403 E11.24253
G1 X61.53 Y84.702 E11.26473
G1 X61.558 Y84.366 E11.27538
G1 X61.661 Y83.385 E11.30655
G1 X61.753 Y82.686 E11.32883
G1 X61.804 Y82.347 E11.33966
G1 X61.925 Y81.618 E11.36301
G1 X61.988 Y81.276 E11.374
G1 X62.185 Y80.321 E11.40481
G1 X62.423 Y79.327 E11.4371
G1 X62.603 Y78.654 E11.45912
G1 X62.701 Y78.311 E11.47039
G1 X62.911 Y77.623 E11.49312
G1 X63.009 Y77.32 E11.50318
G1 X63.327 Y76.399 E11.53396
G1 X63.591 Y75.695 E11.55772
G1 X63.721 Y75.366 E11.5689
G1 X63.963 Y74.783 E11.58884
G1 X64.104 Y74.46 E11.59998
G1 X64.556 Y73.481 E11.63405
G1 X64.987 Y72.619 E11.6645
G1 X65.323 Y71.989 E11.68706
G1 X65.492 Y71.685 E11.69805
G1 X65.848 Y71.069 E11.72053
G1 X66.021 Y70.78 E11.73118
G1 X66.396 Y70.178 E11.75359
G1 X66.57 Y69.909 E11.76371
G1 X66.925 Y69.377 E11.78392
G1 X67.117 Y69.099 E11.79459
G1 X67.559 Y68.482 E11.81858
G1 X67.769 Y68.199 E11.82971
G1 X68.365 Y67.433 E11.86038
G1 X68.718 Y67.002 E11.87798
G1 X68.962 Y66.715 E11.88988
G1 X69.955 Y65.597 E11.93713
G1 X70.169 Y65.369 E11.94701
G1 X70.4 Y65.131 E11.95749
G1 X71.154 Y64.385 E11.991
G1 X71.659 Y63.911 E12.01289
G1 X71.922 Y63.673 E12.0241
G1 X72.459 Y63.203 E12.04665
G1 X72.717 Y62.984 E12.05734
G1 X73.497 Y62.352 E12.08906
G1 X74.032 Y61.941 E12.11038
G1 X74.294 Y61.747 E12.12068
G1 X74.866 Y61.336 E12.14293
G1 X75.154 Y61.136 E12.15401
G1 X75.783 Y60.716 E12.17791
G1 X76.059 Y60.538 E12.18829
G1 X76.591 Y60.207 E12.20808
G1 X76.87 Y60.04 E12.21836
G1 X77.461 Y59.698 E12.23993
G1 X77.748 Y59.538 E12.25032
G1 X78.378 Y59.2 E12.27291
G1 X78.699 Y59.035 E12.28431
G1 X79.708 Y58.544 E12.31977
G1 X80.491 Y58.194 E12.34687
G1 X81.227 Y57.887 E12.37206
G1 X81.549 Y57.759 E12.38301
G1 X82.118 Y57.544 E12.40223
G1 X82.445 Y57.427 E12.4132
G1 X83.465 Y57.086 E12.44719
G1 X84.15 Y56.877 E12.46982
G1 X84.483 Y56.782 E12.48076
G1 X85.109 Y56.614 E12.50124
G1 X85.427 Y56.534 E12.5116
G1 X86.153 Y56.364 E12.53516
G1 X86.485 Y56.292 E12.54589
G1 X87.438 Y56.107 E12.57657
G1 X88.162 Y55.987 E12.59976
G1 X88.489 Y55.939 E12.6102
G1 X89.531 Y55.805 E12.64339
G1 X90.136 Y55.744 E12.66261
G1 X90.48 Y55.716 E12.67351
G1 X91.274 Y55.663 E12.69866
G1 X91.607 Y55.646 E12.70919
G1 X92.197 Y55.626 E12.72784
G1 X92.53 Y55.62 E12.73837
G1 X93.331 Y55.619 E12.76368
G1 X93.66 Y55.624 E12.77407
G1 X94.273 Y55.643 E12.79345
G1 X94.615 Y55.659 E12.80427
G1 X95.357 Y55.707 E12.82776
G1 X95.684 Y55.734 E12.83813
G1 X96.385 Y55.802 E12.86039
G1 X96.719 Y55.84 E12.87101
G1 X97.694 Y55.972 E12.9021
G1 X98.442 Y56.094 E12.92604
G1 X98.771 Y56.153 E12.9366
G1 X100.088 Y56.412 E12.97901
G1 X102.638 Y56.877 E13.06092
G1 X105.175 Y57.265 E13.14201
G1 X107.696 Y57.579 E13.22228
G1 X110.202 Y57.819 E13.30183
G1 X112.747 Y57.99 E13.38242
G1 X115.288 Y58.089 E13.46277
G1 X117.821 Y58.115 E13.54281
G1 X120.353 Y58.071 E13.62283
G1 X122.886 Y57.954 E13.70295
G1 X125.423 Y57.765 E13.78333
G1 X127.968 Y57.504 E13.86417
G1 X130.485 Y57.173 E13.94438
G1 X132.981 Y56.772 E14.02426
G1 X134.996 Y56.397 E14.08902
G1 X136.251 Y56.149 E14.12944
G1 X136.59 Y56.088 E14.14033
G1 X137.608 Y55.927 E14.17289
G1 X138.285 Y55.839 E14.19446
G1 X138.617 Y55.802 E14.20502
G1 X139.644 Y55.707 E14.23761
G1 X140.387 Y55.659 E14.26113
G1 X140.728 Y55.643 E14.27192
G1 X141.34 Y55.624 E14.29127
G1 X141.67 Y55.619 E14.30169
G1 X142.471 Y55.62 E14.327
G1 X142.594 Y55.624 E14.33089
G0 F1350 X143.394 Y55.646
G0 F7500 X143.407 Y55.246
G1 F1500 X143.753 Y55.263 E14.34184
G1 X144.548 Y55.316 E14.36701
G1 X144.91 Y55.347 E14.37849
G1 X145.823 Y55.444 E14.4075
G1 X146.548 Y55.539 E14.43061
G1 X146.916 Y55.594 E14.44237
G1 X147.942 Y55.77 E14.47526
G1 X148.661 Y55.914 E14.49843
G1 X149.003 Y55.989 E14.50949
G1 X149.65 Y56.141 E14.53049
G1 X149.964 Y56.22 E14.54072
G1 X150.611 Y56.393 E14.56188
G1 X150.962 Y56.493 E14.57341
G1 X151.648 Y56.702 E14.59607
G1 X151.972 Y56.807 E14.60683
G1 X152.66 Y57.041 E14.6298
G1 X152.994 Y57.16 E14.641
G1 X153.637 Y57.403 E14.66272
G1 X153.954 Y57.529 E14.6735
G1 X154.602 Y57.798 E14.69567
G1 X154.923 Y57.938 E14.70673
G1 X155.788 Y58.336 E14.73682
G1 X156.481 Y58.677 E14.76122
G1 X156.812 Y58.847 E14.77298
G1 X157.442 Y59.185 E14.79557
G1 X157.739 Y59.351 E14.80632
G1 X158.595 Y59.852 E14.83766
G1 X159.218 Y60.24 E14.86085
G1 X159.498 Y60.421 E14.87138
G1 X160.03 Y60.776 E14.89159
G1 X160.319 Y60.976 E14.9027
G1 X160.936 Y61.418 E14.92668
G1 X161.23 Y61.636 E14.93824
G1 X162.004 Y62.238 E14.96923
G1 X162.539 Y62.676 E14.99107
G1 X162.813 Y62.908 E15.00242
G1 X163.349 Y63.378 E15.02494
G1 X163.597 Y63.603 E15.03552
G1 X164.084 Y64.058 E15.05658
G1 X164.356 Y64.321 E15.06854
G1 X165.129 Y65.103 E15.10328
G1 X165.499 Y65.496 E15.12034
G1 X165.753 Y65.775 E15.13226
G1 X166.285 Y66.382 E15.15776
G1 X166.512 Y66.651 E15.16888
G1 X167.141 Y67.426 E15.20042
G1 X167.547 Y67.953 E15.22144
G1 X167.769 Y68.252 E15.23321
G1 X168.21 Y68.868 E15.25715
G1 X168.406 Y69.151 E15.26802
G1 X168.762 Y69.684 E15.28827
G1 X168.944 Y69.966 E15.29888
G1 X169.319 Y70.568 E15.32129
G1 X169.502 Y70.874 E15.33256
G1 X169.857 Y71.489 E15.35499
G1 X170.027 Y71.794 E15.36603
G1 X170.515 Y72.718 E15.39904
G1 X170.801 Y73.296 E15.41942
G1 X170.947 Y73.603 E15.43016
