;FLAVOR:Marlin
;TIME:7686
;Filament used: 4.61569m
;Layer height: 0.28
;MINX:81.5
;MINY:81.5
;MINZ:0.28
;MAXX:153.5
;MAXY:153.5
;MAXZ:56
;Generated with Cura_SteamEngine 4.6.2
M140 S60
M105
M190 S60
M104 S200
M105
M109 S200
M82 ;absolute extrusion mode
; Ender 3 Custom Start G-code
G92 E0 ; Reset Extruder
G28 ; Home all axes
G1 Z2.0 F3000 ; Move Z Axis up little to prevent scratching of Heat Bed
G1 X0.1 Y20 Z0.3 F5000.0 ; Move to start position
G1 X0.1 Y200.0 Z0.3 F1500.0 E15 ; Draw the first line
G1 X0.4 Y200.0 Z0.3 F5000.0 ; Move to side a little
G1 X0.4 Y20 Z0.3 F1500.0 E30 ; Draw the second line
G92 E0 ; Reset Extruder
G1 Z2.0 F3000 ; Move Z Axis up little to prevent scratching of Heat Bed
G1 X5 Y20 Z0.3 F5000.0 ; Move over to prevent blob squish
G92 E0
G92 E0
G1 F1500 E-6.5
;LAYER_COUNT:200
;LAYER:0
M107
G0 F6000 X142.637 Y82.311 Z0.28
;TYPE:SKIRT
G1 F1500 E0
G1 F1200 X143.539 Y82.364 E0.04207
G1 X144.432 Y82.496 E0.08411
G1 X145.31 Y82.707 E0.12615
G1 X146.166 Y82.995 E0.16821
G1 X146.993 Y83.357 E0.21025
G1 X147.785 Y83.792 E0.25232
G1 X148.536 Y84.294 E0.29438
G1 X149.239 Y84.861 E0.33644
G1 X149.889 Y85.488 E0.37849
G1 X150.481 Y86.17 E0.42054
G1 X151.011 Y86.901 E0.46259
G1 X151.473 Y87.677 E0.50464
G1 X151.866 Y88.49 E0.54669
G1 X152.184 Y89.335 E0.58873
G1 X152.427 Y90.205 E0.63079
G1 X152.592 Y91.093 E0.67285
G1 X152.687 Y92.223 E0.72565
G1 X152.7 Y92.83 E0.75392
G1 X152.699 Y141.89 E3.03836
G1 X152.69 Y142.617 E3.07221
G1 X152.639 Y143.519 E3.11428
G1 X152.508 Y144.413 E3.15636
G1 X152.299 Y145.291 E3.19838
G1 X152.013 Y146.148 E3.24045
G1 X151.652 Y146.976 E3.28251
G1 X151.22 Y147.768 E3.32452
G1 X150.719 Y148.52 E3.36659
G1 X150.153 Y149.224 E3.40866
G1 X149.528 Y149.875 E3.45068
G1 X148.847 Y150.469 E3.49276
G1 X148.116 Y151 E3.53483
G1 X147.342 Y151.464 E3.57685
G1 X146.529 Y151.858 E3.61892
G1 X145.685 Y152.178 E3.66095
G1 X144.815 Y152.423 E3.70303
G1 X143.928 Y152.589 E3.74505
G1 X142.777 Y152.687 E3.79884
G1 X142.17 Y152.7 E3.82711
G1 X93.075 Y152.699 E6.11318
G1 X92.377 Y152.69 E6.14569
G1 X91.476 Y152.639 E6.18771
G1 X90.582 Y152.507 E6.22979
G1 X89.704 Y152.298 E6.27181
G1 X88.847 Y152.011 E6.3139
G1 X88.02 Y151.65 E6.35591
G1 X87.227 Y151.217 E6.39799
G1 X86.476 Y150.716 E6.44002
G1 X85.772 Y150.15 E6.48208
G1 X85.121 Y149.524 E6.52414
G1 X84.528 Y148.843 E6.56619
G1 X83.998 Y148.112 E6.60823
G1 X83.534 Y147.337 E6.65029
G1 X83.14 Y146.524 E6.69236
G1 X82.82 Y145.68 E6.73439
G1 X82.576 Y144.81 E6.77646
G1 X82.41 Y143.922 E6.81853
G1 X82.313 Y142.767 E6.8725
G1 X82.3 Y142.158 E6.90086
G1 X82.301 Y93.036 E9.18819
G1 X82.31 Y92.371 E9.21916
G1 X82.362 Y91.469 E9.26123
G1 X82.494 Y90.576 E9.30326
G1 X82.704 Y89.698 E9.3453
G1 X82.991 Y88.841 E9.38738
G1 X83.353 Y88.014 E9.42942
G1 X83.786 Y87.222 E9.47145
G1 X84.288 Y86.471 E9.51351
G1 X84.855 Y85.767 E9.5556
G1 X85.481 Y85.117 E9.59762
G1 X86.162 Y84.524 E9.63967
G1 X86.894 Y83.994 E9.68175
G1 X87.669 Y83.531 E9.72379
G1 X88.482 Y83.138 E9.76584
G1 X89.327 Y82.818 E9.80791
G1 X90.196 Y82.575 E9.84993
G1 X91.084 Y82.409 E9.89199
G1 X92.223 Y82.313 E9.94522
G1 X92.83 Y82.3 E9.97349
G1 X141.939 Y82.301 E12.26021
G1 X142.637 Y82.311 E12.29271
G0 F6000 X142.643 Y81.911
G1 F1200 X143.562 Y81.964 E12.33558
G1 X144.473 Y82.097 E12.37845
G1 X145.369 Y82.308 E12.42131
G1 X146.243 Y82.596 E12.46416
G1 X147.09 Y82.959 E12.50707
G1 X147.901 Y83.394 E12.54992
G1 X148.671 Y83.898 E12.59277
G1 X149.395 Y84.467 E12.63565
G1 X150.067 Y85.097 E12.67854
G1 X150.682 Y85.782 E12.72141
G1 X151.235 Y86.518 E12.76428
G1 X151.722 Y87.299 E12.80713
G1 X152.139 Y88.12 E12.85001
G1 X152.484 Y88.974 E12.8929
G1 X152.753 Y89.854 E12.93575
G1 X152.945 Y90.755 E12.97864
G1 X153.058 Y91.668 E13.02148
G1 X153.087 Y92.212 E13.04685
G1 X153.1 Y92.83 E13.07563
G1 X153.099 Y141.895 E15.3603
G1 X153.09 Y142.622 E15.39416
G1 X153.039 Y143.541 E15.43702
G1 X152.908 Y144.453 E15.47992
G1 X152.698 Y145.349 E15.52277
G1 X152.412 Y146.224 E15.56564
G1 X152.051 Y147.071 E15.60851
G1 X151.617 Y147.883 E15.65138
G1 X151.115 Y148.655 E15.69426
G1 X150.547 Y149.38 E15.73715
G1 X149.919 Y150.053 E15.78001
G1 X149.235 Y150.669 E15.82287
G1 X148.5 Y151.223 E15.86573
G1 X147.72 Y151.712 E15.90859
G1 X146.9 Y152.131 E15.95147
G1 X146.047 Y152.477 E15.99434
G1 X145.167 Y152.748 E16.03721
G1 X144.267 Y152.941 E16.08007
G1 X143.353 Y153.056 E16.12297
G1 X142.788 Y153.087 E16.14932
G1 X142.17 Y153.1 E16.1781
G1 X93.07 Y153.099 E18.4644
G1 X92.372 Y153.09 E18.4969
G1 X91.453 Y153.038 E18.53977
G1 X90.542 Y152.907 E18.58262
G1 X89.646 Y152.697 E18.62547
G1 X88.771 Y152.41 E18.66835
G1 X87.924 Y152.048 E18.71124
G1 X87.112 Y151.614 E18.75412
G1 X86.341 Y151.112 E18.79696
G1 X85.616 Y150.544 E18.83984
G1 X84.943 Y149.915 E18.88274
G1 X84.328 Y149.231 E18.92557
G1 X83.774 Y148.496 E18.96842
G1 X83.286 Y147.715 E19.01131
G1 X82.867 Y146.895 E19.05419
G1 X82.521 Y146.042 E19.09705
G1 X82.251 Y145.162 E19.13991
G1 X82.058 Y144.261 E19.18282
G1 X81.944 Y143.348 E19.22566
G1 X81.913 Y142.777 E19.25229
G1 X81.9 Y142.158 E19.28112
G1 X81.901 Y93.031 E21.56867
G1 X81.91 Y92.366 E21.59964
G1 X81.962 Y91.446 E21.64255
G1 X82.094 Y90.535 E21.68541
G1 X82.305 Y89.639 E21.72828
G1 X82.592 Y88.764 E21.77116
G1 X82.955 Y87.918 E21.81402
G1 X83.389 Y87.106 E21.85689
G1 X83.892 Y86.335 E21.89976
G1 X84.461 Y85.611 E21.94264
G1 X85.089 Y84.939 E21.98547
G1 X85.774 Y84.323 E22.02836
G1 X86.51 Y83.77 E22.07123
G1 X87.291 Y83.282 E22.11411
G1 X88.111 Y82.864 E22.15697
G1 X88.965 Y82.519 E22.19986
G1 X89.845 Y82.249 E22.24272
G1 X90.745 Y82.057 E22.28557
G1 X91.659 Y81.943 E22.32846
G1 X92.212 Y81.913 E22.35425
G1 X92.83 Y81.9 E22.38303
G1 X141.945 Y81.901 E24.67003
G1 X142.643 Y81.911 E24.70254
G0 F6000 X142.649 Y81.511
G1 F1200 X143.585 Y81.565 E24.74619
G1 X144.513 Y81.697 E24.78984
G1 X145.427 Y81.909 E24.83353
G1 X146.319 Y82.198 E24.87719
G1 X147.184 Y82.561 E24.92087
G1 X148.014 Y82.997 E24.96453
G1 X148.805 Y83.502 E25.00822
G1 X149.549 Y84.073 E25.05189
G1 X150.242 Y84.705 E25.09557
G1 X150.879 Y85.393 E25.13923
G1 X151.454 Y86.134 E25.1829
G1 X151.965 Y86.92 E25.22655
G1 X152.407 Y87.748 E25.27026
G1 X152.776 Y88.61 E25.31392
G1 X153.071 Y89.5 E25.35758
G1 X153.289 Y90.412 E25.40124
G1 X153.429 Y91.34 E25.44494
G1 X153.487 Y92.201 E25.48513
G1 X153.5 Y92.83 E25.51442
G1 X153.499 Y141.9 E27.79933
G1 X153.49 Y142.627 E27.83318
G1 X153.439 Y143.564 E27.87688
G1 X153.307 Y144.492 E27.92052
G1 X153.098 Y145.406 E27.96418
G1 X152.811 Y146.299 E28.00786
G1 X152.449 Y147.165 E28.05156
G1 X152.015 Y147.996 E28.09522
G1 X151.511 Y148.787 E28.13889
G1 X150.942 Y149.532 E28.18254
G1 X150.311 Y150.227 E28.22625
G1 X149.624 Y150.865 E28.26991
G1 X148.885 Y151.442 E28.31357
G1 X148.099 Y151.954 E28.35725
G1 X147.273 Y152.397 E28.40089
G1 X146.411 Y152.769 E28.44461
G1 X145.522 Y153.065 E28.48824
G1 X144.61 Y153.285 E28.53192
G1 X143.683 Y153.426 E28.57558
G1 X142.799 Y153.487 E28.61684
G1 X142.17 Y153.5 E28.64614
G1 X93.065 Y153.499 E30.93267
G1 X92.367 Y153.49 E30.96518
G1 X91.431 Y153.438 E31.00883
G1 X90.502 Y153.306 E31.05252
G1 X89.588 Y153.096 E31.09619
G1 X88.695 Y152.809 E31.13987
G1 X87.83 Y152.446 E31.18355
G1 X86.999 Y152.012 E31.2272
G1 X86.208 Y151.508 E31.27088
G1 X85.463 Y150.938 E31.31455
G1 X84.769 Y150.307 E31.35823
G1 X84.132 Y149.62 E31.40186
G1 X83.555 Y148.88 E31.44555
G1 X83.043 Y148.094 E31.48923
G1 X82.6 Y147.267 E31.53292
G1 X82.229 Y146.406 E31.57657
G1 X81.933 Y145.516 E31.62024
G1 X81.714 Y144.604 E31.66392
G1 X81.573 Y143.677 E31.70758
G1 X81.513 Y142.788 E31.74907
G1 X81.5 Y142.158 E31.77841
G1 X81.501 Y93.025 E34.06625
G1 X81.51 Y92.36 E34.09722
G1 X81.563 Y91.424 E34.14087
G1 X81.695 Y90.495 E34.18456
G1 X81.906 Y89.581 E34.22824
G1 X82.194 Y88.689 E34.27189
G1 X82.557 Y87.824 E34.31557
G1 X82.992 Y86.993 E34.35925
G1 X83.496 Y86.203 E34.40288
G1 X84.066 Y85.458 E34.44656
G1 X84.698 Y84.764 E34.49027
G1 X85.386 Y84.127 E34.53393
G1 X86.126 Y83.551 E34.57759
G1 X86.912 Y83.039 E34.62127
G1 X87.739 Y82.597 E34.66493
G1 X88.601 Y82.227 E34.70861
G1 X89.491 Y81.931 E34.75229
G1 X90.403 Y81.713 E34.79595
G1 X91.33 Y81.572 E34.83961
G1 X92.201 Y81.513 E34.88026
G1 X92.83 Y81.5 E34.90956
G1 X141.951 Y81.501 E37.19684
G1 X142.649 Y81.511 E37.22934
G1 F1500 E30.72934
;MESH:AIl_In_One_3D_printer_test_micro.stl
G0 F6000 X142.08 Y91.835
G0 X142.08 Y92.92
G0 X141.718 Y141.718
G0 X93.1 Y141.9
;TYPE:WALL-INNER
G1 F1500 E37.22934
G1 F1200 X93.1 Y93.1 E39.50168
G1 X141.9 Y93.1 E41.77401
G1 X141.9 Y141.9 E44.04634
G1 X93.1 Y141.9 E46.31867
G0 F6000 X92.7 Y142.3
;TYPE:WALL-OUTER
G1 F1200 X92.7 Y92.7 E48.62826
G1 X142.3 Y92.7 E50.93784
G1 X142.3 Y142.3 E53.24742
G1 X92.7 Y142.3 E55.55701
G0 F6000 X92.97 Y142.03
G0 X93.21 Y141.51
G0 X93.49 Y141.51
;TYPE:SKIN
G1 F1200 X93.49 Y93.49 E57.79302
G1 X141.51 Y93.49 E60.02903
G1 X141.51 Y141.51 E62.26505
G1 X93.49 Y141.51 E64.50106
G0 F6000 X93.831 Y141.349
G1 F1200 X93.649 Y141.167 E64.51304
G0 F6000 X93.649 Y140.601
G1 F1200 X94.397 Y141.349 E64.5623
G0 F6000 X94.963 Y141.349
G1 F1200 X93.649 Y140.036 E64.6488
G0 F6000 X93.649 Y139.47
G1 F1200 X95.528 Y141.349 E64.77253
G0 F6000 X96.094 Y141.349
G1 F1200 X93.649 Y138.904 E64.93354
G0 F6000 X93.649 Y138.339
G1 F1200 X96.66 Y141.349 E65.13179
G0 F6000 X97.225 Y141.349
G1 F1200 X93.649 Y137.773 E65.36727
G0 F6000 X93.649 Y137.207
G1 F1200 X97.791 Y141.349 E65.64003
G0 F6000 X98.357 Y141.349
G1 F1200 X93.649 Y136.642 E65.95003
G0 F6000 X93.649 Y136.076
G1 F1200 X98.922 Y141.349 E66.29726
G0 F6000 X99.488 Y141.349
G1 F1200 X93.649 Y135.51 E66.68177
G0 F6000 X93.649 Y134.944
G1 F1200 X100.054 Y141.349 E67.10355
G0 F6000 X100.619 Y141.349
G1 F1200 X93.649 Y134.379 E67.56254
G0 F6000 X93.649 Y133.813
G1 F1200 X101.185 Y141.349 E68.05879
G0 F6000 X101.751 Y141.349
G1 F1200 X93.649 Y133.247 E68.59233
G0 F6000 X93.649 Y132.682
G1 F1200 X102.316 Y141.349 E69.16306
G0 F6000 X102.882 Y141.349
G1 F1200 X93.649 Y132.116 E69.77107
G0 F6000 X93.649 Y131.55
G1 F1200 X103.448 Y141.349 E70.41635
G0 F6000 X104.013 Y141.349
G1 F1200 X93.649 Y130.985 E71.09884
G0 F6000 X93.649 Y130.419
G1 F1200 X104.579 Y141.349 E71.8186
G0 F6000 X105.145 Y141.349
G1 F1200 X93.649 Y129.853 E72.57563
G0 F6000 X93.649 Y129.288
G1 F1200 X105.711 Y141.349 E73.3699
G0 F6000 X106.276 Y141.349
G1 F1200 X93.649 Y128.722 E74.20141
G0 F6000 X93.649 Y128.156
G1 F1200 X106.842 Y141.349 E75.07019
G0 F6000 X107.408 Y141.349
G1 F1200 X93.649 Y127.591 E75.97621
G0 F6000 X93.649 Y127.025
G1 F1200 X107.973 Y141.349 E76.91947
G0 F6000 X108.539 Y141.349
G1 F1200 X93.649 Y126.459 E77.9
G0 F6000 X93.649 Y125.893
G1 F1200 X109.105 Y141.349 E78.91781
G0 F6000 X109.67 Y141.349
G1 F1200 X93.649 Y125.328 E79.97282
G0 F6000 X93.649 Y124.762
G1 F1200 X110.236 Y141.349 E81.0651
G0 F6000 X110.802 Y141.349
G1 F1200 X93.649 Y124.196 E82.19465
G0 F6000 X93.649 Y123.631
G1 F1200 X111.367 Y141.349 E83.36141
G0 F6000 X111.933 Y141.349
G1 F1200 X93.649 Y123.065 E84.56545
G0 F6000 X93.649 Y122.499
G1 F1200 X112.499 Y141.349 E85.80675
G0 F6000 X113.064 Y141.349
G1 F1200 X93.649 Y121.934 E87.08526
G0 F6000 X93.649 Y121.368
G1 F1200 X113.63 Y141.349 E88.40105
G0 F6000 X114.196 Y141.349
G1 F1200 X93.649 Y120.802 E89.7541
G0 F6000 X93.649 Y120.237
G1 F1200 X114.762 Y141.349 E91.14439
G0 F6000 X115.327 Y141.349
G1 F1200 X93.649 Y119.671 E92.57193
G0 F6000 X93.649 Y119.105
G1 F1200 X115.893 Y141.349 E94.03673
G0 F6000 X116.459 Y141.349
G1 F1200 X93.649 Y118.54 E95.53878
G0 F6000 X93.649 Y117.974
G1 F1200 X117.024 Y141.349 E97.07806
G0 F6000 X117.59 Y141.349
G1 F1200 X93.649 Y117.408 E98.65462
G0 F6000 X93.649 Y116.843
G1 F1200 X118.156 Y141.349 E100.26841
G0 F6000 X118.721 Y141.349
G1 F1200 X93.649 Y116.277 E101.91945
G0 F6000 X93.649 Y115.711
G1 F1200 X119.287 Y141.349 E103.60775
G0 F6000 X119.853 Y141.349
G1 F1200 X93.649 Y115.145 E105.33333
G0 F6000 X93.649 Y114.58
G1 F1200 X120.418 Y141.349 E107.09612
G0 F6000 X120.984 Y141.349
G1 F1200 X93.649 Y114.014 E108.89617
G0 F6000 X93.649 Y113.448
G1 F1200 X121.55 Y141.349 E110.7335
G0 F6000 X122.115 Y141.349
G1 F1200 X93.649 Y112.883 E112.60803
G0 F6000 X93.649 Y112.317
G1 F1200 X122.681 Y141.349 E114.51984
G0 F6000 X123.247 Y141.349
G1 F1200 X93.649 Y111.751 E116.46892
G0 F6000 X93.649 Y111.186
G1 F1200 X123.812 Y141.349 E118.45521
G0 F6000 X124.378 Y141.349
G1 F1200 X93.649 Y110.62 E120.47876
G0 F6000 X93.649 Y110.054
G1 F1200 X124.944 Y141.349 E122.53959
G0 F6000 X125.51 Y141.349
G1 F1200 X93.649 Y109.489 E124.63766
G0 F6000 X93.649 Y108.923
G1 F1200 X126.075 Y141.349 E126.77297
G0 F6000 X126.641 Y141.349
G1 F1200 X93.649 Y108.357 E128.94555
G0 F6000 X93.649 Y107.792
G1 F1200 X127.207 Y141.349 E131.15537
G0 F6000 X127.772 Y141.349
G1 F1200 X93.649 Y107.226 E133.40242
G0 F6000 X93.649 Y106.66
G1 F1200 X128.338 Y141.349 E135.68675
G0 F6000 X128.904 Y141.349
G1 F1200 X93.649 Y106.095 E138.00832
G0 F6000 X93.649 Y105.529
G1 F1200 X129.469 Y141.349 E140.36713
G0 F6000 X130.035 Y141.349
G1 F1200 X93.649 Y104.963 E142.76321
G0 F6000 X93.649 Y104.397
G1 F1200 X130.601 Y141.349 E145.19656
G0 F6000 X131.166 Y141.349
G1 F1200 X93.649 Y103.832 E147.66712
G0 F6000 X93.649 Y103.266
G1 F1200 X131.732 Y141.349 E150.17495
G0 F6000 X132.298 Y141.349
G1 F1200 X93.649 Y102.7 E152.72005
G0 F6000 X93.649 Y102.135
G1 F1200 X132.863 Y141.349 E155.30236
G0 F6000 X133.429 Y141.349
G1 F1200 X93.649 Y101.569 E157.92194
G0 F6000 X93.649 Y101.003
G1 F1200 X133.995 Y141.349 E160.5788
G0 F6000 X134.561 Y141.349
G1 F1200 X93.649 Y100.438 E163.27289
G0 F6000 X93.649 Y99.872
G1 F1200 X135.126 Y141.349 E166.00422
G0 F6000 X135.692 Y141.349
G1 F1200 X93.649 Y99.306 E168.77282
G0 F6000 X93.649 Y98.741
G1 F1200 X136.258 Y141.349 E171.57867
G0 F6000 X136.823 Y141.349
G1 F1200 X93.649 Y98.175 E174.42175
G0 F6000 X93.649 Y97.609
G1 F1200 X137.389 Y141.349 E177.3021
G0 F6000 X137.955 Y141.349
G1 F1200 X93.649 Y97.044 E180.2197
G0 F6000 X93.649 Y96.478
G1 F1200 X138.52 Y141.349 E183.17453
G0 F6000 X139.086 Y141.349
G1 F1200 X93.649 Y95.912 E186.16663
G0 F6000 X93.649 Y95.346
G1 F1200 X139.652 Y141.349 E189.19601
G0 F6000 X140.217 Y141.349
G1 F1200 X93.649 Y94.781 E192.26259
G0 F6000 X93.649 Y94.215
G1 F1200 X140.783 Y141.349 E195.36644
G0 F6000 X141.349 Y141.349
G1 F1200 X93.649 Y93.649 E198.50757
G0 F6000 X94.216 Y93.65
G1 F1200 X141.349 Y140.784 E201.61139
G0 F6000 X141.349 Y140.218
G1 F1200 X94.782 Y93.65 E204.67794
G0 F6000 X95.347 Y93.65
G1 F1200 X141.349 Y139.652 E207.70725
G0 F6000 X141.349 Y139.087
G1 F1200 X95.913 Y93.65 E210.69932
G0 F6000 X96.479 Y93.65
G1 F1200 X141.349 Y138.521 E213.65412
G0 F6000 X141.349 Y137.955
G1 F1200 X97.044 Y93.65 E216.57168
G0 F6000 X97.61 Y93.65
G1 F1200 X141.349 Y137.39 E219.452
G0 F6000 X141.349 Y136.824
G1 F1200 X98.176 Y93.65 E222.29505
G0 F6000 X98.741 Y93.65
G1 F1200 X141.349 Y136.258 E225.10086
G0 F6000 X141.349 Y135.693
G1 F1200 X99.307 Y93.65 E227.86943
G0 F6000 X99.873 Y93.65
G1 F1200 X141.349 Y135.127 E230.60073
G0 F6000 X141.349 Y134.561
G1 F1200 X100.438 Y93.65 E233.29479
G0 F6000 X101.004 Y93.65
G1 F1200 X141.349 Y133.996 E235.95161
G0 F6000 X141.349 Y133.43
G1 F1200 X101.57 Y93.65 E238.57116
G0 F6000 X102.135 Y93.65
G1 F1200 X141.349 Y132.864 E241.15347
G0 F6000 X141.349 Y132.298
G1 F1200 X102.701 Y93.65 E243.6985
G0 F6000 X103.267 Y93.65
G1 F1200 X141.349 Y131.733 E246.2063
G0 F6000 X141.349 Y131.167
G1 F1200 X103.832 Y93.65 E248.67686
G0 F6000 X104.398 Y93.65
G1 F1200 X141.349 Y130.601 E251.11015
G0 F6000 X141.349 Y130.036
G1 F1200 X104.964 Y93.65 E253.50619
G0 F6000 X105.53 Y93.65
G1 F1200 X141.349 Y129.47 E255.86497
G0 F6000 X141.349 Y128.904
G1 F1200 X106.095 Y93.65 E258.1865
G0 F6000 X106.661 Y93.65
G1 F1200 X141.349 Y128.339 E260.4708
G0 F6000 X141.349 Y127.773
G1 F1200 X107.227 Y93.65 E262.71783
G0 F6000 X107.792 Y93.65
G1 F1200 X141.349 Y127.207 E264.92761
G0 F6000 X141.349 Y126.642
G1 F1200 X108.358 Y93.65 E267.10016
G0 F6000 X108.924 Y93.65
G1 F1200 X141.349 Y126.076 E269.23543
G0 F6000 X141.349 Y125.51
G1 F1200 X109.489 Y93.65 E271.33347
G0 F6000 X110.055 Y93.65
G1 F1200 X141.349 Y124.945 E273.39426
