;FLAVOR:Marlin
;TIME:657
;Filament used: 0.107878m
;Layer height: 0.12
;MINX:93.763
;MINY:96.337
;MINZ:0.12
;MAXX:125.59
;MAXY:141.992
;MAXZ:8.04
;Generated with Cura_SteamEngine 4.7.0
M140 S60
M105
M190 S60
M104 S200
M105
M109 S200
M82 ;absolute extrusion mode
; Ender 3 Custom Start G-code
G92 E0 ; Reset Extruder
G28 ; Home all axes
G1 Z2.0 F3000 ; Move Z Axis up little to prevent scratching of Heat Bed
G1 X0.1 Y20 Z0.3 F5000.0 ; Move to start position
G1 X0.1 Y200.0 Z0.3 F1500.0 E15 ; Draw the first line
G1 X0.4 Y200.0 Z0.3 F5000.0 ; Move to side a little
G1 X0.4 Y20 Z0.3 F1500.0 E30 ; Draw the second line
G92 E0 ; Reset Extruder
G1 Z2.0 F3000 ; Move Z Axis up little to prevent scratching of Heat Bed
G1 X5 Y20 Z0.3 F5000.0 ; Move over to prevent blob squish
G92 E0
G92 E0
G1 F1500 E-6.5
;LAYER_COUNT:68
;LAYER:0
M107
M204 S500
M205 X8 Y8
G0 F6000 X100.175 Y101.451 Z0.12
;TYPE:SKIRT
G1 F1500 E0
G1 F1200 X100.844 Y100.794 E0.01871
G1 X101.567 Y100.196 E0.03744
G1 X102.338 Y99.662 E0.05615
G1 X103.151 Y99.196 E0.07485
G1 X104.152 Y98.739 E0.09681
G1 X104.893 Y98.445 E0.11272
G1 X107.954 Y97.288 E0.17802
G1 X108.74 Y97.001 E0.19472
G1 X109.634 Y96.718 E0.21344
G1 X110.549 Y96.512 E0.23215
G1 X111.478 Y96.385 E0.25086
G1 X112.415 Y96.337 E0.26959
G1 X113.352 Y96.37 E0.2883
G1 X114.284 Y96.482 E0.30703
G1 X115.202 Y96.673 E0.32574
G1 X116.1 Y96.942 E0.34445
G1 X116.973 Y97.286 E0.36318
G1 X117.813 Y97.703 E0.38189
G1 X118.614 Y98.191 E0.40061
G1 X119.371 Y98.744 E0.41932
G1 X120.078 Y99.361 E0.43804
G1 X120.73 Y100.035 E0.45676
G1 X121.322 Y100.762 E0.47547
G1 X121.85 Y101.537 E0.49418
G1 X122.31 Y102.355 E0.51291
G1 X122.699 Y103.208 E0.53162
G1 X123.013 Y104.092 E0.55034
G1 X123.168 Y104.644 E0.56178
G1 X123.362 Y105.561 E0.58049
G1 X123.495 Y106.751 E0.60438
G1 X123.567 Y108.017 E0.62969
G1 X123.58 Y108.162 E0.63259
G1 X123.678 Y109.811 E0.66556
G1 X123.903 Y112.346 E0.71635
G1 X124.194 Y114.824 E0.76614
G1 X124.558 Y117.321 E0.81649
G1 X124.995 Y119.824 E0.8672
G1 X125.285 Y121.271 E0.89665
G1 X125.338 Y121.554 E0.9024
G1 X125.385 Y121.84 E0.90818
G1 X125.45 Y122.269 E0.91684
G1 X125.566 Y123.487 E0.94125
G1 X125.578 Y123.794 E0.94739
G1 X125.585 Y124.329 E0.95806
G1 X125.56 Y126.981 E1.01099
G1 X125.586 Y128.394 E1.03919
G1 X125.59 Y129.064 E1.05256
G1 X125.52 Y130.368 E1.07862
G1 X125.461 Y130.889 E1.08909
G1 X125.316 Y131.815 E1.10779
G1 X125.092 Y132.726 E1.12651
G1 X124.773 Y133.664 E1.14628
G1 X124.648 Y133.983 E1.15312
G1 X124.537 Y134.256 E1.159
G1 X124.493 Y134.36 E1.16126
G1 X124.091 Y135.207 E1.17997
G1 X123.618 Y136.017 E1.19868
G1 X123.202 Y136.621 E1.21332
G1 X122.925 Y136.995 E1.22261
G1 X122.335 Y137.724 E1.24132
G1 X121.685 Y138.4 E1.26004
G1 X120.922 Y139.065 E1.28024
G1 X120.583 Y139.334 E1.28887
G1 X120.14 Y139.668 E1.29994
G1 X120.105 Y139.693 E1.3008
G1 X119.319 Y140.205 E1.31952
G1 X118.129 Y140.816 E1.34622
G1 X117.771 Y140.973 E1.35402
G1 X117.348 Y141.148 E1.36315
G1 X117.289 Y141.171 E1.36442
G1 X116.402 Y141.474 E1.38312
G1 X115.492 Y141.7 E1.40184
G1 X114.952 Y141.796 E1.41278
G1 X114.506 Y141.864 E1.42178
G1 X113.778 Y141.951 E1.43641
G1 X112.841 Y141.992 E1.45513
G1 X111.592 Y141.923 E1.48009
G1 X111.193 Y141.878 E1.48811
G1 X110.912 Y141.843 E1.49376
G1 X109.989 Y141.679 E1.51247
G1 X109.082 Y141.437 E1.5312
G1 X108.325 Y141.17 E1.54722
G1 X107.925 Y141.012 E1.5558
G1 X107.526 Y140.845 E1.56443
G1 X107.265 Y140.729 E1.57013
G1 X107.066 Y140.637 E1.57451
G1 X104.735 Y139.593 E1.62548
G1 X102.458 Y138.648 E1.67468
G1 X102.212 Y138.553 E1.67994
G1 X102.114 Y138.51 E1.68207
G1 X102.113 Y138.513 E1.68214
G1 X100.822 Y138.003 E1.70984
G1 X99.966 Y137.621 E1.72854
G1 X99.144 Y137.168 E1.74727
G1 X98.365 Y136.647 E1.76598
G1 X97.633 Y136.061 E1.78469
G1 X96.954 Y135.416 E1.80338
G1 X96.868 Y135.327 E1.80585
G1 X96.245 Y134.625 E1.82458
G1 X95.685 Y133.873 E1.84329
G1 X95.191 Y133.076 E1.862
G1 X94.766 Y132.24 E1.88072
G1 X94.414 Y131.37 E1.89945
G1 X94.138 Y130.474 E1.91816
G1 X93.939 Y129.558 E1.93686
G1 X93.819 Y128.627 E1.95559
G1 X93.78 Y127.873 E1.97066
G1 X93.763 Y126.819 E1.9917
G1 X93.763 Y123.836 E2.05123
G1 X93.773 Y123.173 E2.06446
G1 X93.827 Y122.237 E2.08317
G1 X93.961 Y121.309 E2.10188
G1 X94.251 Y120.128 E2.12615
G1 X94.531 Y119.21 E2.1453
G1 X95.24 Y116.765 E2.1961
G1 X95.88 Y114.302 E2.24689
G1 X96.446 Y111.844 E2.29722
G1 X96.929 Y109.437 E2.34622
G1 X97.273 Y107.438 E2.38669
G1 X97.351 Y107.022 E2.39514
G1 X97.563 Y106.108 E2.41387
G1 X97.852 Y105.216 E2.43258
G1 X98.216 Y104.352 E2.45129
G1 X98.489 Y103.814 E2.46333
G1 X98.535 Y103.729 E2.46526
G1 X99.016 Y102.924 E2.48397
G1 X99.564 Y102.162 E2.5027
G1 X100.175 Y101.451 E2.52141
G0 F6000 X100.502 Y101.687
G1 F1200 X101.162 Y101.046 E2.53977
G1 X101.876 Y100.464 E2.55815
G1 X102.637 Y99.946 E2.57652
G1 X103.441 Y99.497 E2.5949
G1 X104.3 Y99.111 E2.61369
G1 X105.041 Y98.817 E2.6296
G1 X105.204 Y98.754 E2.63309
G1 X108.095 Y97.662 E2.69476
G1 X108.877 Y97.377 E2.71137
G1 X109.755 Y97.099 E2.72975
G1 X110.654 Y96.9 E2.74812
G1 X111.566 Y96.778 E2.76649
G1 X112.486 Y96.737 E2.78486
G1 X113.406 Y96.776 E2.80324
G1 X114.319 Y96.894 E2.82161
G1 X115.218 Y97.091 E2.83998
G1 X116.097 Y97.365 E2.85835
G1 X116.949 Y97.714 E2.87672
G1 X117.767 Y98.136 E2.89509
G1 X118.545 Y98.628 E2.91346
G1 X119.278 Y99.185 E2.93183
G1 X119.96 Y99.804 E2.95021
G1 X120.586 Y100.479 E2.96859
G1 X121.15 Y101.206 E2.98695
G1 X121.65 Y101.98 E3.00534
G1 X122.08 Y102.794 E3.02371
G1 X122.438 Y103.642 E3.04208
G1 X122.771 Y104.704 E3.06429
G1 X122.781 Y104.743 E3.06509
G1 X122.971 Y105.644 E3.08347
G1 X123.096 Y106.774 E3.10616
G1 X123.172 Y108.112 E3.1329
G1 X123.181 Y108.185 E3.13437
G1 X123.28 Y109.837 E3.16739
G1 X123.507 Y112.395 E3.21864
G1 X123.799 Y114.892 E3.26881
G1 X124.161 Y117.377 E3.31893
G1 X124.607 Y119.925 E3.37055
G1 X124.892 Y121.349 E3.39953
G1 X124.944 Y121.625 E3.40513
G1 X124.989 Y121.9 E3.41069
G1 X125.054 Y122.329 E3.41935
G1 X125.166 Y123.503 E3.44289
G1 X125.178 Y123.81 E3.44902
G1 X125.186 Y124.325 E3.4593
G1 X125.16 Y126.998 E3.51264
G1 X125.186 Y128.397 E3.54057
G1 X125.19 Y129.067 E3.55394
G1 X125.123 Y130.323 E3.57904
G1 X125.064 Y130.844 E3.5895
G1 X124.92 Y131.753 E3.60787
G1 X124.699 Y132.647 E3.62625
G1 X124.4 Y133.518 E3.64462
G1 X124.275 Y133.837 E3.65146
G1 X124.168 Y134.1 E3.65713
G1 X124.124 Y134.204 E3.65938
G1 X123.729 Y135.036 E3.67776
G1 X123.263 Y135.83 E3.69613
G1 X122.88 Y136.383 E3.70956
G1 X122.603 Y136.757 E3.71884
G1 X122.024 Y137.472 E3.7372
G1 X121.384 Y138.135 E3.75559
G1 X120.674 Y138.751 E3.77435
G1 X120.335 Y139.02 E3.78299
G1 X119.907 Y139.343 E3.79369
G1 X119.872 Y139.368 E3.79455
G1 X119.1 Y139.87 E3.81292
G1 X117.968 Y140.45 E3.83831
G1 X117.61 Y140.607 E3.84611
G1 X117.203 Y140.775 E3.85489
G1 X117.144 Y140.798 E3.85616
G1 X116.273 Y141.095 E3.87452
G1 X115.379 Y141.315 E3.8929
G1 X114.892 Y141.401 E3.90276
G1 X114.446 Y141.469 E3.91177
G1 X113.743 Y141.552 E3.92589
G1 X112.823 Y141.592 E3.94427
G1 X111.637 Y141.525 E3.96798
G1 X111.238 Y141.48 E3.97599
G1 X110.965 Y141.446 E3.98148
G1 X110.059 Y141.285 E3.99984
G1 X109.17 Y141.046 E4.01821
G1 X108.472 Y140.798 E4.033
G1 X108.072 Y140.64 E4.04158
G1 X107.685 Y140.478 E4.04995
G1 X107.433 Y140.366 E4.05546
G1 X107.249 Y140.281 E4.0595
G1 X104.89 Y139.224 E4.11109
G1 X102.607 Y138.276 E4.16042
G1 X102.356 Y138.18 E4.16578
G1 X102.261 Y138.139 E4.16785
G1 X102.26 Y138.141 E4.16789
G1 X100.969 Y137.631 E4.19559
G1 X100.129 Y137.255 E4.21396
G1 X99.324 Y136.809 E4.23232
G1 X98.56 Y136.294 E4.25071
G1 X97.845 Y135.715 E4.26907
G1 X97.241 Y135.138 E4.28574
G1 X97.155 Y135.049 E4.28821
G1 X96.545 Y134.36 E4.30657
G1 X95.997 Y133.62 E4.32495
G1 X95.515 Y132.836 E4.34331
G1 X95.102 Y132.012 E4.36171
G1 X94.763 Y131.156 E4.38008
G1 X94.5 Y130.274 E4.39845
G1 X94.314 Y129.373 E4.41681
G1 X94.206 Y128.458 E4.43519
G1 X94.18 Y127.866 E4.44702
G1 X94.163 Y126.819 E4.46792
G1 X94.163 Y123.842 E4.52733
G1 X94.173 Y123.179 E4.54056
G1 X94.227 Y122.26 E4.55893
G1 X94.36 Y121.349 E4.5773
G1 X94.634 Y120.245 E4.6
G1 X94.899 Y119.377 E4.61811
G1 X95.628 Y116.863 E4.67035
G1 X96.271 Y114.387 E4.7214
G1 X96.834 Y111.941 E4.77149
G1 X97.321 Y109.518 E4.82081
G1 X97.637 Y107.674 E4.85814
G1 X97.745 Y107.096 E4.86988
G1 X97.953 Y106.199 E4.88825
G1 X98.239 Y105.324 E4.90663
G1 X98.6 Y104.477 E4.925
G1 X98.841 Y104.004 E4.93559
G1 X98.887 Y103.919 E4.93752
G1 X99.36 Y103.129 E4.9559
G1 X99.899 Y102.383 E4.97426
G1 X100.502 Y101.687 E4.99264
G0 F6000 X100.828 Y101.924
G1 F1200 X101.48 Y101.299 E5.01066
G1 X102.184 Y100.734 E5.02868
G1 X102.936 Y100.233 E5.04671
G1 X103.729 Y99.801 E5.06473
G1 X104.447 Y99.483 E5.0804
G1 X105.188 Y99.189 E5.09631
G1 X105.346 Y99.128 E5.09969
G1 X108.352 Y97.993 E5.16381
G1 X109.014 Y97.752 E5.17787
G1 X109.875 Y97.481 E5.19589
G1 X110.757 Y97.288 E5.2139
G1 X111.653 Y97.172 E5.23193
G1 X112.555 Y97.137 E5.24995
G1 X113.457 Y97.182 E5.26797
G1 X114.352 Y97.306 E5.286
G1 X115.232 Y97.509 E5.30402
G1 X116.091 Y97.789 E5.32205
G1 X116.921 Y98.144 E5.34007
G1 X117.717 Y98.57 E5.35809
G1 X118.472 Y99.066 E5.37611
G1 X119.18 Y99.626 E5.39413
G1 X119.836 Y100.247 E5.41215
G1 X120.434 Y100.924 E5.43018
G1 X120.971 Y101.65 E5.4482
G1 X121.44 Y102.422 E5.46623
G1 X121.84 Y103.231 E5.48424
G1 X122.167 Y104.073 E5.50226
G1 X122.383 Y104.804 E5.51747
G1 X122.393 Y104.843 E5.51828
G1 X122.579 Y105.726 E5.53629
G1 X122.697 Y106.797 E5.55779
G1 X122.772 Y108.116 E5.58415
G1 X122.782 Y108.209 E5.58602
G1 X122.883 Y109.897 E5.61977
G1 X123.105 Y112.402 E5.66995
G1 X123.405 Y114.964 E5.72143
G1 X123.765 Y117.432 E5.7712
G1 X124.213 Y119.994 E5.8231
G1 X124.5 Y121.428 E5.85229
G1 X124.55 Y121.695 E5.85771
G1 X124.594 Y121.96 E5.86307
G1 X124.659 Y122.389 E5.87173
G1 X124.766 Y123.519 E5.89438
G1 X124.778 Y123.826 E5.90051
G1 X124.786 Y124.321 E5.91039
G1 X124.76 Y127.02 E5.96426
G1 X124.786 Y128.399 E5.99178
G1 X124.79 Y129.069 E6.00515
G1 X124.725 Y130.278 E6.02931
G1 X124.666 Y130.799 E6.03978
G1 X124.525 Y131.691 E6.0578
G1 X124.305 Y132.567 E6.07582
G1 X124.028 Y133.372 E6.09281
G1 X123.903 Y133.691 E6.09965
G1 X123.8 Y133.944 E6.1051
G1 X123.756 Y134.048 E6.10735
G1 X123.368 Y134.864 E6.12538
G1 X122.909 Y135.641 E6.14339
G1 X122.559 Y136.145 E6.15564
G1 X122.282 Y136.519 E6.16493
G1 X121.713 Y137.22 E6.18294
G1 X121.084 Y137.868 E6.20097
G1 X120.425 Y138.438 E6.21835
G1 X120.086 Y138.707 E6.22699
G1 X119.675 Y139.017 E6.23726
G1 X119.64 Y139.042 E6.23812
G1 X118.882 Y139.534 E6.25616
G1 X117.808 Y140.083 E6.28023
G1 X117.45 Y140.24 E6.28803
G1 X117.058 Y140.402 E6.29649
G1 X116.999 Y140.425 E6.29776
G1 X116.144 Y140.716 E6.31578
G1 X114.831 Y141.005 E6.34261
G1 X114.385 Y141.073 E6.35161
G1 X113.709 Y141.154 E6.3652
G1 X112.806 Y141.192 E6.38324
G1 X111.682 Y141.128 E6.4057
G1 X111.283 Y141.083 E6.41372
G1 X111.018 Y141.05 E6.41904
G1 X110.129 Y140.891 E6.43707
G1 X109.257 Y140.654 E6.4551
G1 X108.619 Y140.426 E6.46862
G1 X108.219 Y140.268 E6.4772
G1 X107.844 Y140.111 E6.48532
G1 X107.602 Y140.003 E6.4906
G1 X107.433 Y139.925 E6.49432
G1 X105.041 Y138.853 E6.54663
G1 X102.787 Y137.918 E6.59533
G1 X102.499 Y137.807 E6.60149
G1 X102.407 Y137.769 E6.60347
G1 X101.116 Y137.259 E6.63117
G1 X100.292 Y136.89 E6.64919
G1 X99.503 Y136.45 E6.66722
G1 X98.757 Y135.942 E6.68523
G1 X98.058 Y135.369 E6.70327
G1 X97.529 Y134.86 E6.71792
G1 X97.443 Y134.771 E6.72039
G1 X96.845 Y134.094 E6.73841
G1 X96.309 Y133.367 E6.75644
G1 X95.839 Y132.596 E6.77446
G1 X95.44 Y131.786 E6.79248
G1 X95.113 Y130.944 E6.8105
G1 X94.863 Y130.076 E6.82853
G1 X94.69 Y129.19 E6.84654
G1 X94.58 Y127.859 E6.87319
G1 X94.563 Y126.819 E6.89395
G1 X94.563 Y123.848 E6.95324
G1 X94.573 Y123.185 E6.96647
G1 X94.627 Y122.284 E6.98449
G1 X94.76 Y121.39 E7.00252
G1 X95.016 Y120.361 E7.02368
G1 X95.298 Y119.437 E7.04296
G1 X96.011 Y116.979 E7.09404
G1 X96.662 Y114.472 E7.14573
G1 X97.224 Y112.031 E7.19571
G1 X97.721 Y109.559 E7.24603
G1 X98.032 Y107.742 E7.28282
G1 X98.06 Y107.585 E7.286
G1 X98.138 Y107.169 E7.29445
G1 X98.343 Y106.29 E7.31246
G1 X98.626 Y105.432 E7.33049
G1 X98.983 Y104.603 E7.3485
G1 X99.192 Y104.194 E7.35767
G1 X99.238 Y104.109 E7.3596
G1 X99.703 Y103.335 E7.37762
G1 X100.234 Y102.605 E7.39563
G1 X100.828 Y101.924 E7.41366
G1 F1500 E0.91366
;MESH:Seal_nose.stl
G0 F6000 X108.185 Y108.249
G0 X108.567 Y109.259
G0 X109.329 Y110.215
G0 X111.524 Y111.234
;TYPE:WALL-INNER
G1 F1500 E7.41366
G1 F1200 X111.255 Y111.133 E7.4194
G1 X109.151 Y110.338 E7.46428
G1 X109.151 Y109.662 E7.47777
G1 X111.254 Y108.866 E7.52265
G1 X111.523 Y108.765 E7.52838
G1 X111.523 Y109.052 E7.53175
G1 X111.523 Y109.053 E7.53177
G1 X111.524 Y110.946 E7.56955
G1 X111.524 Y110.947 E7.56957
G1 X111.524 Y111.234 E7.57294
G0 F6000 X111.924 Y111.812
G1 F1200 X111.655 Y111.711 E7.57868
G1 X108.751 Y110.614 E7.64063
G1 X108.751 Y109.386 E7.66513
G1 X111.654 Y108.288 E7.72707
G1 X111.923 Y108.187 E7.7328
G1 X111.923 Y108.474 E7.73618
G1 X111.923 Y108.475 E7.7362
G1 X111.924 Y111.524 E7.79704
G1 X111.924 Y111.525 E7.79706
G1 X111.924 Y111.812 E7.80044
G0 F6000 X112.324 Y112.39
;TYPE:WALL-OUTER
G1 F1200 X108.351 Y110.89 E7.88518
G1 X108.351 Y109.11 E7.92071
G1 X112.323 Y107.609 E8.00544
G1 X112.324 Y112.39 E8.10085
G0 F6000 X112.068 Y112.019
G0 X111.035 Y110.931
G0 X111.134 Y110.67
;TYPE:SKIN
G1 F1200 X109.541 Y110.068 E8.13484
G1 X109.541 Y109.931 E8.13757
G1 X111.133 Y109.329 E8.17154
G1 X111.134 Y110.67 E8.1983
G0 F6000 X111.035 Y110.931
G0 X111.336 Y110.963
G0 X111.335 Y109.036
G0 X110.614 Y109.226
G0 X110.768 Y109.636
G1 F1200 X110.973 Y109.841 E8.20408
G0 F6000 X110.973 Y110.407
G1 F1200 X110.358 Y109.792 E8.22144
G0 F6000 X110.112 Y110.112
G1 F1200 X109.947 Y109.947 E8.2261
G0 F6000 X109.688 Y109.255
G1 F1500 E1.7261
;MESH:bear-eyes-nose.stl
G0 F6000 X109.329 Y109.785
G0 X109.329 Y110.172
G0 X110.623 Y111.514
G0 X110.241 Y112.528
G0 X107.703 Y122.938
G0 X107.576 Y124.011
G0 X105.762 Y124.383
;TYPE:WALL-INNER
G1 F1500 E8.2261
G1 F1200 X105.984 Y124.409 E8.23056
G1 X106.99 Y124.53 E8.25078
G1 X106.991 Y126.503 E8.29015
G1 X105.985 Y126.624 E8.31037
G1 X105.763 Y126.65 E8.31483
G1 X105.763 Y126.427 E8.31762
G1 X105.763 Y126.426 E8.31764
G1 X105.762 Y124.607 E8.35394
G1 X105.762 Y124.606 E8.35396
G1 X105.762 Y124.383 E8.35675
G0 F6000 X105.362 Y123.932
G1 F1200 X105.584 Y123.958 E8.36121
G1 X107.39 Y124.175 E8.39751
G1 X107.391 Y126.858 E8.45105
G1 X105.585 Y127.075 E8.48735
G1 X105.363 Y127.101 E8.49181
G1 X105.363 Y126.878 E8.4946
G1 X105.363 Y126.877 E8.49462
G1 X105.362 Y124.156 E8.54892
G1 X105.362 Y124.155 E8.54894
G1 X105.362 Y123.932 E8.55173
G0 F6000 X104.962 Y123.482
;TYPE:WALL-OUTER
G1 F1200 X107.74 Y123.814 E8.60756
G1 X107.79 Y123.841 E8.6087
G1 X107.791 Y127.192 E8.67557
G1 X107.741 Y127.219 E8.6767
G1 X104.963 Y127.552 E8.73254
G1 X104.962 Y123.482 E8.81376
G0 F6000 X105.228 Y123.782
G0 X106.185 Y124.546
G0 X106.152 Y124.823
;TYPE:SKIN
G1 F1200 X106.6 Y124.877 E8.82277
G1 X106.601 Y126.156 E8.84829
G1 X106.153 Y126.21 E8.85729
G1 X106.152 Y124.823 E8.88497
G0 F6000 X106.44 Y125.107
G1 F1200 X106.339 Y125.007 E8.88781
G0 F6000 X106.312 Y125.545
G1 F1200 X106.44 Y125.674 E8.89144
G0 F6000 X107.181 Y125.674
G1 F1500 E2.39144
G0 F6000 X107.59 Y125.453
G0 X108.655 Y125.452
G0 X110.464 Y124.814
G0 X111.371 Y124.438
G0 X111.79 Y125.066
G0 X112.122 Y125.31
G0 X112.318 Y125.384
G0 X112.788 Y125.452
G0 X112.801 Y125.344
;TYPE:WALL-OUTER
G1 F1500 E8.89144
G1 F1200 X113.123 Y125.301 E8.89792
G1 X113.161 Y125.289 E8.89871
G1 X113.436 Y125.175 E8.90466
G1 X113.469 Y125.154 E8.90544
G1 X113.711 Y124.966 E8.91155
G1 X113.917 Y124.7 E8.91827
G1 X114.045 Y124.389 E8.92498
G1 X114.084 Y124.086 E8.93107
G1 X114.085 Y124.033 E8.93213
G1 X114.045 Y123.732 E8.93819
G1 X114.033 Y123.694 E8.93899
G1 X113.919 Y123.419 E8.94493
G1 X113.898 Y123.386 E8.94571
G1 X113.71 Y123.144 E8.95182
G1 X113.452 Y122.947 E8.9583
G1 X113.418 Y122.928 E8.95908
G1 X113.142 Y122.815 E8.96503
G1 X113.105 Y122.806 E8.96579
G1 X112.8 Y122.767 E8.97193
G1 X112.476 Y122.81 E8.97845
G1 X112.438 Y122.822 E8.97924
G1 X112.164 Y122.937 E8.98517
