;FLAVOR:Marlin
;TIME:4329
;Filament used: 2.47845m
;Layer height: 0.2
;MINX:65.1
;MINY:59.977
;MINZ:0.2
;MAXX:154.899
;MAXY:142.569
;MAXZ:3.8
;Generated with Cura_SteamEngine 4.7.0
M140 S60
M105
M190 S60
M104 S200
M105
M109 S200
M82 ;absolute extrusion mode
; Ender 3 Custom Start G-code
G92 E0 ; Reset Extruder
G28 ; Home all axes
G1 Z2.0 F3000 ; Move Z Axis up little to prevent scratching of Heat Bed
G1 X0.1 Y20 Z0.3 F5000.0 ; Move to start position
G1 X0.1 Y200.0 Z0.3 F1500.0 E15 ; Draw the first line
G1 X0.4 Y200.0 Z0.3 F5000.0 ; Move to side a little
G1 X0.4 Y20 Z0.3 F1500.0 E30 ; Draw the second line
G92 E0 ; Reset Extruder
G1 Z2.0 F3000 ; Move Z Axis up little to prevent scratching of Heat Bed
G1 X5 Y20 Z0.3 F5000.0 ; Move over to prevent blob squish
G92 E0
G92 E0
G1 F1500 E-6.5
;LAYER_COUNT:19
;LAYER:0
M107
M204 S500
M205 X8 Y8
G0 F6000 X69.103 Y79.184 Z0.2
;TYPE:SKIRT
G1 F1500 E0
G1 F1200 X69.6 Y78.777 E0.02137
G1 X70.264 Y78.265 E0.04925
G1 X71.208 Y77.557 E0.0885
G1 X73.176 Y75.992 E0.17213
G1 X75.09 Y74.38 E0.25536
G1 X76.981 Y72.693 E0.33965
G1 X78.795 Y70.981 E0.42261
G1 X80.585 Y69.192 E0.50678
G1 X82.315 Y67.364 E0.59049
G1 X83.385 Y66.166 E0.64391
G1 X83.443 Y66.106 E0.64669
G1 X84.328 Y65.112 E0.69096
G1 X84.736 Y64.64 E0.71171
G1 X84.975 Y64.373 E0.72362
G1 X85.595 Y63.743 E0.75302
G1 X85.8 Y63.551 E0.76237
G1 X86.687 Y62.804 E0.80094
G1 X86.863 Y62.671 E0.80827
G1 X87.739 Y62.073 E0.84355
G1 X87.98 Y61.925 E0.85296
G1 X88.899 Y61.419 E0.88785
G1 X89.138 Y61.302 E0.8967
G1 X90.202 Y60.849 E0.93516
G1 X90.443 Y60.761 E0.9437
G1 X91.387 Y60.464 E0.97661
G1 X91.65 Y60.394 E0.98566
G1 X92.83 Y60.148 E1.02575
G1 X93.041 Y60.116 E1.03285
G1 X93.961 Y60.016 E1.06363
G1 X94.277 Y59.995 E1.07416
G1 X95.375 Y59.977 E1.11069
G1 X98.2 Y60.072 E1.2047
G1 X100.678 Y60.085 E1.28712
G1 X103.279 Y60.011 E1.37367
G1 X103.574 Y60.015 E1.38348
G1 X104.611 Y59.978 E1.41799
G1 X105.376 Y59.977 E1.44344
G1 X108.2 Y60.072 E1.53742
G1 X110.701 Y60.085 E1.6206
G1 X113.275 Y60.011 E1.70625
G1 X113.579 Y60.015 E1.71636
G1 X114.612 Y59.978 E1.75074
G1 X115.377 Y59.977 E1.77618
G1 X118.201 Y60.072 E1.87016
G1 X120.701 Y60.085 E1.95331
G1 X123.275 Y60.011 E2.03896
G1 X123.579 Y60.015 E2.04907
G1 X124.611 Y59.978 E2.08342
G1 X125.935 Y60.01 E2.12747
G1 X126.183 Y60.031 E2.13575
G1 X126.655 Y60.081 E2.15153
G1 X126.92 Y60.115 E2.16042
G1 X128.188 Y60.354 E2.20334
G1 X128.408 Y60.409 E2.21088
G1 X129.336 Y60.685 E2.24308
G1 X129.521 Y60.749 E2.24959
G1 X130.398 Y61.096 E2.28096
G1 X130.717 Y61.238 E2.29257
G1 X131.743 Y61.76 E2.33086
G1 X131.892 Y61.846 E2.33658
G1 X132.756 Y62.4 E2.37072
G1 X133.007 Y62.578 E2.38096
G1 X133.891 Y63.276 E2.41842
G1 X134.068 Y63.431 E2.42624
G1 X134.866 Y64.205 E2.46322
G1 X135.059 Y64.412 E2.47263
G1 X135.289 Y64.666 E2.48403
G1 X136.128 Y65.625 E2.52641
G1 X136.25 Y65.75 E2.53222
G1 X136.961 Y66.566 E2.56822
G1 X138.678 Y68.427 E2.65243
G1 X140.423 Y70.211 E2.73543
G1 X142.243 Y71.972 E2.81967
G1 X144.096 Y73.665 E2.90315
G1 X145.969 Y75.284 E2.98549
G1 X147.938 Y76.889 E3.06998
G1 X149.314 Y77.95 E3.12777
G1 X150.41 Y78.79 E3.1737
G1 X151.129 Y79.392 E3.20489
G1 X151.795 Y80.052 E3.23608
G1 X152.402 Y80.768 E3.2673
G1 X153.046 Y81.69 E3.3047
G1 X153.196 Y81.93 E3.31411
G1 X153.659 Y82.746 E3.34532
G1 X154.05 Y83.598 E3.3765
G1 X154.368 Y84.481 E3.40771
G1 X154.576 Y85.241 E3.43392
G1 X154.584 Y85.275 E3.43508
G1 X154.759 Y86.196 E3.46626
G1 X154.874 Y87.561 E3.51182
G1 X154.897 Y88.645 E3.54789
G1 X154.899 Y88.878 E3.55564
G1 X154.899 Y124.399 E4.73707
G1 X154.888 Y125.109 E4.76069
G1 X154.833 Y126.046 E4.79191
G1 X154.699 Y126.974 E4.82309
G1 X154.411 Y128.145 E4.8632
G1 X154.295 Y128.527 E4.87648
G1 X153.574 Y131.008 E4.96241
G1 X153.342 Y131.916 E4.99358
G1 X153.269 Y132.156 E5.00192
G1 X152.948 Y133.365 E5.04353
G1 X152.669 Y134.261 E5.07474
G1 X152.314 Y135.129 E5.10593
G1 X151.887 Y135.964 E5.13712
G1 X151.39 Y136.759 E5.16831
G1 X150.827 Y137.509 E5.1995
G1 X150.202 Y138.209 E5.23071
G1 X149.52 Y138.852 E5.26189
G1 X148.786 Y139.436 E5.29308
G1 X148.004 Y139.954 E5.32428
G1 X147.021 Y140.482 E5.3614
G1 X145.419 Y141.24 E5.42034
G1 X144.998 Y141.444 E5.4359
G1 X144.138 Y141.817 E5.46708
G1 X143.249 Y142.116 E5.49828
G1 X142.337 Y142.337 E5.52949
G1 X141.41 Y142.481 E5.56069
G1 X140.416 Y142.546 E5.59382
G1 X139.369 Y142.567 E5.62865
G1 X139.148 Y142.569 E5.636
G1 X136.439 Y142.568 E5.7261
G1 X134.95 Y142.547 E5.77563
G1 X133.795 Y142.514 E5.81406
G1 X130.54 Y142.524 E5.92233
G1 X128.436 Y142.567 E5.99232
G1 X128.21 Y142.569 E5.99984
G1 X125.517 Y142.568 E6.08941
G1 X123.888 Y142.545 E6.14359
G1 X122.977 Y142.519 E6.1739
G1 X119.735 Y142.529 E6.28173
G1 X117.872 Y142.567 E6.34371
G1 X117.646 Y142.569 E6.35123
G1 X114.946 Y142.568 E6.44103
G1 X114.251 Y142.558 E6.46415
G1 X111.29 Y142.474 E6.56267
G1 X108.786 Y142.474 E6.64595
G1 X106.785 Y142.524 E6.71253
G1 X105.844 Y142.558 E6.74385
G1 X105.553 Y142.564 E6.75353
G1 X105.038 Y142.569 E6.77066
G1 X101.832 Y142.569 E6.87729
G1 X100.244 Y142.547 E6.93011
G1 X99.42 Y142.524 E6.95753
G1 X96.888 Y142.522 E7.04174
G1 X95.439 Y142.558 E7.08995
G1 X94.47 Y142.569 E7.12218
G1 X91.265 Y142.569 E7.22878
G1 X89.718 Y142.547 E7.28024
G1 X88.533 Y142.514 E7.31967
G1 X85.396 Y142.525 E7.42401
G1 X83.321 Y142.567 E7.49304
G1 X83.1 Y142.569 E7.50039
G1 X80.327 Y142.569 E7.59262
G1 X79.668 Y142.559 E7.61454
G1 X78.732 Y142.505 E7.64572
G1 X77.804 Y142.371 E7.67691
G1 X77.159 Y142.23 E7.69887
G1 X76.26 Y141.964 E7.73005
G1 X75.386 Y141.622 E7.76126
G1 X74.887 Y141.386 E7.77962
G1 X74.6 Y141.242 E7.7903
G1 X73.933 Y140.918 E7.81497
G1 X72.817 Y140.356 E7.85653
G1 X71.998 Y139.898 E7.88774
G1 X71.222 Y139.372 E7.91892
G1 X70.493 Y138.782 E7.95011
G1 X69.817 Y138.132 E7.9813
G1 X69.199 Y137.427 E8.01248
G1 X68.643 Y136.671 E8.0437
G1 X68.154 Y135.871 E8.07488
G1 X67.734 Y135.033 E8.10606
G1 X67.388 Y134.161 E8.13726
G1 X67.228 Y133.667 E8.15453
G1 X67.116 Y133.283 E8.16783
G1 X66.5 Y131.061 E8.24453
G1 X65.878 Y129.072 E8.31384
G1 X65.58 Y128.085 E8.34813
G1 X65.347 Y127.177 E8.37931
G1 X65.193 Y126.252 E8.4105
G1 X65.122 Y125.423 E8.43817
G1 X65.118 Y125.338 E8.441
G1 X65.107 Y124.953 E8.45381
G1 X65.1 Y124.321 E8.47483
G1 X65.102 Y88.372 E9.6705
G1 X65.112 Y87.716 E9.69232
G1 X65.167 Y86.78 E9.72351
G1 X65.3 Y85.852 E9.75469
G1 X65.567 Y84.749 E9.79244
G1 X65.633 Y84.527 E9.80014
G1 X65.938 Y83.641 E9.8313
G1 X66.318 Y82.783 E9.86252
G1 X66.77 Y81.961 E9.89372
G1 X67.289 Y81.18 E9.9249
G1 X67.653 Y80.709 E9.9447
G1 X67.799 Y80.53 E9.95239
G1 X68.422 Y79.83 E9.98355
G1 X69.103 Y79.184 E10.01477
G0 F6000 X69.391 Y79.464
G1 F1200 X69.844 Y79.093 E10.03425
G1 X70.384 Y78.676 E10.05694
G1 X71.452 Y77.875 E10.10134
G1 X73.434 Y76.298 E10.18559
G1 X75.331 Y74.7 E10.26808
G1 X77.258 Y72.981 E10.35397
G1 X79.087 Y71.256 E10.43759
G1 X80.857 Y69.486 E10.52085
G1 X82.605 Y67.639 E10.60543
G1 X83.683 Y66.432 E10.65925
G1 X83.75 Y66.363 E10.66245
G1 X84.614 Y65.392 E10.70568
G1 X85.039 Y64.901 E10.72728
G1 X85.271 Y64.642 E10.73884
G1 X85.868 Y64.035 E10.76716
G1 X86.073 Y63.843 E10.7765
G1 X86.928 Y63.123 E10.81368
G1 X87.104 Y62.99 E10.82102
G1 X87.948 Y62.414 E10.855
G1 X88.189 Y62.266 E10.86441
G1 X89.075 Y61.779 E10.89804
G1 X89.314 Y61.662 E10.90689
G1 X90.339 Y61.225 E10.94395
G1 X90.58 Y61.137 E10.95248
G1 X91.49 Y60.851 E10.98421
G1 X91.753 Y60.781 E10.99326
G1 X92.89 Y60.544 E11.03189
G1 X93.101 Y60.512 E11.03899
G1 X93.987 Y60.415 E11.06863
G1 X94.303 Y60.394 E11.07917
G1 X95.362 Y60.377 E11.11439
G1 X98.185 Y60.472 E11.20834
G1 X100.688 Y60.485 E11.29159
G1 X103.291 Y60.411 E11.3782
G1 X103.586 Y60.415 E11.38801
G1 X104.625 Y60.378 E11.42259
G1 X105.363 Y60.377 E11.44714
G1 X108.185 Y60.472 E11.54105
G1 X110.681 Y60.485 E11.62407
G1 X113.287 Y60.41 E11.71078
G1 X113.604 Y60.415 E11.72133
G1 X114.626 Y60.378 E11.75534
G1 X115.364 Y60.377 E11.77989
G1 X118.186 Y60.472 E11.8738
G1 X120.682 Y60.485 E11.95682
G1 X123.287 Y60.41 E12.0435
G1 X123.604 Y60.415 E12.05404
G1 X124.625 Y60.378 E12.08802
G1 X125.901 Y60.409 E12.13048
G1 X126.149 Y60.43 E12.13875
G1 X126.604 Y60.478 E12.15397
G1 X126.869 Y60.512 E12.16286
G1 X128.091 Y60.742 E12.20422
G1 X128.311 Y60.797 E12.21176
G1 X129.206 Y61.064 E12.24282
G1 X129.391 Y61.128 E12.24933
G1 X130.236 Y61.461 E12.27954
G1 X130.555 Y61.603 E12.29116
G1 X131.543 Y62.106 E12.32803
G1 X131.692 Y62.192 E12.33375
G1 X132.525 Y62.727 E12.36668
G1 X132.776 Y62.905 E12.37691
G1 X133.627 Y63.576 E12.41296
G1 X133.804 Y63.731 E12.42078
G1 X134.574 Y64.477 E12.45644
G1 X134.767 Y64.684 E12.46586
G1 X134.988 Y64.929 E12.47683
G1 X135.783 Y65.837 E12.51697
G1 X135.948 Y66.012 E12.52497
G1 X136.68 Y66.852 E12.56203
G1 X138.365 Y68.678 E12.64467
G1 X140.142 Y70.495 E12.7292
G1 X141.961 Y72.255 E12.81338
G1 X143.829 Y73.962 E12.89755
G1 X145.738 Y75.612 E12.98147
G1 X147.687 Y77.2 E13.06509
G1 X149.049 Y78.25 E13.12229
G1 X150.167 Y79.107 E13.16914
G1 X150.872 Y79.699 E13.19976
G1 X151.524 Y80.349 E13.23038
G1 X152.117 Y81.053 E13.26099
G1 X152.707 Y81.902 E13.29538
G1 X152.857 Y82.142 E13.30479
G1 X153.31 Y82.943 E13.3354
G1 X153.693 Y83.781 E13.36605
G1 X154.001 Y84.648 E13.39665
G1 X154.186 Y85.332 E13.42021
G1 X154.194 Y85.366 E13.42138
G1 X154.366 Y86.271 E13.45202
G1 X154.474 Y87.569 E13.49534
G1 X154.497 Y88.653 E13.5314
G1 X154.499 Y88.878 E13.53888
G1 X154.499 Y124.393 E14.72012
G1 X154.488 Y125.103 E14.74373
G1 X154.434 Y126.022 E14.77435
G1 X154.3 Y126.933 E14.80498
G1 X154.029 Y128.029 E14.84253
G1 X153.887 Y128.495 E14.85873
G1 X153.184 Y130.916 E14.94258
G1 X152.954 Y131.817 E14.97351
G1 X152.892 Y132.023 E14.98066
G1 X152.562 Y133.263 E15.02334
G1 X152.287 Y134.141 E15.05394
G1 X151.937 Y134.993 E15.08458
G1 X151.514 Y135.81 E15.11518
G1 X151.022 Y136.588 E15.1458
G1 X150.464 Y137.321 E15.17644
G1 X149.844 Y138.002 E15.20707
G1 X149.168 Y138.627 E15.23769
G1 X148.441 Y139.191 E15.26829
G1 X147.667 Y139.69 E15.29892
G1 X146.85 Y140.12 E15.32963
G1 X145.253 Y140.875 E15.38838
G1 X144.823 Y141.084 E15.40428
G1 X143.978 Y141.45 E15.43491
G1 X143.105 Y141.741 E15.46552
G1 X142.21 Y141.955 E15.49612
G1 X141.299 Y142.09 E15.52676
G1 X140.408 Y142.146 E15.55645
G1 X139.361 Y142.167 E15.59128
G1 X139.148 Y142.169 E15.59836
G1 X136.445 Y142.168 E15.68827
G1 X134.801 Y142.144 E15.74295
G1 X133.773 Y142.115 E15.77716
G1 X130.53 Y142.124 E15.88502
G1 X128.428 Y142.167 E15.95495
G1 X128.21 Y142.169 E15.9622
G1 X125.522 Y142.168 E16.0516
G1 X123.739 Y142.142 E16.11091
G1 X122.955 Y142.12 E16.137
G1 X119.725 Y142.129 E16.24443
G1 X117.864 Y142.167 E16.30634
G1 X117.646 Y142.169 E16.31359
G1 X114.951 Y142.168 E16.40322
G1 X114.256 Y142.158 E16.42634
G1 X111.301 Y142.074 E16.52467
G1 X108.776 Y142.074 E16.60865
G1 X106.763 Y142.124 E16.67562
G1 X105.83 Y142.158 E16.70667
G1 X105.549 Y142.165 E16.71602
G1 X105.037 Y142.169 E16.73305
G1 X101.837 Y142.169 E16.83948
G1 X100.088 Y142.144 E16.89766
G1 X99.396 Y142.124 E16.92069
G1 X96.879 Y142.122 E17.0044
G1 X95.429 Y142.158 E17.05265
G1 X94.469 Y142.169 E17.08458
G1 X91.271 Y142.169 E17.19094
G1 X89.73 Y142.147 E17.2422
G1 X88.543 Y142.114 E17.2817
G1 X85.386 Y142.125 E17.3867
G1 X83.312 Y142.167 E17.4557
G1 X83.1 Y142.169 E17.46275
G1 X80.333 Y142.169 E17.55478
G1 X79.674 Y142.159 E17.5767
G1 X78.755 Y142.105 E17.60732
G1 X77.844 Y141.971 E17.63794
G1 X77.256 Y141.842 E17.65797
G1 X76.373 Y141.58 E17.6886
G1 X75.517 Y141.242 E17.71921
G1 X75.066 Y141.029 E17.7358
G1 X74.714 Y140.852 E17.7489
G1 X73.96 Y140.485 E17.7768
G1 X72.997 Y139.999 E17.81267
G1 X72.194 Y139.549 E17.84329
G1 X71.433 Y139.031 E17.87391
G1 X70.72 Y138.449 E17.90452
G1 X70.06 Y137.807 E17.93514
G1 X69.458 Y137.11 E17.96577
G1 X68.919 Y136.364 E17.99639
G1 X68.447 Y135.574 E18.02699
G1 X68.045 Y134.745 E18.05764
G1 X67.611 Y133.553 E18.09983
G1 X67.501 Y133.176 E18.11289
G1 X66.887 Y130.961 E18.18934
G1 X66.26 Y128.957 E18.25918
G1 X65.962 Y127.97 E18.29347
G1 X65.735 Y127.078 E18.32408
G1 X65.586 Y126.169 E18.35472
G1 X65.522 Y125.404 E18.38025
G1 X65.518 Y125.319 E18.38308
G1 X65.507 Y124.948 E18.39543
G1 X65.5 Y124.321 E18.41629
G1 X65.502 Y88.378 E19.61175
G1 X65.512 Y87.722 E19.63358
G1 X65.566 Y86.803 E19.66419
G1 X65.7 Y85.892 E19.69482
G1 X65.951 Y84.863 E19.73005
G1 X66.017 Y84.641 E19.73775
G1 X66.317 Y83.771 E19.76836
G1 X66.692 Y82.93 E19.79899
G1 X67.138 Y82.125 E19.8296
G1 X67.653 Y81.362 E19.86021
G1 X67.963 Y80.962 E19.87704
G1 X68.109 Y80.783 E19.88473
G1 X68.721 Y80.096 E19.91533
G1 X69.391 Y79.464 E19.94596
G0 F6000 X69.679 Y79.744
G1 F1200 X70.089 Y79.41 E19.96355
G1 X70.744 Y78.905 E19.99106
G1 X71.695 Y78.192 E20.03059
G1 X73.677 Y76.616 E20.11481
G1 X75.626 Y74.974 E20.19958
G1 X77.497 Y73.305 E20.28297
G1 X79.361 Y71.546 E20.36821
G1 X81.166 Y69.742 E20.45309
G1 X82.893 Y67.917 E20.53666
G1 X83.981 Y66.699 E20.59098
G1 X84.049 Y66.629 E20.59422
G1 X84.896 Y65.677 E20.63661
G1 X85.341 Y65.163 E20.65922
G1 X85.567 Y64.911 E20.67048
G1 X86.141 Y64.327 E20.69771
G1 X86.346 Y64.135 E20.70705
G1 X87.169 Y63.442 E20.74284
G1 X87.345 Y63.309 E20.75018
G1 X88.157 Y62.755 E20.78287
G1 X88.398 Y62.607 E20.79228
G1 X89.251 Y62.138 E20.82465
G1 X89.49 Y62.021 E20.8335
G1 X90.476 Y61.601 E20.86915
G1 X90.717 Y61.513 E20.87768
G1 X91.593 Y61.237 E20.90823
G1 X91.856 Y61.167 E20.91728
G1 X92.95 Y60.939 E20.95445
G1 X93.161 Y60.907 E20.96155
G1 X94.014 Y60.814 E20.99009
G1 X94.33 Y60.793 E21.00062
G1 X95.348 Y60.777 E21.03449
G1 X98.169 Y60.872 E21.12837
G1 X100.697 Y60.885 E21.21245
G1 X103.302 Y60.811 E21.29913
G1 X103.597 Y60.816 E21.30894
G1 X104.639 Y60.778 E21.34362
G1 X105.349 Y60.777 E21.36723
G1 X108.169 Y60.872 E21.46108
G1 X110.69 Y60.885 E21.54493
G1 X113.298 Y60.81 E21.63171
G1 X113.616 Y60.815 E21.64229
G1 X114.641 Y60.778 E21.6764
G1 X115.35 Y60.777 E21.69998
G1 X118.17 Y60.872 E21.79383
G1 X120.69 Y60.885 E21.87765
G1 X123.298 Y60.81 E21.96442
G1 X123.615 Y60.815 E21.97497
G1 X124.639 Y60.778 E22.00905
G1 X125.868 Y60.807 E22.04994
G1 X126.116 Y60.828 E22.05822
G1 X126.553 Y60.875 E22.07283
G1 X126.818 Y60.909 E22.08172
G1 X127.994 Y61.131 E22.12152
G1 X128.214 Y61.186 E22.12907
G1 X129.075 Y61.442 E22.15894
G1 X129.26 Y61.506 E22.16545
G1 X130.073 Y61.827 E22.19453
G1 X130.392 Y61.969 E22.20614
G1 X131.343 Y62.453 E22.24163
G1 X131.492 Y62.539 E22.24735
G1 X132.293 Y63.053 E22.27901
G1 X132.544 Y63.231 E22.28924
G1 X133.364 Y63.877 E22.32396
G1 X133.541 Y64.032 E22.33179
G1 X134.281 Y64.75 E22.36608
G1 X134.474 Y64.957 E22.37549
G1 X134.687 Y65.193 E22.38607
G1 X135.354 Y65.954 E22.41972
G1 X135.646 Y66.275 E22.43416
G1 X136.368 Y67.103 E22.4707
G1 X138.084 Y68.963 E22.55487
G1 X139.86 Y70.78 E22.63937
G1 X141.677 Y72.537 E22.72344
G1 X143.581 Y74.277 E22.80923
G1 X145.452 Y75.895 E22.8915
G1 X147.471 Y77.54 E22.97812
G1 X148.825 Y78.583 E23.03497
G1 X149.923 Y79.425 E23.08099
G1 X150.615 Y80.005 E23.11102
G1 X151.253 Y80.645 E23.14108
G1 X151.831 Y81.338 E23.17109
G1 X152.368 Y82.114 E23.20248
G1 X152.518 Y82.354 E23.21189
G1 X152.962 Y83.14 E23.24192
G1 X153.335 Y83.963 E23.27197
G1 X153.634 Y84.815 E23.302
G1 X153.797 Y85.424 E23.32297
G1 X153.805 Y85.458 E23.32413
G1 X153.973 Y86.345 E23.35416
G1 X154.074 Y87.578 E23.3953
G1 X154.097 Y88.662 E23.43137
G1 X154.099 Y88.878 E23.43855
G1 X154.099 Y124.387 E24.61958
G1 X154.088 Y125.097 E24.6432
G1 X154.034 Y125.999 E24.67326
G1 X153.9 Y126.892 E24.70329
G1 X153.646 Y127.912 E24.73825
G1 X153.521 Y128.321 E24.75248
G1 X152.803 Y130.794 E24.83812
G1 X152.567 Y131.718 E24.86984
G1 X152.498 Y131.945 E24.87774
G1 X152.175 Y133.16 E24.91955
G1 X151.905 Y134.021 E24.94956
G1 X151.559 Y134.856 E24.97962
G1 X151.141 Y135.656 E25.00965
G1 X150.654 Y136.417 E25.0397
G1 X150.101 Y137.131 E25.06973
G1 X149.487 Y137.793 E25.09976
G1 X148.817 Y138.399 E25.12981
G1 X148.097 Y138.943 E25.15982
G1 X147.331 Y139.421 E25.18986
G1 X146.679 Y139.759 E25.21428
G1 X145.034 Y140.537 E25.27481
G1 X144.649 Y140.724 E25.28904
G1 X143.82 Y141.082 E25.31908
G1 X142.962 Y141.365 E25.34912
G1 X142.083 Y141.572 E25.37916
G1 X141.189 Y141.699 E25.40919
