;FLAVOR:Marlin
;TIME:137
;Filament used: 0.0177181m
;Layer height: 0.12
;MINX:94.814
;MINY:97.8
;MINZ:0.12
;MAXX:125.187
;MAXY:122.2
;MAXZ:3.6
;Generated with Cura_SteamEngine 4.7.0
M140 S60
M105
M190 S60
M104 S200
M105
M109 S200
M82 ;absolute extrusion mode
; Ender 3 Custom Start G-code
G92 E0 ; Reset Extruder
G28 ; Home all axes
G1 Z2.0 F3000 ; Move Z Axis up little to prevent scratching of Heat Bed
G1 X0.1 Y20 Z0.3 F5000.0 ; Move to start position
G1 X0.1 Y200.0 Z0.3 F1500.0 E15 ; Draw the first line
G1 X0.4 Y200.0 Z0.3 F5000.0 ; Move to side a little
G1 X0.4 Y20 Z0.3 F1500.0 E30 ; Draw the second line
G92 E0 ; Reset Extruder
G1 Z2.0 F3000 ; Move Z Axis up little to prevent scratching of Heat Bed
G1 X5 Y20 Z0.3 F5000.0 ; Move over to prevent blob squish
G92 E0
G92 E0
G1 F1500 E-6.5
;LAYER_COUNT:32
;LAYER:0
M107
M204 S500
M205 X8 Y8
G0 F6000 X98.479 Y101.256 Z0.12
;TYPE:SKIRT
G1 F1500 E0
G1 F1200 X99.063 Y100.743 E0.01551
G1 X99.299 Y100.55 E0.0216
G1 X99.563 Y100.341 E0.02832
G1 X99.8 Y100.159 E0.03428
G1 X100.568 Y99.62 E0.053
G1 X101.378 Y99.148 E0.07171
G1 X102.226 Y98.747 E0.09043
G1 X103.105 Y98.42 E0.10915
G1 X104.009 Y98.169 E0.12787
G1 X104.532 Y98.06 E0.13853
G1 X104.73 Y98.024 E0.14255
G1 X105.237 Y97.944 E0.15279
G1 X105.625 Y97.892 E0.1606
G1 X106.196 Y97.831 E0.17206
G1 X107.507 Y97.8 E0.19823
G1 X108.432 Y97.833 E0.2167
G1 X110.978 Y97.89 E0.26752
G1 X112.603 Y97.881 E0.29995
G1 X113.254 Y97.886 E0.31294
G1 X114.191 Y97.934 E0.33167
G1 X115.12 Y98.06 E0.35038
G1 X116.036 Y98.266 E0.36911
G1 X116.738 Y98.481 E0.38376
G1 X117.227 Y98.66 E0.39416
G1 X117.646 Y98.825 E0.40314
G1 X117.868 Y98.915 E0.40792
G1 X118.721 Y99.304 E0.42663
G1 X119.538 Y99.764 E0.44534
G1 X120.313 Y100.293 E0.46407
G1 X121.04 Y100.885 E0.48278
G1 X121.714 Y101.537 E0.50149
G1 X122.347 Y102.265 E0.52074
G1 X122.647 Y102.642 E0.53036
G1 X122.816 Y102.861 E0.53588
G1 X123.356 Y103.627 E0.55458
G1 X123.83 Y104.437 E0.57331
G1 X124.233 Y105.283 E0.59201
G1 X124.562 Y106.162 E0.61074
G1 X124.815 Y107.065 E0.62946
G1 X124.972 Y107.864 E0.64571
G1 X125.021 Y108.174 E0.65197
G1 X125.059 Y108.435 E0.65723
G1 X125.098 Y108.727 E0.66311
G1 X125.183 Y109.661 E0.68183
G1 X125.187 Y110.599 E0.70055
G1 X125.112 Y111.534 E0.71927
G1 X124.957 Y112.459 E0.73798
G1 X124.724 Y113.367 E0.75669
G1 X124.509 Y114.006 E0.77014
G1 X124.413 Y114.265 E0.77566
G1 X124.267 Y114.639 E0.78367
G1 X124.144 Y114.937 E0.7901
G1 X123.749 Y115.788 E0.80882
G1 X123.284 Y116.602 E0.82753
G1 X122.751 Y117.373 E0.84624
G1 X122.154 Y118.097 E0.86496
G1 X121.497 Y118.767 E0.88369
G1 X120.892 Y119.294 E0.8997
G1 X120.61 Y119.522 E0.90694
G1 X120.401 Y119.687 E0.91225
G1 X120.206 Y119.837 E0.91716
G1 X119.439 Y120.376 E0.93587
G1 X118.628 Y120.849 E0.95461
G1 X117.781 Y121.25 E0.97331
G1 X116.902 Y121.578 E0.99203
G1 X115.999 Y121.83 E1.01074
G1 X115.472 Y121.94 E1.02148
G1 X115.28 Y121.975 E1.02538
G1 X114.723 Y122.061 E1.03662
G1 X114.307 Y122.115 E1.045
G1 X113.373 Y122.196 E1.0637
G1 X112.494 Y122.2 E1.08125
G1 X111.569 Y122.167 E1.09972
G1 X109.023 Y122.11 E1.15054
G1 X107.398 Y122.119 E1.18297
G1 X106.747 Y122.114 E1.19596
G1 X105.81 Y122.066 E1.21468
G1 X104.881 Y121.94 E1.23339
G1 X103.965 Y121.734 E1.25213
G1 X103.084 Y121.456 E1.27056
G1 X102.877 Y121.381 E1.27496
G1 X102.383 Y121.189 E1.28553
G1 X102.024 Y121.039 E1.2933
G1 X101.175 Y120.641 E1.31201
G1 X100.363 Y120.171 E1.33073
G1 X99.594 Y119.635 E1.34944
G1 X98.873 Y119.035 E1.36816
G1 X98.206 Y118.376 E1.38687
G1 X97.667 Y117.749 E1.40337
G1 X97.347 Y117.349 E1.41359
G1 X97.182 Y117.135 E1.41899
G1 X96.641 Y116.368 E1.43772
G1 X96.168 Y115.558 E1.45644
G1 X95.765 Y114.711 E1.47515
G1 X95.437 Y113.833 E1.49386
G1 X95.184 Y112.93 E1.51257
G1 X95.023 Y112.101 E1.52942
G1 X94.975 Y111.791 E1.53568
G1 X94.942 Y111.564 E1.54026
G1 X94.903 Y111.272 E1.54614
G1 X94.818 Y110.338 E1.56486
G1 X94.814 Y109.4 E1.58358
G1 X94.889 Y108.465 E1.6023
G1 X95.044 Y107.54 E1.62101
G1 X95.277 Y106.632 E1.63972
G1 X95.478 Y106.029 E1.6524
G1 X95.555 Y105.819 E1.65687
G1 X95.729 Y105.386 E1.66618
G1 X95.726 Y105.385 E1.66624
G1 X95.845 Y105.094 E1.67252
G1 X96.237 Y104.242 E1.69123
G1 X96.7 Y103.427 E1.70994
G1 X97.231 Y102.653 E1.72867
G1 X97.825 Y101.928 E1.74737
G1 X98.479 Y101.256 E1.76609
G0 F6000 X98.816 Y101.489
G1 F1200 X99.317 Y101.053 E1.77934
G1 X99.553 Y100.86 E1.78542
G1 X99.807 Y100.658 E1.7919
G1 X100.044 Y100.476 E1.79786
G1 X100.798 Y99.947 E1.81625
G1 X101.595 Y99.486 E1.83462
G1 X102.429 Y99.096 E1.85299
G1 X103.293 Y98.78 E1.87135
G1 X104.604 Y98.454 E1.89831
G1 X104.802 Y98.418 E1.90233
G1 X105.29 Y98.341 E1.91219
G1 X105.678 Y98.289 E1.92
G1 X106.23 Y98.23 E1.93108
G1 X107.493 Y98.2 E1.95629
G1 X108.41 Y98.233 E1.9746
G1 X110.972 Y98.29 E2.02574
G1 X112.6 Y98.281 E2.05823
G1 X113.251 Y98.286 E2.07122
G1 X114.171 Y98.333 E2.0896
G1 X115.083 Y98.46 E2.10798
G1 X115.98 Y98.665 E2.12634
G1 X116.608 Y98.859 E2.13946
G1 X117.081 Y99.032 E2.14951
G1 X117.495 Y99.196 E2.1584
G1 X117.717 Y99.286 E2.16318
G1 X118.555 Y99.668 E2.18156
G1 X119.356 Y100.122 E2.19993
G1 X120.114 Y100.644 E2.2183
G1 X120.825 Y101.229 E2.23667
G1 X121.482 Y101.874 E2.25504
G1 X122.033 Y102.514 E2.2719
G1 X122.33 Y102.886 E2.2814
G1 X122.499 Y103.105 E2.28692
G1 X123.029 Y103.858 E2.30529
G1 X123.492 Y104.653 E2.32365
G1 X123.884 Y105.486 E2.34202
G1 X124.203 Y106.35 E2.3604
G1 X124.445 Y107.238 E2.37877
G1 X124.577 Y107.926 E2.39275
G1 X124.626 Y108.236 E2.39901
G1 X124.663 Y108.488 E2.4041
G1 X124.702 Y108.78 E2.40998
G1 X124.784 Y109.697 E2.42835
G1 X124.786 Y110.617 E2.44671
G1 X124.708 Y111.535 E2.46509
G1 X124.552 Y112.442 E2.48346
G1 X124.316 Y113.332 E2.50183
G1 X124.134 Y113.867 E2.51311
G1 X124.038 Y114.126 E2.51862
G1 X123.897 Y114.486 E2.52634
G1 X123.774 Y114.784 E2.53277
G1 X123.386 Y115.619 E2.55115
G1 X122.927 Y116.417 E2.56952
G1 X122.401 Y117.173 E2.5879
G1 X121.811 Y117.879 E2.60626
G1 X121.162 Y118.532 E2.62463
G1 X120.64 Y118.983 E2.6384
G1 X120.358 Y119.211 E2.64564
G1 X120.157 Y119.37 E2.65075
G1 X119.962 Y119.52 E2.65566
G1 X119.209 Y120.049 E2.67402
G1 X118.412 Y120.511 E2.69241
G1 X117.578 Y120.902 E2.71079
G1 X116.714 Y121.219 E2.72916
G1 X115.4 Y121.546 E2.75618
G1 X115.208 Y121.581 E2.76007
G1 X114.672 Y121.665 E2.7709
G1 X114.256 Y121.719 E2.77927
G1 X113.338 Y121.798 E2.79766
G1 X112.508 Y121.8 E2.81422
G1 X111.591 Y121.767 E2.83253
G1 X109.029 Y121.71 E2.88367
G1 X107.401 Y121.719 E2.91616
G1 X106.75 Y121.714 E2.92915
G1 X105.83 Y121.667 E2.94754
G1 X104.918 Y121.54 E2.96591
G1 X104.021 Y121.335 E2.98428
G1 X103.22 Y121.08 E3.00105
G1 X103.013 Y121.005 E3.00544
G1 X102.537 Y120.82 E3.01564
G1 X102.178 Y120.67 E3.0234
G1 X101.345 Y120.278 E3.04177
G1 X100.549 Y119.816 E3.06014
G1 X99.796 Y119.286 E3.07852
G1 X99.092 Y118.693 E3.09688
G1 X98.442 Y118.041 E3.11526
G1 X97.979 Y117.5 E3.12947
G1 X97.663 Y117.104 E3.13958
G1 X97.498 Y116.89 E3.14497
G1 X96.969 Y116.138 E3.16332
G1 X96.506 Y115.342 E3.18169
G1 X96.114 Y114.509 E3.20007
G1 X95.796 Y113.645 E3.21844
G1 X95.554 Y112.756 E3.23683
G1 X95.418 Y112.04 E3.25137
G1 X95.37 Y111.73 E3.25763
G1 X95.338 Y111.511 E3.26205
G1 X95.299 Y111.219 E3.26793
G1 X95.217 Y110.302 E3.2863
G1 X95.215 Y109.382 E3.30466
G1 X95.293 Y108.464 E3.32304
G1 X95.449 Y107.557 E3.34141
G1 X95.685 Y106.667 E3.35978
G1 X95.854 Y106.167 E3.37032
G1 X95.931 Y105.957 E3.37478
G1 X96.1 Y105.538 E3.3838
G1 X96.097 Y105.537 E3.38386
G1 X96.216 Y105.246 E3.39013
G1 X96.601 Y104.41 E3.4085
G1 X97.057 Y103.61 E3.42688
G1 X97.581 Y102.853 E3.44525
G1 X98.169 Y102.144 E3.46363
G1 X98.816 Y101.489 E3.48201
G0 F6000 X99.151 Y101.724
G1 F1200 X99.57 Y101.362 E3.49306
G1 X99.806 Y101.169 E3.49914
G1 X100.051 Y100.975 E3.50538
G1 X100.288 Y100.793 E3.51134
G1 X101.027 Y100.275 E3.52935
G1 X101.81 Y99.825 E3.54737
G1 X102.63 Y99.446 E3.5654
G1 X103.48 Y99.14 E3.58343
G1 X104.675 Y98.848 E3.60798
G1 X104.873 Y98.812 E3.61199
G1 X105.343 Y98.737 E3.62149
G1 X105.731 Y98.685 E3.6293
G1 X106.263 Y98.628 E3.63998
G1 X107.478 Y98.6 E3.66423
G1 X108.385 Y98.633 E3.68234
G1 X110.965 Y98.69 E3.73384
G1 X112.597 Y98.681 E3.76641
G1 X113.248 Y98.686 E3.7794
G1 X114.15 Y98.733 E3.79743
G1 X115.044 Y98.86 E3.81545
G1 X115.924 Y99.065 E3.83348
G1 X116.478 Y99.237 E3.84506
G1 X116.935 Y99.404 E3.85477
G1 X117.345 Y99.566 E3.86356
G1 X117.567 Y99.656 E3.86834
G1 X118.388 Y100.032 E3.88637
G1 X119.173 Y100.479 E3.90439
G1 X119.915 Y100.994 E3.92242
G1 X120.608 Y101.573 E3.94044
G1 X121.248 Y102.21 E3.95846
G1 X121.72 Y102.763 E3.97297
G1 X122.013 Y103.13 E3.98234
G1 X122.182 Y103.349 E3.98786
G1 X122.702 Y104.088 E4.00589
G1 X123.154 Y104.87 E4.02392
G1 X123.535 Y105.689 E4.04194
G1 X123.842 Y106.538 E4.05996
G1 X124.073 Y107.411 E4.07798
G1 X124.182 Y107.989 E4.08972
G1 X124.231 Y108.299 E4.09598
G1 X124.266 Y108.541 E4.10086
G1 X124.305 Y108.833 E4.10674
G1 X124.385 Y109.732 E4.12475
G1 X124.385 Y110.635 E4.14277
G1 X124.305 Y111.535 E4.1608
G1 X124.146 Y112.424 E4.17883
G1 X123.909 Y113.295 E4.19684
G1 X123.759 Y113.728 E4.20598
G1 X123.663 Y113.987 E4.2115
G1 X123.527 Y114.334 E4.21893
G1 X123.404 Y114.632 E4.22537
G1 X123.023 Y115.45 E4.24338
G1 X122.571 Y116.232 E4.2614
G1 X122.052 Y116.971 E4.27942
G1 X121.469 Y117.661 E4.29745
G1 X120.827 Y118.296 E4.31547
G1 X120.389 Y118.672 E4.32699
G1 X120.107 Y118.9 E4.33423
G1 X119.913 Y119.053 E4.33916
G1 X119.718 Y119.203 E4.34407
G1 X118.979 Y119.721 E4.36207
G1 X118.196 Y120.172 E4.38011
G1 X117.377 Y120.552 E4.39812
G1 X116.527 Y120.858 E4.41615
G1 X115.328 Y121.153 E4.44079
G1 X115.136 Y121.188 E4.44469
G1 X114.62 Y121.268 E4.45511
G1 X114.204 Y121.322 E4.46348
G1 X113.304 Y121.399 E4.48151
G1 X112.523 Y121.4 E4.49709
G1 X111.616 Y121.367 E4.5152
G1 X109.036 Y121.31 E4.5667
G1 X107.404 Y121.319 E4.59927
G1 X106.753 Y121.314 E4.61226
G1 X105.851 Y121.267 E4.63029
G1 X104.957 Y121.14 E4.64831
G1 X104.077 Y120.935 E4.66634
G1 X103.356 Y120.704 E4.68145
G1 X103.149 Y120.629 E4.68584
G1 X102.692 Y120.451 E4.69563
G1 X102.333 Y120.301 E4.70339
G1 X101.516 Y119.916 E4.72142
G1 X100.736 Y119.46 E4.73945
G1 X99.999 Y118.938 E4.75747
G1 X99.312 Y118.352 E4.77549
G1 X98.679 Y117.708 E4.79351
G1 X98.292 Y117.251 E4.80546
G1 X97.98 Y116.86 E4.81545
G1 X97.815 Y116.646 E4.82084
G1 X97.296 Y115.907 E4.83886
G1 X96.844 Y115.125 E4.85688
G1 X96.463 Y114.306 E4.87491
G1 X96.156 Y113.457 E4.89293
G1 X95.926 Y112.584 E4.91094
G1 X95.813 Y111.979 E4.92323
G1 X95.765 Y111.669 E4.92949
G1 X95.735 Y111.458 E4.93374
G1 X95.696 Y111.166 E4.93962
G1 X95.616 Y110.267 E4.95763
G1 X95.616 Y109.364 E4.97565
G1 X95.696 Y108.464 E4.99368
G1 X95.855 Y107.575 E5.0117
G1 X96.229 Y106.305 E5.03812
G1 X96.306 Y106.095 E5.04259
G1 X96.469 Y105.689 E5.05132
G1 X96.467 Y105.688 E5.05136
G1 X96.586 Y105.397 E5.05764
G1 X96.964 Y104.577 E5.07566
G1 X97.414 Y103.794 E5.09368
G1 X97.931 Y103.054 E5.11169
G1 X98.512 Y102.362 E5.12972
G1 X99.151 Y101.724 E5.14774
G1 F1500 E-1.35226
;MESH:eyes.stl
G0 F6000 X105.692 Y108.664
G0 X106.366 Y109.511
G0 X107.048 Y109.838
;TYPE:WALL-INNER
G1 F1500 E5.14774
G1 F1200 X107.096 Y109.897 E5.14926
G1 X107.107 Y109.972 E5.15077
G1 X107.081 Y110.038 E5.15219
G1 X107.023 Y110.084 E5.15367
G1 X106.948 Y110.095 E5.15518
G1 X106.879 Y110.068 E5.15666
G1 X106.835 Y110.013 E5.15761
G1 X106.824 Y109.935 E5.15869
G1 X106.85 Y109.869 E5.15968
G1 X106.907 Y109.823 E5.16068
G1 X106.983 Y109.812 E5.16174
G1 X107.048 Y109.838 E5.16269
G0 F6000 X107.294 Y109.504
G1 F1200 X107.476 Y109.733 E5.16853
G1 X107.518 Y110.018 E5.17428
G1 X107.415 Y110.283 E5.17995
G1 X107.188 Y110.464 E5.18574
G1 X106.902 Y110.506 E5.19151
G1 X106.634 Y110.402 E5.19725
G1 X106.455 Y110.177 E5.20299
G1 X106.412 Y109.889 E5.2088
G1 X106.517 Y109.623 E5.2145
G1 X106.743 Y109.443 E5.22027
G1 X107.03 Y109.401 E5.22606
G1 X107.294 Y109.504 E5.23171
G0 F6000 X107.541 Y109.172
;TYPE:WALL-OUTER
G1 F1200 X107.856 Y109.569 E5.24183
G1 X107.93 Y110.063 E5.2518
G1 X107.747 Y110.53 E5.2618
G1 X107.353 Y110.844 E5.27186
G1 X106.855 Y110.918 E5.28191
G1 X106.389 Y110.736 E5.29189
G1 X106.075 Y110.342 E5.30194
G1 X106.001 Y109.844 E5.31199
G1 X106.184 Y109.377 E5.322
G1 X106.578 Y109.063 E5.33206
G1 X107.075 Y108.989 E5.34208
G1 X107.541 Y109.172 E5.35207
G0 F6000 X107.28 Y109.525
G0 X107.134 Y109.655
G1 F1500 E-1.14793
G0 F6000 X107.705 Y110.039
G0 X108.776 Y109.879
G0 X111.225 Y110.121
G0 X112.296 Y109.961
G0 X113.15 Y110.131
;TYPE:WALL-INNER
G1 F1500 E5.35207
G1 F1200 X113.093 Y110.177 E5.35354
G1 X113.018 Y110.188 E5.35505
G1 X112.953 Y110.162 E5.35645
G1 X112.905 Y110.103 E5.35796
G1 X112.895 Y110.029 E5.35945
G1 X112.921 Y109.961 E5.36091
G1 X112.977 Y109.916 E5.36189
G1 X113.053 Y109.905 E5.36294
G1 X113.122 Y109.932 E5.36398
G1 X113.166 Y109.987 E5.36493
G1 X113.177 Y110.063 E5.366
G1 X113.15 Y110.131 E5.36702
G0 F6000 X113.484 Y110.377
G1 F1200 X113.257 Y110.557 E5.3728
G1 X112.971 Y110.599 E5.37857
G1 X112.707 Y110.496 E5.38422
G1 X112.525 Y110.267 E5.39006
G1 X112.483 Y109.982 E5.39581
G1 X112.587 Y109.716 E5.40151
G1 X112.813 Y109.536 E5.40728
G1 X113.099 Y109.494 E5.41304
G1 X113.367 Y109.598 E5.41878
G1 X113.546 Y109.823 E5.42452
G1 X113.588 Y110.109 E5.43029
G1 X113.484 Y110.377 E5.43602
G0 F6000 X113.818 Y110.622
;TYPE:WALL-OUTER
G1 F1200 X113.421 Y110.937 E5.44614
G1 X112.926 Y111.011 E5.45613
G1 X112.46 Y110.828 E5.46612
G1 X112.145 Y110.431 E5.47623
G1 X112.071 Y109.937 E5.4862
G1 X112.254 Y109.47 E5.49621
G1 X112.648 Y109.156 E5.50626
G1 X113.146 Y109.082 E5.51631
G1 X113.612 Y109.264 E5.52629
G1 X113.926 Y109.658 E5.53635
G1 X114 Y110.156 E5.54639
G1 X113.818 Y110.622 E5.55638
G0 F6000 X113.465 Y110.361
G0 X113.334 Y110.214
G1 F1500 E-0.94362
;MESH:NONMESH
G0 F300 X113.334 Y110.214 Z0.24
G0 F6000 X112.296 Y109.961
G0 X111.225 Y110.121
G0 X108.776 Y109.879
G0 X107.705 Y110.039
G0 X107.118 Y109.97
;TIME_ELAPSED:21.234218
;LAYER:1
M106 S85
;TYPE:WALL-INNER
;MESH:eyes.stl
G1 F1500 E5.55638
G1 F600 X107.088 Y110.047 E5.55803
G1 X107.028 Y110.095 E5.55956
G1 X106.948 Y110.107 E5.56117
G1 X106.87 Y110.076 E5.56285
G1 X106.824 Y110.018 E5.56433
G1 X106.812 Y109.936 E5.56598
G1 X106.842 Y109.86 E5.5672
G1 X106.902 Y109.812 E5.56835
G1 X106.983 Y109.8 E5.56957
G1 X107.059 Y109.83 E5.57079
G1 X107.107 Y109.89 E5.57195
G1 X107.118 Y109.97 E5.57317
G0 F7500 X107.53 Y110.017
G1 F600 X107.423 Y110.291 E5.57904
G1 X107.193 Y110.475 E5.58492
G1 X106.902 Y110.518 E5.59079
G1 X106.625 Y110.41 E5.59672
G1 X106.444 Y110.183 E5.60251
G1 X106.401 Y109.89 E5.60842
G1 X106.508 Y109.615 E5.61431
G1 X106.738 Y109.432 E5.62018
G1 X107.029 Y109.389 E5.62605
G1 X107.304 Y109.496 E5.63194
G1 X107.487 Y109.726 E5.6378
G1 X107.53 Y110.017 E5.64367
G0 F7500 X107.942 Y110.065
;TYPE:WALL-OUTER
G1 F600 X107.931 Y110.09 E5.64422
G1 X107.757 Y110.537 E5.65379
G1 X107.357 Y110.855 E5.66399
G1 X106.854 Y110.93 E5.67414
G1 X106.829 Y110.919 E5.67468
G1 X106.38 Y110.744 E5.6843
G1 X106.064 Y110.347 E5.69442
G1 X105.989 Y109.843 E5.70459
G1 X106.174 Y109.37 E5.71473
G1 X106.573 Y109.052 E5.72491
G1 X107.076 Y108.977 E5.73506
G1 X107.549 Y109.162 E5.74519
G1 X107.867 Y109.562 E5.75539
G1 X107.942 Y110.065 E5.76554
G0 F7500 X107.506 Y110.006
G0 X107.313 Y110.024
G1 F1500 E-0.73446
G0 F7500 X107.717 Y110.037
G0 X108.788 Y109.877
G0 X111.213 Y110.12
G0 X112.284 Y109.96
G0 X113.053 Y109.894
;TYPE:WALL-INNER
G1 F1500 E5.76554
G1 F600 X113.131 Y109.924 E5.76721
G1 X113.177 Y109.981 E5.76867
G1 X113.189 Y110.066 E5.77038
G1 X113.16 Y110.139 E5.77195
G1 X113.099 Y110.188 E5.77351
G1 X113.018 Y110.2 E5.77515
G1 X112.942 Y110.17 E5.77638
G1 X112.894 Y110.11 E5.77754
G1 X112.882 Y110.027 E5.77879
G1 X112.91 Y109.956 E5.77993
G1 X112.973 Y109.905 E5.78115
G1 X113.053 Y109.894 E5.78235
G0 F7500 X113.099 Y109.482
G1 F600 X113.376 Y109.59 E5.78829
G1 X113.557 Y109.817 E5.79408
G1 X113.6 Y110.112 E5.80003
G1 X113.493 Y110.385 E5.80588
G1 X113.263 Y110.568 E5.81175
G1 X112.972 Y110.611 E5.81762
G1 X112.697 Y110.504 E5.82351
G1 X112.514 Y110.274 E5.82937
G1 X112.471 Y109.981 E5.83528
G1 X112.578 Y109.709 E5.84111
G1 X112.809 Y109.525 E5.84701
