;FLAVOR:Marlin
;TIME:4217
;Filament used: 0.999012m
;Layer height: 0.12
;MINX:66.752
;MINY:91.5
;MINZ:0.2
;MAXX:168.25
;MAXY:143.5
;MAXZ:2.12
;Generated with Cura_SteamEngine 4.6.2
M140 S60
M105
M190 S60
M104 S200
M105
M109 S200
M82 ;absolute extrusion mode
; Ender 3 Custom Start G-code
G92 E0 ; Reset Extruder
G28 ; Home all axes
G1 Z2.0 F3000 ; Move Z Axis up little to prevent scratching of Heat Bed
G1 X0.1 Y20 Z0.3 F5000.0 ; Move to start position
G1 X0.1 Y200.0 Z0.3 F1500.0 E15 ; Draw the first line
G1 X0.4 Y200.0 Z0.3 F5000.0 ; Move to side a little
G1 X0.4 Y20 Z0.3 F1500.0 E30 ; Draw the second line
G92 E0 ; Reset Extruder
G1 Z2.0 F3000 ; Move Z Axis up little to prevent scratching of Heat Bed
G1 X5 Y20 Z0.3 F5000.0 ; Move over to prevent blob squish
G92 E0
G92 E0
G1 F1500 E-6
;LAYER_COUNT:17
;LAYER:0
M107
M204 S500
M205 X8 Y8
G0 F7500 X152.489 Y92.318 Z0.2
;TYPE:SKIRT
G1 F1500 E0
G1 X153.254 Y92.354 E0.0242
G1 X154.09 Y92.428 E0.05072
G1 X154.413 Y92.47 E0.06101
G1 X155.238 Y92.612 E0.08746
G1 X155.676 Y92.706 E0.10161
G1 X156.462 Y92.908 E0.12726
G1 X156.659 Y92.967 E0.13375
G1 X157.159 Y93.131 E0.15038
G1 X157.56 Y93.274 E0.16383
G1 X158.318 Y93.579 E0.18965
G1 X158.547 Y93.682 E0.19758
G1 X158.974 Y93.886 E0.21254
G1 X159.341 Y94.072 E0.22554
G1 X160.045 Y94.464 E0.251
G1 X160.217 Y94.569 E0.25736
G1 X160.691 Y94.877 E0.27523
G1 X161.074 Y95.141 E0.28992
G1 X161.75 Y95.649 E0.31664
G1 X161.905 Y95.776 E0.32297
G1 X162.275 Y96.095 E0.33841
G1 X162.604 Y96.392 E0.35242
G1 X163.406 Y97.202 E0.38843
G1 X163.761 Y97.603 E0.40535
G1 X164.453 Y98.476 E0.44055
G1 X164.827 Y99.005 E0.46102
G1 X165.293 Y99.726 E0.48815
G1 X165.434 Y99.966 E0.49694
G1 X165.835 Y100.721 E0.52396
G1 X166.037 Y101.142 E0.53871
G1 X166.36 Y101.889 E0.56443
G1 X166.442 Y102.102 E0.57164
G1 X166.609 Y102.57 E0.58734
G1 X166.742 Y102.973 E0.60075
G1 X166.966 Y103.755 E0.62645
G1 X167.014 Y103.952 E0.63286
G1 X167.122 Y104.448 E0.6489
G1 X167.208 Y104.897 E0.66334
G1 X167.339 Y105.796 E0.69205
G1 X167.359 Y105.995 E0.69837
G1 X167.392 Y106.409 E0.71149
G1 X167.419 Y106.863 E0.72586
G1 X167.433 Y107.183 E0.73598
G1 X167.446 Y107.788 E0.7551
G1 X167.449 Y126.162 E1.33567
G1 X167.439 Y126.846 E1.35728
G1 X167.44 Y129.134 E1.42958
G1 X167.45 Y130.727 E1.47991
G1 X167.448 Y131.89 E1.51666
G1 X167.439 Y132.526 E1.53676
G1 X167.386 Y133.428 E1.56531
G1 X167.254 Y134.321 E1.59383
G1 X167.101 Y134.992 E1.61557
G1 X166.837 Y135.856 E1.64412
G1 X166.498 Y136.693 E1.67265
G1 X166.087 Y137.497 E1.70118
G1 X165.606 Y138.261 E1.72971
G1 X165.059 Y138.98 E1.75826
G1 X164.451 Y139.648 E1.7868
G1 X163.786 Y140.259 E1.81533
G1 X163.07 Y140.809 E1.84386
G1 X162.308 Y141.294 E1.8724
G1 X161.833 Y141.551 E1.88946
G1 X161.012 Y141.929 E1.91802
G1 X160.162 Y142.233 E1.94655
G1 X159.288 Y142.46 E1.97508
G1 X158.397 Y142.609 E2.00362
G1 X157.337 Y142.683 E2.0372
G1 X156.284 Y142.7 E2.07047
G1 X152.381 Y142.693 E2.1938
G1 X150.395 Y142.7 E2.25655
G1 X149.044 Y142.693 E2.29924
G1 X147.943 Y142.697 E2.33403
G1 X143.269 Y142.675 E2.48171
G1 X136.174 Y142.63 E2.7059
G1 X132.591 Y142.589 E2.81912
G1 X130.904 Y142.585 E2.87242
G1 X128.94 Y142.563 E2.93448
G1 X124.71 Y142.534 E3.06814
G1 X123.457 Y142.517 E3.10774
G1 X114.224 Y142.43 E3.39949
G1 X113.445 Y142.416 E3.42411
G1 X105.999 Y142.352 E3.65939
G1 X105.175 Y142.337 E3.68543
G1 X104.754 Y142.335 E3.69873
G1 X97.771 Y142.26 E3.91938
G1 X96.889 Y142.257 E3.94725
G1 X95.828 Y142.243 E3.98078
G1 X95.388 Y142.246 E3.99468
G1 X93.919 Y142.222 E4.04111
G1 X93.168 Y142.215 E4.06484
G1 X89.895 Y142.177 E4.16826
G1 X89.282 Y142.179 E4.18763
G1 X87.868 Y142.158 E4.23231
G1 X87.077 Y142.156 E4.25731
G1 X86.243 Y142.14 E4.28366
G1 X83.748 Y142.105 E4.36251
G1 X83.198 Y142.104 E4.37988
G1 X79.241 Y142.056 E4.50492
G1 X78.526 Y142.037 E4.52752
G1 X77.625 Y141.973 E4.55606
G1 X76.734 Y141.83 E4.58458
G1 X75.858 Y141.608 E4.61313
G1 X75.204 Y141.387 E4.63494
G1 X75.026 Y141.32 E4.64095
G1 X74.195 Y140.965 E4.66951
G1 X73.4 Y140.538 E4.69802
G1 X72.645 Y140.042 E4.72656
G1 X71.937 Y139.481 E4.75511
G1 X71.43 Y139.01 E4.77697
G1 X71.275 Y138.856 E4.78388
G1 X70.663 Y138.192 E4.81241
G1 X70.112 Y137.476 E4.84096
G1 X69.627 Y136.714 E4.8695
G1 X69.211 Y135.912 E4.89804
G1 X68.868 Y135.077 E4.92657
G1 X68.603 Y134.227 E4.9547
G1 X68.557 Y134.053 E4.96039
G1 X68.365 Y133.171 E4.98891
G1 X68.234 Y132.018 E5.02557
G1 X68.174 Y130.949 E5.0594
G1 X68.16 Y130.598 E5.0705
G1 X68.139 Y129.608 E5.10179
G1 X68.062 Y127.574 E5.16611
G1 X67.818 Y120.688 E5.38382
G1 X67.692 Y116.55 E5.51463
G1 X67.618 Y113.742 E5.60338
G1 X67.562 Y110.83 E5.69541
G1 X67.552 Y109.706 E5.73093
G1 X67.552 Y108.081 E5.78227
G1 X67.558 Y107.584 E5.79798
G1 X67.568 Y107.234 E5.80904
G1 X67.6 Y106.545 E5.83084
G1 X67.727 Y105.348 E5.86887
G1 X67.839 Y104.673 E5.89049
G1 X68.032 Y103.767 E5.91976
G1 X68.109 Y103.472 E5.92939
G1 X68.356 Y102.662 E5.95615
G1 X68.501 Y102.25 E5.96995
G1 X68.809 Y101.477 E5.99624
G1 X68.905 Y101.262 E6.00368
G1 X69.105 Y100.84 E6.01844
G1 X69.298 Y100.456 E6.03202
G1 X69.781 Y99.602 E6.06302
G1 X69.98 Y99.286 E6.07482
G1 X70.222 Y98.919 E6.08871
G1 X70.397 Y98.666 E6.09843
G1 X71.108 Y97.753 E6.13499
G1 X71.401 Y97.418 E6.14906
G1 X72.025 Y96.765 E6.17759
G1 X72.705 Y96.17 E6.20614
G1 X73.434 Y95.637 E6.23468
G1 X74.208 Y95.171 E6.26322
G1 X75.019 Y94.776 E6.29173
G1 X75.863 Y94.453 E6.32028
G1 X76.732 Y94.207 E6.34882
G1 X77.619 Y94.038 E6.37735
G1 X78.518 Y93.948 E6.4059
G1 X79.421 Y93.939 E6.43443
G1 X80.064 Y93.981 E6.45479
G1 X80.61 Y94.034 E6.47212
G1 X83.278 Y94.254 E6.55671
G1 X85.786 Y94.389 E6.63607
G1 X88.347 Y94.455 E6.71702
G1 X90.884 Y94.448 E6.79718
G1 X93.409 Y94.371 E6.877
G1 X95.953 Y94.219 E6.95753
G1 X98.461 Y93.999 E7.03708
G1 X101.033 Y93.7 E7.11889
G1 X103.479 Y93.345 E7.19699
G1 X107.19 Y92.676 E7.31614
G1 X108.008 Y92.512 E7.3425
G1 X108.901 Y92.373 E7.37105
G1 X109.67 Y92.318 E7.39541
G1 X110.023 Y92.306 E7.40657
G1 X110.37 Y92.3 E7.41754
G1 X151.689 Y92.301 E8.7231
G0 F1350 X151.696 Y92.301
G0 X152.489 Y92.318
G0 F7500 X152.508 Y91.919
G1 F1500 X153.273 Y91.955 E8.7473
G1 X154.142 Y92.031 E8.77486
G1 X154.465 Y92.073 E8.78515
G1 X155.322 Y92.221 E8.81263
G1 X155.76 Y92.315 E8.82679
G1 X156.577 Y92.525 E8.85344
G1 X156.774 Y92.584 E8.85994
G1 X157.293 Y92.754 E8.8772
G1 X157.694 Y92.897 E8.89065
G1 X158.482 Y93.214 E8.91749
G1 X158.711 Y93.317 E8.92542
G1 X159.155 Y93.529 E8.94097
G1 X159.522 Y93.715 E8.95397
G1 X160.253 Y94.123 E8.98042
G1 X160.425 Y94.228 E8.98679
G1 X160.918 Y94.547 E9.00534
G1 X161.301 Y94.811 E9.02004
G1 X162.003 Y95.34 E9.04781
G1 X162.158 Y95.467 E9.05414
G1 X162.543 Y95.798 E9.07019
G1 X162.872 Y96.095 E9.08419
G1 X163.706 Y96.937 E9.12164
G1 X164.061 Y97.338 E9.13856
G1 X164.779 Y98.245 E9.17511
G1 X165.153 Y98.774 E9.19558
G1 X165.637 Y99.524 E9.22379
G1 X165.778 Y99.764 E9.23258
G1 X166.196 Y100.548 E9.26065
G1 X166.398 Y100.969 E9.27541
G1 X166.733 Y101.746 E9.30214
G1 X166.815 Y101.959 E9.30936
G1 X166.989 Y102.445 E9.32567
G1 X167.122 Y102.848 E9.33908
G1 X167.355 Y103.661 E9.3658
G1 X167.403 Y103.858 E9.3722
G1 X167.515 Y104.373 E9.38886
G1 X167.601 Y104.822 E9.4033
G1 X167.737 Y105.756 E9.43313
G1 X167.757 Y105.955 E9.43944
G1 X167.791 Y106.386 E9.45311
G1 X167.833 Y107.172 E9.47798
G1 X167.846 Y107.788 E9.49744
G1 X167.849 Y126.167 E10.07817
G1 X167.839 Y126.851 E10.09978
G1 X167.84 Y129.131 E10.17182
G1 X167.85 Y130.727 E10.22225
G1 X167.848 Y131.896 E10.25919
G1 X167.839 Y132.532 E10.27929
G1 X167.786 Y133.451 E10.30838
G1 X167.653 Y134.362 E10.33747
G1 X167.488 Y135.092 E10.36111
G1 X167.22 Y135.973 E10.39021
G1 X166.877 Y136.827 E10.41929
G1 X166.461 Y137.648 E10.44837
G1 X165.975 Y138.43 E10.47746
G1 X165.423 Y139.167 E10.50656
G1 X164.81 Y139.854 E10.53565
G1 X164.139 Y140.484 E10.56473
G1 X163.416 Y141.054 E10.59382
G1 X162.646 Y141.559 E10.62292
G1 X162.016 Y141.906 E10.64564
G1 X161.18 Y142.292 E10.67474
G1 X160.314 Y142.604 E10.70382
G1 X159.424 Y142.84 E10.73292
G1 X158.517 Y142.998 E10.76201
G1 X157.344 Y143.083 E10.79917
G1 X156.283 Y143.1 E10.8327
G1 X152.382 Y143.093 E10.95596
G1 X150.393 Y143.1 E11.0188
G1 X149.044 Y143.093 E11.06143
G1 X147.941 Y143.097 E11.09628
G1 X143.267 Y143.075 E11.24397
G1 X136.17 Y143.03 E11.46822
G1 X132.587 Y142.989 E11.58144
G1 X130.9 Y142.985 E11.63474
G1 X128.937 Y142.963 E11.69677
G1 X124.704 Y142.934 E11.83052
G1 X123.453 Y142.917 E11.87006
G1 X114.216 Y142.83 E12.16193
G1 X113.441 Y142.816 E12.18642
G1 X105.992 Y142.752 E12.4218
G1 X104.75 Y142.735 E12.46105
G1 X97.77 Y142.66 E12.68161
G1 X96.882 Y142.657 E12.70966
G1 X95.839 Y142.643 E12.74262
G1 X95.381 Y142.646 E12.7571
G1 X93.908 Y142.622 E12.80364
G1 X93.164 Y142.615 E12.82715
G1 X89.893 Y142.577 E12.93051
G1 X89.277 Y142.579 E12.94998
G1 X87.863 Y142.558 E12.99466
G1 X87.069 Y142.556 E13.01975
G1 X86.227 Y142.54 E13.04636
G1 X83.743 Y142.505 E13.12485
G1 X83.194 Y142.504 E13.1422
G1 X79.23 Y142.456 E13.26746
G1 X78.515 Y142.437 E13.29006
G1 X77.597 Y142.373 E13.31914
G1 X76.688 Y142.229 E13.34822
G1 X75.794 Y142.007 E13.37732
G1 X75.063 Y141.762 E13.40168
G1 X74.885 Y141.695 E13.40769
G1 X74.038 Y141.333 E13.4368
G1 X73.226 Y140.9 E13.46587
G1 X72.454 Y140.397 E13.49499
G1 X71.729 Y139.83 E13.52407
G1 X71.148 Y139.294 E13.54905
G1 X70.993 Y139.14 E13.55595
G1 X70.369 Y138.463 E13.58504
G1 X69.805 Y137.735 E13.61414
G1 X69.307 Y136.96 E13.64325
G1 X68.879 Y136.146 E13.67231
G1 X68.522 Y135.297 E13.70141
G1 X68.216 Y134.329 E13.73349
G1 X68.17 Y134.155 E13.73917
G1 X67.974 Y133.256 E13.76825
G1 X67.835 Y132.04 E13.80692
G1 X67.775 Y130.971 E13.84075
G1 X67.76 Y130.607 E13.85226
G1 X67.739 Y129.631 E13.88311
G1 X67.662 Y127.589 E13.94767
G1 X67.418 Y120.701 E14.16545
G1 X67.292 Y116.563 E14.29626
G1 X67.218 Y113.749 E14.38521
G1 X67.162 Y110.834 E14.47733
G1 X67.152 Y109.706 E14.51297
G1 X67.152 Y108.076 E14.56447
G1 X67.158 Y107.579 E14.58018
G1 X67.168 Y107.215 E14.59168
G1 X67.2 Y106.526 E14.61348
G1 X67.332 Y105.283 E14.65297
G1 X67.444 Y104.608 E14.67459
G1 X67.645 Y103.666 E14.70503
G1 X67.722 Y103.371 E14.71466
G1 X67.979 Y102.529 E14.74248
G1 X68.124 Y102.117 E14.75628
G1 X68.444 Y101.314 E14.78359
G1 X68.54 Y101.099 E14.79103
G1 X68.748 Y100.661 E14.80635
G1 X68.941 Y100.277 E14.81993
G1 X69.442 Y99.388 E14.85218
G1 X69.641 Y99.072 E14.86398
G1 X69.893 Y98.691 E14.87841
G1 X70.068 Y98.438 E14.88813
G1 X70.807 Y97.49 E14.92611
G1 X71.1 Y97.155 E14.94017
G1 X71.736 Y96.489 E14.96927
G1 X72.427 Y95.88 E14.99837
G1 X73.168 Y95.334 E15.02746
G1 X73.954 Y94.854 E15.05656
G1 X74.778 Y94.445 E15.08562
G1 X75.635 Y94.108 E15.11472
G1 X76.518 Y93.847 E15.14381
G1 X77.42 Y93.664 E15.17289
G1 X78.335 Y93.559 E15.202
G1 X79.255 Y93.534 E15.23108
G1 X80.103 Y93.583 E15.25792
G1 X80.688 Y93.64 E15.27649
G1 X83.296 Y93.854 E15.35917
G1 X85.782 Y93.989 E15.43784
G1 X88.356 Y94.055 E15.51919
G1 X90.871 Y94.048 E15.59866
G1 X93.407 Y93.97 E15.67883
G1 X95.894 Y93.822 E15.75755
G1 X98.45 Y93.598 E15.83862
G1 X100.966 Y93.305 E15.91866
G1 X103.413 Y92.951 E15.99678
G1 X107.13 Y92.281 E16.11612
G1 X107.929 Y92.12 E16.14187
G1 X108.839 Y91.978 E16.17097
G1 X109.657 Y91.918 E16.19689
G1 X110.01 Y91.906 E16.20805
G1 X110.37 Y91.9 E16.21943
G1 X151.702 Y91.901 E17.5254
G1 X151.708 Y91.902 E17.52559
G0 F1350 X152.508 Y91.919
G0 F7500 X152.527 Y91.519
G1 F1500 X153.292 Y91.555 E17.54979
G1 X154.193 Y91.635 E17.57837
G1 X154.516 Y91.677 E17.58866
G1 X155.406 Y91.83 E17.6172
G1 X155.844 Y91.924 E17.63135
G1 X156.692 Y92.141 E17.65901
G1 X156.889 Y92.2 E17.66551
G1 X157.428 Y92.377 E17.68343
G1 X157.829 Y92.52 E17.69688
G1 X158.646 Y92.849 E17.72471
G1 X158.875 Y92.952 E17.73265
G1 X159.336 Y93.172 E17.74879
G1 X159.703 Y93.358 E17.76179
G1 X160.462 Y93.781 E17.78924
G1 X160.634 Y93.886 E17.79561
G1 X161.145 Y94.218 E17.81487
G1 X161.528 Y94.482 E17.82956
G1 X162.257 Y95.03 E17.85838
G1 X162.412 Y95.157 E17.86471
G1 X162.811 Y95.501 E17.88136
G1 X163.14 Y95.798 E17.89536
G1 X164.005 Y96.672 E17.93422
G1 X164.36 Y97.073 E17.95114
G1 X165.106 Y98.014 E17.98908
G1 X165.48 Y98.543 E18.00955
G1 X165.982 Y99.321 E18.03881
G1 X166.123 Y99.561 E18.0476
G1 X166.556 Y100.374 E18.07671
G1 X166.758 Y100.795 E18.09146
G1 X167.107 Y101.602 E18.11924
G1 X167.189 Y101.815 E18.12645
G1 X167.369 Y102.32 E18.14339
G1 X167.502 Y102.723 E18.1568
G1 X167.743 Y103.566 E18.18451
G1 X167.791 Y103.763 E18.19091
G1 X167.908 Y104.298 E18.20822
G1 X167.994 Y104.747 E18.22266
G1 X168.135 Y105.716 E18.2536
G1 X168.155 Y105.915 E18.25992
G1 X168.191 Y106.362 E18.27409
G1 X168.218 Y106.816 E18.28846
G1 X168.242 Y107.482 E18.30952
G1 X168.246 Y107.788 E18.31919
G1 X168.249 Y126.173 E18.9001
G1 X168.239 Y126.857 E18.92172
G1 X168.24 Y129.128 E18.99347
G1 X168.25 Y130.728 E19.04403
G1 X168.248 Y131.902 E19.08113
G1 X168.239 Y132.538 E19.10122
G1 X168.186 Y133.474 E19.13085
G1 X168.053 Y134.402 E19.16047
G1 X167.875 Y135.191 E19.18602
G1 X167.603 Y136.089 E19.21567
G1 X167.256 Y136.96 E19.2453
G1 X166.835 Y137.798 E19.27493
G1 X166.345 Y138.598 E19.30457
G1 X165.788 Y139.353 E19.33422
G1 X165.169 Y140.057 E19.36384
G1 X164.493 Y140.707 E19.39347
G1 X163.763 Y141.296 E19.42311
G1 X162.986 Y141.821 E19.45274
G1 X162.199 Y142.262 E19.48124
G1 X161.348 Y142.656 E19.51087
G1 X160.466 Y142.976 E19.54052
G1 X159.561 Y143.219 E19.57013
G1 X158.638 Y143.385 E19.59976
G1 X157.351 Y143.483 E19.64054
G1 X156.282 Y143.5 E19.67432
G1 X152.382 Y143.493 E19.79755
G1 X150.391 Y143.5 E19.86046
G1 X149.043 Y143.493 E19.90306
G1 X147.939 Y143.497 E19.93794
G1 X143.265 Y143.475 E20.08563
G1 X136.165 Y143.43 E20.30997
G1 X132.581 Y143.389 E20.42322
G1 X130.896 Y143.385 E20.47646
G1 X128.934 Y143.363 E20.53846
G1 X124.699 Y143.334 E20.67228
G1 X123.45 Y143.317 E20.71175
G1 X114.209 Y143.23 E21.00375
G1 X113.437 Y143.216 E21.02815
G1 X105.985 Y143.152 E21.26362
G1 X104.746 Y143.135 E21.30277
G1 X97.769 Y143.06 E21.52323
G1 X96.876 Y143.057 E21.55145
G1 X95.849 Y143.043 E21.5839
G1 X95.375 Y143.045 E21.59888
G1 X93.952 Y143.021 E21.64385
G1 X93.161 Y143.015 E21.66884
G1 X89.892 Y142.977 E21.77214
G1 X89.271 Y142.979 E21.79176
G1 X87.857 Y142.958 E21.83645
G1 X87.062 Y142.956 E21.86157
G1 X86.217 Y142.94 E21.88827
G1 X83.737 Y142.905 E21.96664
G1 X83.189 Y142.904 E21.98396
G1 X79.22 Y142.856 E22.10937
G1 X78.505 Y142.837 E22.13197
G1 X77.569 Y142.772 E22.16162
G1 X76.642 Y142.628 E22.19126
G1 X75.731 Y142.405 E22.2209
G1 X74.922 Y142.136 E22.24783
G1 X74.744 Y142.069 E22.25384
G1 X73.881 Y141.701 E22.28349
G1 X73.053 Y141.262 E22.3131
G1 X72.265 Y140.753 E22.34274
G1 X71.523 Y140.179 E22.37238
G1 X70.866 Y139.577 E22.40054
G1 X70.711 Y139.423 E22.40744
G1 X70.075 Y138.735 E22.43705
G1 X69.499 Y137.994 E22.4667
G1 X68.989 Y137.207 E22.49633
G1 X68.547 Y136.38 E22.52596
G1 X68.178 Y135.518 E22.55559
G1 X67.829 Y134.431 E22.59166
G1 X67.783 Y134.257 E22.59735
G1 X67.583 Y133.341 E22.62697
G1 X67.435 Y132.062 E22.66766
G1 X67.375 Y130.993 E22.70149
G1 X67.361 Y130.615 E22.71344
G1 X67.34 Y129.656 E22.74375
G1 X67.263 Y127.604 E22.80863
G1 X67.018 Y120.713 E23.0265
G1 X66.892 Y116.575 E23.15731
G1 X66.818 Y113.757 E23.24639
G1 X66.763 Y110.838 E23.33863
G1 X66.752 Y109.706 E23.3744
G1 X66.752 Y108.071 E23.42607
G1 X66.758 Y107.574 E23.44177
G1 X66.769 Y107.197 E23.45369
G1 X66.801 Y106.508 E23.47548
G1 X66.937 Y105.217 E23.5165
G1 X67.049 Y104.542 E23.53812
G1 X67.258 Y103.565 E23.56969
G1 X67.335 Y103.27 E23.57932
G1 X67.602 Y102.396 E23.6082
G1 X67.747 Y101.984 E23.622
G1 X68.079 Y101.151 E23.65033
G1 X68.175 Y100.936 E23.65777
G1 X68.391 Y100.481 E23.67369
G1 X68.584 Y100.097 E23.68726
G1 X69.104 Y99.175 E23.72071
G1 X69.303 Y98.859 E23.73251
G1 X69.564 Y98.463 E23.7475
G1 X69.739 Y98.21 E23.75722
G1 X70.506 Y97.226 E23.79664
G1 X70.799 Y96.891 E23.8107
G1 X71.446 Y96.212 E23.84034
G1 X72.149 Y95.591 E23.86997
G1 X72.901 Y95.031 E23.8996
G1 X73.699 Y94.538 E23.92924
G1 X74.536 Y94.115 E23.95887
G1 X75.406 Y93.764 E23.98851
G1 X76.302 Y93.489 E24.01813
G1 X77.219 Y93.291 E24.04777
G1 X78.15 Y93.172 E24.07743
G1 X79.087 Y93.133 E24.10706
