;FLAVOR:Marlin
;TIME:715
;Filament used: 0.450515m
;Layer height: 0.2
;MINX:102.855
;MINY:34.948
;MINZ:0.2
;MAXX:132.143
;MAXY:200.052
;MAXZ:2.8
;Generated with Cura_SteamEngine 4.6.2
M140 S60
M105
M190 S60
M104 S200
M105
M109 S200
M82 ;absolute extrusion mode
; Ender 3 Custom Start G-code
G92 E0 ; Reset Extruder
G28 ; Home all axes
G1 Z2.0 F3000 ; Move Z Axis up little to prevent scratching of Heat Bed
G1 X0.1 Y20 Z0.3 F5000.0 ; Move to start position
G1 X0.1 Y200.0 Z0.3 F1500.0 E15 ; Draw the first line
G1 X0.4 Y200.0 Z0.3 F5000.0 ; Move to side a little
G1 X0.4 Y20 Z0.3 F1500.0 E30 ; Draw the second line
G92 E0 ; Reset Extruder
G1 Z2.0 F3000 ; Move Z Axis up little to prevent scratching of Heat Bed
G1 X5 Y20 Z0.3 F5000.0 ; Move over to prevent blob squish
G92 E0
G92 E0
G1 F1500 E-6
;LAYER_COUNT:15
;LAYER:0
M107
M204 S500
M205 X8 Y8
G0 F7500 X121.28 Y35.759 Z0.2
;TYPE:SKIRT
G1 F1500 E0
G1 X122.182 Y35.812 E0.02855
G1 X123.075 Y35.944 E0.05707
G1 X123.953 Y36.155 E0.0856
G1 X124.809 Y36.443 E0.11414
G1 X125.636 Y36.805 E0.14267
G1 X126.428 Y37.24 E0.17122
G1 X127.179 Y37.742 E0.19976
G1 X127.882 Y38.309 E0.2283
G1 X128.532 Y38.936 E0.25683
G1 X129.124 Y39.618 E0.28537
G1 X129.654 Y40.349 E0.3139
G1 X130.116 Y41.125 E0.34243
G1 X130.509 Y41.938 E0.37097
G1 X130.827 Y42.783 E0.39949
G1 X131.07 Y43.653 E0.42804
G1 X131.235 Y44.541 E0.45657
G1 X131.33 Y45.671 E0.49241
G1 X131.343 Y46.278 E0.51159
G1 X131.343 Y88.579 E1.84818
G1 X131.342 Y185.613 E4.91417
G1 X131.342 Y188.442 E5.00356
G1 X131.333 Y189.169 E5.02654
G1 X131.282 Y190.071 E5.05508
G1 X131.151 Y190.965 E5.08363
G1 X130.942 Y191.843 E5.11215
G1 X130.656 Y192.7 E5.1407
G1 X130.295 Y193.528 E5.16924
G1 X129.863 Y194.32 E5.19774
G1 X129.362 Y195.072 E5.22629
G1 X128.796 Y195.776 E5.25484
G1 X128.171 Y196.427 E5.28335
G1 X127.49 Y197.021 E5.3119
G1 X126.759 Y197.552 E5.34045
G1 X125.985 Y198.016 E5.36897
G1 X125.172 Y198.41 E5.39751
G1 X124.328 Y198.73 E5.42603
G1 X123.458 Y198.975 E5.45459
G1 X122.571 Y199.141 E5.4831
G1 X121.42 Y199.239 E5.5196
G1 X120.813 Y199.252 E5.53879
G1 X114.43 Y199.251 E5.74047
G1 X113.732 Y199.242 E5.76253
G1 X112.831 Y199.191 E5.79104
G1 X111.937 Y199.059 E5.8196
G1 X111.059 Y198.85 E5.84812
G1 X110.202 Y198.563 E5.87667
G1 X109.375 Y198.202 E5.90518
G1 X108.582 Y197.769 E5.93373
G1 X107.831 Y197.268 E5.96226
G1 X107.127 Y196.702 E5.9908
G1 X106.476 Y196.076 E6.01934
G1 X105.883 Y195.395 E6.04787
G1 X105.353 Y194.664 E6.0764
G1 X104.889 Y193.889 E6.10494
G1 X104.495 Y193.076 E6.13349
G1 X104.175 Y192.232 E6.16201
G1 X103.931 Y191.362 E6.19056
G1 X103.765 Y190.474 E6.2191
G1 X103.668 Y189.319 E6.25572
G1 X103.655 Y188.71 E6.27497
G1 X103.656 Y121.647 E8.39397
G1 X103.655 Y121.221 E8.40743
G1 X103.656 Y49.408 E10.67651
G1 X103.656 Y46.475 E10.76919
G1 X103.664 Y45.831 E10.78954
G1 X103.715 Y44.93 E10.81805
G1 X103.846 Y44.036 E10.8466
G1 X104.055 Y43.158 E10.87512
G1 X104.341 Y42.301 E10.90367
G1 X104.702 Y41.473 E10.93221
G1 X105.135 Y40.68 E10.96076
G1 X105.636 Y39.929 E10.98928
G1 X106.201 Y39.225 E11.0178
G1 X106.827 Y38.574 E11.04634
G1 X107.507 Y37.98 E11.07487
G1 X108.238 Y37.449 E11.10342
G1 X109.013 Y36.985 E11.13196
G1 X109.825 Y36.591 E11.16048
G1 X110.67 Y36.271 E11.18903
G1 X111.539 Y36.026 E11.21755
G1 X112.427 Y35.86 E11.2461
G1 X113.55 Y35.763 E11.28171
G1 X114.189 Y35.748 E11.30191
G1 X120.48 Y35.749 E11.50069
G0 F1350 X120.582 Y35.749
G0 X121.28 Y35.759
G0 F7500 X121.286 Y35.359
G1 F1500 X122.205 Y35.412 E11.52977
G1 X123.116 Y35.545 E11.55886
G1 X124.012 Y35.756 E11.58795
G1 X124.886 Y36.044 E11.61703
G1 X125.733 Y36.407 E11.64614
G1 X126.544 Y36.842 E11.67522
G1 X127.314 Y37.346 E11.7043
G1 X128.038 Y37.915 E11.7334
G1 X128.71 Y38.545 E11.7625
G1 X129.325 Y39.23 E11.79159
G1 X129.878 Y39.966 E11.82068
G1 X130.365 Y40.747 E11.84976
G1 X130.782 Y41.568 E11.87885
G1 X131.127 Y42.422 E11.90796
G1 X131.396 Y43.302 E11.93703
G1 X131.588 Y44.203 E11.96614
G1 X131.701 Y45.116 E11.99521
G1 X131.73 Y45.66 E12.01242
G1 X131.743 Y46.278 E12.03195
G1 X131.743 Y88.579 E13.36854
G1 X131.742 Y185.613 E16.43454
G1 X131.742 Y188.447 E16.52409
G1 X131.733 Y189.174 E16.54706
G1 X131.682 Y190.093 E16.57614
G1 X131.551 Y191.005 E16.60525
G1 X131.341 Y191.901 E16.63433
G1 X131.055 Y192.776 E16.66342
G1 X130.694 Y193.623 E16.69251
G1 X130.26 Y194.435 E16.7216
G1 X129.758 Y195.207 E16.7507
G1 X129.19 Y195.932 E16.7798
G1 X128.562 Y196.605 E16.80889
G1 X127.878 Y197.221 E16.83797
G1 X127.143 Y197.775 E16.86705
G1 X126.363 Y198.264 E16.89614
G1 X125.543 Y198.683 E16.92524
G1 X124.69 Y199.029 E16.95432
G1 X123.81 Y199.3 E16.98342
G1 X122.91 Y199.493 E17.0125
G1 X121.996 Y199.608 E17.04161
G1 X121.431 Y199.639 E17.05949
G1 X120.813 Y199.652 E17.07902
G1 X114.425 Y199.651 E17.28086
G1 X113.727 Y199.642 E17.30292
G1 X112.808 Y199.59 E17.332
G1 X111.897 Y199.459 E17.36108
G1 X111.001 Y199.249 E17.39016
G1 X110.126 Y198.962 E17.41926
G1 X109.279 Y198.6 E17.44836
G1 X108.467 Y198.166 E17.47745
G1 X107.696 Y197.664 E17.50652
G1 X106.971 Y197.096 E17.53563
G1 X106.298 Y196.467 E17.56473
G1 X105.683 Y195.783 E17.5938
G1 X105.129 Y195.048 E17.62288
G1 X104.641 Y194.267 E17.65198
G1 X104.222 Y193.447 E17.68107
G1 X103.876 Y192.594 E17.71016
G1 X103.606 Y191.714 E17.73924
G1 X103.413 Y190.813 E17.76836
G1 X103.299 Y189.9 E17.79743
G1 X103.268 Y189.329 E17.8155
G1 X103.255 Y188.71 E17.83506
G1 X103.256 Y121.647 E19.95406
G1 X103.255 Y121.222 E19.96749
G1 X103.256 Y49.408 E22.2366
G1 X103.256 Y46.47 E22.32944
G1 X103.264 Y45.826 E22.34979
G1 X103.315 Y44.907 E22.37887
G1 X103.446 Y43.996 E22.40795
G1 X103.656 Y43.099 E22.43706
G1 X103.942 Y42.224 E22.46615
G1 X104.304 Y41.378 E22.49522
G1 X104.737 Y40.565 E22.52433
G1 X105.24 Y39.794 E22.55341
G1 X105.807 Y39.069 E22.5825
G1 X106.435 Y38.396 E22.61158
G1 X107.119 Y37.78 E22.64067
G1 X107.854 Y37.226 E22.66975
G1 X108.635 Y36.737 E22.69886
G1 X109.455 Y36.318 E22.72796
G1 X110.308 Y35.972 E22.75704
G1 X111.188 Y35.701 E22.78614
G1 X112.088 Y35.508 E22.81522
G1 X113.001 Y35.393 E22.8443
G1 X113.538 Y35.363 E22.86129
G1 X114.189 Y35.348 E22.88187
G1 X120.486 Y35.349 E23.08084
G0 F1350 X120.588 Y35.349
G0 X121.286 Y35.359
G0 F7500 X121.292 Y34.959
G1 F1500 X122.228 Y35.013 E23.11046
G1 X123.156 Y35.145 E23.14008
G1 X124.07 Y35.357 E23.16972
G1 X124.962 Y35.646 E23.19935
G1 X125.827 Y36.009 E23.22899
G1 X126.657 Y36.445 E23.25861
G1 X127.448 Y36.95 E23.28827
G1 X128.192 Y37.521 E23.3179
G1 X128.885 Y38.153 E23.34754
G1 X129.522 Y38.841 E23.37716
G1 X130.097 Y39.582 E23.4068
G1 X130.608 Y40.368 E23.43642
G1 X131.05 Y41.196 E23.46608
G1 X131.419 Y42.058 E23.4957
G1 X131.714 Y42.948 E23.52533
G1 X131.932 Y43.86 E23.55496
G1 X132.072 Y44.788 E23.58461
G1 X132.13 Y45.649 E23.61188
G1 X132.143 Y46.278 E23.63176
G1 X132.143 Y88.579 E24.96835
G1 X132.142 Y185.613 E28.03434
G1 X132.142 Y188.452 E28.12405
G1 X132.133 Y189.179 E28.14702
G1 X132.082 Y190.116 E28.17667
G1 X131.95 Y191.044 E28.20629
G1 X131.741 Y191.958 E28.23591
G1 X131.454 Y192.851 E28.26555
G1 X131.092 Y193.717 E28.29521
G1 X130.658 Y194.548 E28.32483
G1 X130.154 Y195.339 E28.35447
G1 X129.585 Y196.084 E28.38409
G1 X128.954 Y196.779 E28.41375
G1 X128.267 Y197.417 E28.44337
G1 X127.528 Y197.994 E28.473
G1 X126.742 Y198.506 E28.50264
G1 X125.916 Y198.949 E28.53225
G1 X125.054 Y199.321 E28.56192
G1 X124.165 Y199.617 E28.59152
G1 X123.253 Y199.837 E28.62117
G1 X122.326 Y199.978 E28.65079
G1 X121.442 Y200.039 E28.67879
G1 X120.813 Y200.052 E28.69867
G1 X114.42 Y200.051 E28.90067
G1 X113.722 Y200.042 E28.92273
G1 X112.786 Y199.99 E28.95235
G1 X111.857 Y199.858 E28.982
G1 X110.943 Y199.648 E29.01163
G1 X110.05 Y199.361 E29.04127
G1 X109.185 Y198.998 E29.07091
G1 X108.354 Y198.564 E29.10053
G1 X107.563 Y198.06 E29.13017
G1 X106.818 Y197.49 E29.15981
G1 X106.124 Y196.859 E29.18944
G1 X105.487 Y196.172 E29.21905
G1 X104.91 Y195.432 E29.24869
G1 X104.398 Y194.646 E29.27833
G1 X103.955 Y193.819 E29.30798
G1 X103.584 Y192.958 E29.3376
G1 X103.288 Y192.068 E29.36724
G1 X103.069 Y191.156 E29.39687
G1 X102.928 Y190.229 E29.4265
G1 X102.868 Y189.34 E29.45465
G1 X102.855 Y188.71 E29.47456
G1 X102.856 Y121.647 E31.59356
G1 X102.855 Y121.222 E31.60699
G1 X102.856 Y49.408 E33.87611
G1 X102.856 Y46.465 E33.9691
G1 X102.864 Y45.821 E33.98945
G1 X102.915 Y44.885 E34.01907
G1 X103.047 Y43.956 E34.04872
G1 X103.256 Y43.042 E34.07834
G1 X103.543 Y42.149 E34.10798
G1 X103.905 Y41.284 E34.13761
G1 X104.34 Y40.453 E34.16724
G1 X104.843 Y39.662 E34.19686
G1 X105.412 Y38.916 E34.22651
G1 X106.043 Y38.222 E34.25615
G1 X106.73 Y37.584 E34.28577
G1 X107.47 Y37.007 E34.31542
G1 X108.255 Y36.495 E34.34503
G1 X109.082 Y36.051 E34.37469
G1 X109.943 Y35.68 E34.40431
G1 X110.833 Y35.384 E34.43395
G1 X111.745 Y35.164 E34.46359
G1 X112.672 Y35.023 E34.49322
G1 X113.526 Y34.963 E34.52027
G1 X113.852 Y34.953 E34.53058
G1 X114.189 Y34.948 E34.54123
G1 X120.492 Y34.949 E34.74038
G0 F1350 X120.594 Y34.949
G0 X121.292 Y34.959
G1 F1500 E28.74038
;MESH:V-Slot_Cover_Ender_3_Ordor.stl
G0 F7500 X121.796 Y45.295
G0 X121.808 Y88.579
G0 X120.723 Y88.579
G0 X120.143 Y188.052
;TYPE:WALL-INNER
G1 F1500 E34.74038
G1 X115.054 Y188.052 E34.90118
G1 X114.855 Y188.052 E34.90747
G1 X114.855 Y187.853 E34.91154
G1 X114.856 Y121.647 E37.00346
G1 X114.855 Y121.198 E37.01764
G1 X114.856 Y49.408 E39.286
G1 X114.855 Y47.147 E39.35744
G1 X114.855 Y46.948 E39.36373
G1 X115.054 Y46.948 E39.3678
G1 X120.143 Y46.948 E39.5286
G1 X120.143 Y88.579 E40.84402
G1 X120.142 Y185.891 E43.9188
G1 X120.143 Y186.252 E43.9302
G1 X120.143 Y187.252 E43.9618
G0 F1350 X120.143 Y188.052
G0 F7500 X120.543 Y188.452
G1 F1500 X114.654 Y188.452 E44.14788
G1 X114.455 Y188.452 E44.15416
G1 X114.455 Y188.253 E44.15823
G1 X114.456 Y121.647 E46.26279
G1 X114.455 Y121.198 E46.27698
G1 X114.456 Y49.408 E48.54533
G1 X114.455 Y46.747 E48.62941
G1 X114.455 Y46.548 E48.6357
G1 X114.654 Y46.548 E48.63977
G1 X120.543 Y46.548 E48.82585
G1 X120.543 Y88.579 E50.15391
G1 X120.542 Y185.89 E53.22865
G1 X120.543 Y186.252 E53.24009
G1 X120.543 Y187.652 E53.28433
G0 F1350 X120.543 Y188.452
G0 F7500 X120.943 Y188.852
;TYPE:WALL-OUTER
G1 F1500 X114.255 Y188.852 E53.48508
G1 X114.055 Y188.852 E53.49109
G1 X114.055 Y188.652 E53.49497
G1 X114.056 Y121.647 E55.50628
G1 X114.055 Y121.198 E55.51976
G1 X114.056 Y49.408 E57.6747
G1 X114.055 Y46.348 E57.76655
G1 X114.055 Y46.148 E57.77256
G1 X114.255 Y46.148 E57.77644
G1 X120.943 Y46.148 E57.9772
G1 X120.943 Y88.579 E59.25086
G1 X120.942 Y185.889 E62.17184
G1 X120.943 Y186.252 E62.18274
G1 X120.943 Y188.052 E62.23677
G0 F1350 X120.943 Y188.852
G0 F7500 X120.543 Y188.852
G0 X120.503 Y188.412
G0 X120.033 Y187.662
G0 X119.753 Y187.662
;TYPE:SKIN
G1 F1500 X115.245 Y187.662 E62.37921
G1 X115.246 Y121.647 E64.46509
G1 X115.245 Y121.198 E64.47928
G1 X115.246 Y49.408 E66.74764
G1 X115.245 Y47.338 E66.81304
G1 X119.753 Y47.338 E66.95548
G1 X119.753 Y88.579 E68.25858
G1 X119.752 Y185.891 E71.33336
G1 X119.753 Y186.252 E71.34477
G1 X119.753 Y186.862 E71.36404
G0 F1350 X119.753 Y187.662
G0 F7500 X120.033 Y187.662
G0 X119.961 Y187.87
G0 X115.037 Y187.87
G0 X114.966 Y187.3
G0 X115.604 Y187.301
G1 F1500 X116.024 Y187.301 E71.37731
G1 X115.604 Y186.881 E71.39608
G1 X115.604 Y186.315 E71.41396
G1 X116.59 Y187.301 E71.45802
G1 X117.156 Y187.301 E71.47591
G1 X115.604 Y185.749 E71.54526
G1 X115.604 Y185.184 E71.56311
G1 X117.721 Y187.301 E71.65771
G1 X118.287 Y187.301 E71.67559
G1 X115.604 Y184.618 E71.79548
G1 X115.604 Y184.052 E71.81337
G1 X118.853 Y187.301 E71.95855
G1 X119.393 Y187.301 E71.97561
G1 X119.393 Y187.275 E71.97643
G1 X115.604 Y183.487 E72.14572
G1 X115.604 Y182.921 E72.16361
G1 X119.393 Y186.71 E72.33292
G1 X119.392 Y186.251 E72.34742
G1 X119.392 Y186.143 E72.35083
G1 X115.604 Y182.355 E72.5201
G1 X115.604 Y181.79 E72.53795
G1 X119.392 Y185.577 E72.7072
G1 X119.392 Y185.011 E72.72508
G1 X115.604 Y181.224 E72.89433
G1 X115.604 Y180.658 E72.91221
G1 X119.392 Y184.445 E73.08146
G1 X119.392 Y183.88 E73.09931
G1 X115.604 Y180.093 E73.26855
G1 X115.604 Y179.527 E73.28644
G1 X119.392 Y183.314 E73.45568
G1 X119.392 Y182.748 E73.47357
G1 X115.604 Y178.961 E73.64281
G1 X115.604 Y178.395 E73.66069
G1 X119.392 Y182.183 E73.82996
G1 X119.392 Y181.617 E73.84785
G1 X115.604 Y177.83 E74.01709
G1 X115.604 Y177.264 E74.03497
G1 X119.392 Y181.051 E74.20422
G1 X119.392 Y180.486 E74.22207
G1 X115.604 Y176.698 E74.39134
G1 X115.604 Y176.133 E74.40919
G1 X119.392 Y179.92 E74.57844
G1 X119.392 Y179.354 E74.59632
G1 X115.604 Y175.567 E74.76556
G1 X115.604 Y175.001 E74.78345
G1 X119.392 Y178.789 E74.95272
G1 X119.392 Y178.223 E74.9706
G1 X115.604 Y174.436 E75.13984
G1 X115.604 Y173.87 E75.15773
G1 X119.392 Y177.657 E75.32697
G1 X119.392 Y177.092 E75.34483
G1 X115.604 Y173.304 E75.51409
G1 X115.604 Y172.739 E75.53195
G1 X119.392 Y176.526 E75.70119
G1 X119.392 Y175.96 E75.71907
G1 X115.604 Y172.173 E75.88832
G1 X115.604 Y171.607 E75.9062
G1 X119.392 Y175.395 E76.07547
G1 X119.392 Y174.829 E76.09335
G1 X115.604 Y171.042 E76.2626
G1 X115.604 Y170.476 E76.28048
G1 X119.392 Y174.263 E76.44973
G1 X119.392 Y173.697 E76.46761
G1 X115.604 Y169.91 E76.63686
G1 X115.604 Y169.345 E76.65471
G1 X119.392 Y173.132 E76.82395
G1 X119.392 Y172.566 E76.84184
G1 X115.604 Y168.779 E77.01108
G1 X115.604 Y168.213 E77.02897
G1 X119.392 Y172 E77.19821
G1 X119.392 Y171.435 E77.21606
G1 X115.604 Y167.647 E77.38533
G1 X115.604 Y167.082 E77.40318
G1 X119.392 Y170.869 E77.57243
G1 X119.392 Y170.303 E77.59031
G1 X115.604 Y166.516 E77.75956
G1 X115.604 Y165.95 E77.77744
G1 X119.392 Y169.738 E77.94671
G1 X119.392 Y169.172 E77.96459
G1 X115.604 Y165.385 E78.13384
G1 X115.604 Y164.819 E78.15172
G1 X119.392 Y168.606 E78.32096
G1 X119.392 Y168.041 E78.33882
G1 X115.604 Y164.253 E78.50808
G1 X115.604 Y163.688 E78.52594
G1 X119.392 Y167.475 E78.69518
G1 X119.392 Y166.909 E78.71307
G1 X115.604 Y163.122 E78.88231
G1 X115.604 Y162.556 E78.90019
G1 X119.392 Y166.344 E79.06946
G1 X119.392 Y165.778 E79.08735
G1 X115.604 Y161.991 E79.25659
G1 X115.604 Y161.425 E79.27447
G1 X119.392 Y165.212 E79.44372
G1 X119.392 Y164.646 E79.4616
G1 X115.604 Y160.859 E79.63085
G1 X115.604 Y160.294 E79.6487
G1 X119.392 Y164.081 E79.81794
G1 X119.392 Y163.515 E79.83583
G1 X115.604 Y159.728 E80.00507
G1 X115.604 Y159.162 E80.02296
G1 X119.392 Y162.949 E80.1922
G1 X119.392 Y162.384 E80.21005
G1 X115.604 Y158.596 E80.37932
G1 X115.604 Y158.031 E80.39717
G1 X119.392 Y161.818 E80.56642
G1 X119.392 Y161.252 E80.5843
G1 X115.604 Y157.465 E80.75355
G1 X115.604 Y156.899 E80.77143
G1 X119.392 Y160.687 E80.9407
G1 X119.392 Y160.121 E80.95858
G1 X115.604 Y156.334 E81.12783
G1 X115.604 Y155.768 E81.14571
G1 X119.392 Y159.555 E81.31496
G1 X119.392 Y158.99 E81.33281
G1 X115.604 Y155.202 E81.50208
G1 X115.604 Y154.637 E81.51993
G1 X119.392 Y158.424 E81.68917
G1 X119.392 Y157.858 E81.70706
G1 X115.605 Y154.072 E81.87626
G1 X115.605 Y153.506 E81.89414
G1 X119.392 Y157.293 E82.06336
G1 X119.392 Y156.727 E82.08125
G1 X115.605 Y152.94 E82.25047
G1 X115.605 Y152.375 E82.26832
G1 X119.392 Y156.161 E82.43752
G1 X119.392 Y155.596 E82.45537
G1 X115.605 Y151.809 E82.6246
G1 X115.605 Y151.243 E82.64248
G1 X119.392 Y155.03 E82.8117
G1 X119.392 Y154.464 E82.82959
G1 X115.605 Y150.678 E82.99879
G1 X115.605 Y150.112 E83.01667
G1 X119.392 Y153.898 E83.18587
G1 X119.392 Y153.333 E83.20372
G1 X115.605 Y149.546 E83.37295
G1 X115.605 Y148.981 E83.3908
G1 X119.392 Y152.767 E83.56
G1 X119.392 Y152.201 E83.57788
G1 X115.605 Y148.415 E83.74708
G1 X115.605 Y147.849 E83.76497
G1 X119.392 Y151.636 E83.93419
G1 X119.392 Y151.07 E83.95207
G1 X115.605 Y147.283 E84.1213
G1 X115.605 Y146.718 E84.13915
G1 X119.392 Y150.504 E84.30835
G1 X119.392 Y149.939 E84.3262
G1 X115.605 Y146.152 E84.49542
G1 X115.605 Y145.586 E84.51331
G1 X119.392 Y149.373 E84.68253
G1 X119.392 Y148.807 E84.70041
G1 X115.605 Y145.021 E84.86961
G1 X115.605 Y144.455 E84.8875
G1 X119.392 Y148.242 E85.05672
G1 X119.392 Y147.676 E85.0746
G1 X115.605 Y143.889 E85.24383
G1 X115.605 Y143.324 E85.26168
G1 X119.392 Y147.11 E85.43088
G1 X119.392 Y146.545 E85.44873
G1 X115.605 Y142.758 E85.61795
