;FLAVOR:Marlin
;TIME:11145
;Filament used: 7.26337m
;Layer height: 0.28
;MINX:59.074
;MINY:56.745
;MINZ:0.28
;MAXX:159.923
;MAXY:150.257
;MAXZ:31.92
;Generated with Cura_SteamEngine 4.6.2
M140 S60
M105
M190 S60
M104 S200
M105
M109 S200
M82 ;absolute extrusion mode
; Ender 3 Custom Start G-code
G92 E0 ; Reset Extruder
G28 ; Home all axes
G1 Z2.0 F3000 ; Move Z Axis up little to prevent scratching of Heat Bed
G1 X0.1 Y20 Z0.3 F5000.0 ; Move to start position
G1 X0.1 Y200.0 Z0.3 F1500.0 E15 ; Draw the first line
G1 X0.4 Y200.0 Z0.3 F5000.0 ; Move to side a little
G1 X0.4 Y20 Z0.3 F1500.0 E30 ; Draw the second line
G92 E0 ; Reset Extruder
G1 Z2.0 F3000 ; Move Z Axis up little to prevent scratching of Heat Bed
G1 X5 Y20 Z0.3 F5000.0 ; Move over to prevent blob squish
G92 E0
G92 E0
G1 F1500 E-6.5
;LAYER_COUNT:114
;LAYER:0
M107
G0 F6000 X118.169 Y57.553 Z0.28
;TYPE:SKIRT
G1 F1500 E0
G1 F1200 X119.071 Y57.604 E0.04207
G1 X119.964 Y57.734 E0.08409
G1 X121.249 Y58.069 E0.14592
G1 X122.981 Y58.642 E0.23087
G1 X125.512 Y59.438 E0.35442
G1 X127.94 Y60.127 E0.47194
G1 X130.442 Y60.761 E0.59212
G1 X131.056 Y60.901 E0.62145
G1 X131.645 Y61.046 E0.64969
G1 X132.512 Y61.3 E0.69176
G1 X133.352 Y61.63 E0.73379
G1 X134.16 Y62.034 E0.77585
G1 X134.93 Y62.507 E0.81793
G1 X135.654 Y63.046 E0.85996
G1 X136.328 Y63.647 E0.90201
G1 X136.946 Y64.306 E0.94408
G1 X137.503 Y65.016 E0.9861
G1 X137.929 Y65.661 E1.02209
G1 X138.423 Y66.481 E1.06666
G1 X145.062 Y77.997 E1.68563
G1 X145.466 Y78.68 E1.72258
G1 X151.642 Y89.393 E2.29838
G1 X152.008 Y90.011 E2.33182
G1 X157.509 Y99.544 E2.84432
G1 X157.824 Y100.107 E2.87436
G1 X158.23 Y100.913 E2.91639
G1 X158.563 Y101.753 E2.95846
G1 X158.82 Y102.619 E3.00052
G1 X158.999 Y103.504 E3.04257
G1 X159.1 Y104.401 E3.0846
G1 X159.121 Y105.304 E3.12666
G1 X159.061 Y106.205 E3.16871
G1 X158.923 Y107.098 E3.21078
G1 X158.752 Y107.812 E3.24497
G1 X158.446 Y108.906 E3.29786
G1 X158.166 Y109.824 E3.34255
G1 X157.497 Y112.258 E3.46009
G1 X156.887 Y114.751 E3.5796
G1 X156.35 Y117.243 E3.69831
G1 X156.18 Y118.125 E3.74013
G1 X156.113 Y118.441 E3.75517
G1 X155.887 Y119.315 E3.79721
G1 X155.584 Y120.166 E3.83927
G1 X155.274 Y120.854 E3.87441
G1 X155.162 Y121.08 E3.88615
G1 X154.907 Y121.562 E3.91155
G1 X154.747 Y121.846 E3.92672
G1 X153.276 Y124.391 E4.0636
G1 X152.662 Y125.404 E4.11876
G1 X151.277 Y127.653 E4.24175
G1 X150.006 Y129.855 E4.36014
G1 X149.131 Y131.459 E4.44521
G1 X148.344 Y132.929 E4.52286
G1 X148.161 Y133.253 E4.54018
G1 X146.707 Y135.769 E4.67549
G1 X146.333 Y136.397 E4.70953
G1 X145.837 Y137.152 E4.75159
G1 X145.276 Y137.86 E4.79366
G1 X144.655 Y138.515 E4.83568
G1 X144.315 Y138.829 E4.85724
G1 X143.413 Y139.624 E4.91322
G1 X141.465 Y141.391 E5.03569
G1 X139.654 Y143.127 E5.1525
G1 X137.874 Y144.936 E5.27067
G1 X137.204 Y145.655 E5.31644
G1 X136.582 Y146.304 E5.3583
G1 X135.929 Y146.927 E5.40032
G1 X135.223 Y147.491 E5.4424
G1 X134.47 Y147.99 E5.48446
G1 X133.676 Y148.42 E5.52651
G1 X132.847 Y148.778 E5.56855
G1 X131.99 Y149.062 E5.61059
G1 X131.111 Y149.269 E5.65264
G1 X130.217 Y149.397 E5.69469
G1 X129.366 Y149.445 E5.73438
G1 X128.457 Y149.457 E5.77671
G1 X117.516 Y149.452 E6.28617
G1 X115.48 Y149.446 E6.38098
G1 X114.723 Y149.451 E6.41623
G1 X104.602 Y149.456 E6.8875
G1 X104.187 Y149.45 E6.90683
G1 X101.064 Y149.457 E7.05225
G1 X90.34 Y149.456 E7.55161
G1 X89.642 Y149.446 E7.58411
G1 X88.74 Y149.393 E7.62618
G1 X87.847 Y149.261 E7.66822
G1 X86.969 Y149.05 E7.71026
G1 X86.113 Y148.762 E7.75232
G1 X85.286 Y148.4 E7.79436
G1 X84.494 Y147.965 E7.83643
G1 X83.743 Y147.463 E7.87849
G1 X83.04 Y146.896 E7.92055
G1 X82.46 Y146.342 E7.9579
G1 X81.746 Y145.601 E8.00581
G1 X81.123 Y144.932 E8.04838
G1 X79.319 Y143.103 E8.168
G1 X77.491 Y141.35 E8.28593
G1 X75.584 Y139.623 E8.40573
G1 X74.97 Y139.091 E8.44356
G1 X74.633 Y138.789 E8.46463
G1 X73.988 Y138.157 E8.50668
G1 X73.401 Y137.471 E8.54872
G1 X72.694 Y136.441 E8.6069
G1 X72.323 Y135.82 E8.64058
G1 X70.9 Y133.352 E8.77323
G1 X70.358 Y132.368 E8.82554
G1 X69.08 Y130.004 E8.95068
G1 X67.792 Y127.775 E9.07055
G1 X66.903 Y126.317 E9.15007
G1 X65.985 Y124.836 E9.2312
G1 X65.756 Y124.448 E9.25218
G1 X64.334 Y121.981 E9.38477
G1 X63.984 Y121.357 E9.41809
G1 X63.577 Y120.55 E9.46017
G1 X63.244 Y119.711 E9.5022
G1 X62.986 Y118.846 E9.54424
G1 X62.879 Y118.371 E9.56691
G1 X62.674 Y117.348 E9.61549
G1 X62.116 Y114.756 E9.73895
G1 X61.516 Y112.302 E9.85658
G1 X60.841 Y109.842 E9.97537
G1 X60.54 Y108.861 E10.02315
G1 X60.273 Y107.94 E10.0678
G1 X60.061 Y107.062 E10.10986
G1 X59.926 Y106.169 E10.15191
G1 X59.871 Y105.268 E10.19394
G1 X59.897 Y104.365 E10.23601
G1 X60.001 Y103.468 E10.27806
G1 X60.185 Y102.584 E10.3201
G1 X60.446 Y101.719 E10.36217
G1 X60.783 Y100.881 E10.40423
G1 X61.166 Y100.124 E10.44374
G1 X61.576 Y99.392 E10.4828
G1 X68.233 Y87.875 E11.10222
G1 X68.591 Y87.242 E11.13609
G1 X74.789 Y76.523 E11.71264
G1 X75.203 Y75.791 E11.7518
G1 X80.648 Y66.359 E12.25892
G1 X81.027 Y65.724 E12.29336
G1 X81.524 Y64.97 E12.33541
G1 X82.086 Y64.263 E12.37746
G1 X82.707 Y63.608 E12.41949
G1 X83.385 Y63.011 E12.46156
G1 X84.112 Y62.476 E12.50359
G1 X84.884 Y62.007 E12.54565
G1 X85.695 Y61.608 E12.58773
G1 X86.537 Y61.283 E12.62976
G1 X87.346 Y61.048 E12.66899
G1 X88.241 Y60.829 E12.71189
G1 X89.352 Y60.572 E12.76499
G1 X91.824 Y59.926 E12.88396
G1 X94.226 Y59.225 E13.00048
G1 X96.697 Y58.409 E13.12165
G1 X97.764 Y58.065 E13.17385
G1 X98.635 Y57.826 E13.21591
G1 X99.524 Y57.665 E13.25798
G1 X100.66 Y57.576 E13.31104
G1 X101.918 Y57.549 E13.36963
G1 X104.381 Y57.545 E13.48431
G1 X105.329 Y57.561 E13.52846
G1 X105.806 Y57.58 E13.55069
G1 X108.469 Y57.65 E13.67474
G1 X110.963 Y57.644 E13.79087
G1 X111.79 Y57.615 E13.8294
G1 X115.065 Y57.549 E13.98193
G1 X117.517 Y57.545 E14.0961
G1 X118.169 Y57.553 E14.12647
G0 F6000 X118.174 Y57.153
G1 F1200 X119.093 Y57.204 E14.16932
G1 X120.005 Y57.335 E14.21223
G1 X120.901 Y57.544 E14.25507
G1 X121.375 Y57.689 E14.27815
G1 X123.1 Y58.26 E14.36276
G1 X125.636 Y59.057 E14.48654
G1 X128.042 Y59.74 E14.603
G1 X130.522 Y60.369 E14.72213
G1 X131.152 Y60.512 E14.75222
G1 X131.741 Y60.657 E14.78046
G1 X132.624 Y60.916 E14.82331
G1 X133.482 Y61.25 E14.86618
G1 X134.308 Y61.658 E14.90908
G1 X135.095 Y62.136 E14.95196
G1 X135.837 Y62.68 E14.9948
G1 X136.53 Y63.286 E15.03766
G1 X137.167 Y63.951 E15.08054
G1 X137.745 Y64.668 E15.12343
G1 X138.271 Y65.454 E15.16747
G1 X138.769 Y66.281 E15.21242
G1 X145.395 Y77.774 E15.83015
G1 X145.812 Y78.48 E15.86833
G1 X151.975 Y89.171 E16.44294
G1 X152.354 Y89.811 E16.47758
G1 X157.859 Y99.348 E16.99033
G1 X158.174 Y99.911 E17.02037
G1 X158.588 Y100.734 E17.06327
G1 X158.929 Y101.589 E17.10613
G1 X159.195 Y102.47 E17.14898
G1 X159.383 Y103.371 E17.19184
G1 X159.493 Y104.285 E17.23471
G1 X159.522 Y105.205 E17.27757
G1 X159.472 Y106.125 E17.32047
G1 X159.342 Y107.036 E17.36332
G1 X159.138 Y107.919 E17.40552
G1 X158.828 Y109.022 E17.45887
G1 X158.561 Y109.898 E17.50151
G1 X157.876 Y112.387 E17.62172
G1 X157.28 Y114.825 E17.73858
G1 X156.742 Y117.32 E17.85743
G1 X156.571 Y118.208 E17.89954
G1 X156.504 Y118.524 E17.91458
G1 X156.275 Y119.415 E17.95742
G1 X155.968 Y120.283 E18.00029
G1 X155.633 Y121.032 E18.0385
G1 X155.521 Y121.258 E18.05024
G1 X155.255 Y121.759 E18.07666
G1 X155.093 Y122.046 E18.092
G1 X153.619 Y124.596 E18.22915
G1 X153.026 Y125.577 E18.28253
G1 X151.622 Y127.857 E18.40721
G1 X150.336 Y130.084 E18.52695
G1 X149.529 Y131.563 E18.60541
G1 X148.693 Y133.125 E18.6879
G1 X148.507 Y133.453 E18.70546
G1 X147.05 Y135.974 E18.84104
G1 X146.676 Y136.602 E18.87508
G1 X146.171 Y137.372 E18.91796
G1 X145.601 Y138.095 E18.96083
G1 X144.971 Y138.766 E19.00368
G1 X144.579 Y139.129 E19.02856
G1 X143.698 Y139.906 E19.08326
G1 X141.747 Y141.675 E19.20589
G1 X139.934 Y143.414 E19.32287
G1 X138.152 Y145.223 E19.44111
G1 X137.493 Y145.931 E19.48615
G1 X136.871 Y146.58 E19.52801
G1 X136.206 Y147.217 E19.57088
G1 X135.488 Y147.793 E19.61375
G1 X134.722 Y148.305 E19.65665
G1 X133.915 Y148.748 E19.69952
G1 X133.073 Y149.12 E19.74238
G1 X132.202 Y149.417 E19.78523
G1 X131.308 Y149.638 E19.82811
G1 X130.398 Y149.78 E19.871
G1 X129.372 Y149.845 E19.91887
G1 X128.457 Y149.857 E19.96148
G1 X117.516 Y149.852 E20.47094
G1 X115.481 Y149.846 E20.56569
G1 X114.723 Y149.851 E20.60099
G1 X104.596 Y149.856 E21.07255
G1 X104.182 Y149.85 E21.09183
G1 X101.064 Y149.857 E21.23701
G1 X90.334 Y149.856 E21.73665
G1 X89.636 Y149.846 E21.76915
G1 X88.717 Y149.793 E21.81202
G1 X87.806 Y149.66 E21.85489
G1 X86.91 Y149.449 E21.89775
G1 X86.036 Y149.161 E21.9406
G1 X85.189 Y148.798 E21.98351
G1 X84.378 Y148.363 E22.02636
G1 X83.608 Y147.859 E22.06921
G1 X82.884 Y147.29 E22.11209
G1 X82.172 Y146.62 E22.15761
G1 X81.453 Y145.874 E22.20586
G1 X80.828 Y145.203 E22.24856
G1 X79.023 Y143.372 E22.36828
G1 X77.21 Y141.635 E22.48519
G1 X75.338 Y139.939 E22.60282
G1 X74.703 Y139.389 E22.64193
G1 X74.366 Y139.087 E22.663
G1 X73.708 Y138.443 E22.70588
G1 X73.108 Y137.745 E22.74874
G1 X72.351 Y136.647 E22.81084
G1 X71.976 Y136.02 E22.84486
G1 X70.551 Y133.547 E22.97776
G1 X70.006 Y132.558 E23.03034
G1 X68.725 Y130.188 E23.15579
G1 X67.469 Y128.015 E23.27266
G1 X66.536 Y126.483 E23.35618
G1 X65.64 Y125.04 E23.43527
G1 X65.409 Y124.648 E23.45646
G1 X63.985 Y122.177 E23.58926
G1 X63.635 Y121.553 E23.62257
G1 X63.22 Y120.731 E23.66545
G1 X62.878 Y119.876 E23.70833
G1 X62.611 Y118.995 E23.75119
G1 X62.487 Y118.449 E23.77726
G1 X62.291 Y117.469 E23.8238
G1 X61.723 Y114.83 E23.9495
G1 X61.134 Y112.422 E24.06493
G1 X60.46 Y109.968 E24.18343
G1 X60.156 Y108.972 E24.23192
G1 X59.889 Y108.051 E24.27657
G1 X59.671 Y107.157 E24.31942
G1 X59.532 Y106.247 E24.36229
G1 X59.472 Y105.328 E24.40517
G1 X59.493 Y104.408 E24.44802
G1 X59.593 Y103.492 E24.49093
G1 X59.772 Y102.589 E24.53379
G1 X60.028 Y101.705 E24.57664
G1 X60.361 Y100.847 E24.6195
G1 X60.817 Y99.929 E24.66723
G1 X61.23 Y99.192 E24.70657
G1 X67.914 Y87.629 E25.32847
G1 X68.245 Y87.042 E25.35985
G1 X74.431 Y76.345 E25.93524
G1 X74.857 Y75.591 E25.97557
G1 X80.305 Y66.154 E26.48296
G1 X80.684 Y65.519 E26.5174
G1 X81.19 Y64.75 E26.56026
G1 X81.76 Y64.028 E26.60309
G1 X82.391 Y63.357 E26.64598
G1 X83.078 Y62.744 E26.68886
G1 X83.816 Y62.193 E26.73174
G1 X84.598 Y61.708 E26.77459
G1 X85.42 Y61.293 E26.81747
G1 X86.275 Y60.951 E26.86035
G1 X87.25 Y60.66 E26.90772
G1 X88.151 Y60.439 E26.95092
G1 X89.266 Y60.181 E27.00421
G1 X91.717 Y59.541 E27.12217
G1 X94.123 Y58.838 E27.23889
G1 X96.574 Y58.028 E27.35909
G1 X97.641 Y57.684 E27.41129
G1 X98.529 Y57.44 E27.45417
G1 X99.435 Y57.274 E27.49706
G1 X100.651 Y57.176 E27.55387
G1 X101.917 Y57.149 E27.61283
G1 X104.387 Y57.145 E27.72784
G1 X105.345 Y57.161 E27.77246
G1 X105.907 Y57.183 E27.79865
G1 X108.443 Y57.25 E27.91677
G1 X110.947 Y57.244 E28.03337
G1 X111.781 Y57.215 E28.07223
G1 X115.064 Y57.149 E28.22513
G1 X117.522 Y57.145 E28.33959
G1 X118.174 Y57.153 E28.36995
G0 F6000 X118.179 Y56.753
G1 F1200 X119.115 Y56.804 E28.4136
G1 X120.044 Y56.935 E28.45728
G1 X120.958 Y57.145 E28.50095
G1 X121.5 Y57.309 E28.52732
G1 X123.278 Y57.897 E28.61452
G1 X125.708 Y58.661 E28.73313
G1 X128.153 Y59.355 E28.85148
G1 X130.628 Y59.983 E28.97038
G1 X131.247 Y60.124 E28.99994
G1 X131.836 Y60.269 E29.02818
G1 X132.737 Y60.532 E29.07189
G1 X133.611 Y60.87 E29.11552
G1 X134.454 Y61.282 E29.15921
G1 X135.258 Y61.764 E29.20286
G1 X136.019 Y62.313 E29.24656
G1 X136.73 Y62.925 E29.29024
G1 X137.386 Y63.595 E29.3339
G1 X137.983 Y64.318 E29.37756
G1 X138.613 Y65.246 E29.42979
G1 X139.116 Y66.081 E29.47518
G1 X145.75 Y77.588 E30.09366
G1 X146.159 Y78.28 E30.13109
G1 X152.343 Y89.008 E30.70769
G1 X152.701 Y89.611 E30.74034
G1 X158.208 Y99.153 E31.25334
G1 X158.523 Y99.716 E31.28338
G1 X158.945 Y100.553 E31.32703
G1 X159.295 Y101.423 E31.3707
G1 X159.569 Y102.32 E31.41437
G1 X159.766 Y103.237 E31.45804
G1 X159.885 Y104.168 E31.50175
G1 X159.923 Y105.105 E31.54541
G1 X159.881 Y106.042 E31.58909
G1 X159.76 Y106.972 E31.63276
G1 X159.523 Y108.026 E31.68306
G1 X159.211 Y109.139 E31.73688
G1 X158.934 Y110.049 E31.78118
G1 X158.274 Y112.447 E31.89699
G1 X157.666 Y114.932 E32.01612
G1 X157.134 Y117.4 E32.13368
G1 X156.963 Y118.291 E32.17592
G1 X156.896 Y118.607 E32.19096
G1 X156.662 Y119.515 E32.23463
G1 X156.352 Y120.4 E32.27829
G1 X155.991 Y121.209 E32.31954
G1 X155.879 Y121.435 E32.33129
G1 X155.604 Y121.956 E32.35872
G1 X155.439 Y122.246 E32.37425
G1 X153.963 Y124.801 E32.51165
G1 X153.45 Y125.654 E32.558
G1 X153.309 Y125.878 E32.57032
G1 X151.974 Y128.046 E32.68888
G1 X150.696 Y130.26 E32.80792
G1 X149.833 Y131.842 E32.89183
G1 X149.041 Y133.321 E32.96995
G1 X148.853 Y133.654 E32.98775
G1 X147.394 Y136.178 E33.12351
G1 X147.02 Y136.806 E33.15754
G1 X146.506 Y137.591 E33.20123
G1 X145.927 Y138.329 E33.24491
G1 X145.288 Y139.015 E33.28856
G1 X144.844 Y139.429 E33.31683
G1 X143.948 Y140.219 E33.37246
G1 X142.029 Y141.959 E33.49307
G1 X140.213 Y143.701 E33.61025
G1 X138.447 Y145.494 E33.72744
G1 X137.782 Y146.208 E33.77287
G1 X137.16 Y146.857 E33.81473
G1 X136.482 Y147.506 E33.85843
G1 X135.752 Y148.095 E33.90211
G1 X134.975 Y148.619 E33.94575
G1 X134.155 Y149.076 E33.98946
G1 X133.3 Y149.46 E34.0331
G1 X132.415 Y149.771 E34.07678
G1 X131.507 Y150.005 E34.12044
G1 X130.582 Y150.161 E34.16412
G1 X129.378 Y150.245 E34.22032
G1 X128.457 Y150.257 E34.26321
G1 X117.516 Y150.252 E34.77267
G1 X115.482 Y150.246 E34.86738
G1 X114.724 Y150.251 E34.90268
G1 X104.591 Y150.256 E35.37452
G1 X104.177 Y150.25 E35.39379
G1 X101.064 Y150.257 E35.53875
G1 X90.328 Y150.256 E36.03866
G1 X89.63 Y150.246 E36.07117
G1 X88.694 Y150.192 E36.11482
G1 X87.766 Y150.06 E36.15847
G1 X86.852 Y149.848 E36.20216
G1 X85.96 Y149.559 E36.24582
G1 X85.095 Y149.196 E36.2895
G1 X84.265 Y148.76 E36.33316
G1 X83.474 Y148.255 E36.37686
G1 X82.73 Y147.684 E36.42053
G1 X81.885 Y146.898 E36.47426
G1 X81.16 Y146.146 E36.5229
G1 X80.533 Y145.473 E36.56573
G1 X78.762 Y143.677 E36.68318
G1 X76.947 Y141.938 E36.80023
G1 X75.049 Y140.218 E36.9195
G1 X74.436 Y139.687 E36.95726
G1 X74.099 Y139.385 E36.97833
G1 X73.428 Y138.73 E37.022
G1 X72.815 Y138.02 E37.06567
G1 X72.265 Y137.26 E37.10936
G1 X72.008 Y136.852 E37.13181
G1 X71.63 Y136.22 E37.1661
G1 X70.202 Y133.742 E37.29928
G1 X69.654 Y132.748 E37.35213
G1 X68.369 Y130.372 E37.47791
G1 X67.111 Y128.194 E37.59503
G1 X66.252 Y126.784 E37.67191
G1 X65.296 Y125.244 E37.75631
G1 X65.063 Y124.848 E37.7777
G1 X63.636 Y122.372 E37.91077
G1 X63.286 Y121.748 E37.94409
G1 X62.863 Y120.911 E37.98776
G1 X62.512 Y120.042 E38.0314
G1 X62.237 Y119.145 E38.07509
G1 X62.094 Y118.528 E38.10458
G1 X61.88 Y117.462 E38.1552
G1 X61.337 Y114.937 E38.27547
G1 X60.745 Y112.517 E38.39148
G1 X60.072 Y110.064 E38.50992
G1 X59.772 Y109.084 E38.55764
G1 X59.505 Y108.163 E38.60229
G1 X59.283 Y107.252 E38.64595
G1 X59.138 Y106.325 E38.68964
G1 X59.074 Y105.389 E38.73333
G1 X59.089 Y104.452 E38.77697
G1 X59.184 Y103.519 E38.82063
G1 X59.359 Y102.597 E38.86433
G1 X59.611 Y101.694 E38.90799
G1 X59.939 Y100.815 E38.95167
G1 X60.468 Y99.734 E39.00771
G1 X60.884 Y98.992 E39.04732
G1 X67.506 Y87.536 E39.66347
G1 X67.898 Y86.842 E39.70058
G1 X74.136 Y76.054 E40.28085
G1 X74.51 Y75.391 E40.3163
G1 X79.961 Y65.949 E40.82397
G1 X80.34 Y65.314 E40.8584
G1 X80.855 Y64.53 E40.90208
G1 X81.435 Y63.793 E40.94575
G1 X82.075 Y63.108 E40.9894
G1 X82.771 Y62.479 E41.03308
G1 X83.518 Y61.912 E41.07675
G1 X84.311 Y61.411 E41.12043
G1 X85.144 Y60.98 E41.1641
G1 X86.01 Y60.62 E41.20777
G1 X87.155 Y60.271 E41.26351
G1 X88.061 Y60.049 E41.30694
G1 X89.18 Y59.79 E41.36043
G1 X91.609 Y59.156 E41.47732
G1 X94.004 Y58.456 E41.59351
G1 X96.452 Y57.648 E41.71354
G1 X97.519 Y57.304 E41.76575
G1 X98.423 Y57.054 E41.80942
G1 X99.345 Y56.883 E41.85309
G1 X100.642 Y56.776 E41.91368
G1 X101.916 Y56.749 E41.97302
G1 X104.392 Y56.745 E42.08831
G1 X105.361 Y56.762 E42.13344
G1 X105.859 Y56.782 E42.15665
G1 X108.453 Y56.85 E42.27748
G1 X110.933 Y56.844 E42.39296
G1 X111.773 Y56.815 E42.43209
G1 X115.063 Y56.749 E42.58532
G1 X117.527 Y56.745 E42.70006
G1 X118.179 Y56.753 E42.73042
G1 F1500 E36.23042
;MESH:minifigHexDisplay.stl
G0 F6000 X118.726 Y67.089
