;FLAVOR:Marlin
;TIME:1499
;Filament used: 0.817063m
;Layer height: 0.2
;MINX:83.063
;MINY:82.957
;MINZ:0.2
;MAXX:136.938
;MAXY:137.033
;MAXZ:5.8
;POSTPROCESSED
;Generated with Cura_SteamEngine 4.7.0
M140 S60
M105
M190 S60
M104 S200
M105
M109 S200
M82 ;absolute extrusion mode
; Ender 3 Custom Start G-code
G92 E0 ; Reset Extruder
G28 ; Home all axes
G1 Z2.0 F3000 ; Move Z Axis up little to prevent scratching of Heat Bed
G1 X0.1 Y20 Z0.3 F5000.0 ; Move to start position
G1 X0.1 Y200.0 Z0.3 F1500.0 E15 ; Draw the first line
G1 X0.4 Y200.0 Z0.3 F5000.0 ; Move to side a little
G1 X0.4 Y20 Z0.3 F1500.0 E30 ; Draw the second line
G92 E0 ; Reset Extruder
G1 Z2.0 F3000 ; Move Z Axis up little to prevent scratching of Heat Bed
G1 X5 Y20 Z0.3 F5000.0 ; Move over to prevent blob squish
G92 E0
G92 E0
G1 F1500 E-6.5
;LAYER_COUNT:29
;LAYER:0
M107
M204 S500
M205 X8 Y8
G0 F6000 X89.41 Y92.715 Z0.2
;TYPE:SKIRT
G1 F1500 E0
G1 F1200 X91.452 Y90.73 E0.09472
G1 X92.382 Y89.785 E0.13882
G1 X92.755 Y89.401 E0.15662
G1 X93.436 Y88.757 E0.1878
G1 X94.171 Y88.173 E0.21902
G1 X94.952 Y87.654 E0.25021
G1 X95.754 Y87.214 E0.28063
G1 X96.897 Y86.647 E0.32307
G1 X98.948 Y85.577 E0.40001
G1 X99.92 Y85.077 E0.43637
G1 X100.441 Y84.827 E0.45559
G1 X100.59 Y84.76 E0.46102
G1 X101.461 Y84.412 E0.49222
G1 X102.358 Y84.139 E0.5234
G1 X103.276 Y83.944 E0.55462
G1 X104.12 Y83.802 E0.58308
G1 X105.14 Y83.644 E0.61741
G1 X107.019 Y83.309 E0.68089
G1 X107.89 Y83.145 E0.71037
G1 X108.818 Y83.012 E0.74155
G1 X109.755 Y82.957 E0.77277
G1 X110.692 Y82.983 E0.80395
G1 X111.577 Y83.081 E0.83356
G1 X112.702 Y83.252 E0.87141
G1 X112.934 Y83.278 E0.87918
G1 X114.614 Y83.529 E0.93567
G1 X115.402 Y83.625 E0.96208
G1 X116.368 Y83.756 E0.9945
G1 X116.902 Y83.841 E1.01248
G1 X117.816 Y84.048 E1.04365
G1 X118.71 Y84.333 E1.07486
G1 X119.577 Y84.692 E1.10607
G1 X120.104 Y84.955 E1.12566
G1 X120.85 Y85.353 E1.15379
G1 X121.926 Y85.945 E1.19463
G1 X123.051 Y86.515 E1.23658
G1 X123.284 Y86.646 E1.24547
G1 X124.402 Y87.226 E1.28736
G1 X125.216 Y87.693 E1.31857
G1 X125.986 Y88.228 E1.34976
G1 X126.708 Y88.826 E1.38094
G1 X127.342 Y89.447 E1.41046
G1 X127.526 Y89.642 E1.41937
G1 X129.341 Y91.52 E1.50624
G1 X129.909 Y92.077 E1.5327
G1 X130.646 Y92.819 E1.56748
G1 X131.277 Y93.512 E1.59866
G1 X131.848 Y94.257 E1.62988
G1 X132.352 Y95.047 E1.66104
G1 X132.743 Y95.791 E1.689
G1 X132.745 Y95.79 E1.68907
G1 X133.931 Y98.207 E1.77862
G1 X134.895 Y100.054 E1.84791
G1 X135.293 Y100.903 E1.8791
G1 X135.617 Y101.783 E1.91029
G1 X135.865 Y102.688 E1.9415
G1 X136.017 Y103.48 E1.96832
G1 X136.205 Y104.709 E2.00968
G1 X136.244 Y104.984 E2.01891
G1 X136.547 Y106.716 E2.0774
G1 X136.57 Y106.895 E2.0834
G1 X136.786 Y108.177 E2.12664
G1 X136.902 Y109.108 E2.15784
G1 X136.938 Y110.045 E2.18903
G1 X136.894 Y110.982 E2.22023
G1 X136.823 Y111.585 E2.24042
G1 X136.682 Y112.549 E2.27283
G1 X136.513 Y113.606 E2.30843
G1 X136.345 Y114.943 E2.35325
G1 X136.314 Y115.129 E2.35952
G1 X136.142 Y116.412 E2.40258
G1 X135.978 Y117.336 E2.43379
G1 X135.736 Y118.242 E2.46498
G1 X135.356 Y119.272 E2.50149
G1 X135.321 Y119.354 E2.50446
G1 X134.88 Y120.268 E2.53821
G1 X134.307 Y121.328 E2.57829
G1 X133.062 Y123.706 E2.66757
G1 X132.823 Y124.186 E2.6854
G1 X132.676 Y124.469 E2.69601
G1 X132.208 Y125.282 E2.72721
G1 X131.673 Y126.052 E2.75839
G1 X131.075 Y126.774 E2.78957
G1 X130.652 Y127.216 E2.80992
G1 X130.138 Y127.723 E2.83394
G1 X128.992 Y128.823 E2.88677
G1 X127.251 Y130.591 E2.9693
G1 X126.569 Y131.235 E3.0005
G1 X125.835 Y131.818 E3.03167
G1 X125.054 Y132.337 E3.06286
G1 X124.313 Y132.747 E3.09103
G1 X123.4 Y133.207 E3.12503
G1 X122.862 Y133.469 E3.14493
G1 X120.674 Y134.606 E3.22695
G1 X120.153 Y134.885 E3.2466
G1 X119.308 Y135.292 E3.2778
G1 X118.431 Y135.626 E3.30901
G1 X117.218 Y135.954 E3.3508
G1 X117.013 Y135.997 E3.35777
G1 X116.479 Y136.095 E3.37583
G1 X113.911 Y136.503 E3.46231
G1 X112.19 Y136.819 E3.52051
G1 X111.904 Y136.867 E3.53016
G1 X111.687 Y136.901 E3.53746
G1 X110.755 Y137.007 E3.56866
G1 X109.817 Y137.033 E3.59987
G1 X108.881 Y136.979 E3.63105
G1 X108.361 Y136.914 E3.64848
G1 X107.329 Y136.76 E3.68319
G1 X106.636 Y136.648 E3.70654
G1 X104.765 Y136.389 E3.76936
G1 X103.666 Y136.247 E3.80622
G1 X102.742 Y136.087 E3.8374
G1 X101.835 Y135.85 E3.86858
G1 X100.613 Y135.393 E3.91198
G1 X100.507 Y135.346 E3.91583
G1 X99.578 Y134.88 E3.9504
G1 X99.463 Y134.816 E3.95478
G1 X97.196 Y133.583 E4.04061
G1 X95.977 Y132.962 E4.08611
G1 X95.713 Y132.823 E4.09604
G1 X95.524 Y132.72 E4.1032
G1 X95.312 Y132.602 E4.11127
G1 X94.513 Y132.112 E4.14244
G1 X93.758 Y131.555 E4.17365
G1 X93.188 Y131.062 E4.19871
G1 X92.63 Y130.509 E4.22484
G1 X92.458 Y130.326 E4.23319
G1 X89.676 Y127.48 E4.36556
G1 X89.505 Y127.311 E4.37356
G1 X88.866 Y126.624 E4.40477
G1 X88.199 Y125.759 E4.4411
G1 X88.117 Y125.641 E4.44588
G1 X87.615 Y124.849 E4.47706
G1 X87.332 Y124.325 E4.49687
G1 X86.95 Y123.569 E4.52504
G1 X86.5 Y122.649 E4.55911
G1 X85.81 Y121.328 E4.60868
G1 X85.769 Y121.24 E4.61191
G1 X85.162 Y120.079 E4.65548
G1 X84.763 Y119.23 E4.68668
G1 X84.438 Y118.35 E4.71788
G1 X84.182 Y117.413 E4.75019
G1 X84.151 Y117.276 E4.75486
G1 X84.025 Y116.626 E4.77688
G1 X83.888 Y115.787 E4.80516
G1 X83.736 Y114.772 E4.83929
G1 X83.476 Y113.357 E4.88714
G1 X83.457 Y113.222 E4.89168
G1 X83.228 Y111.915 E4.93581
G1 X83.106 Y110.985 E4.96701
G1 X83.063 Y110.049 E4.99817
G1 X83.143 Y108.691 E5.04342
G1 X83.192 Y108.325 E5.0557
G1 X83.598 Y105.662 E5.14529
G1 X83.661 Y105.142 E5.16272
G1 X83.681 Y105.017 E5.16693
G1 X83.871 Y103.593 E5.21471
G1 X84.11 Y102.352 E5.25674
G1 X84.136 Y102.249 E5.26028
G1 X84.404 Y101.35 E5.29148
G1 X84.747 Y100.477 E5.32267
G1 X85.073 Y99.806 E5.34749
G1 X85.395 Y99.196 E5.37043
G1 X86.036 Y98.021 E5.41495
G1 X86.595 Y96.908 E5.45637
G1 X86.786 Y96.565 E5.46943
G1 X87.292 Y95.579 E5.50629
G1 X87.756 Y94.763 E5.53751
G1 X88.287 Y93.99 E5.5687
G1 X88.882 Y93.265 E5.5999
G1 X89.41 Y92.715 E5.62526
G0 F6000 X89.689 Y93.002
G1 F1200 X91.71 Y91.037 E5.71901
G1 X92.619 Y90.113 E5.76212
G1 X93.041 Y89.679 E5.78225
G1 X93.711 Y89.048 E5.81287
G1 X94.433 Y88.477 E5.84348
G1 X95.202 Y87.971 E5.8741
G1 X95.931 Y87.573 E5.90172
G1 X97.081 Y87.003 E5.94441
G1 X99.131 Y85.933 E6.02133
G1 X100.103 Y85.433 E6.05768
G1 X100.605 Y85.191 E6.07622
G1 X100.754 Y85.124 E6.08165
G1 X101.609 Y84.784 E6.11225
G1 X102.491 Y84.518 E6.14289
G1 X103.342 Y84.339 E6.17182
G1 X104.333 Y84.173 E6.20524
G1 X105.225 Y84.036 E6.23525
G1 X107.155 Y83.691 E6.30046
G1 X107.964 Y83.539 E6.32784
G1 X108.875 Y83.408 E6.35845
G1 X109.795 Y83.357 E6.3891
G1 X110.715 Y83.386 E6.41971
G1 X111.517 Y83.477 E6.44656
G1 X112.499 Y83.626 E6.47959
G1 X112.875 Y83.674 E6.4922
G1 X114.544 Y83.923 E6.54833
G1 X115.348 Y84.021 E6.57527
G1 X116.314 Y84.152 E6.60769
G1 X116.83 Y84.235 E6.62507
G1 X117.728 Y84.439 E6.6557
G1 X118.605 Y84.72 E6.68633
G1 X119.454 Y85.076 E6.71695
G1 X119.916 Y85.308 E6.73415
G1 X120.532 Y85.636 E6.75736
G1 X121.731 Y86.295 E6.80286
G1 X122.87 Y86.872 E6.84533
G1 X123.086 Y86.994 E6.85358
G1 X124.218 Y87.581 E6.89599
G1 X125.016 Y88.04 E6.92661
G1 X125.771 Y88.567 E6.95724
G1 X126.478 Y89.157 E6.98786
G1 X127.051 Y89.721 E7.0146
G1 X127.23 Y89.911 E7.02329
G1 X129.075 Y91.82 E7.11159
G1 X129.733 Y92.466 E7.14226
G1 X130.362 Y93.1 E7.17196
G1 X130.981 Y93.782 E7.20259
G1 X131.539 Y94.514 E7.23321
G1 X132.032 Y95.292 E7.26384
G1 X132.384 Y95.967 E7.28916
G1 X132.386 Y95.966 E7.28924
G1 X133.583 Y98.405 E7.3796
G1 X134.54 Y100.239 E7.4484
G1 X134.93 Y101.073 E7.47903
G1 X135.247 Y101.938 E7.50967
G1 X135.487 Y102.826 E7.54026
G1 X135.621 Y103.54 E7.56443
G1 X135.828 Y104.899 E7.61015
G1 X135.849 Y105.052 E7.61528
G1 X136.153 Y106.785 E7.6738
G1 X136.178 Y106.978 E7.68028
G1 X136.391 Y108.244 E7.72298
G1 X136.504 Y109.157 E7.75357
G1 X136.538 Y110.077 E7.78419
G1 X136.491 Y110.997 E7.81483
G1 X136.428 Y111.527 E7.83258
G1 X136.31 Y112.338 E7.85984
G1 X136.117 Y113.55 E7.90066
G1 X135.948 Y114.894 E7.94572
G1 X135.915 Y115.089 E7.95229
G1 X135.745 Y116.359 E7.99491
G1 X135.584 Y117.266 E8.02555
G1 X135.344 Y118.155 E8.05618
G1 X134.988 Y119.115 E8.09023
G1 X134.953 Y119.197 E8.0932
G1 X134.528 Y120.078 E8.12573
G1 X133.955 Y121.138 E8.16581
G1 X132.708 Y123.521 E8.25526
G1 X132.468 Y124.001 E8.27311
G1 X132.321 Y124.284 E8.28372
G1 X131.861 Y125.082 E8.31435
G1 X131.334 Y125.837 E8.34498
G1 X130.744 Y126.543 E8.37558
G1 X130.371 Y126.932 E8.3935
G1 X129.861 Y127.435 E8.41733
G1 X128.731 Y128.519 E8.46941
G1 X126.95 Y130.327 E8.55382
G1 X126.949 Y130.326 E8.55387
G1 X126.294 Y130.944 E8.58382
G1 X125.572 Y131.515 E8.61443
G1 X124.803 Y132.021 E8.64505
G1 X124.133 Y132.389 E8.67048
G1 X123.075 Y132.921 E8.70986
G1 X122.681 Y133.112 E8.72443
G1 X120.556 Y134.216 E8.80407
G1 X119.964 Y134.533 E8.82641
G1 X119.134 Y134.932 E8.85704
G1 X118.273 Y135.257 E8.88765
G1 X117.136 Y135.562 E8.9268
G1 X116.931 Y135.605 E8.93377
G1 X116.416 Y135.7 E8.95119
G1 X113.822 Y136.112 E9.03854
G1 X112.118 Y136.425 E9.09617
G1 X111.842 Y136.472 E9.10548
G1 X111.625 Y136.506 E9.11279
G1 X110.71 Y136.609 E9.14341
G1 X109.79 Y136.632 E9.17402
G1 X108.42 Y136.518 E9.21974
G1 X107.247 Y136.342 E9.25919
G1 X106.71 Y136.254 E9.27729
G1 X104.758 Y135.984 E9.34284
G1 X103.718 Y135.85 E9.37771
G1 X102.81 Y135.693 E9.40836
G1 X101.92 Y135.458 E9.43898
G1 X100.775 Y135.027 E9.47967
G1 X100.669 Y134.98 E9.48352
G1 X99.774 Y134.531 E9.51683
G1 X99.699 Y134.489 E9.51969
G1 X97.346 Y133.21 E9.60876
G1 X96.159 Y132.605 E9.65307
G1 X95.901 Y132.47 E9.66276
G1 X95.719 Y132.371 E9.66965
G1 X95.507 Y132.253 E9.67772
G1 X94.723 Y131.771 E9.70833
G1 X93.983 Y131.222 E9.73898
G1 X93.459 Y130.768 E9.76204
G1 X92.922 Y130.235 E9.7872
G1 X92.777 Y130.081 E9.79424
G1 X89.932 Y127.17 E9.92962
G1 X89.786 Y127.026 E9.93644
G1 X89.159 Y126.351 E9.96708
G1 X88.527 Y125.531 E10.00151
G1 X88.445 Y125.413 E10.00629
G1 X87.953 Y124.635 E10.03691
G1 X87.689 Y124.144 E10.05545
G1 X87.24 Y123.254 E10.08861
G1 X86.849 Y122.452 E10.11828
G1 X86.164 Y121.142 E10.16745
G1 X86.129 Y121.067 E10.1702
G1 X85.516 Y119.894 E10.21422
G1 X85.126 Y119.06 E10.24485
G1 X84.809 Y118.196 E10.27546
G1 X84.572 Y117.324 E10.30551
G1 X84.541 Y117.187 E10.31018
G1 X84.419 Y116.561 E10.33139
G1 X84.306 Y115.871 E10.35465
G1 X84.132 Y114.716 E10.3935
G1 X83.87 Y113.285 E10.44189
G1 X83.853 Y113.164 E10.44595
G1 X83.622 Y111.846 E10.49045
G1 X83.503 Y110.933 E10.52108
G1 X83.463 Y110.013 E10.55171
G1 X83.54 Y108.739 E10.59416
G1 X83.588 Y108.385 E10.60604
G1 X83.992 Y105.733 E10.69526
G1 X84.058 Y105.191 E10.71342
G1 X84.081 Y105.052 E10.71811
G1 X84.268 Y103.646 E10.76528
G1 X84.497 Y102.45 E10.80579
G1 X84.523 Y102.347 E10.80932
G1 X84.787 Y101.465 E10.83994
G1 X85.127 Y100.609 E10.87057
G1 X85.427 Y99.993 E10.89336
G1 X85.82 Y99.25 E10.92132
G1 X86.393 Y98.201 E10.96108
G1 X86.952 Y97.088 E11.0025
G1 X87.137 Y96.757 E11.01511
G1 X87.648 Y95.761 E11.05235
G1 X88.104 Y94.961 E11.08297
G1 X88.627 Y94.204 E11.11357
G1 X89.214 Y93.494 E11.14422
G1 X89.689 Y93.002 E11.16696
G0 F6000 X89.968 Y93.288
G1 F1200 X92.014 Y91.298 E11.26189
G1 X92.906 Y90.392 E11.30418
G1 X93.328 Y89.958 E11.32431
G1 X93.986 Y89.339 E11.35436
G1 X94.696 Y88.781 E11.38439
G1 X95.452 Y88.288 E11.41441
G1 X96.109 Y87.931 E11.43928
G1 X97.246 Y87.367 E11.4815
G1 X99.314 Y86.289 E11.55906
G1 X100.286 Y85.789 E11.59542
G1 X100.769 Y85.556 E11.61325
G1 X100.918 Y85.489 E11.61869
G1 X101.757 Y85.156 E11.64871
G1 X102.623 Y84.898 E11.67876
G1 X103.409 Y84.733 E11.70548
G1 X104.253 Y84.591 E11.73394
G1 X105.27 Y84.434 E11.76817
G1 X107.213 Y84.087 E11.83382
G1 X108.038 Y83.932 E11.86174
G1 X108.932 Y83.804 E11.89177
G1 X109.834 Y83.756 E11.92182
G1 X110.736 Y83.788 E11.95184
G1 X111.457 Y83.872 E11.97598
G1 X112.657 Y84.055 E12.01635
G1 X112.816 Y84.07 E12.02166
G1 X114.473 Y84.317 E12.07739
G1 X115.149 Y84.399 E12.10003
G1 X116.261 Y84.549 E12.13735
G1 X116.759 Y84.629 E12.15413
G1 X117.639 Y84.829 E12.18415
G1 X118.498 Y85.107 E12.21417
G1 X119.728 Y85.661 E12.25904
G1 X120.465 Y86.054 E12.28682
G1 X121.549 Y86.65 E12.32797
G1 X122.689 Y87.228 E12.37048
G1 X122.907 Y87.351 E12.3788
G1 X124.034 Y87.936 E12.42104
G1 X124.816 Y88.387 E12.45106
G1 X125.556 Y88.905 E12.48111
G1 X126.246 Y89.487 E12.51113
G1 X126.76 Y89.996 E12.53519
G1 X126.935 Y90.182 E12.54368
G1 X128.79 Y92.101 E12.63245
G1 X129.449 Y92.748 E12.66317
G1 X130.078 Y93.382 E12.69287
G1 X130.685 Y94.051 E12.72292
G1 X131.231 Y94.77 E12.75295
G1 X131.71 Y95.536 E12.783
G1 X132.025 Y96.143 E12.80574
G1 X132.027 Y96.142 E12.80582
G1 X133.208 Y98.549 E12.89499
G1 X134.186 Y100.424 E12.96533
G1 X134.568 Y101.242 E12.99535
G1 X134.876 Y102.091 E13.02539
G1 X135.108 Y102.964 E13.05544
G1 X135.226 Y103.601 E13.07698
G1 X135.414 Y104.83 E13.11834
G1 X135.455 Y105.116 E13.12795
G1 X135.759 Y106.854 E13.18663
G1 X135.782 Y107.029 E13.1925
G1 X135.997 Y108.31 E13.2357
G1 X136.107 Y109.206 E13.26573
G1 X136.137 Y110.109 E13.29578
G1 X136.088 Y111.011 E13.32582
G1 X136.032 Y111.47 E13.3412
G1 X135.914 Y112.281 E13.36846
G1 X135.72 Y113.497 E13.40942
G1 X135.551 Y114.844 E13.45457
G1 X135.521 Y115.018 E13.46044
G1 X135.349 Y116.306 E13.50366
G1 X135.19 Y117.195 E13.5337
G1 X134.952 Y118.067 E13.56376
G1 X134.62 Y118.958 E13.59539
G1 X134.585 Y119.04 E13.59835
G1 X134.176 Y119.888 E13.62967
G1 X133.6 Y120.953 E13.66994
G1 X132.371 Y123.302 E13.75811
G1 X132.202 Y123.642 E13.77074
G1 X132.113 Y123.817 E13.77727
G1 X131.966 Y124.1 E13.78788
G1 X131.514 Y124.882 E13.81792
G1 X130.996 Y125.621 E13.84793
G1 X130.413 Y126.312 E13.878
G1 X130.09 Y126.647 E13.89348
G1 X129.697 Y127.036 E13.91187
G1 X129.584 Y127.146 E13.91712
G1 X128.452 Y128.232 E13.96929
G1 X126.665 Y130.046 E14.05399
G1 X126.664 Y130.045 E14.05403
G1 X126.02 Y130.652 E14.08347
G1 X125.31 Y131.211 E14.11352
G1 X124.554 Y131.704 E14.14354
G1 X123.953 Y132.032 E14.16631
G1 X122.901 Y132.561 E14.20548
G1 X122.501 Y132.755 E14.22027
G1 X120.316 Y133.89 E14.30216
G1 X119.775 Y134.18 E14.32257
G1 X118.961 Y134.571 E14.35261
G1 X118.115 Y134.888 E14.38266
G1 X117.054 Y135.171 E14.41918
G1 X116.849 Y135.214 E14.42615
G1 X116.354 Y135.305 E14.44289
G1 X113.766 Y135.716 E14.53004
G1 X112.046 Y136.032 E14.58821
G1 X111.78 Y136.077 E14.59718
G1 X111.563 Y136.111 E14.60449
G1 X110.665 Y136.211 E14.63454
G1 X109.762 Y136.232 E14.66458
G1 X108.479 Y136.122 E14.70741
G1 X107.311 Y135.947 E14.74669
G1 X106.743 Y135.854 E14.76583
G1 X104.865 Y135.594 E14.82889
G1 X103.769 Y135.453 E14.86565
G1 X102.879 Y135.298 E14.89569
G1 X102.006 Y135.065 E14.92575
G1 X100.938 Y134.662 E14.96371
G1 X100.832 Y134.615 E14.96757
G1 X99.97 Y134.183 E14.99964
G1 X99.824 Y134.101 E15.00521
G1 X97.569 Y132.875 E15.09058
G1 X96.34 Y132.249 E15.13645
G1 X96.089 Y132.117 E15.14588
G1 X95.701 Y131.903 E15.16062
G1 X94.932 Y131.43 E15.19065
G1 X94.208 Y130.89 E15.22069
G1 X93.731 Y130.474 E15.24174
G1 X93.213 Y129.961 E15.26599
G1 X93.047 Y129.784 E15.27406
G1 X90.216 Y126.888 E15.40876
G1 X90.067 Y126.741 E15.41572
G1 X89.453 Y126.079 E15.44575
G1 X88.856 Y125.303 E15.47832
G1 X88.774 Y125.185 E15.48309
G1 X88.292 Y124.421 E15.51314
G1 X88.046 Y123.964 E15.5304
G1 X87.6 Y123.079 E15.56336
G1 X87.206 Y122.271 E15.59326
G1 X86.519 Y120.957 E15.64258
G1 X86.484 Y120.882 E15.64533
G1 X85.871 Y119.709 E15.68935
G1 X85.488 Y118.89 E15.71942
G1 X85.18 Y118.042 E15.74943
G1 X84.963 Y117.236 E15.77719
G1 X84.932 Y117.099 E15.78187
G1 X84.814 Y116.496 E15.8023
G1 X84.679 Y115.669 E15.83017
G1 X84.526 Y114.646 E15.86458
G1 X84.263 Y113.213 E15.91303
G1 X84.245 Y113.085 E15.91733
G1 X84.016 Y111.777 E15.9615
G1 X83.9 Y110.881 E15.99155
G1 X83.863 Y109.979 E16.02157
G1 X83.937 Y108.788 E16.06126
G1 X83.983 Y108.446 E16.07274
G1 X84.389 Y105.781 E16.1624
G1 X84.455 Y105.239 E16.18056
G1 X84.476 Y105.115 E16.18474
G1 X84.664 Y103.699 E16.23225
G1 X84.885 Y102.548 E16.27124
G1 X84.911 Y102.445 E16.27477
G1 X85.171 Y101.58 E16.30481
G1 X85.506 Y100.741 E16.33486
G1 X85.781 Y100.179 E16.35567
G1 X86.171 Y99.442 E16.3834
G1 X86.737 Y98.405 E16.4227
G1 X87.309 Y97.267 E16.46506
G1 X87.502 Y96.921 E16.47824
