;FLAVOR:Marlin
;TIME:3236
;Filament used: 2.17011m
;Layer height: 0.2
;MINX:93.265
;MINY:84.75
;MINZ:0.2
;MAXX:135.271
;MAXY:135.25
;MAXZ:34.6
;Generated with Cura_SteamEngine 4.7.0
M140 S60
M105
M190 S60
M104 S200
M105
M109 S200
M82 ;absolute extrusion mode
; Ender 3 Custom Start G-code
G92 E0 ; Reset Extruder
G28 ; Home all axes
G1 Z2.0 F3000 ; Move Z Axis up little to prevent scratching of Heat Bed
G1 X0.1 Y20 Z0.3 F5000.0 ; Move to start position
G1 X0.1 Y200.0 Z0.3 F1500.0 E15 ; Draw the first line
G1 X0.4 Y200.0 Z0.3 F5000.0 ; Move to side a little
G1 X0.4 Y20 Z0.3 F1500.0 E30 ; Draw the second line
G92 E0 ; Reset Extruder
G1 Z2.0 F3000 ; Move Z Axis up little to prevent scratching of Heat Bed
G1 X5 Y20 Z0.3 F5000.0 ; Move over to prevent blob squish
G92 E0
G92 E0
G1 F1500 E-6.5
;LAYER_COUNT:175
;LAYER:0
M107
M204 S500
M205 X8 Y8
G0 F6000 X96.478 Y88.002 Z0.2
;TYPE:SKIRT
G1 F1500 E0
G1 F1200 X97.167 Y87.366 E0.03119
G1 X97.908 Y86.791 E0.06238
G1 X98.695 Y86.281 E0.09357
G1 X99.523 Y85.84 E0.12478
G1 X100.385 Y85.471 E0.15596
G1 X101.276 Y85.177 E0.18717
G1 X102.188 Y84.959 E0.21836
G1 X103.115 Y84.821 E0.24953
G1 X103.969 Y84.763 E0.278
G1 X104.289 Y84.754 E0.28865
G1 X104.598 Y84.75 E0.29892
G1 X111.738 Y84.751 E0.5364
G1 X112.882 Y84.767 E0.57445
G1 X115.522 Y84.767 E0.66226
G1 X116.229 Y84.752 E0.68578
G1 X116.5 Y84.75 E0.6948
G1 X123.719 Y84.751 E0.9349
G1 X124.417 Y84.761 E0.95812
G1 X125.353 Y84.815 E0.9893
G1 X126.281 Y84.947 E1.02048
G1 X127.195 Y85.159 E1.05168
G1 X128.087 Y85.448 E1.08287
G1 X128.952 Y85.811 E1.11407
G1 X129.782 Y86.247 E1.14525
G1 X130.573 Y86.752 E1.17647
G1 X131.317 Y87.323 E1.20766
G1 X132.01 Y87.955 E1.23886
G1 X132.647 Y88.643 E1.27004
G1 X133.222 Y89.384 E1.30124
G1 X133.733 Y90.17 E1.33242
G1 X134.175 Y90.998 E1.36364
G1 X134.544 Y91.86 E1.39482
G1 X134.839 Y92.75 E1.42601
G1 X135.057 Y93.662 E1.4572
G1 X135.197 Y94.59 E1.48841
G1 X135.255 Y95.451 E1.51711
G1 X135.264 Y95.771 E1.52776
G1 X135.268 Y96.079 E1.538
G1 X135.268 Y104.749 E1.82637
G1 X135.271 Y104.793 E1.82784
G1 X135.267 Y105.82 E1.86199
G1 X135.268 Y106.941 E1.89928
G1 X135.271 Y106.993 E1.90101
G1 X135.267 Y108.02 E1.93517
G1 X135.267 Y116.176 E2.20644
G1 X135.257 Y116.898 E2.23046
G1 X135.204 Y117.835 E2.26167
G1 X135.071 Y118.763 E2.29285
G1 X134.86 Y119.677 E2.32405
G1 X134.572 Y120.569 E2.35523
G1 X134.209 Y121.434 E2.38643
G1 X133.773 Y122.265 E2.41764
G1 X133.269 Y123.055 E2.44881
G1 X132.699 Y123.8 E2.48001
G1 X132.067 Y124.493 E2.5112
G1 X131.644 Y124.898 E2.53068
G1 X131.42 Y125.101 E2.54073
G1 X129.539 Y126.855 E2.62628
G1 X127.754 Y128.617 E2.7097
G1 X126.008 Y130.441 E2.79368
G1 X125.673 Y130.811 E2.81028
G1 X124.816 Y131.733 E2.85215
G1 X124.149 Y132.392 E2.88333
G1 X123.428 Y132.991 E2.91451
G1 X122.658 Y133.527 E2.94571
G1 X121.846 Y133.996 E2.9769
G1 X120.996 Y134.393 E3.0081
G1 X120.116 Y134.717 E3.03929
G1 X119.212 Y134.965 E3.07047
G1 X118.289 Y135.134 E3.10168
G1 X117.067 Y135.237 E3.14247
G1 X116.743 Y135.246 E3.15325
G1 X116.438 Y135.25 E3.1634
G1 X107.677 Y135.249 E3.45479
G1 X106.996 Y135.239 E3.47744
G1 X106.06 Y135.185 E3.50862
G1 X105.132 Y135.052 E3.5398
G1 X104.218 Y134.84 E3.57101
G1 X103.326 Y134.551 E3.6022
G1 X102.462 Y134.187 E3.63338
G1 X101.631 Y133.751 E3.66459
G1 X100.841 Y133.245 E3.6958
G1 X100.097 Y132.675 E3.72697
G1 X99.404 Y132.043 E3.75816
G1 X98.691 Y131.262 E3.79334
G1 X98.657 Y131.221 E3.79511
G1 X98.089 Y130.474 E3.82632
G1 X97.588 Y129.681 E3.85752
G1 X97.155 Y128.849 E3.88871
G1 X96.754 Y127.869 E3.92393
G1 X96.344 Y126.707 E3.96492
G1 X96.24 Y126.4 E3.9757
G1 X95.386 Y124.09 E4.05761
G1 X94.38 Y121.588 E4.1473
G1 X94.123 Y120.971 E4.16953
G1 X93.8 Y120.09 E4.20074
G1 X93.552 Y119.186 E4.23192
G1 X93.383 Y118.263 E4.26313
G1 X93.281 Y117.049 E4.30365
G1 X93.272 Y116.729 E4.3143
G1 X93.268 Y116.421 E4.32454
G1 X93.268 Y107.751 E4.61291
G1 X93.265 Y107.707 E4.61437
G1 X93.269 Y106.68 E4.64853
G1 X93.268 Y105.559 E4.68582
G1 X93.265 Y105.507 E4.68755
G1 X93.269 Y104.48 E4.72171
G1 X93.269 Y96.259 E4.99514
G1 X93.279 Y95.594 E5.01726
G1 X93.333 Y94.657 E5.04848
G1 X93.467 Y93.729 E5.07966
G1 X93.679 Y92.815 E5.11087
G1 X93.968 Y91.923 E5.14206
G1 X94.333 Y91.059 E5.17325
G1 X94.769 Y90.229 E5.20443
G1 X95.275 Y89.439 E5.23564
G1 X95.846 Y88.695 E5.26683
G1 X96.478 Y88.002 E5.29803
G0 F6000 X96.87 Y88.177
G1 F1200 X97.556 Y87.563 E5.32865
G1 X98.292 Y87.011 E5.35925
G1 X99.074 Y86.524 E5.38989
G1 X99.895 Y86.108 E5.4205
G1 X100.749 Y85.764 E5.45112
G1 X101.629 Y85.495 E5.48173
G1 X102.53 Y85.304 E5.51236
G1 X103.444 Y85.192 E5.54299
G1 X103.98 Y85.163 E5.56084
G1 X104.3 Y85.154 E5.57149
G1 X104.598 Y85.15 E5.5814
G1 X111.584 Y85.15 E5.81376
G1 X112.876 Y85.167 E5.85673
G1 X115.531 Y85.167 E5.94504
G1 X116.232 Y85.152 E5.96836
G1 X116.503 Y85.15 E5.97737
G1 X123.713 Y85.151 E6.21718
G1 X124.411 Y85.161 E6.24039
G1 X125.33 Y85.214 E6.27101
G1 X126.241 Y85.347 E6.30163
G1 X127.137 Y85.558 E6.33225
G1 X128.011 Y85.846 E6.36286
G1 X128.858 Y86.209 E6.39351
G1 X129.669 Y86.644 E6.42411
G1 X130.439 Y87.148 E6.45472
G1 X131.163 Y87.717 E6.48535
G1 X131.835 Y88.347 E6.51599
G1 X132.45 Y89.032 E6.54661
G1 X133.003 Y89.768 E6.57722
G1 X133.49 Y90.549 E6.60784
G1 X133.907 Y91.37 E6.63846
G1 X134.252 Y92.224 E6.6691
G1 X134.521 Y93.104 E6.6997
G1 X134.713 Y94.005 E6.73034
G1 X134.826 Y94.918 E6.76094
G1 X134.855 Y95.462 E6.77906
G1 X134.864 Y95.782 E6.78971
G1 X134.868 Y96.079 E6.79959
G1 X134.869 Y104.747 E7.08789
G1 X134.871 Y104.791 E7.08935
G1 X134.867 Y105.818 E7.12351
G1 X134.868 Y106.925 E7.16033
G1 X134.871 Y106.991 E7.16253
G1 X134.867 Y108.018 E7.19669
G1 X134.867 Y116.171 E7.46786
G1 X134.857 Y116.893 E7.49187
G1 X134.804 Y117.812 E7.52249
G1 X134.672 Y118.723 E7.55311
G1 X134.461 Y119.619 E7.58372
G1 X134.173 Y120.494 E7.61436
G1 X133.811 Y121.34 E7.64497
G1 X133.376 Y122.152 E7.6756
G1 X132.873 Y122.922 E7.70619
G1 X132.304 Y123.647 E7.73685
G1 X131.375 Y124.601 E7.78114
G1 X131.161 Y124.794 E7.79072
G1 X129.268 Y126.56 E7.87683
G1 X127.467 Y128.338 E7.961
G1 X125.705 Y130.178 E8.04574
G1 X125.283 Y130.644 E8.06665
G1 X124.524 Y131.46 E8.10371
G1 X123.868 Y132.107 E8.13436
G1 X123.158 Y132.694 E8.165
G1 X122.401 Y133.217 E8.1956
G1 X121.601 Y133.672 E8.22621
G1 X120.764 Y134.056 E8.25684
G1 X119.897 Y134.367 E8.28747
G1 X119.007 Y134.601 E8.31808
G1 X118.1 Y134.756 E8.34869
G1 X117.056 Y134.837 E8.38351
G1 X116.732 Y134.846 E8.39429
G1 X116.438 Y134.85 E8.40407
G1 X107.683 Y134.849 E8.69527
G1 X107.002 Y134.839 E8.71792
G1 X106.083 Y134.785 E8.74854
G1 X105.172 Y134.652 E8.77916
G1 X104.276 Y134.441 E8.80978
G1 X103.402 Y134.152 E8.84039
G1 X102.556 Y133.789 E8.87101
G1 X101.745 Y133.354 E8.90162
G1 X100.974 Y132.85 E8.93226
G1 X100.251 Y132.28 E8.96288
G1 X99.579 Y131.651 E8.99349
G1 X98.999 Y131.006 E9.02234
G1 X98.965 Y130.965 E9.02412
G1 X98.408 Y130.232 E9.05474
G1 X97.918 Y129.453 E9.08534
G1 X97.496 Y128.634 E9.11599
G1 X97.131 Y127.735 E9.14826
G1 X96.723 Y126.579 E9.18903
G1 X96.619 Y126.27 E9.19988
G1 X95.745 Y123.907 E9.28367
G1 X94.787 Y121.525 E9.36907
G1 X94.492 Y120.817 E9.39458
G1 X94.176 Y119.953 E9.42518
G1 X93.935 Y119.064 E9.45581
G1 X93.772 Y118.158 E9.48643
G1 X93.681 Y117.038 E9.5238
G1 X93.672 Y116.718 E9.53445
G1 X93.668 Y116.421 E9.54433
G1 X93.667 Y107.751 E9.83269
G1 X93.665 Y107.709 E9.83409
G1 X93.669 Y106.682 E9.86825
G1 X93.668 Y105.575 E9.90507
G1 X93.665 Y105.509 E9.90727
G1 X93.669 Y104.482 E9.94143
G1 X93.669 Y96.265 E10.21472
G1 X93.679 Y95.6 E10.23685
G1 X93.733 Y94.681 E10.26746
G1 X93.866 Y93.77 E10.29809
G1 X94.078 Y92.874 E10.32871
G1 X94.367 Y91.999 E10.35936
G1 X94.731 Y91.154 E10.38996
G1 X95.166 Y90.343 E10.42057
G1 X95.671 Y89.572 E10.45122
G1 X96.24 Y88.849 E10.48182
G1 X96.87 Y88.177 E10.51246
G0 F6000 X97.261 Y88.356
G1 F1200 X97.943 Y87.764 E10.5425
G1 X98.675 Y87.235 E10.57254
G1 X99.451 Y86.773 E10.60257
G1 X100.265 Y86.382 E10.63261
G1 X101.11 Y86.063 E10.66265
G1 X101.98 Y85.821 E10.69269
G1 X102.868 Y85.657 E10.72272
G1 X103.991 Y85.563 E10.7602
G1 X104.311 Y85.554 E10.77085
G1 X104.598 Y85.55 E10.7804
G1 X111.584 Y85.55 E11.01275
G1 X112.871 Y85.567 E11.05556
G1 X115.495 Y85.567 E11.14284
G1 X116.086 Y85.554 E11.1625
G1 X116.506 Y85.55 E11.17647
G1 X123.707 Y85.551 E11.41597
G1 X124.405 Y85.561 E11.43919
G1 X125.307 Y85.614 E11.46924
G1 X126.2 Y85.746 E11.49927
G1 X127.078 Y85.957 E11.5293
G1 X127.934 Y86.245 E11.55934
G1 X128.761 Y86.607 E11.58937
G1 X129.553 Y87.042 E11.61942
G1 X130.304 Y87.544 E11.64946
G1 X131.007 Y88.111 E11.6795
G1 X131.657 Y88.738 E11.70954
G1 X132.249 Y89.42 E11.73958
G1 X132.779 Y90.151 E11.76961
G1 X133.241 Y90.927 E11.79965
G1 X133.634 Y91.74 E11.82968
G1 X133.952 Y92.585 E11.85971
G1 X134.195 Y93.455 E11.88976
G1 X134.36 Y94.343 E11.9198
G1 X134.455 Y95.473 E11.95751
G1 X134.464 Y95.793 E11.96816
G1 X134.468 Y96.079 E11.97767
G1 X134.469 Y104.726 E12.26527
G1 X134.471 Y104.79 E12.2674
G1 X134.467 Y105.817 E12.30156
G1 X134.468 Y106.893 E12.33735
G1 X134.471 Y106.99 E12.34058
G1 X134.467 Y108.017 E12.37474
G1 X134.467 Y116.165 E12.64574
G1 X134.457 Y116.887 E12.66976
G1 X134.405 Y117.789 E12.69981
G1 X134.273 Y118.682 E12.72983
G1 X134.062 Y119.56 E12.75986
G1 X133.775 Y120.417 E12.78992
G1 X133.413 Y121.244 E12.81995
G1 X132.979 Y122.036 E12.84999
G1 X132.477 Y122.787 E12.88003
G1 X131.91 Y123.49 E12.91007
G1 X131.107 Y124.305 E12.94813
G1 X130.869 Y124.521 E12.95882
G1 X128.979 Y126.284 E13.04478
G1 X127.198 Y128.042 E13.12801
G1 X125.421 Y129.898 E13.21348
G1 X124.99 Y130.372 E13.23478
G1 X124.231 Y131.188 E13.27185
G1 X123.587 Y131.821 E13.30188
G1 X122.89 Y132.395 E13.33192
G1 X122.144 Y132.905 E13.36197
G1 X121.357 Y133.347 E13.39199
G1 X120.533 Y133.718 E13.42205
G1 X119.68 Y134.015 E13.45209
G1 X118.804 Y134.234 E13.48212
G1 X117.912 Y134.376 E13.51217
G1 X117.045 Y134.437 E13.54107
G1 X116.721 Y134.446 E13.55185
G1 X116.438 Y134.45 E13.56127
G1 X107.689 Y134.449 E13.85226
G1 X107.008 Y134.439 E13.87491
G1 X106.107 Y134.386 E13.90493
G1 X105.213 Y134.253 E13.93499
G1 X104.335 Y134.042 E13.96503
G1 X103.479 Y133.754 E13.99507
G1 X102.652 Y133.391 E14.02511
G1 X101.861 Y132.956 E14.05513
G1 X101.11 Y132.454 E14.08518
G1 X100.408 Y131.887 E14.11519
G1 X99.758 Y131.26 E14.14523
G1 X99.306 Y130.751 E14.16787
G1 X99.272 Y130.71 E14.16964
G1 X98.727 Y129.99 E14.19967
G1 X98.248 Y129.225 E14.22969
G1 X97.838 Y128.42 E14.25974
G1 X97.508 Y127.602 E14.28908
G1 X97.102 Y126.452 E14.32964
G1 X96.997 Y126.141 E14.34056
G1 X96.115 Y123.756 E14.42513
G1 X95.13 Y121.306 E14.51296
G1 X94.862 Y120.663 E14.53613
G1 X94.552 Y119.815 E14.56616
G1 X94.318 Y118.943 E14.59619
G1 X94.162 Y118.053 E14.62624
G1 X94.081 Y117.027 E14.66047
G1 X94.072 Y116.707 E14.67112
G1 X94.068 Y116.421 E14.68063
G1 X94.067 Y107.774 E14.96823
G1 X94.065 Y107.71 E14.97036
G1 X94.069 Y106.683 E15.00452
G1 X94.068 Y105.607 E15.04031
G1 X94.065 Y105.51 E15.04354
G1 X94.069 Y104.483 E15.0777
G1 X94.069 Y96.271 E15.35083
G1 X94.079 Y95.606 E15.37295
G1 X94.133 Y94.704 E15.403
G1 X94.266 Y93.811 E15.43303
G1 X94.477 Y92.933 E15.46307
G1 X94.766 Y92.077 E15.49312
G1 X95.129 Y91.25 E15.52316
G1 X95.563 Y90.459 E15.55316
G1 X96.066 Y89.708 E15.58323
G1 X96.634 Y89.006 E15.61326
G1 X97.261 Y88.356 E15.6433
G1 F1500 E9.1433
G0 F6000 X112.425 Y95.089
G0 X112.929 Y95.593
G0 X114.272 Y105.673
G1 F1500 E15.6433
G1 F1200 X114.478 Y105.954 E15.65489
G1 X114.774 Y106.25 E15.66881
G1 X114.478 Y106.546 E15.68273
G1 X114.272 Y106.809 E15.69385
G1 X114.264 Y106.827 E15.6945
G1 X114.058 Y106.546 E15.70609
G1 X113.762 Y106.25 E15.72001
G1 X114.058 Y105.954 E15.73393
G1 X114.264 Y105.691 E15.74505
G1 X114.272 Y105.673 E15.7457
G0 F6000 X114.624 Y105.5
G1 F1200 X114.761 Y105.671 E15.75299
G1 X115.34 Y106.25 E15.78022
G1 X114.761 Y106.829 E15.80746
G1 X114.592 Y107.055 E15.81684
G1 X114.492 Y107.319 E15.82623
G1 X114.468 Y107.536 E15.83349
G1 X114.468 Y110.95 E15.94704
G1 X114.068 Y110.95 E15.96035
G1 X114.068 Y107.536 E16.0739
G1 X114.028 Y107.257 E16.08327
G1 X113.912 Y107 E16.09265
G1 X113.775 Y106.829 E16.09994
G1 X113.196 Y106.25 E16.12717
G1 X113.775 Y105.671 E16.15441
G1 X113.944 Y105.445 E16.16379
G1 X114.044 Y105.181 E16.17318
G1 X114.068 Y104.964 E16.18044
G1 X114.068 Y97.75 E16.42038
G1 X114.468 Y97.75 E16.43369
G1 X114.468 Y104.964 E16.67363
G1 X114.508 Y105.243 E16.683
G1 X114.624 Y105.5 E16.69238
G0 F6000 X115.327 Y105.105
G1 F1200 X115.913 Y105.691 E16.71994
G1 X116.054 Y105.75 E16.72503
G1 X124.068 Y105.75 E16.99157
G1 X124.068 Y106.75 E17.02483
G1 X116.054 Y106.75 E17.29138
G1 X115.913 Y106.809 E17.29646
G1 X115.327 Y107.395 E17.32403
G1 X115.268 Y107.536 E17.32911
G1 X115.268 Y111.75 E17.46927
G1 X113.268 Y111.75 E17.53579
G1 X113.268 Y107.536 E17.67595
G1 X113.209 Y107.395 E17.68103
G1 X112.623 Y106.809 E17.70859
G1 X112.482 Y106.75 E17.71368
G1 X104.468 Y106.75 E17.98023
G1 X104.468 Y105.75 E18.01349
G1 X112.482 Y105.75 E18.28003
G1 X112.623 Y105.691 E18.28512
G1 X113.209 Y105.105 E18.31268
G1 X113.268 Y104.964 E18.31776
G1 X113.268 Y96.95 E18.58431
G1 X115.268 Y96.95 E18.65083
G1 X115.268 Y104.964 E18.91738
G1 X115.327 Y105.105 E18.92246
G0 F6000 X113.616 Y105.209
G1 F1200 X113.668 Y104.964 E18.93079
G1 X113.668 Y97.35 E19.18403
G1 X114.868 Y97.35 E19.22395
G1 X114.868 Y104.964 E19.47719
G1 X114.908 Y105.179 E19.48446
G1 X115.044 Y105.388 E19.49276
G1 X115.63 Y105.974 E19.52032
G1 X115.809 Y106.098 E19.52756
G1 X116.054 Y106.15 E19.53589
G1 X123.668 Y106.15 E19.78913
G1 X123.668 Y106.35 E19.79579
G1 X116.054 Y106.35 E20.04903
G1 X115.839 Y106.39 E20.0563
G1 X115.63 Y106.526 E20.0646
G1 X115.044 Y107.112 E20.09216
G1 X114.92 Y107.291 E20.0994
G1 X114.868 Y107.536 E20.10773
G1 X114.868 Y111.35 E20.23459
G1 X113.668 Y111.35 E20.2745
G1 X113.668 Y107.536 E20.40135
G1 X113.628 Y107.321 E20.40863
G1 X113.492 Y107.112 E20.41692
G1 X112.906 Y106.526 E20.44448
G1 X112.727 Y106.402 E20.45173
G1 X112.482 Y106.35 E20.46006
G1 X104.868 Y106.35 E20.7133
G1 X104.868 Y106.15 E20.71995
G1 X112.482 Y106.15 E20.97319
G1 X112.697 Y106.11 E20.98047
G1 X112.906 Y105.974 E20.98876
G1 X113.492 Y105.388 E21.01633
G1 X113.616 Y105.209 E21.02357
G1 F1500 E14.52357
;MESH:calicat.stl
G0 F6000 X111.854 Y104.336
G0 X111.668 Y104.15
;TYPE:WALL-INNER
G1 F1500 E21.02357
G1 F1200 X104.868 Y104.15 E21.24974
G1 X104.868 Y96.35 E21.50917
G1 X111.668 Y96.35 E21.73533
G1 X111.668 Y104.15 E21.99476
G0 F6000 X112.068 Y104.55
;TYPE:WALL-OUTER
G1 F1200 X104.468 Y104.55 E22.24754
G1 X104.468 Y95.95 E22.53358
G1 X112.068 Y95.95 E22.78635
G1 X112.068 Y104.55 E23.07239
G0 F6000 X111.798 Y104.28
G0 X111.558 Y103.76
G0 X111.278 Y103.76
;TYPE:SKIN
G1 F1200 X105.258 Y103.76 E23.27262
G1 X105.258 Y96.74 E23.5061
G1 X111.278 Y96.74 E23.70633
G1 X111.278 Y103.76 E23.93982
G0 F6000 X111.558 Y103.76
G0 X111.494 Y103.947
G0 X105.862 Y104.04
G0 X105.862 Y103.599
G1 F1200 X105.417 Y103.154 E23.96075
G0 F6000 X105.417 Y102.589
G1 F1200 X106.428 Y103.599 E24.00828
G0 F6000 X106.993 Y103.599
G1 F1200 X105.417 Y102.023 E24.08241
G0 F6000 X105.417 Y101.457
G1 F1200 X107.559 Y103.599 E24.18316
G0 F6000 X108.125 Y103.599
G1 F1200 X105.417 Y100.892 E24.31051
G0 F6000 X105.417 Y100.326
G1 F1200 X108.69 Y103.599 E24.46447
G0 F6000 X109.256 Y103.599
G1 F1200 X105.417 Y99.76 E24.64504
G0 F6000 X105.417 Y99.195
G1 F1200 X109.822 Y103.599 E24.85222
G0 F6000 X110.387 Y103.599
G1 F1200 X105.417 Y98.629 E25.08599
G0 F6000 X105.417 Y98.063
G1 F1200 X110.953 Y103.599 E25.34639
G0 F6000 X111.117 Y103.197
G1 F1200 X105.417 Y97.498 E25.61447
G0 F6000 X105.417 Y96.932
G1 F1200 X111.117 Y102.632 E25.88258
G0 F6000 X111.117 Y102.066
G1 F1200 X105.95 Y96.899 E26.12562
G0 F6000 X106.516 Y96.899
G1 F1200 X111.117 Y101.5 E26.34204
G0 F6000 X111.117 Y100.935
G1 F1200 X107.082 Y96.899 E26.53186
G0 F6000 X107.647 Y96.899
G1 F1200 X111.117 Y100.369 E26.69508
G0 F6000 X111.117 Y99.803
G1 F1200 X108.213 Y96.899 E26.83167
G0 F6000 X108.779 Y96.899
G1 F1200 X111.117 Y99.238 E26.94167
G0 F6000 X111.117 Y98.672
G1 F1200 X109.344 Y96.899 E27.02506
G0 F6000 X109.91 Y96.899
