;FLAVOR:Marlin
;TIME:9957
;Filament used: 7.4579m
;Layer height: 0.2
;MINX:53.527
;MINY:78.543
;MINZ:0.2
;MAXX:181.459
;MAXY:156.473
;MAXZ:16
;Generated with Cura_SteamEngine 4.6.2
M140 S60
M105
M190 S60
M104 S200
M105
M109 S200
M82 ;absolute extrusion mode
; Ender 3 Custom Start G-code
G92 E0 ; Reset Extruder
G28 ; Home all axes
G1 Z2.0 F3000 ; Move Z Axis up little to prevent scratching of Heat Bed
G1 X0.1 Y20 Z0.3 F5000.0 ; Move to start position
G1 X0.1 Y200.0 Z0.3 F1500.0 E15 ; Draw the first line
G1 X0.4 Y200.0 Z0.3 F5000.0 ; Move to side a little
G1 X0.4 Y20 Z0.3 F1500.0 E30 ; Draw the second line
G92 E0 ; Reset Extruder
G1 Z2.0 F3000 ; Move Z Axis up little to prevent scratching of Heat Bed
G1 X5 Y20 Z0.3 F5000.0 ; Move over to prevent blob squish
G92 E0
G92 E0
G1 F1500 E-6
;LAYER_COUNT:80
;LAYER:0
M107
M204 S500
M205 X8 Y8
G0 F7500 X157.205 Y79.48 Z0.2
;TYPE:SKIRT
G1 F1500 E0
G1 X158.101 Y79.596 E0.02855
G1 X158.983 Y79.791 E0.05709
G1 X159.844 Y80.063 E0.08562
G1 X160.677 Y80.411 E0.11414
G1 X161.477 Y80.83 E0.14268
G1 X162.236 Y81.319 E0.17121
G1 X162.95 Y81.873 E0.19976
G1 X163.442 Y82.321 E0.22079
G1 X164.148 Y83.008 E0.25191
G1 X177.195 Y96.055 E0.83492
G1 X177.661 Y96.534 E0.85604
G1 X178.261 Y97.209 E0.88457
G1 X178.8 Y97.934 E0.91312
G1 X179.272 Y98.704 E0.94165
G1 X179.674 Y99.512 E0.97017
G1 X180.004 Y100.353 E0.99872
G1 X180.257 Y101.22 E1.02725
G1 X180.433 Y102.106 E1.05579
G1 X180.509 Y102.729 E1.07563
G1 X180.582 Y103.537 E1.10126
G1 X180.605 Y103.849 E1.11115
G1 X180.645 Y104.521 E1.13242
G1 X180.659 Y105.424 E1.16095
G1 X180.592 Y106.325 E1.1895
G1 X180.447 Y107.216 E1.21802
G1 X180.086 Y108.508 E1.26041
G1 X179.817 Y109.274 E1.28606
G1 X178.985 Y111.758 E1.36884
G1 X178.246 Y114.192 E1.44921
G1 X177.568 Y116.674 E1.53051
G1 X176.972 Y119.124 E1.61018
G1 X176.446 Y121.597 E1.69006
G1 X175.99 Y124.082 E1.76989
G1 X175.595 Y126.626 E1.85124
G1 X175.282 Y129.118 E1.9306
G1 X175.035 Y131.653 E2.01108
G1 X174.862 Y134.178 E2.09105
G1 X174.758 Y136.746 E2.17226
G1 X174.727 Y139.134 E2.24772
G1 X174.726 Y143.932 E2.39932
G1 X174.716 Y144.63 E2.42138
G1 X174.663 Y145.532 E2.44993
G1 X174.531 Y146.425 E2.47845
G1 X174.32 Y147.303 E2.50698
G1 X174.032 Y148.159 E2.53552
G1 X173.67 Y148.986 E2.56404
G1 X173.235 Y149.778 E2.59259
G1 X172.733 Y150.529 E2.62114
G1 X172.084 Y151.324 E2.65356
G1 X171.943 Y151.48 E2.66021
G1 X171.631 Y151.81 E2.67456
G1 X171.15 Y152.294 E2.69612
G1 X170.666 Y152.765 E2.71746
G1 X169.991 Y153.366 E2.74601
G1 X169.266 Y153.904 E2.77454
G1 X168.496 Y154.376 E2.80308
G1 X167.688 Y154.779 E2.83161
G1 X166.847 Y155.108 E2.86014
G1 X165.98 Y155.362 E2.88869
G1 X165.094 Y155.538 E2.91723
G1 X163.876 Y155.65 E2.95588
G1 X163.309 Y155.668 E2.9738
G1 X162.985 Y155.673 E2.98404
G1 X66.214 Y155.673 E6.04173
G1 X66.068 Y155.672 E6.04634
G1 X65.37 Y155.662 E6.0684
G1 X64.468 Y155.609 E6.09695
G1 X63.575 Y155.477 E6.12547
G1 X62.697 Y155.266 E6.154
G1 X61.841 Y154.978 E6.18254
G1 X61.014 Y154.616 E6.21106
G1 X60.222 Y154.181 E6.23961
G1 X59.471 Y153.679 E6.26816
G1 X58.676 Y153.03 E6.30058
G1 X58.52 Y152.889 E6.30723
G1 X58.188 Y152.575 E6.32167
G1 X57.692 Y152.081 E6.34379
G1 X57.228 Y151.604 E6.36481
G1 X56.627 Y150.93 E6.39335
G1 X56.089 Y150.205 E6.42187
G1 X55.617 Y149.435 E6.45041
G1 X55.214 Y148.626 E6.47897
G1 X54.885 Y147.785 E6.5075
G1 X54.632 Y146.918 E6.53604
G1 X54.456 Y146.032 E6.56458
G1 X54.341 Y144.71 E6.60651
G1 X54.327 Y143.931 E6.63113
G1 X54.328 Y97.014 E8.11357
G1 X54.338 Y96.316 E8.13563
G1 X54.391 Y95.414 E8.16418
G1 X54.523 Y94.521 E8.1927
G1 X54.734 Y93.643 E8.22123
G1 X55.022 Y92.787 E8.24977
G1 X55.384 Y91.96 E8.27829
G1 X55.819 Y91.168 E8.30684
G1 X56.321 Y90.417 E8.33539
G1 X56.97 Y89.622 E8.36781
G1 X57.111 Y89.466 E8.37446
G1 X57.424 Y89.135 E8.38885
G1 X57.913 Y88.644 E8.41075
G1 X58.396 Y88.174 E8.43204
G1 X59.07 Y87.573 E8.46058
G1 X59.795 Y87.035 E8.4891
G1 X60.565 Y86.562 E8.51766
G1 X61.373 Y86.16 E8.54617
G1 X62.214 Y85.831 E8.57471
G1 X63.081 Y85.577 E8.60325
G1 X63.967 Y85.401 E8.63179
G1 X65.309 Y85.286 E8.67435
G1 X66.069 Y85.273 E8.69837
G1 X120.859 Y85.273 E10.42958
G1 X123.465 Y85.236 E10.51193
G1 X126.033 Y85.127 E10.59314
G1 X128.535 Y84.95 E10.67239
G1 X131.047 Y84.701 E10.75216
G1 X133.61 Y84.373 E10.8338
G1 X136.095 Y83.982 E10.91328
G1 X138.578 Y83.521 E10.99308
G1 X141.059 Y82.987 E11.07327
G1 X143.537 Y82.38 E11.15388
G1 X146.024 Y81.695 E11.23539
G1 X148.389 Y80.971 E11.31354
G1 X151.571 Y79.887 E11.41976
G1 X152.438 Y79.634 E11.44829
G1 X153.324 Y79.459 E11.47683
G1 X154.222 Y79.362 E11.50537
G1 X155.427 Y79.358 E11.54344
G1 X156.272 Y79.405 E11.57018
G1 X156.408 Y79.416 E11.5745
G0 F1350 X157.205 Y79.48
G0 F7500 X157.239 Y79.081
G1 F1500 X158.152 Y79.199 E11.60358
G1 X159.052 Y79.395 E11.63269
G1 X159.931 Y79.669 E11.66178
G1 X160.783 Y80.018 E11.69087
G1 X161.601 Y80.44 E11.71995
G1 X162.38 Y80.931 E11.74905
G1 X163.113 Y81.488 E11.77814
G1 X163.72 Y82.033 E11.80391
G1 X164.431 Y82.725 E11.83526
G1 X177.482 Y95.776 E12.41845
G1 X177.948 Y96.255 E12.43956
G1 X178.56 Y96.943 E12.46866
G1 X179.111 Y97.68 E12.49774
G1 X179.596 Y98.463 E12.52684
G1 X180.011 Y99.285 E12.55593
G1 X180.353 Y100.14 E12.58503
G1 X180.62 Y101.021 E12.61412
G1 X180.809 Y101.922 E12.64321
G1 X180.907 Y102.693 E12.66776
G1 X180.98 Y103.501 E12.6934
G1 X181.004 Y103.825 E12.70366
G1 X181.044 Y104.497 E12.72493
G1 X181.059 Y105.418 E12.75404
G1 X180.994 Y106.336 E12.78312
G1 X180.849 Y107.245 E12.8122
G1 X180.626 Y108.138 E12.84129
G1 X180.464 Y108.64 E12.85795
G1 X180.202 Y109.386 E12.88294
G1 X179.362 Y111.896 E12.96657
G1 X178.632 Y114.299 E13.04592
G1 X177.957 Y116.769 E13.12683
G1 X177.356 Y119.237 E13.20709
G1 X176.844 Y121.646 E13.28491
G1 X176.379 Y124.178 E13.36625
G1 X175.994 Y126.666 E13.4458
G1 X175.679 Y129.171 E13.52557
G1 X175.434 Y131.684 E13.60535
G1 X175.259 Y134.223 E13.68577
G1 X175.158 Y136.73 E13.76505
G1 X175.127 Y139.139 E13.84117
G1 X175.126 Y143.938 E13.9928
G1 X175.116 Y144.636 E14.01486
G1 X175.063 Y145.555 E14.04395
G1 X174.93 Y146.466 E14.07304
G1 X174.719 Y147.362 E14.10212
G1 X174.431 Y148.236 E14.1312
G1 X174.068 Y149.083 E14.16032
G1 X173.633 Y149.894 E14.1894
G1 X173.129 Y150.664 E14.21847
G1 X172.381 Y151.592 E14.25613
G1 X172.24 Y151.748 E14.26278
G1 X171.915 Y152.091 E14.27771
G1 X171.429 Y152.581 E14.29952
G1 X170.945 Y153.052 E14.32085
G1 X170.258 Y153.664 E14.34993
G1 X169.52 Y154.215 E14.37903
G1 X168.737 Y154.7 E14.40813
G1 X167.915 Y155.115 E14.43722
G1 X167.061 Y155.457 E14.46629
G1 X166.18 Y155.724 E14.49538
G1 X165.279 Y155.913 E14.52447
G1 X164.365 Y156.024 E14.55356
G1 X163.888 Y156.05 E14.56865
G1 X163.321 Y156.068 E14.58658
G1 X162.985 Y156.073 E14.5972
G1 X66.214 Y156.073 E17.65488
G1 X66.062 Y156.072 E17.65968
G1 X65.364 Y156.062 E17.68174
G1 X64.445 Y156.009 E17.71083
G1 X63.534 Y155.876 E17.73992
G1 X62.638 Y155.665 E17.769
G1 X61.764 Y155.377 E17.79808
G1 X60.917 Y155.014 E17.8272
G1 X60.106 Y154.579 E17.85628
G1 X59.336 Y154.075 E17.88535
G1 X58.408 Y153.327 E17.92302
G1 X58.252 Y153.186 E17.92966
G1 X57.907 Y152.859 E17.94468
G1 X57.405 Y152.36 E17.96704
G1 X56.941 Y151.883 E17.98807
G1 X56.328 Y151.196 E18.01716
G1 X55.777 Y150.458 E18.04626
G1 X55.293 Y149.675 E18.07535
G1 X54.878 Y148.854 E18.10442
G1 X54.536 Y147.999 E18.13351
G1 X54.269 Y147.118 E18.1626
G1 X54.08 Y146.216 E18.19172
G1 X53.97 Y145.302 E18.22081
G1 X53.941 Y144.719 E18.23925
G1 X53.927 Y143.931 E18.26415
G1 X53.928 Y97.008 E19.74679
G1 X53.938 Y96.31 E19.76884
G1 X53.991 Y95.391 E19.79793
G1 X54.124 Y94.48 E19.82702
G1 X54.335 Y93.584 E19.85611
G1 X54.623 Y92.71 E19.88518
G1 X54.986 Y91.863 E19.9143
G1 X55.421 Y91.052 E19.94338
G1 X55.925 Y90.282 E19.97246
G1 X56.673 Y89.354 E20.01012
G1 X56.814 Y89.198 E20.01676
G1 X57.14 Y88.854 E20.03174
G1 X57.634 Y88.357 E20.05388
G1 X58.117 Y87.887 E20.07517
G1 X58.804 Y87.274 E20.10426
G1 X59.541 Y86.723 E20.13334
G1 X60.324 Y86.239 E20.16243
G1 X61.146 Y85.824 E20.19152
G1 X62.001 Y85.481 E20.22063
G1 X62.882 Y85.215 E20.24971
G1 X63.783 Y85.026 E20.2788
G1 X64.697 Y84.915 E20.30789
G1 X65.301 Y84.886 E20.327
G1 X66.069 Y84.873 E20.35127
G1 X120.853 Y84.873 E22.08228
G1 X123.478 Y84.836 E22.16523
G1 X125.986 Y84.729 E22.24455
G1 X128.503 Y84.551 E22.32428
G1 X131.027 Y84.301 E22.40442
G1 X133.535 Y83.98 E22.48431
G1 X135.997 Y83.593 E22.56306
G1 X138.519 Y83.124 E22.64411
G1 X140.993 Y82.592 E22.72407
G1 X143.441 Y81.992 E22.80371
G1 X145.864 Y81.325 E22.88312
G1 X148.307 Y80.577 E22.96385
G1 X151.442 Y79.509 E23.0685
G1 X152.325 Y79.25 E23.09757
G1 X153.228 Y79.069 E23.12667
G1 X154.143 Y78.966 E23.15577
G1 X155.45 Y78.958 E23.19706
G1 X156.295 Y79.005 E23.2238
G1 X156.442 Y79.017 E23.22846
G0 F1350 X157.239 Y79.081
G0 F7500 X156.638 Y78.629
G1 F1500 X157.273 Y78.683 E23.2486
G1 X158.203 Y78.802 E23.27823
G1 X159.12 Y79 E23.30787
G1 X160.017 Y79.275 E23.33751
G1 X160.886 Y79.626 E23.36713
G1 X161.723 Y80.05 E23.39677
G1 X162.521 Y80.543 E23.42641
G1 X163.273 Y81.102 E23.45602
G1 X163.999 Y81.746 E23.48668
G1 X164.714 Y82.442 E23.51821
G1 X177.768 Y95.498 E24.10157
G1 X178.234 Y95.977 E24.12269
G1 X178.859 Y96.676 E24.15232
G1 X179.422 Y97.426 E24.18195
G1 X179.919 Y98.222 E24.2116
G1 X180.346 Y99.056 E24.24121
G1 X180.701 Y99.925 E24.27087
G1 X180.981 Y100.82 E24.3005
G1 X181.183 Y101.736 E24.33014
G1 X181.305 Y102.657 E24.35949
G1 X181.404 Y103.801 E24.39577
G1 X181.444 Y104.473 E24.41704
G1 X181.459 Y105.411 E24.44669
G1 X181.395 Y106.347 E24.47633
G1 X181.252 Y107.274 E24.50597
G1 X181.029 Y108.185 E24.5356
G1 X180.841 Y108.773 E24.55511
G1 X180.579 Y109.519 E24.58009
G1 X179.737 Y112.034 E24.66389
G1 X179.014 Y114.415 E24.74252
G1 X178.357 Y116.821 E24.82132
G1 X177.743 Y119.343 E24.90334
G1 X177.234 Y121.737 E24.98067
G1 X176.774 Y124.24 E25.06108
G1 X176.392 Y126.706 E25.13993
G1 X176.075 Y129.223 E25.22009
G1 X175.833 Y131.717 E25.29926
G1 X175.66 Y134.229 E25.37882
G1 X175.558 Y136.752 E25.45861
G1 X175.527 Y139.145 E25.53423
G1 X175.526 Y143.944 E25.68586
G1 X175.516 Y144.642 E25.70792
G1 X175.462 Y145.578 E25.73754
G1 X175.33 Y146.506 E25.76716
G1 X175.118 Y147.42 E25.79681
G1 X174.829 Y148.312 E25.82643
G1 X174.466 Y149.177 E25.85607
G1 X174.03 Y150.007 E25.8857
G1 X173.525 Y150.798 E25.91535
G1 X172.678 Y151.86 E25.95827
G1 X172.537 Y152.016 E25.96492
G1 X172.2 Y152.373 E25.98043
G1 X171.708 Y152.867 E26.00246
G1 X171.224 Y153.338 E26.0238
G1 X170.524 Y153.963 E26.05345
G1 X169.774 Y154.526 E26.08308
G1 X168.979 Y155.023 E26.11271
G1 X168.144 Y155.451 E26.14235
G1 X167.276 Y155.806 E26.17198
G1 X166.381 Y156.085 E26.20161
G1 X165.465 Y156.287 E26.23124
G1 X164.535 Y156.411 E26.26089
G1 X163.901 Y156.449 E26.28096
G1 X163.334 Y156.467 E26.29888
G1 X162.985 Y156.473 E26.30991
G1 X66.214 Y156.473 E29.3676
G1 X66.056 Y156.472 E29.37259
G1 X65.358 Y156.462 E29.39465
G1 X64.422 Y156.408 E29.42427
G1 X63.494 Y156.276 E29.45389
G1 X62.58 Y156.064 E29.48353
G1 X61.688 Y155.775 E29.51316
G1 X60.823 Y155.412 E29.5428
G1 X59.993 Y154.976 E29.57243
G1 X59.202 Y154.471 E29.60208
G1 X58.14 Y153.624 E29.645
G1 X57.984 Y153.483 E29.65164
G1 X57.626 Y153.144 E29.66722
G1 X57.118 Y152.639 E29.68986
G1 X56.654 Y152.162 E29.71088
G1 X56.029 Y151.462 E29.74053
G1 X55.467 Y150.712 E29.77015
G1 X54.97 Y149.917 E29.79977
G1 X54.542 Y149.082 E29.82942
G1 X54.188 Y148.214 E29.85904
G1 X53.908 Y147.318 E29.8887
G1 X53.706 Y146.403 E29.91831
G1 X53.583 Y145.473 E29.94795
G1 X53.542 Y144.727 E29.97156
G1 X53.527 Y143.931 E29.99671
G1 X53.528 Y97.002 E31.47953
G1 X53.538 Y96.304 E31.50159
G1 X53.592 Y95.368 E31.53121
G1 X53.724 Y94.44 E31.56083
G1 X53.936 Y93.526 E31.59048
G1 X54.225 Y92.634 E31.6201
G1 X54.588 Y91.769 E31.64975
G1 X55.024 Y90.939 E31.67937
G1 X55.529 Y90.148 E31.70902
G1 X56.376 Y89.086 E31.75194
G1 X56.517 Y88.93 E31.75859
G1 X56.856 Y88.572 E31.77417
G1 X57.355 Y88.07 E31.79653
G1 X57.838 Y87.6 E31.81783
G1 X58.537 Y86.976 E31.84743
G1 X59.287 Y86.413 E31.87706
G1 X60.083 Y85.916 E31.90671
G1 X60.917 Y85.488 E31.93633
G1 X61.785 Y85.133 E31.96597
G1 X62.681 Y84.854 E31.99562
G1 X63.597 Y84.652 E32.02526
G1 X64.526 Y84.528 E32.05487
G1 X65.293 Y84.486 E32.07914
G1 X66.069 Y84.473 E32.10366
G1 X120.847 Y84.473 E33.83449
G1 X123.455 Y84.436 E33.91691
G1 X125.977 Y84.329 E33.99667
G1 X128.472 Y84.152 E34.0757
G1 X130.97 Y83.904 E34.15502
G1 X133.459 Y83.586 E34.2343
G1 X135.968 Y83.192 E34.31455
G1 X138.434 Y82.733 E34.39381
G1 X140.885 Y82.206 E34.47302
G1 X143.345 Y81.603 E34.55305
G1 X145.779 Y80.933 E34.63282
G1 X148.158 Y80.205 E34.71143
G1 X151.313 Y79.13 E34.81675
G1 X152.213 Y78.866 E34.84638
G1 X153.132 Y78.679 E34.87601
G1 X154.063 Y78.571 E34.90563
G1 X155.001 Y78.543 E34.93528
G1 X155.472 Y78.559 E34.95017
G1 X155.84 Y78.582 E34.96182
G0 F1350 X156.638 Y78.629
G1 F1500 E28.96182
;MESH:funnel_tray.stl
G0 F7500 X156.244 Y88.961
G0 X156.166 Y90.042
G0 X169.228 Y104.17
G0 X169.272 Y104.778
G0 X163.948 Y112.991
G0 X163.527 Y144.079
;TYPE:WALL-INNER
G1 F1500 E34.96182
G1 X163.133 Y144.473 E34.97943
G1 X65.921 Y144.473 E38.05105
G1 X65.527 Y144.079 E38.06865
G1 X65.527 Y96.867 E39.56042
G1 X65.921 Y96.473 E39.57802
G1 X146.068 Y96.473 E42.11044
G1 X148.141 Y95.786 E42.17944
G1 X155.171 Y90.551 E42.45639
G1 X155.907 Y90.605 E42.47971
G1 X169.395 Y104.093 E43.08242
G1 X169.449 Y104.829 E43.10574
G1 X164.214 Y111.859 E43.38269
G1 X163.527 Y113.932 E43.45169
G1 X163.527 Y143.279 E44.37898
G0 F1350 X163.527 Y144.079
G0 F7500 X163.927 Y144.245
G1 F1500 X163.299 Y144.873 E44.40704
G1 X65.755 Y144.873 E47.48915
G1 X65.127 Y144.245 E47.51721
G1 X65.127 Y96.701 E49.01946
G1 X65.755 Y96.073 E49.04753
G1 X146.003 Y96.073 E51.58313
G1 X147.954 Y95.427 E51.64807
G1 X155.051 Y90.141 E51.92768
G1 X156.085 Y90.217 E51.96044
G1 X169.783 Y103.915 E52.57254
G1 X169.859 Y104.949 E52.6053
G1 X164.573 Y112.046 E52.88491
G1 X163.927 Y113.997 E52.94984
G1 X163.927 Y143.445 E53.88032
G0 F1350 X163.927 Y144.245
G0 F7500 X164.327 Y144.411
;TYPE:WALL-OUTER
G1 F1500 X163.465 Y145.273 E53.91691
G1 X65.589 Y145.273 E56.85488
G1 X64.727 Y144.411 E56.89147
G1 X64.727 Y96.535 E58.32858
G1 X65.589 Y95.673 E58.36517
G1 X145.939 Y95.673 E60.77706
G1 X147.767 Y95.068 E60.83486
G1 X154.931 Y89.731 E61.10302
G1 X156.263 Y89.829 E61.14311
G1 X170.171 Y103.737 E61.73351
G1 X170.269 Y105.069 E61.7736
G1 X164.932 Y112.233 E62.04176
G1 X164.327 Y114.061 E62.09956
G1 X164.327 Y143.611 E62.98657
G0 F1350 X164.327 Y144.411
G0 F7500 X164.045 Y144.693
G0 X163.735 Y144.381
G0 X163.137 Y143.919
;TYPE:SKIN
G1 F1500 X162.973 Y144.083 E62.9939
G1 X66.081 Y144.083 E66.05541
G1 X65.917 Y143.919 E66.06274
G1 X65.917 Y97.027 E67.54439
G1 X66.081 Y96.863 E67.55172
G1 X146.131 Y96.863 E70.08107
G1 X148.324 Y96.137 E70.15406
G1 X155.287 Y90.949 E70.42842
G1 X155.735 Y90.983 E70.44262
G1 X169.017 Y104.265 E71.03613
G1 X169.051 Y104.714 E71.05036
G1 X163.863 Y111.676 E71.3247
G1 X163.137 Y113.869 E71.39769
G1 X163.137 Y143.119 E72.3219
G0 F1350 X163.137 Y143.919
G1 F1500 E66.3219
G0 F7500 X163.334 Y144.116
G0 X164.06 Y111.779
G0 X169.272 Y104.778
G0 X169.228 Y104.17
G0 X155.83 Y90.772
G0 X155.338 Y90.737
G0 X155.012 Y90.806
G0 X155.392 Y91.318
G1 F1500 E72.3219
G1 X155.575 Y91.332 E72.3277
G1 X168.667 Y104.424 E72.91272
G1 X168.681 Y104.607 E72.91852
G0 F7500 X168.616 Y104.694
G1 F1500 X155.306 Y91.383 E73.5133
G1 X155.392 Y91.318 E73.51671
G0 F7500 X155.306 Y91.383
G1 F1500 X154.981 Y91.624 E73.52949
G1 X168.374 Y105.018 E74.12798
G1 X168.133 Y105.342 E74.14074
G1 X154.657 Y91.866 E74.74291
G1 X154.333 Y92.108 E74.75569
G1 X167.891 Y105.666 E75.36153
G1 X167.65 Y105.99 E75.37429
G1 X154.009 Y92.349 E75.98384
G1 X153.685 Y92.591 E75.99662
G1 X167.408 Y106.314 E76.60983
G1 X167.167 Y106.638 E76.62259
G1 X153.361 Y92.833 E77.23949
G1 X153.036 Y93.074 E77.25228
G1 X166.925 Y106.963 E77.87291
G1 X166.684 Y107.287 E77.88567
G1 X152.713 Y93.316 E78.50996
G1 X152.388 Y93.557 E78.52275
G1 X166.442 Y107.611 E79.15075
G1 X166.201 Y107.935 E79.16351
G1 X152.064 Y93.799 E79.7952
G1 X151.74 Y94.04 E79.80796
G1 X165.959 Y108.259 E80.44334
