;FLAVOR:Marlin
;TIME:4072
;Filament used: 1.7353m
;Layer height: 0.12
;MINX:91.059
;MINY:91.072
;MINZ:0.12
;MAXX:143.93
;MAXY:143.891
;MAXZ:21.96
;Generated with Cura_SteamEngine 4.6.2
M140 S60
M105
M190 S60
M104 S200
M105
M109 S200
M82 ;absolute extrusion mode
; Ender 3 Custom Start G-code
G92 E0 ; Reset Extruder
G28 ; Home all axes
G1 Z2.0 F3000 ; Move Z Axis up little to prevent scratching of Heat Bed
G1 X0.1 Y20 Z0.3 F5000.0 ; Move to start position
G1 X0.1 Y200.0 Z0.3 F1500.0 E15 ; Draw the first line
G1 X0.4 Y200.0 Z0.3 F5000.0 ; Move to side a little
G1 X0.4 Y20 Z0.3 F1500.0 E30 ; Draw the second line
G92 E0 ; Reset Extruder
G1 Z2.0 F3000 ; Move Z Axis up little to prevent scratching of Heat Bed
G1 X5 Y20 Z0.3 F5000.0 ; Move over to prevent blob squish
G92 E0
G92 E0
G1 F1500 E-6.5
;LAYER_COUNT:183
;LAYER:0
M107
G0 F6000 X118.883 Y91.895 Z0.12
;TYPE:SKIRT
G1 F1500 E0
G1 F1200 X119.784 Y91.959 E0.01803
G1 X120.676 Y92.103 E0.03606
G1 X121.495 Y92.309 E0.05291
G1 X122.062 Y92.477 E0.06471
G1 X124.623 Y93.193 E0.11778
G1 X126.118 Y93.566 E0.14853
G1 X126.819 Y93.749 E0.16299
G1 X127.682 Y94.015 E0.18101
G1 X128.518 Y94.357 E0.19903
G1 X129.02 Y94.606 E0.21022
G1 X129.495 Y94.861 E0.22097
G1 X130.123 Y95.219 E0.2354
G1 X131.371 Y95.965 E0.26442
G1 X132.125 Y96.462 E0.28244
G1 X132.832 Y97.024 E0.30046
G1 X133.435 Y97.593 E0.31701
G1 X134.297 Y98.476 E0.34163
G1 X136.611 Y100.778 E0.40677
G1 X137.298 Y101.437 E0.42577
G1 X137.921 Y102.09 E0.44378
G1 X138.484 Y102.797 E0.46181
G1 X138.745 Y103.174 E0.47096
G1 X139.019 Y103.589 E0.48089
G1 X139.228 Y103.919 E0.48868
G1 X139.632 Y104.589 E0.5043
G1 X140.037 Y105.29 E0.52045
G1 X140.424 Y106.028 E0.53708
G1 X140.594 Y106.387 E0.54501
G1 X140.944 Y107.219 E0.56302
G1 X141.256 Y108.221 E0.58396
G1 X141.618 Y109.65 E0.61338
G1 X142.289 Y112.136 E0.66477
G1 X142.754 Y113.745 E0.69819
G1 X142.947 Y114.628 E0.71623
G1 X143.086 Y115.923 E0.74222
G1 X143.109 Y116.497 E0.75368
G1 X143.126 Y117.36 E0.77091
G1 X143.13 Y117.989 E0.78346
G1 X143.095 Y118.895 E0.80156
G1 X143.05 Y119.439 E0.81245
G1 X142.936 Y120.335 E0.83047
G1 X142.717 Y121.313 E0.85047
G1 X141.891 Y124.306 E0.91244
G1 X141.301 Y126.687 E0.96139
G1 X141.045 Y127.553 E0.97941
G1 X140.714 Y128.393 E0.99743
G1 X140.282 Y129.25 E1.01658
G1 X139.356 Y130.89 E1.05416
G1 X139.104 Y131.312 E1.06397
G1 X138.932 Y131.585 E1.07041
G1 X138.417 Y132.327 E1.08844
G1 X137.839 Y133.021 E1.10646
G1 X137.419 Y133.454 E1.1185
G1 X135.358 Y135.462 E1.17592
G1 X133.496 Y137.378 E1.22924
G1 X132.839 Y137.997 E1.24725
G1 X132.009 Y138.641 E1.26822
G1 X131.795 Y138.79 E1.27342
G1 X131.251 Y139.144 E1.28637
G1 X130.297 Y139.717 E1.30858
G1 X129.637 Y140.079 E1.3236
G1 X129.411 Y140.196 E1.32868
G1 X128.828 Y140.488 E1.34169
G1 X128.003 Y140.856 E1.35972
G1 X126.764 Y141.256 E1.3857
G1 X123.587 Y142.06 E1.4511
G1 X121.481 Y142.654 E1.49477
G1 X120.602 Y142.861 E1.51279
G1 X119.979 Y142.958 E1.52537
G1 X119.755 Y142.986 E1.52988
G1 X118.899 Y143.057 E1.54702
G1 X118.294 Y143.078 E1.5591
G1 X117.159 Y143.091 E1.58175
G1 X116.271 Y143.078 E1.59947
G1 X116.005 Y143.068 E1.60479
G1 X115.105 Y142.994 E1.62281
G1 X114.215 Y142.841 E1.64083
G1 X113.681 Y142.709 E1.65181
G1 X110.877 Y141.937 E1.70985
G1 X109.271 Y141.537 E1.74287
G1 X108.405 Y141.329 E1.76065
G1 X107.537 Y141.079 E1.77867
G1 X106.694 Y140.754 E1.7967
G1 X105.997 Y140.417 E1.81215
G1 X105.275 Y140.033 E1.82847
G1 X104.944 Y139.848 E1.83604
G1 X104.398 Y139.529 E1.84866
G1 X103.565 Y139.024 E1.8681
G1 X102.814 Y138.522 E1.88613
G1 X102.111 Y137.956 E1.90414
G1 X101.581 Y137.454 E1.9187
G1 X100.905 Y136.764 E1.93798
G1 X100.173 Y135.99 E1.95924
G1 X97.692 Y133.535 E2.02889
G1 X97.079 Y132.872 E2.04691
G1 X96.729 Y132.435 E2.05809
G1 X96.432 Y132.042 E2.06792
G1 X96.131 Y131.621 E2.07825
G1 X95.761 Y131.076 E2.09139
G1 X95.199 Y130.144 E2.11311
G1 X94.819 Y129.431 E2.12923
G1 X94.654 Y129.108 E2.13647
G1 X94.469 Y128.729 E2.14489
G1 X94.109 Y127.901 E2.16291
G1 X93.757 Y126.796 E2.18605
G1 X93.045 Y124.029 E2.24307
G1 X92.359 Y121.624 E2.29297
G1 X92.178 Y120.884 E2.30818
G1 X92.117 Y120.588 E2.31421
G1 X91.974 Y119.696 E2.33224
G1 X91.923 Y119.109 E2.344
G1 X91.874 Y118.248 E2.36121
G1 X91.859 Y117.516 E2.37582
G1 X91.865 Y117.114 E2.38384
G1 X91.877 Y116.744 E2.39123
G1 X91.919 Y115.993 E2.40624
G1 X91.944 Y115.661 E2.41288
G1 X92.051 Y114.764 E2.43091
G1 X92.231 Y113.908 E2.44837
G1 X92.376 Y113.358 E2.45972
G1 X92.625 Y112.49 E2.47774
G1 X93.327 Y109.906 E2.53117
G1 X93.648 Y108.6 E2.55801
G1 X93.732 Y108.282 E2.56457
G1 X94.001 Y107.42 E2.58259
G1 X94.451 Y106.365 E2.60548
G1 X94.801 Y105.665 E2.6211
G1 X95.146 Y105.011 E2.63586
G1 X95.316 Y104.703 E2.64288
G1 X95.49 Y104.399 E2.64987
G1 X95.663 Y104.108 E2.65662
G1 X96.018 Y103.533 E2.67011
G1 X96.526 Y102.786 E2.68814
G1 X97.34 Y101.826 E2.71325
G1 X97.582 Y101.574 E2.72023
G1 X97.823 Y101.331 E2.72706
G1 X99.342 Y99.852 E2.76937
G1 X100.633 Y98.532 E2.80621
G1 X101.447 Y97.683 E2.82968
G1 X102.101 Y97.059 E2.84772
G1 X102.806 Y96.496 E2.86573
G1 X103.745 Y95.888 E2.88805
G1 X104.491 Y95.461 E2.9052
G1 X105.023 Y95.149 E2.91751
G1 X105.731 Y94.749 E2.93374
G1 X106.536 Y94.34 E2.95176
G1 X107.374 Y94.004 E2.96978
G1 X107.994 Y93.809 E2.98275
G1 X108.908 Y93.557 E3.00167
G1 X110.382 Y93.19 E3.03198
G1 X112.368 Y92.622 E3.0732
G1 X113.656 Y92.264 E3.09988
G1 X114.536 Y92.06 E3.11791
G1 X115.431 Y91.936 E3.13594
G1 X116.25 Y91.892 E3.15231
G1 X117.733 Y91.872 E3.1819
G1 X118.148 Y91.875 E3.19019
G1 X118.883 Y91.895 E3.20486
G0 F6000 X118.894 Y91.495
G1 F1200 X119.813 Y91.56 E3.22324
G1 X120.722 Y91.704 E3.24161
G1 X121.609 Y91.925 E3.25985
G1 X122.22 Y92.105 E3.27256
G1 X124.722 Y92.805 E3.32441
G1 X126.219 Y93.179 E3.3552
G1 X126.92 Y93.362 E3.36966
G1 X127.8 Y93.633 E3.38804
G1 X128.653 Y93.979 E3.40641
G1 X129.208 Y94.253 E3.41876
G1 X129.691 Y94.513 E3.42971
G1 X130.329 Y94.876 E3.44435
G1 X131.577 Y95.622 E3.47337
G1 X132.346 Y96.128 E3.49174
G1 X133.068 Y96.699 E3.51011
G1 X133.721 Y97.313 E3.528
G1 X134.583 Y98.196 E3.55262
G1 X136.887 Y100.488 E3.61748
G1 X137.575 Y101.148 E3.6365
G1 X138.21 Y101.814 E3.65487
G1 X138.786 Y102.533 E3.67325
G1 X139.079 Y102.954 E3.68349
G1 X139.353 Y103.369 E3.69341
G1 X139.57 Y103.711 E3.70149
G1 X139.978 Y104.389 E3.71729
G1 X140.383 Y105.09 E3.73344
G1 X140.785 Y105.856 E3.75071
G1 X140.955 Y106.215 E3.75863
G1 X141.313 Y107.064 E3.77702
G1 X141.643 Y108.121 E3.79912
G1 X142.007 Y109.558 E3.8287
G1 X142.678 Y112.045 E3.88011
G1 X143.09 Y113.451 E3.90934
G1 X143.141 Y113.643 E3.91331
G1 X143.338 Y114.542 E3.93167
G1 X143.486 Y115.906 E3.95905
G1 X143.509 Y116.488 E3.97068
G1 X143.526 Y117.358 E3.98804
G1 X143.53 Y117.987 E4.0006
G1 X143.494 Y118.928 E4.01939
G1 X143.449 Y119.472 E4.03028
G1 X143.333 Y120.385 E4.04865
G1 X143.103 Y121.419 E4.06979
G1 X142.272 Y124.429 E4.1321
G1 X141.689 Y126.783 E4.1805
G1 X141.429 Y127.666 E4.19887
G1 X141.094 Y128.523 E4.21723
G1 X140.63 Y129.447 E4.23786
G1 X139.704 Y131.087 E4.27545
G1 X139.442 Y131.525 E4.28563
G1 X139.27 Y131.798 E4.29207
G1 X138.746 Y132.555 E4.31044
G1 X138.158 Y133.264 E4.32883
G1 X137.699 Y133.741 E4.34204
G1 X135.623 Y135.763 E4.39987
G1 X133.783 Y137.657 E4.45257
G1 X133.114 Y138.289 E4.47093
G1 X132.238 Y138.969 E4.49306
G1 X132.024 Y139.118 E4.49827
G1 X131.458 Y139.486 E4.51174
G1 X130.494 Y140.065 E4.53418
G1 X129.825 Y140.432 E4.54941
G1 X129.59 Y140.554 E4.55469
G1 X129.007 Y140.846 E4.5677
G1 X128.167 Y141.222 E4.58607
G1 X126.862 Y141.644 E4.61344
G1 X123.689 Y142.447 E4.67876
G1 X121.59 Y143.039 E4.72228
G1 X120.694 Y143.251 E4.74065
G1 X120.029 Y143.355 E4.75408
G1 X119.805 Y143.383 E4.75859
G1 X118.915 Y143.456 E4.77641
G1 X118.3 Y143.478 E4.78869
G1 X117.154 Y143.491 E4.81156
G1 X116.256 Y143.478 E4.82948
G1 X115.99 Y143.468 E4.8348
G1 X115.072 Y143.393 E4.85318
G1 X114.164 Y143.239 E4.87156
G1 X113.575 Y143.095 E4.88366
G1 X110.8 Y142.331 E4.94109
G1 X109.09 Y141.905 E4.97626
G1 X108.311 Y141.718 E4.99225
G1 X107.426 Y141.464 E5.01062
G1 X106.567 Y141.135 E5.02898
G1 X105.81 Y140.77 E5.04575
G1 X105.088 Y140.386 E5.06207
G1 X104.744 Y140.194 E5.06993
G1 X104.191 Y139.871 E5.08271
G1 X103.358 Y139.366 E5.10215
G1 X102.592 Y138.855 E5.12053
G1 X101.873 Y138.28 E5.1389
G1 X101.296 Y137.735 E5.15474
G1 X100.614 Y137.039 E5.17419
G1 X99.869 Y136.251 E5.19583
G1 X97.411 Y133.819 E5.26483
G1 X96.785 Y133.144 E5.2832
G1 X96.41 Y132.676 E5.29517
G1 X96.113 Y132.283 E5.305
G1 X95.8 Y131.846 E5.31573
G1 X95.43 Y131.301 E5.32887
G1 X94.846 Y130.333 E5.35143
G1 X94.466 Y129.62 E5.36756
G1 X94.294 Y129.284 E5.37509
G1 X94.109 Y128.905 E5.38351
G1 X93.742 Y128.061 E5.40187
G1 X93.369 Y126.896 E5.42628
G1 X92.644 Y124.078 E5.48435
G1 X91.975 Y121.733 E5.53302
G1 X91.786 Y120.965 E5.5488
G1 X91.725 Y120.669 E5.55483
G1 X91.579 Y119.76 E5.5732
G1 X91.524 Y119.131 E5.5858
G1 X91.475 Y118.27 E5.60301
G1 X91.459 Y117.51 E5.61818
G1 X91.465 Y117.108 E5.62621
G1 X91.478 Y116.723 E5.63389
G1 X91.52 Y115.963 E5.64908
G1 X91.545 Y115.631 E5.65573
G1 X91.654 Y114.717 E5.6741
G1 X91.843 Y113.809 E5.69261
G1 X91.991 Y113.248 E5.70418
G1 X92.247 Y112.357 E5.72268
G1 X92.945 Y109.784 E5.77589
G1 X93.262 Y108.498 E5.80232
G1 X93.346 Y108.18 E5.80888
G1 X93.619 Y107.301 E5.82725
G1 X94.093 Y106.188 E5.85139
G1 X94.448 Y105.478 E5.86723
G1 X94.793 Y104.824 E5.88199
G1 X94.968 Y104.504 E5.88927
G1 X95.142 Y104.2 E5.89626
G1 X95.323 Y103.897 E5.9033
G1 X95.678 Y103.322 E5.91679
G1 X96.195 Y102.561 E5.93515
G1 X97.052 Y101.549 E5.96161
G1 X97.294 Y101.297 E5.96858
G1 X97.544 Y101.045 E5.97567
G1 X99.039 Y99.589 E6.01731
G1 X100.402 Y98.196 E6.0562
G1 X101.159 Y97.406 E6.07804
G1 X101.824 Y96.77 E6.0964
G1 X102.542 Y96.193 E6.11478
G1 X103.547 Y95.541 E6.13869
G1 X104.237 Y95.146 E6.15456
G1 X104.826 Y94.801 E6.16818
G1 X105.534 Y94.401 E6.18441
G1 X106.354 Y93.983 E6.20277
G1 X107.208 Y93.639 E6.22115
G1 X107.886 Y93.424 E6.23534
G1 X108.812 Y93.169 E6.25451
G1 X110.259 Y92.809 E6.28427
G1 X112.261 Y92.236 E6.32582
G1 X113.549 Y91.878 E6.3525
G1 X114.446 Y91.67 E6.37088
G1 X115.358 Y91.541 E6.38926
G1 X116.245 Y91.492 E6.40698
G1 X117.728 Y91.472 E6.43658
G1 X118.159 Y91.475 E6.44518
G1 X118.894 Y91.495 E6.45986
G0 F6000 X118.905 Y91.095
G1 F1200 X119.841 Y91.161 E6.47858
G1 X120.767 Y91.305 E6.49728
G1 X121.722 Y91.542 E6.51692
G1 X122.312 Y91.716 E6.5292
G1 X124.78 Y92.407 E6.58034
G1 X126.32 Y92.792 E6.61202
G1 X127.021 Y92.975 E6.62648
G1 X127.918 Y93.25 E6.6452
G1 X128.788 Y93.601 E6.66392
G1 X129.395 Y93.899 E6.67742
G1 X129.887 Y94.164 E6.68857
G1 X130.534 Y94.532 E6.70342
G1 X131.782 Y95.278 E6.73244
G1 X132.566 Y95.793 E6.75116
G1 X133.303 Y96.373 E6.76987
G1 X134.007 Y97.034 E6.78914
G1 X134.869 Y97.917 E6.81377
G1 X137.164 Y100.199 E6.87836
G1 X137.852 Y100.86 E6.8974
G1 X138.5 Y101.537 E6.9161
G1 X139.088 Y102.268 E6.93482
G1 X139.413 Y102.733 E6.94614
G1 X139.687 Y103.148 E6.95606
G1 X139.912 Y103.504 E6.96447
G1 X140.325 Y104.189 E6.98043
G1 X140.73 Y104.89 E6.99659
G1 X141.147 Y105.685 E7.0145
G1 X141.317 Y106.044 E7.02243
G1 X141.682 Y106.908 E7.04115
G1 X142.031 Y108.022 E7.06444
G1 X142.399 Y109.474 E7.09434
G1 X143.057 Y111.915 E7.14479
G1 X143.527 Y113.54 E7.17854
G1 X143.729 Y114.456 E7.19726
G1 X143.852 Y115.386 E7.21598
G1 X143.886 Y115.889 E7.22605
G1 X143.909 Y116.48 E7.23785
G1 X143.926 Y117.355 E7.25531
G1 X143.93 Y117.984 E7.26787
G1 X143.893 Y118.961 E7.28738
G1 X143.848 Y119.505 E7.29827
G1 X143.73 Y120.435 E7.31698
G1 X143.488 Y121.526 E7.33928
G1 X142.669 Y124.491 E7.40066
G1 X142.078 Y126.879 E7.44976
G1 X141.814 Y127.779 E7.46848
G1 X141.474 Y128.653 E7.48719
G1 X140.979 Y129.643 E7.50928
G1 X140.053 Y131.283 E7.54686
G1 X139.781 Y131.739 E7.55746
G1 X139.609 Y132.012 E7.5639
G1 X139.076 Y132.783 E7.5826
G1 X138.478 Y133.506 E7.60133
G1 X137.978 Y134.027 E7.61574
G1 X135.925 Y136.027 E7.67293
G1 X134.07 Y137.936 E7.72605
G1 X133.388 Y138.58 E7.74477
G1 X132.466 Y139.297 E7.76808
G1 X132.252 Y139.446 E7.77329
G1 X131.665 Y139.828 E7.78726
G1 X130.692 Y140.413 E7.80992
G1 X130.013 Y140.785 E7.82537
G1 X129.769 Y140.911 E7.83085
G1 X129.186 Y141.203 E7.84386
G1 X128.33 Y141.587 E7.86258
G1 X127.445 Y141.897 E7.8813
G1 X126.96 Y142.032 E7.89134
G1 X123.78 Y142.837 E7.95681
G1 X121.698 Y143.424 E7.99997
G1 X120.785 Y143.64 E8.0187
G1 X120.078 Y143.752 E8.03298
G1 X119.854 Y143.78 E8.03749
G1 X118.931 Y143.856 E8.05597
G1 X118.306 Y143.878 E8.06845
G1 X117.15 Y143.891 E8.09152
G1 X116.241 Y143.877 E8.10966
G1 X115.975 Y143.867 E8.11497
G1 X115.04 Y143.792 E8.13369
G1 X114.115 Y143.638 E8.15241
G1 X113.468 Y143.48 E8.1657
G1 X110.712 Y142.721 E8.22274
G1 X109.009 Y142.297 E8.25777
G1 X108.218 Y142.107 E8.274
G1 X107.316 Y141.849 E8.29272
G1 X106.44 Y141.516 E8.31142
G1 X105.622 Y141.123 E8.32953
G1 X104.9 Y140.739 E8.34585
G1 X104.543 Y140.54 E8.35401
G1 X103.983 Y140.213 E8.36695
G1 X103.15 Y139.708 E8.38639
G1 X102.37 Y139.188 E8.4051
G1 X101.636 Y138.604 E8.42382
G1 X101.011 Y138.015 E8.44096
G1 X100.324 Y137.314 E8.46054
G1 X99.595 Y136.543 E8.48172
G1 X97.13 Y134.104 E8.55092
G1 X96.492 Y133.416 E8.56964
G1 X96.091 Y132.917 E8.58242
G1 X95.794 Y132.524 E8.59225
G1 X95.469 Y132.071 E8.60338
G1 X95.099 Y131.526 E8.61652
G1 X94.493 Y130.521 E8.63994
G1 X94.113 Y129.808 E8.65606
G1 X93.935 Y129.459 E8.66388
G1 X93.75 Y129.08 E8.6723
G1 X93.375 Y128.221 E8.691
G1 X92.982 Y126.996 E8.71668
G1 X92.265 Y124.209 E8.77411
G1 X91.59 Y121.843 E8.82321
G1 X91.394 Y121.045 E8.8396
G1 X91.333 Y120.749 E8.84564
G1 X91.183 Y119.823 E8.86436
G1 X91.125 Y119.154 E8.87776
G1 X91.076 Y118.293 E8.89497
G1 X91.059 Y117.504 E8.91072
G1 X91.065 Y117.102 E8.91874
G1 X91.078 Y116.703 E8.92671
G1 X91.121 Y115.933 E8.9421
G1 X91.146 Y115.601 E8.94874
G1 X91.256 Y114.67 E8.96745
G1 X91.456 Y113.71 E8.98702
G1 X91.607 Y113.137 E8.99884
G1 X91.861 Y112.252 E9.01722
G1 X92.551 Y109.71 E9.06978
G1 X92.875 Y108.396 E9.09679
G1 X92.959 Y108.078 E9.10335
G1 X93.237 Y107.182 E9.12207
G1 X93.734 Y106.01 E9.14748
G1 X94.094 Y105.292 E9.16351
G1 X94.439 Y104.638 E9.17826
G1 X94.621 Y104.306 E9.18582
G1 X94.795 Y104.002 E9.19281
G1 X94.982 Y103.687 E9.20012
G1 X95.337 Y103.112 E9.2136
G1 X95.863 Y102.336 E9.23231
G1 X96.763 Y101.272 E9.26012
G1 X97.005 Y101.02 E9.2671
G1 X97.265 Y100.758 E9.27446
G1 X98.777 Y99.285 E9.31659
G1 X100.055 Y97.979 E9.35305
G1 X100.87 Y97.129 E9.37655
G1 X101.547 Y96.48 E9.39527
G1 X102.277 Y95.892 E9.41397
G1 X103.348 Y95.193 E9.4395
G1 X104.041 Y94.796 E9.45543
G1 X104.629 Y94.453 E9.46902
G1 X105.337 Y94.053 E9.48525
G1 X106.173 Y93.627 E9.50397
G1 X107.041 Y93.273 E9.52268
G1 X107.778 Y93.039 E9.53811
G1 X108.715 Y92.781 E9.5575
G1 X110.142 Y92.426 E9.58685
G1 X112.154 Y91.851 E9.62861
G1 X113.442 Y91.493 E9.65529
G1 X114.356 Y91.28 E9.67401
G1 X115.284 Y91.147 E9.69272
G1 X116.24 Y91.092 E9.71183
G1 X117.723 Y91.072 E9.74143
G1 X118.17 Y91.075 E9.75035
G1 X118.905 Y91.095 E9.76502
G1 F1500 E3.26502
;MESH:ExtruderKnobFinal.stl
G0 F6000 X119.301 Y101.858
G0 X118.552 Y102.759
G0 X119.8 Y105.066
G0 X124.206 Y104.928
G0 X125.068 Y105.454
G0 X127.883 Y109.487
G0 X129.642 Y110.038
G0 X130.041 Y110.724
G0 X130.43 Y115.804
G0 X131.741 Y117.011
G0 X131.76 Y117.912
G0 X129.645 Y122.188
G0 X130.111 Y124.164
G0 X129.609 Y125.018
G0 X125.182 Y128.453
G0 X125.228 Y128.688
G0 X125.049 Y129.609
G0 X124.208 Y130.08
G0 X119.069 Y130.678
G0 X118.127 Y131.689
G0 X117.03 Y131.894
;TYPE:WALL-INNER
G1 F1500 E9.76502
G1 F1200 X115.624 Y130.47 E9.80496
G1 X115.461 Y130.541 E9.80851
G1 X115.032 Y130.33 E9.81805
G1 X114.813 Y130.203 E9.8231
G1 X113.534 Y129.859 E9.84953
G1 X113.251 Y129.846 E9.85518
G1 X112.977 Y129.819 E9.86068
G1 X112.7 Y129.743 E9.86641
G1 X112.025 Y129.809 E9.87995
G1 X110.646 Y130.216 E9.90864
G1 X109.759 Y129.642 E9.92972
G1 X109.7 Y129.159 E9.93943
G1 X109.611 Y128.529 E9.95213
G1 X109.514 Y128.152 E9.9599
G1 X109.087 Y127.593 E9.97394
G1 X108.837 Y127.157 E9.98397
G1 X108.499 Y126.806 E9.99369
G1 X108.363 Y126.632 E9.9981
G1 X108.188 Y126.496 E10.00252
G1 X107.861 Y126.181 E10.01158
