;FLAVOR:Marlin
;TIME:655
;Filament used: 0.245601m
;Layer height: 0.2
;MINX:100.981
;MINY:99.016
;MINZ:0.2
;MAXX:132.481
;MAXY:138.013
;MAXZ:10
;Generated with Cura_SteamEngine 4.6.2
M140 S60
M105
M190 S60
M104 S200
M105
M109 S200
M82 ;absolute extrusion mode
; Ender 3 Custom Start G-code
G92 E0 ; Reset Extruder
G28 ; Home all axes
G1 Z2.0 F3000 ; Move Z Axis up little to prevent scratching of Heat Bed
G1 X0.1 Y20 Z0.3 F5000.0 ; Move to start position
G1 X0.1 Y200.0 Z0.3 F1500.0 E15 ; Draw the first line
G1 X0.4 Y200.0 Z0.3 F5000.0 ; Move to side a little
G1 X0.4 Y20 Z0.3 F1500.0 E30 ; Draw the second line
G92 E0 ; Reset Extruder
G1 Z2.0 F3000 ; Move Z Axis up little to prevent scratching of Heat Bed
G1 X5 Y20 Z0.3 F5000.0 ; Move over to prevent blob squish
G92 E0
G92 E0
G1 F1500 E-6.5
;LAYER_COUNT:50
;LAYER:0
M107
G0 F6000 X121.618 Y99.827 Z0.2
;TYPE:SKIRT
G1 F1500 E0
G1 F1200 X122.52 Y99.88 E0.03005
G1 X123.413 Y100.012 E0.06008
G1 X124.291 Y100.223 E0.09011
G1 X125.147 Y100.511 E0.12015
G1 X125.974 Y100.873 E0.15018
G1 X126.766 Y101.308 E0.18023
G1 X127.517 Y101.81 E0.21027
G1 X128.22 Y102.377 E0.24031
G1 X128.87 Y103.004 E0.27035
G1 X129.462 Y103.686 E0.30039
G1 X129.992 Y104.417 E0.33042
G1 X130.454 Y105.193 E0.36046
G1 X130.847 Y106.006 E0.39049
G1 X131.165 Y106.851 E0.42052
G1 X131.408 Y107.721 E0.45056
G1 X131.573 Y108.609 E0.4806
G1 X131.668 Y109.739 E0.51832
G1 X131.681 Y110.346 E0.53851
G1 X131.68 Y110.906 E0.55714
G1 X131.67 Y111.638 E0.58149
G1 X131.655 Y112.076 E0.59607
G1 X131.502 Y114.78 E0.68614
G1 X131.43 Y117.314 E0.77046
G1 X131.43 Y119.847 E0.85471
G1 X131.502 Y122.392 E0.93939
G1 X131.654 Y125.167 E1.03182
G1 X131.668 Y125.591 E1.04593
G1 X131.676 Y126.326 E1.07038
G1 X131.671 Y127.06 E1.0948
G1 X131.625 Y127.962 E1.12483
G1 X131.499 Y128.857 E1.1549
G1 X131.295 Y129.736 E1.18491
G1 X131.013 Y130.595 E1.21498
G1 X130.657 Y131.424 E1.24499
G1 X130.229 Y132.22 E1.27505
G1 X129.732 Y132.974 E1.30508
G1 X129.171 Y133.681 E1.3351
G1 X128.549 Y134.336 E1.36514
G1 X127.871 Y134.933 E1.39519
G1 X127.144 Y135.468 E1.42521
G1 X126.372 Y135.937 E1.45526
G1 X125.561 Y136.335 E1.4853
G1 X124.718 Y136.66 E1.51535
G1 X123.85 Y136.91 E1.5454
G1 X122.964 Y137.081 E1.57541
G1 X121.704 Y137.188 E1.61747
G1 X121.058 Y137.201 E1.63896
G1 X115.541 Y137.213 E1.82245
G1 X114.895 Y137.206 E1.84394
G1 X113.994 Y137.157 E1.87395
G1 X113.1 Y137.027 E1.904
G1 X112.221 Y136.819 E1.93404
G1 X111.364 Y136.535 E1.96407
G1 X110.536 Y136.175 E1.9941
G1 X109.742 Y135.744 E2.02415
G1 X108.99 Y135.244 E2.05419
G1 X108.086 Y134.501 E2.09311
G1 X107.629 Y134.079 E2.11379
G1 X107.335 Y133.796 E2.12737
G1 X105.143 Y131.601 E2.23054
G1 X104.677 Y131.121 E2.25279
G1 X104.077 Y130.446 E2.28283
G1 X103.539 Y129.72 E2.31289
G1 X103.068 Y128.95 E2.34291
G1 X102.666 Y128.141 E2.37295
G1 X102.338 Y127.3 E2.40298
G1 X102.085 Y126.433 E2.43302
G1 X101.91 Y125.547 E2.46305
G1 X101.798 Y124.27 E2.50569
G1 X101.781 Y123.454 E2.53284
G1 X101.782 Y113.577 E2.86135
G1 X101.792 Y112.879 E2.88457
G1 X101.845 Y111.977 E2.91462
G1 X101.977 Y111.084 E2.94464
G1 X102.188 Y110.206 E2.97468
G1 X102.476 Y109.35 E3.00471
G1 X102.838 Y108.523 E3.03474
G1 X103.273 Y107.731 E3.06479
G1 X103.775 Y106.98 E3.09484
G1 X104.424 Y106.185 E3.12897
G1 X104.565 Y106.029 E3.13597
G1 X105.022 Y105.551 E3.15796
G1 X107.387 Y103.187 E3.26918
G1 X107.87 Y102.717 E3.2916
G1 X108.544 Y102.116 E3.32163
G1 X109.269 Y101.578 E3.35166
G1 X110.039 Y101.105 E3.38172
G1 X110.847 Y100.703 E3.41173
G1 X111.688 Y100.374 E3.44177
G1 X112.555 Y100.12 E3.47182
G1 X113.441 Y99.944 E3.50186
G1 X114.783 Y99.829 E3.54666
G1 X115.543 Y99.816 E3.57194
G1 X120.92 Y99.817 E3.75078
G1 X121.618 Y99.827 E3.774
G0 F6000 X121.624 Y99.427
G1 F1200 X122.543 Y99.48 E3.80462
G1 X123.454 Y99.613 E3.83524
G1 X124.35 Y99.824 E3.86585
G1 X125.224 Y100.112 E3.89646
G1 X126.071 Y100.475 E3.92711
G1 X126.882 Y100.91 E3.95772
G1 X127.652 Y101.414 E3.98833
G1 X128.376 Y101.983 E4.01895
G1 X129.048 Y102.613 E4.04959
G1 X129.663 Y103.298 E4.08021
G1 X130.216 Y104.034 E4.11083
G1 X130.703 Y104.815 E4.14144
G1 X131.12 Y105.636 E4.17207
G1 X131.465 Y106.49 E4.2027
G1 X131.734 Y107.37 E4.23331
G1 X131.926 Y108.271 E4.26395
G1 X132.039 Y109.184 E4.29455
G1 X132.068 Y109.728 E4.31267
G1 X132.081 Y110.346 E4.33323
G1 X132.08 Y110.912 E4.35205
G1 X132.07 Y111.644 E4.3764
G1 X132.054 Y112.099 E4.39154
G1 X131.902 Y114.78 E4.48086
G1 X131.83 Y117.325 E4.56554
G1 X131.83 Y119.835 E4.64902
G1 X131.902 Y122.397 E4.73427
G1 X132.053 Y125.145 E4.8258
G1 X132.068 Y125.586 E4.84048
G1 X132.076 Y126.329 E4.86519
G1 X132.071 Y127.063 E4.88961
G1 X132.025 Y127.983 E4.92024
G1 X131.899 Y128.895 E4.95086
G1 X131.694 Y129.792 E4.98147
G1 X131.412 Y130.669 E5.01211
G1 X131.056 Y131.518 E5.04273
G1 X130.627 Y132.332 E5.07333
G1 X130.129 Y133.107 E5.10397
G1 X129.566 Y133.835 E5.13458
G1 X128.941 Y134.511 E5.1652
G1 X128.26 Y135.131 E5.19583
G1 X127.529 Y135.69 E5.22644
G1 X126.751 Y136.182 E5.25706
G1 X125.933 Y136.606 E5.2877
G1 X125.082 Y136.957 E5.31832
G1 X124.204 Y137.233 E5.34893
G1 X123.305 Y137.431 E5.37955
G1 X122.392 Y137.551 E5.41017
G1 X121.713 Y137.588 E5.43279
G1 X121.059 Y137.601 E5.45455
G1 X115.537 Y137.613 E5.63821
G1 X114.891 Y137.606 E5.6597
G1 X113.972 Y137.556 E5.69031
G1 X113.06 Y137.427 E5.72095
G1 X112.164 Y137.219 E5.75154
G1 X111.288 Y136.934 E5.78218
G1 X110.441 Y136.574 E5.81279
G1 X109.628 Y136.141 E5.84342
G1 X108.856 Y135.64 E5.87403
G1 X107.815 Y134.795 E5.91863
G1 X107.358 Y134.373 E5.93932
G1 X107.052 Y134.079 E5.95343
G1 X104.856 Y131.88 E6.0568
G1 X104.39 Y131.4 E6.07905
G1 X103.778 Y130.712 E6.10967
G1 X103.228 Y129.974 E6.14029
G1 X102.744 Y129.19 E6.17093
G1 X102.33 Y128.368 E6.20154
G1 X101.988 Y127.513 E6.23217
G1 X101.723 Y126.631 E6.2628
G1 X101.535 Y125.73 E6.29341
G1 X101.425 Y124.816 E6.32403
G1 X101.398 Y124.28 E6.34188
G1 X101.381 Y123.454 E6.36936
G1 X101.382 Y113.571 E6.69807
G1 X101.392 Y112.873 E6.72129
G1 X101.445 Y111.954 E6.75191
G1 X101.578 Y111.043 E6.78253
G1 X101.789 Y110.147 E6.81314
G1 X102.077 Y109.273 E6.84375
G1 X102.44 Y108.426 E6.8744
G1 X102.875 Y107.615 E6.90501
G1 X103.379 Y106.845 E6.93562
G1 X104.127 Y105.917 E6.97526
G1 X104.268 Y105.761 E6.98226
G1 X104.555 Y105.456 E6.99618
G1 X104.736 Y105.271 E7.00479
G1 X107.108 Y102.9 E7.11634
G1 X107.591 Y102.43 E7.13876
G1 X108.278 Y101.817 E7.16938
G1 X109.015 Y101.266 E7.19999
G1 X109.798 Y100.782 E7.2306
G1 X110.62 Y100.367 E7.26123
G1 X111.475 Y100.024 E7.29187
G1 X112.356 Y99.758 E7.32248
G1 X113.257 Y99.569 E7.3531
G1 X114.171 Y99.458 E7.38372
G1 X114.775 Y99.429 E7.40383
G1 X115.543 Y99.416 E7.42938
G1 X120.926 Y99.417 E7.60842
G1 X121.624 Y99.427 E7.63164
G0 F6000 X121.63 Y99.027
G1 F1200 X122.566 Y99.081 E7.66282
G1 X123.494 Y99.213 E7.694
G1 X124.408 Y99.425 E7.7252
G1 X125.3 Y99.714 E7.75639
G1 X126.165 Y100.077 E7.78759
G1 X126.995 Y100.513 E7.81877
G1 X127.786 Y101.018 E7.84999
G1 X128.53 Y101.589 E7.88118
G1 X129.223 Y102.221 E7.91238
G1 X129.86 Y102.909 E7.94356
G1 X130.435 Y103.65 E7.97476
G1 X130.946 Y104.436 E8.00594
G1 X131.388 Y105.264 E8.03716
G1 X131.757 Y106.126 E8.06834
G1 X132.052 Y107.016 E8.09953
G1 X132.27 Y107.928 E8.13071
G1 X132.41 Y108.856 E8.16193
G1 X132.468 Y109.717 E8.19063
G1 X132.481 Y110.346 E8.21156
G1 X132.48 Y110.917 E8.23055
G1 X132.47 Y111.649 E8.2549
G1 X132.453 Y112.122 E8.27064
G1 X132.302 Y114.78 E8.35919
G1 X132.23 Y117.336 E8.44423
G1 X132.23 Y119.824 E8.52698
G1 X132.302 Y122.363 E8.61147
G1 X132.453 Y125.123 E8.7034
G1 X132.468 Y125.58 E8.71861
G1 X132.476 Y126.332 E8.74362
G1 X132.471 Y127.066 E8.76804
G1 X132.424 Y128.003 E8.79924
G1 X132.298 Y128.932 E8.83042
G1 X132.094 Y129.847 E8.8616
G1 X131.812 Y130.742 E8.89281
G1 X131.455 Y131.609 E8.924
G1 X131.025 Y132.443 E8.95521
G1 X130.526 Y133.237 E8.9864
G1 X129.961 Y133.985 E9.01758
G1 X129.334 Y134.683 E9.04878
G1 X128.65 Y135.325 E9.07998
G1 X127.914 Y135.906 E9.11117
G1 X127.132 Y136.423 E9.14235
G1 X126.308 Y136.871 E9.17355
G1 X125.448 Y137.247 E9.20476
G1 X124.56 Y137.548 E9.23595
G1 X123.65 Y137.773 E9.26713
G1 X122.723 Y137.919 E9.29834
G1 X121.722 Y137.988 E9.33171
G1 X121.06 Y138.001 E9.35373
G1 X115.533 Y138.013 E9.53756
G1 X114.887 Y138.006 E9.55905
G1 X113.95 Y137.956 E9.59026
G1 X113.021 Y137.826 E9.62146
G1 X112.107 Y137.618 E9.65264
G1 X111.214 Y137.333 E9.68381
G1 X110.348 Y136.972 E9.71502
G1 X109.516 Y136.539 E9.74622
G1 X108.724 Y136.037 E9.7774
G1 X107.978 Y135.469 E9.80859
G1 X107.543 Y135.088 E9.82782
G1 X107.086 Y134.666 E9.84851
G1 X106.769 Y134.361 E9.86314
G1 X104.569 Y132.158 E9.96669
G1 X104.103 Y131.678 E9.98895
G1 X103.479 Y130.978 E10.02013
G1 X102.916 Y130.227 E10.05135
G1 X102.42 Y129.431 E10.08255
G1 X101.994 Y128.596 E10.11372
G1 X101.64 Y127.728 E10.1449
G1 X101.362 Y126.832 E10.17611
G1 X101.16 Y125.916 E10.2073
G1 X101.038 Y124.986 E10.2385
G1 X100.998 Y124.29 E10.26169
G1 X100.981 Y123.454 E10.2895
G1 X100.982 Y113.565 E10.61841
G1 X100.992 Y112.867 E10.64163
G1 X101.046 Y111.931 E10.67281
G1 X101.178 Y111.003 E10.70399
G1 X101.39 Y110.089 E10.73519
G1 X101.679 Y109.197 E10.76638
G1 X102.042 Y108.332 E10.79758
G1 X102.478 Y107.502 E10.82876
G1 X102.983 Y106.711 E10.85998
G1 X103.83 Y105.649 E10.90516
G1 X103.971 Y105.493 E10.91215
G1 X104.269 Y105.176 E10.92662
G1 X104.45 Y104.991 E10.93523
G1 X106.829 Y102.613 E11.04711
G1 X107.312 Y102.143 E11.06952
G1 X108.011 Y101.519 E11.10069
G1 X108.761 Y100.956 E11.13188
G1 X109.557 Y100.459 E11.16309
G1 X110.391 Y100.031 E11.19427
G1 X111.259 Y99.676 E11.22546
G1 X112.155 Y99.397 E11.25667
G1 X113.071 Y99.195 E11.28787
G1 X114 Y99.071 E11.31904
G1 X114.767 Y99.029 E11.34459
G1 X115.543 Y99.016 E11.37041
G1 X120.932 Y99.017 E11.54964
G1 X121.63 Y99.027 E11.57286
G1 F1500 E5.07286
;MESH:CableClip1.stl
G0 F6000 X121.067 Y109.351
G0 X121.067 Y110.43
G0 X115.962 Y111.172
G0 X115.416 Y111.549
G0 X115.099 Y112.113
G0 X115.043 Y112.499
G0 X115.064 Y124.78
G0 X115.331 Y125.384
G0 X115.833 Y125.801
G0 X116.343 Y125.924
G0 X120.877 Y126.401
;TYPE:WALL-INNER
G1 F1500 E11.57286
G1 F1200 X120.582 Y126.401 E11.58267
G1 X119.954 Y126.402 E11.60356
G1 X116.461 Y126.41 E11.71974
G1 X116.328 Y126.411 E11.72416
G1 X116.182 Y126.412 E11.72902
G1 X116.037 Y126.413 E11.73384
G1 X115.921 Y126.413 E11.7377
G1 X115.229 Y126.416 E11.76072
G1 X112.581 Y123.768 E11.88527
G1 X112.581 Y113.264 E12.23463
G1 X115.229 Y110.616 E12.35919
G1 X115.924 Y110.616 E12.3823
G1 X116.043 Y110.616 E12.38626
G1 X116.19 Y110.616 E12.39115
G1 X116.351 Y110.616 E12.39651
G1 X120.578 Y110.616 E12.5371
G1 X120.881 Y110.616 E12.54717
G1 X120.881 Y110.928 E12.55755
G1 X120.881 Y111.254 E12.56839
G1 X120.582 Y111.558 E12.58258
G1 X120.581 Y111.256 E12.58562
G1 X120.578 Y110.928 E12.59387
G1 X116.351 Y110.92 E12.70239
G1 X116.19 Y110.941 E12.70666
G1 X116.043 Y110.976 E12.71099
G1 X115.93 Y111.014 E12.71476
G1 X115.903 Y111.023 E12.71571
G1 X115.767 Y111.083 E12.72065
G1 X115.642 Y111.154 E12.72543
G1 X115.517 Y111.237 E12.73042
G1 X115.399 Y111.338 E12.73559
G1 X115.297 Y111.441 E12.74041
G1 X115.21 Y111.546 E12.74495
G1 X115.126 Y111.664 E12.74976
G1 X115.052 Y111.797 E12.75483
G1 X114.994 Y111.929 E12.75962
G1 X114.945 Y112.068 E12.76452
G1 X114.909 Y112.216 E12.76959
G1 X114.89 Y112.362 E12.77449
G1 X114.882 Y112.495 E12.77892
G1 X114.884 Y124.649 E13.18316
G1 X114.907 Y124.811 E13.1886
G1 X114.941 Y124.954 E13.19349
G1 X114.987 Y125.092 E13.19833
G1 X115.047 Y125.229 E13.2033
G1 X115.12 Y125.358 E13.20823
G1 X115.203 Y125.481 E13.21317
G1 X115.298 Y125.593 E13.21805
G1 X115.402 Y125.7 E13.22302
G1 X115.512 Y125.79 E13.22774
G1 X115.632 Y125.872 E13.23258
G1 X115.76 Y125.945 E13.23748
G1 X115.895 Y126.005 E13.24239
G1 X115.926 Y126.016 E13.24349
G1 X116.036 Y126.053 E13.24716
G1 X116.181 Y126.088 E13.25143
G1 X116.327 Y126.107 E13.25529
G1 X116.46 Y126.115 E13.25862
G1 X119.953 Y126.117 E13.34307
G1 X120.581 Y126.101 E13.35839
G1 X120.581 Y125.757 E13.36983
G1 X120.581 Y125.468 E13.37944
G1 X120.872 Y125.757 E13.38625
G1 X120.874 Y126.098 E13.39453
G1 X120.877 Y126.401 E13.40461
G0 F6000 X121.28 Y126.8
;TYPE:WALL-OUTER
G1 F1200 X115.063 Y126.816 E13.61139
G1 X112.181 Y123.934 E13.74695
G1 X112.181 Y113.098 E14.10736
G1 X115.063 Y110.216 E14.24292
G1 X121.281 Y110.216 E14.44973
G1 X121.281 Y111.418 E14.48971
G1 X120.406 Y112.307 E14.5312
G1 X120.186 Y112.312 E14.53851
G1 X120.18 Y111.327 E14.57128
G1 X116.377 Y111.32 E14.69776
G1 X116.262 Y111.335 E14.70162
G1 X116.153 Y111.361 E14.70535
G1 X116.048 Y111.396 E14.70903
G1 X115.947 Y111.441 E14.71271
G1 X115.851 Y111.495 E14.71637
G1 X115.758 Y111.557 E14.72009
G1 X115.671 Y111.631 E14.72389
G1 X115.594 Y111.709 E14.72753
G1 X115.528 Y111.789 E14.73098
G1 X115.465 Y111.878 E14.73461
G1 X115.41 Y111.976 E14.73835
G1 X115.366 Y112.076 E14.74198
G1 X115.329 Y112.181 E14.74568
G1 X115.303 Y112.29 E14.74941
G1 X115.288 Y112.4 E14.7531
G1 X115.282 Y112.506 E14.75663
G1 X115.284 Y124.621 E15.15958
G1 X115.3 Y124.736 E15.16344
G1 X115.326 Y124.844 E15.16714
G1 X115.361 Y124.949 E15.17082
G1 X115.405 Y125.05 E15.17448
G1 X115.46 Y125.147 E15.17819
G1 X115.522 Y125.239 E15.18188
G1 X115.594 Y125.324 E15.18559
G1 X115.672 Y125.404 E15.1893
G1 X115.753 Y125.47 E15.19278
G1 X115.844 Y125.533 E15.19646
G1 X115.94 Y125.587 E15.20012
G1 X116.041 Y125.632 E15.2038
G1 X116.147 Y125.668 E15.20752
G1 X116.255 Y125.694 E15.21122
G1 X116.365 Y125.709 E15.21491
G1 X116.471 Y125.715 E15.21844
G1 X119.948 Y125.717 E15.33409
G1 X120.181 Y125.711 E15.34184
G1 X120.181 Y124.723 E15.3747
G1 X120.394 Y124.719 E15.38179
G1 X121.271 Y125.589 E15.42287
G1 X121.28 Y126.8 E15.46315
G0 F6000 X121.008 Y126.531
G0 X115.3 Y126.242
G0 X114.447 Y125.478
G0 X114.644 Y125.281
;TYPE:SKIN
G1 F1200 X112.971 Y123.608 E15.54185
G1 X112.971 Y113.424 E15.88057
G1 X114.648 Y111.747 E15.95945
G1 X114.631 Y111.785 E15.96083
G1 X114.571 Y111.957 E15.96689
G1 X114.525 Y112.144 E15.9733
G1 X114.502 Y112.325 E15.97936
G1 X114.492 Y112.483 E15.98463
G1 X114.494 Y124.676 E16.39017
G1 X114.523 Y124.883 E16.39712
G1 X114.565 Y125.061 E16.40321
G1 X114.644 Y125.281 E16.41098
G0 F6000 X114.447 Y125.478
G0 X112.755 Y123.697
G0 X112.691 Y123.313
G0 X113.13 Y123.313
G1 F1200 X114.334 Y124.516 E16.46759
G0 F6000 X114.334 Y123.95
G1 F1200 X113.13 Y122.747 E16.5242
G0 F6000 X113.13 Y122.181
G1 F1200 X114.334 Y123.385 E16.58083
G0 F6000 X114.334 Y122.819
G1 F1200 X113.13 Y121.616 E16.63744
G0 F6000 X113.13 Y121.05
G1 F1200 X114.334 Y122.253 E16.69405
G0 F6000 X114.334 Y121.688
G1 F1200 X113.13 Y120.484 E16.75068
G0 F6000 X113.13 Y119.918
G1 F1200 X114.333 Y121.121 E16.80727
G0 F6000 X114.333 Y120.556
G1 F1200 X113.13 Y119.353 E16.86385
G0 F6000 X113.13 Y118.787
G1 F1200 X114.333 Y119.99 E16.92044
G0 F6000 X114.333 Y119.424
G1 F1200 X113.13 Y118.221 E16.97702
G0 F6000 X113.13 Y117.656
G1 F1200 X114.333 Y118.858 E17.03358
G0 F6000 X114.332 Y118.292
G1 F1200 X113.13 Y117.09 E17.09012
G0 F6000 X113.13 Y116.524
G1 F1200 X114.332 Y117.726 E17.14666
G0 F6000 X114.332 Y117.161
G1 F1200 X113.13 Y115.959 E17.2032
G0 F6000 X113.13 Y115.393
G1 F1200 X114.332 Y116.595 E17.25974
G0 F6000 X114.332 Y116.029
G1 F1200 X113.13 Y114.827 E17.31628
G0 F6000 X113.13 Y114.262
G1 F1200 X114.332 Y115.463 E17.37279
G0 F6000 X114.332 Y114.897
G1 F1200 X113.13 Y113.696 E17.42931
G0 F6000 X113.309 Y113.309
G1 F1200 X114.332 Y114.332 E17.47743
G0 F6000 X114.332 Y113.766
G1 F1200 X113.592 Y113.026 E17.51223
G0 F6000 X113.875 Y112.743
G1 F1200 X114.332 Y113.2 E17.53373
G0 F6000 X114.332 Y112.635
G1 F1200 X114.158 Y112.461 E17.54191
G0 F6000 X113.849 Y112.152
G0 X114.556 Y111.445
G0 X114.64 Y111.529
;TYPE:SKIN
G1 F1200 X114.59 Y111.478 E17.5431
G0 F6000 X114.731 Y111.337
G1 F1200 X114.984 Y111.59 E17.54905
G0 F6000 X115.102 Y111.425
G1 F1200 X114.873 Y111.196 E17.55444
G0 F6000 X115.014 Y111.054
G1 F1200 X115.235 Y111.275 E17.55963
G0 F6000 X115.382 Y111.14
G1 F1200 X115.155 Y110.913 E17.56497
G0 F6000 X115.301 Y110.776
G1 F1200 X115.549 Y111.023 E17.57079
G0 F6000 X115.731 Y110.923
G1 F1200 X115.584 Y110.776 E17.57425
