;FLAVOR:Marlin
;TIME:5326
;Filament used: 1.95669m
;Layer height: 0.12
;MINX:64.26
;MINY:84.44
;MINZ:0.12
;MAXX:173.518
;MAXY:150.44
;MAXZ:5.4
;Generated with Cura_SteamEngine 4.6.2
M140 S60
M105
M190 S60
M104 S200
M105
M109 S200
M82 ;absolute extrusion mode
; Ender 3 Custom Start G-code
G92 E0 ; Reset Extruder
G28 ; Home all axes
G1 Z2.0 F3000 ; Move Z Axis up little to prevent scratching of Heat Bed
G1 X0.1 Y20 Z0.3 F5000.0 ; Move to start position
G1 X0.1 Y200.0 Z0.3 F1500.0 E15 ; Draw the first line
G1 X0.4 Y200.0 Z0.3 F5000.0 ; Move to side a little
G1 X0.4 Y20 Z0.3 F1500.0 E30 ; Draw the second line
G92 E0 ; Reset Extruder
G1 Z2.0 F3000 ; Move Z Axis up little to prevent scratching of Heat Bed
G1 X5 Y20 Z0.3 F5000.0 ; Move over to prevent blob squish
G92 E0
G92 E0
G1 F1500 E-6.5
;LAYER_COUNT:45
;LAYER:0
M107
G0 F6000 X79.679 Y85.259 Z0.12
;TYPE:SKIRT
G1 F1500 E0
G1 F1200 X81.116 Y85.326 E0.02871
G1 X83.629 Y85.409 E0.07889
G1 X86.203 Y85.42 E0.13025
G1 X88.752 Y85.361 E0.18113
G1 X91.101 Y85.252 E0.22806
G1 X91.572 Y85.241 E0.23746
G1 X98.697 Y85.241 E0.37965
G1 X99.686 Y85.259 E0.39939
G1 X101.171 Y85.321 E0.42905
G1 X102.144 Y85.369 E0.44849
G1 X104.681 Y85.423 E0.49913
G1 X107.209 Y85.406 E0.54958
G1 X111.383 Y85.246 E0.63294
G1 X111.68 Y85.244 E0.63887
G1 X114.716 Y85.242 E0.69945
G1 X115.369 Y85.25 E0.71249
G1 X116.515 Y85.328 E0.73541
G1 X117.592 Y85.465 E0.75707
G1 X118.406 Y85.58 E0.77348
G1 X120.948 Y85.867 E0.82453
G1 X123.466 Y86.079 E0.87496
G1 X125.961 Y86.219 E0.92483
G1 X129.861 Y86.3 E1.00267
G1 X158.968 Y86.301 E1.58353
G1 X159.657 Y86.311 E1.59728
G1 X160.222 Y86.335 E1.60857
G1 X161.034 Y86.402 E1.62483
G1 X161.928 Y86.531 E1.64285
G1 X162.429 Y86.64 E1.65309
G1 X162.95 Y86.77 E1.6638
G1 X163.188 Y86.835 E1.66873
G1 X164.048 Y87.112 E1.68676
G1 X164.606 Y87.338 E1.69877
G1 X164.954 Y87.491 E1.70636
G1 X166.138 Y88.107 E1.73299
G1 X166.57 Y88.369 E1.74307
G1 X167.321 Y88.871 E1.7611
G1 X168.019 Y89.432 E1.77897
G1 X168.435 Y89.798 E1.79003
G1 X169.086 Y90.424 E1.80805
G1 X169.691 Y91.121 E1.82647
G1 X170.008 Y91.521 E1.83666
G1 X170.537 Y92.253 E1.85468
G1 X170.986 Y93.004 E1.87214
G1 X171.238 Y93.47 E1.88271
G1 X171.632 Y94.283 E1.90074
G1 X171.945 Y95.103 E1.91826
G1 X172.104 Y95.581 E1.92831
G1 X172.35 Y96.449 E1.94631
G1 X172.524 Y97.367 E1.96496
G1 X172.606 Y97.945 E1.97661
G1 X172.703 Y99.094 E1.99962
G1 X172.715 Y99.525 E2.00823
G1 X172.708 Y100.278 E2.02325
G1 X172.681 Y100.864 E2.03496
G1 X172.647 Y101.35 E2.04468
G1 X172.617 Y101.669 E2.05108
G1 X172.545 Y102.253 E2.06282
G1 X172.336 Y103.618 E2.09038
G1 X172.26 Y104.077 E2.09966
G1 X171.911 Y106.625 E2.15098
G1 X171.64 Y109.135 E2.20137
G1 X171.439 Y111.654 E2.25179
G1 X171.307 Y114.232 E2.30331
G1 X171.251 Y116.724 E2.35305
G1 X171.264 Y119.291 E2.40428
G1 X171.351 Y121.832 E2.45502
G1 X171.507 Y124.354 E2.50544
G1 X171.733 Y126.856 E2.55558
G1 X172.038 Y129.42 E2.6071
G1 X172.529 Y132.666 E2.67262
G1 X172.586 Y133.106 E2.68147
G1 X172.66 Y133.826 E2.69592
G1 X172.68 Y134.076 E2.70092
G1 X172.71 Y134.692 E2.71323
G1 X172.718 Y135.513 E2.72961
G1 X172.695 Y136.144 E2.74221
G1 X172.655 Y136.684 E2.75302
G1 X172.631 Y136.937 E2.75809
G1 X172.506 Y137.832 E2.77613
G1 X172.383 Y138.404 E2.7878
G1 X172.291 Y138.779 E2.79551
G1 X171.897 Y140.032 E2.82172
G1 X171.727 Y140.471 E2.83111
G1 X171.364 Y141.298 E2.84914
G1 X170.929 Y142.09 E2.86717
G1 X170.612 Y142.611 E2.87934
G1 X170.109 Y143.361 E2.89736
G1 X169.486 Y144.125 E2.91703
G1 X169.186 Y144.459 E2.92599
G1 X168.554 Y145.103 E2.944
G1 X167.977 Y145.603 E2.95924
G1 X167.539 Y145.954 E2.97044
G1 X166.809 Y146.487 E2.98848
G1 X166.024 Y146.96 E3.00677
G1 X165.6 Y147.19 E3.01639
G1 X164.787 Y147.585 E3.03443
G1 X163.956 Y147.902 E3.05218
G1 X163.412 Y148.083 E3.06362
G1 X162.543 Y148.33 E3.08165
G1 X161.615 Y148.505 E3.10049
G1 X161.111 Y148.576 E3.11065
G1 X159.921 Y148.673 E3.13448
G1 X158.711 Y148.699 E3.15863
G1 X158.356 Y148.7 E3.16571
G1 X127.025 Y148.7 E3.79096
G1 X124.419 Y148.737 E3.84297
G1 X121.851 Y148.846 E3.89426
G1 X119.386 Y149.021 E3.94358
G1 X115.797 Y149.395 E4.01559
G1 X114.598 Y149.544 E4.0397
G1 X113.801 Y149.611 E4.05566
G1 X113.422 Y149.628 E4.06323
G1 X113.012 Y149.638 E4.07142
G1 X112.58 Y149.64 E4.08004
G1 X77.822 Y149.639 E4.77367
G1 X77.117 Y149.629 E4.78774
G1 X76.458 Y149.598 E4.80091
G1 X76.167 Y149.575 E4.80673
G1 X75.271 Y149.464 E4.82475
G1 X74.595 Y149.327 E4.83851
G1 X74.286 Y149.253 E4.84486
G1 X73.418 Y149.004 E4.86288
G1 X72.71 Y148.736 E4.87798
G1 X72.365 Y148.591 E4.88545
G1 X71.549 Y148.205 E4.90347
G1 X70.777 Y147.753 E4.92132
G1 X70.559 Y147.612 E4.9265
G1 X69.824 Y147.088 E4.94451
G1 X69.354 Y146.698 E4.9567
G1 X69.05 Y146.43 E4.96479
G1 X68.399 Y145.804 E4.98281
G1 X67.687 Y144.968 E5.00473
G1 X67.487 Y144.706 E5.0113
G1 X66.972 Y143.965 E5.02931
G1 X66.564 Y143.258 E5.0456
G1 X66.396 Y142.938 E5.05281
G1 X66.012 Y142.121 E5.07083
G1 X65.746 Y141.41 E5.08598
G1 X65.667 Y141.172 E5.09098
G1 X65.421 Y140.303 E5.10901
G1 X65.266 Y139.505 E5.12523
G1 X65.193 Y139.029 E5.13484
G1 X65.082 Y137.855 E5.15837
G1 X65.072 Y137.581 E5.16384
G1 X65.065 Y137.142 E5.1726
G1 X65.069 Y136.531 E5.1848
G1 X65.092 Y135.913 E5.19714
G1 X65.118 Y135.527 E5.20486
G1 X65.158 Y135.078 E5.21386
G1 X65.478 Y132.219 E5.27127
G1 X65.69 Y129.691 E5.32189
G1 X65.831 Y127.164 E5.3724
G1 X65.9 Y124.629 E5.42301
G1 X65.898 Y122.094 E5.4736
G1 X65.823 Y119.53 E5.52479
G1 X65.677 Y117.003 E5.5753
G1 X65.459 Y114.479 E5.62586
G1 X65.177 Y111.992 E5.6758
G1 X65.13 Y111.52 E5.68527
G1 X65.099 Y111.114 E5.6934
G1 X65.07 Y110.464 E5.70638
G1 X65.06 Y109.613 E5.72336
G1 X65.061 Y95.99 E5.99523
G1 X65.071 Y95.301 E6.00898
G1 X65.124 Y94.399 E6.02701
G1 X65.257 Y93.506 E6.04503
G1 X65.468 Y92.628 E6.06305
G1 X65.756 Y91.772 E6.08107
G1 X66.118 Y90.945 E6.09908
G1 X66.553 Y90.153 E6.11712
G1 X67.055 Y89.403 E6.13513
G1 X67.622 Y88.7 E6.15315
G1 X68.249 Y88.05 E6.17117
G1 X68.931 Y87.458 E6.1892
G1 X69.663 Y86.928 E6.20723
G1 X70.439 Y86.466 E6.22525
G1 X71.252 Y86.074 E6.24327
G1 X72.097 Y85.755 E6.26129
G1 X72.967 Y85.512 E6.27932
G1 X73.855 Y85.348 E6.29734
G1 X74.983 Y85.253 E6.31993
G1 X75.59 Y85.24 E6.33204
G1 X78.7 Y85.241 E6.39411
G1 X79.679 Y85.259 E6.41365
G0 F6000 X79.695 Y84.859
G1 F1200 X81.152 Y84.927 E6.44275
G1 X83.645 Y85.009 E6.49253
G1 X86.196 Y85.02 E6.54344
G1 X88.723 Y84.961 E6.59388
G1 X91.082 Y84.852 E6.64101
G1 X91.571 Y84.841 E6.65077
G1 X98.703 Y84.841 E6.7931
G1 X99.703 Y84.859 E6.81306
G1 X101.191 Y84.922 E6.84278
G1 X102.137 Y84.969 E6.86168
G1 X104.687 Y85.023 E6.91258
G1 X107.19 Y85.006 E6.96253
G1 X111.379 Y84.846 E7.04619
G1 X111.68 Y84.844 E7.05219
G1 X114.721 Y84.842 E7.11288
G1 X115.374 Y84.85 E7.12591
G1 X116.564 Y84.932 E7.14972
G1 X117.648 Y85.069 E7.17152
G1 X118.471 Y85.186 E7.18811
G1 X120.959 Y85.466 E7.23807
G1 X123.521 Y85.682 E7.28938
G1 X125.963 Y85.818 E7.33819
G1 X129.869 Y85.9 E7.41616
G1 X158.974 Y85.901 E7.99698
G1 X159.663 Y85.911 E8.01073
G1 X160.25 Y85.936 E8.02246
G1 X161.074 Y86.004 E8.03895
G1 X161.985 Y86.135 E8.05732
G1 X162.524 Y86.251 E8.06832
G1 X163.056 Y86.384 E8.07927
G1 X163.294 Y86.449 E8.08419
G1 X164.17 Y86.73 E8.10255
G1 X164.767 Y86.971 E8.1154
G1 X165.115 Y87.124 E8.12298
G1 X165.941 Y87.531 E8.14136
G1 X166.346 Y87.765 E8.15069
G1 X166.778 Y88.027 E8.16078
G1 X167.544 Y88.538 E8.17915
G1 X168.283 Y89.132 E8.19807
G1 X168.699 Y89.498 E8.20913
G1 X169.363 Y90.135 E8.22749
G1 X170.005 Y90.872 E8.247
G1 X170.322 Y91.272 E8.25718
G1 X170.861 Y92.018 E8.27555
G1 X171.338 Y92.814 E8.29407
G1 X171.59 Y93.28 E8.30464
G1 X171.992 Y94.108 E8.32301
G1 X172.324 Y94.976 E8.34156
G1 X172.483 Y95.454 E8.35161
G1 X172.736 Y96.34 E8.37
G1 X172.92 Y97.311 E8.38972
G1 X173.002 Y97.889 E8.40137
G1 X173.103 Y99.083 E8.42528
G1 X173.115 Y99.514 E8.43389
G1 X173.108 Y100.297 E8.44951
G1 X173.081 Y100.883 E8.46122
G1 X173.045 Y101.387 E8.4713
G1 X173.015 Y101.706 E8.4777
G1 X172.941 Y102.314 E8.48992
G1 X172.731 Y103.684 E8.51758
G1 X172.651 Y104.165 E8.52731
G1 X172.311 Y106.651 E8.57738
G1 X172.038 Y109.174 E8.62802
G1 X171.837 Y111.708 E8.67875
G1 X171.707 Y114.226 E8.72907
G1 X171.651 Y116.73 E8.77905
G1 X171.664 Y119.275 E8.82984
G1 X171.75 Y121.794 E8.88014
G1 X171.907 Y124.329 E8.93082
G1 X172.135 Y126.844 E8.98122
G1 X172.432 Y129.343 E9.03144
G1 X172.925 Y132.606 E9.0973
G1 X172.984 Y133.063 E9.10649
G1 X173.058 Y133.794 E9.12115
G1 X173.078 Y134.044 E9.12616
G1 X173.11 Y134.684 E9.13895
G1 X173.118 Y135.515 E9.15553
G1 X173.095 Y136.171 E9.16863
G1 X173.054 Y136.722 E9.17966
G1 X173.03 Y136.975 E9.18473
G1 X172.903 Y137.887 E9.2031
G1 X172.772 Y138.5 E9.21561
G1 X172.68 Y138.875 E9.22332
G1 X172.27 Y140.177 E9.25056
G1 X172.1 Y140.616 E9.25995
G1 X171.73 Y141.459 E9.27833
G1 X171.271 Y142.298 E9.29741
G1 X170.954 Y142.819 E9.30958
G1 X170.441 Y143.584 E9.32796
G1 X169.784 Y144.392 E9.34875
G1 X169.484 Y144.726 E9.3577
G1 X168.84 Y145.384 E9.37608
G1 X168.227 Y145.915 E9.39226
G1 X167.789 Y146.266 E9.40346
G1 X167.046 Y146.81 E9.42184
G1 X166.214 Y147.311 E9.44122
G1 X165.79 Y147.541 E9.45085
G1 X164.963 Y147.945 E9.46922
G1 X164.082 Y148.282 E9.48804
G1 X163.538 Y148.463 E9.49948
G1 X162.653 Y148.715 E9.51784
G1 X161.671 Y148.901 E9.53779
G1 X161.167 Y148.972 E9.54795
G1 X159.93 Y149.073 E9.57271
G1 X158.712 Y149.099 E9.59703
G1 X158.357 Y149.1 E9.60411
G1 X127.031 Y149.1 E10.22925
G1 X124.406 Y149.137 E10.28164
G1 X121.898 Y149.244 E10.33174
G1 X119.425 Y149.419 E10.38121
G1 X115.839 Y149.793 E10.45317
G1 X114.648 Y149.941 E10.47712
G1 X113.819 Y150.01 E10.49372
G1 X113.44 Y150.027 E10.50129
G1 X113.014 Y150.038 E10.50979
G1 X112.582 Y150.04 E10.51841
G1 X77.817 Y150.039 E11.21219
G1 X77.112 Y150.029 E11.22626
G1 X76.427 Y149.997 E11.23994
G1 X76.136 Y149.974 E11.24577
G1 X75.222 Y149.862 E11.26414
G1 X74.502 Y149.716 E11.2788
G1 X74.193 Y149.642 E11.28514
G1 X73.308 Y149.388 E11.30352
G1 X72.555 Y149.105 E11.31957
G1 X72.21 Y148.96 E11.32704
G1 X71.377 Y148.567 E11.34542
G1 X70.56 Y148.089 E11.36431
G1 X70.342 Y147.948 E11.36949
G1 X69.592 Y147.414 E11.38786
G1 X69.089 Y146.998 E11.40089
G1 X68.785 Y146.73 E11.40898
G1 X68.122 Y146.092 E11.42734
G1 X67.369 Y145.211 E11.45047
G1 X67.169 Y144.949 E11.45705
G1 X66.643 Y144.193 E11.47543
G1 X66.21 Y143.444 E11.49269
G1 X66.042 Y143.124 E11.4999
G1 X65.65 Y142.291 E11.51827
G1 X65.367 Y141.536 E11.53437
G1 X65.288 Y141.298 E11.53937
G1 X65.036 Y140.413 E11.55773
G1 X64.87 Y139.566 E11.57496
G1 X64.797 Y139.09 E11.58457
G1 X64.682 Y137.87 E11.60902
G1 X64.672 Y137.596 E11.61449
G1 X64.665 Y137.14 E11.62359
G1 X64.669 Y136.529 E11.63579
G1 X64.693 Y135.886 E11.64863
G1 X64.719 Y135.5 E11.65635
G1 X64.761 Y135.034 E11.66569
G1 X65.076 Y132.214 E11.72231
G1 X65.29 Y129.672 E11.77322
G1 X65.431 Y127.131 E11.82401
G1 X65.5 Y124.619 E11.87416
G1 X65.498 Y122.071 E11.925
G1 X65.424 Y119.564 E11.97506
G1 X65.28 Y117.059 E12.02513
G1 X65.058 Y114.483 E12.07673
G1 X64.78 Y112.041 E12.12577
G1 X64.731 Y111.55 E12.13562
G1 X64.7 Y111.144 E12.14375
G1 X64.67 Y110.469 E12.15723
G1 X64.66 Y109.613 E12.17431
G1 X64.661 Y95.984 E12.44629
G1 X64.671 Y95.295 E12.46005
G1 X64.724 Y94.376 E12.47842
G1 X64.857 Y93.465 E12.49679
G1 X65.069 Y92.569 E12.51516
G1 X65.357 Y91.695 E12.53353
G1 X65.72 Y90.849 E12.5519
G1 X66.155 Y90.037 E12.57028
G1 X66.659 Y89.267 E12.58865
G1 X67.228 Y88.543 E12.60702
G1 X67.858 Y87.871 E12.6254
G1 X68.543 Y87.257 E12.64376
G1 X69.28 Y86.704 E12.66215
G1 X70.061 Y86.217 E12.68052
G1 X70.882 Y85.8 E12.69889
G1 X71.736 Y85.456 E12.71727
G1 X72.616 Y85.187 E12.73563
G1 X73.517 Y84.995 E12.75401
G1 X74.43 Y84.882 E12.77237
G1 X74.972 Y84.853 E12.7832
G1 X75.59 Y84.84 E12.79554
G1 X78.705 Y84.841 E12.8577
G1 X79.695 Y84.859 E12.87746
G0 F6000 X79.712 Y84.46
G1 F1200 X81.156 Y84.526 E12.90631
G1 X83.66 Y84.609 E12.95631
G1 X86.188 Y84.62 E13.00676
G1 X88.74 Y84.561 E13.0577
G1 X91.064 Y84.453 E13.10413
G1 X91.571 Y84.441 E13.11425
G1 X98.709 Y84.441 E13.25669
G1 X99.72 Y84.46 E13.27687
G1 X101.21 Y84.522 E13.30663
G1 X102.165 Y84.569 E13.32571
G1 X104.693 Y84.623 E13.37617
G1 X107.172 Y84.606 E13.42565
G1 X111.375 Y84.446 E13.50958
G1 X111.68 Y84.444 E13.51567
G1 X114.726 Y84.442 E13.57646
G1 X115.379 Y84.45 E13.58949
G1 X116.614 Y84.535 E13.61419
G1 X117.705 Y84.673 E13.63614
G1 X118.505 Y84.786 E13.65226
G1 X121.036 Y85.072 E13.70309
G1 X123.506 Y85.28 E13.75256
G1 X125.995 Y85.419 E13.80231
G1 X129.878 Y85.5 E13.87981
G1 X158.98 Y85.501 E14.46057
G1 X159.669 Y85.511 E14.47433
G1 X160.278 Y85.537 E14.48649
G1 X161.113 Y85.606 E14.50321
G1 X162.042 Y85.739 E14.52194
G1 X162.618 Y85.862 E14.53369
G1 X162.857 Y85.92 E14.5386
G1 X163.399 Y86.064 E14.54979
G1 X164.292 Y86.349 E14.5685
G1 X164.928 Y86.605 E14.58218
G1 X165.276 Y86.758 E14.58977
G1 X166.118 Y87.172 E14.60849
G1 X166.553 Y87.423 E14.61851
G1 X166.985 Y87.685 E14.62859
G1 X167.766 Y88.205 E14.64732
G1 X168.547 Y88.831 E14.66729
G1 X168.963 Y89.197 E14.67835
G1 X169.64 Y89.846 E14.69707
G1 X170.318 Y90.624 E14.71766
G1 X170.635 Y91.024 E14.72785
G1 X171.186 Y91.783 E14.74656
G1 X171.69 Y92.624 E14.76613
G1 X171.942 Y93.09 E14.7767
G1 X172.352 Y93.933 E14.79541
G1 X172.704 Y94.85 E14.81501
G1 X172.863 Y95.328 E14.82506
G1 X173.121 Y96.23 E14.84378
G1 X173.316 Y97.255 E14.86461
G1 X173.398 Y97.833 E14.87626
G1 X173.503 Y99.072 E14.90107
G1 X173.515 Y99.503 E14.90968
G1 X173.507 Y100.315 E14.92588
G1 X173.48 Y100.901 E14.93759
G1 X173.444 Y101.425 E14.94807
G1 X173.414 Y101.744 E14.95446
G1 X173.336 Y102.374 E14.96713
G1 X173.125 Y103.749 E14.99489
G1 X173.049 Y104.208 E15.00418
G1 X172.705 Y106.716 E15.0547
G1 X172.435 Y109.213 E15.10482
G1 X172.239 Y111.689 E15.15438
G1 X172.107 Y114.256 E15.20568
G1 X172.051 Y116.737 E15.2552
G1 X172.064 Y119.26 E15.30555
G1 X172.15 Y121.79 E15.35607
G1 X172.306 Y124.304 E15.40633
G1 X172.532 Y126.797 E15.45629
G1 X172.829 Y129.297 E15.50653
G1 X173.32 Y132.546 E15.5721
G1 X173.382 Y133.021 E15.58166
G1 X173.457 Y133.762 E15.59653
G1 X173.477 Y134.012 E15.60153
G1 X173.51 Y134.676 E15.6148
G1 X173.518 Y135.517 E15.63158
G1 X173.494 Y136.198 E15.64518
G1 X173.452 Y136.76 E15.65643
G1 X173.428 Y137.013 E15.6615
G1 X173.3 Y137.942 E15.68021
G1 X173.16 Y138.595 E15.69354
G1 X173.068 Y138.97 E15.70125
G1 X172.806 Y139.87 E15.71995
G1 X172.643 Y140.321 E15.72952
G1 X172.473 Y140.76 E15.73892
G1 X172.097 Y141.62 E15.75765
G1 X171.612 Y142.506 E15.7778
G1 X171.295 Y143.027 E15.78997
G1 X170.774 Y143.806 E15.80868
G1 X170.082 Y144.659 E15.8306
G1 X169.782 Y144.993 E15.83956
G1 X169.126 Y145.664 E15.85828
G1 X168.477 Y146.227 E15.87543
G1 X168.039 Y146.578 E15.88663
G1 X167.283 Y147.133 E15.90534
G1 X166.405 Y147.663 E15.92581
G1 X165.981 Y147.893 E15.93544
G1 X165.138 Y148.305 E15.95416
G1 X164.209 Y148.661 E15.97402
G1 X163.665 Y148.842 E15.98546
G1 X162.763 Y149.1 E16.00418
G1 X161.726 Y149.297 E16.02524
G1 X161.222 Y149.368 E16.0354
G1 X159.939 Y149.473 E16.06109
G1 X158.713 Y149.499 E16.08556
G1 X158.358 Y149.5 E16.09265
G1 X127.037 Y149.5 E16.71769
G1 X124.429 Y149.537 E16.76974
G1 X121.907 Y149.644 E16.82012
G1 X119.464 Y149.817 E16.86899
G1 X115.828 Y150.197 E16.94195
G1 X114.697 Y150.337 E16.96469
G1 X113.837 Y150.41 E16.98191
G1 X113.458 Y150.427 E16.98948
G1 X113.016 Y150.438 E16.99831
G1 X112.584 Y150.44 E17.00693
G1 X77.811 Y150.439 E17.70086
G1 X77.106 Y150.429 E17.71493
G1 X76.395 Y150.396 E17.72914
G1 X76.104 Y150.373 E17.73496
G1 X75.173 Y150.259 E17.75368
G1 X74.409 Y150.105 E17.76923
G1 X74.1 Y150.031 E17.77557
G1 X73.198 Y149.773 E17.79429
G1 X72.4 Y149.474 E17.8113
G1 X72.055 Y149.329 E17.81877
G1 X71.207 Y148.929 E17.83748
G1 X70.343 Y148.424 E17.85745
G1 X70.125 Y148.283 E17.86263
G1 X69.36 Y147.741 E17.88134
G1 X68.825 Y147.298 E17.8952
G1 X68.521 Y147.03 E17.90329
G1 X67.844 Y146.381 E17.92201
G1 X67.051 Y145.454 E17.94635
G1 X66.851 Y145.192 E17.95293
G1 X66.315 Y144.422 E17.97165
G1 X65.856 Y143.63 E17.98992
G1 X65.688 Y143.31 E17.99713
G1 X65.287 Y142.462 E18.01585
G1 X64.987 Y141.662 E18.0329
G1 X64.908 Y141.424 E18.03791
