;FLAVOR:Marlin
;TIME:2188
;Filament used: 1.04776m
;Layer height: 0.2
;MINX:80.014
;MINY:96.11
;MINZ:0.2
;MAXX:155.436
;MAXY:141.685
;MAXZ:17
;Generated with Cura_SteamEngine 4.6.2
M140 S60
M105
M190 S60
M104 S200
M105
M109 S200
M82 ;absolute extrusion mode
; Ender 3 Custom Start G-code
G92 E0 ; Reset Extruder
G28 ; Home all axes
G1 Z2.0 F3000 ; Move Z Axis up little to prevent scratching of Heat Bed
G1 X0.1 Y20 Z0.3 F5000.0 ; Move to start position
G1 X0.1 Y200.0 Z0.3 F1500.0 E15 ; Draw the first line
G1 X0.4 Y200.0 Z0.3 F5000.0 ; Move to side a little
G1 X0.4 Y20 Z0.3 F1500.0 E30 ; Draw the second line
G92 E0 ; Reset Extruder
G1 Z2.0 F3000 ; Move Z Axis up little to prevent scratching of Heat Bed
G1 X5 Y20 Z0.3 F5000.0 ; Move over to prevent blob squish
G92 E0
G92 E0
G1 F1500 E-6.5
;LAYER_COUNT:85
;LAYER:0
M107
G0 F6000 X129.772 Y96.985 Z0.2
;TYPE:SKIRT
G1 F1500 E0
G1 F1200 X130.667 Y97.106 E0.03004
G1 X131.704 Y97.351 E0.06548
G1 X132.462 Y97.572 E0.09174
G1 X132.789 Y97.673 E0.10312
G1 X133.188 Y97.804 E0.11709
G1 X134.033 Y98.123 E0.14713
G1 X135.057 Y98.634 E0.18519
G1 X135.75 Y99.034 E0.21181
G1 X135.936 Y99.148 E0.21906
G1 X136.425 Y99.468 E0.2385
G1 X136.731 Y99.681 E0.2509
G1 X138.906 Y101.143 E0.33807
G1 X141.076 Y102.515 E0.42346
G1 X143.259 Y103.809 E0.50786
G1 X145.437 Y105.019 E0.59073
G1 X148.916 Y106.795 E0.72065
G1 X149.709 Y107.228 E0.7507
G1 X150.461 Y107.728 E0.78073
G1 X151.165 Y108.293 E0.81076
G1 X151.817 Y108.919 E0.84082
G1 X152.41 Y109.599 E0.87083
G1 X152.942 Y110.329 E0.90087
G1 X153.406 Y111.104 E0.93092
G1 X153.801 Y111.916 E0.96095
G1 X154.122 Y112.761 E0.99101
G1 X154.366 Y113.63 E1.02103
G1 X154.534 Y114.517 E1.05106
G1 X154.622 Y115.416 E1.0811
G1 X154.622 Y116.487 E1.11673
G1 X154.426 Y120.267 E1.24262
G1 X154.34 Y121.166 E1.27266
G1 X154.174 Y122.054 E1.3027
G1 X153.93 Y122.923 E1.33272
G1 X153.61 Y123.768 E1.36278
G1 X153.217 Y124.581 E1.39281
G1 X152.754 Y125.356 E1.42284
G1 X152.224 Y126.087 E1.45287
G1 X151.631 Y126.769 E1.48293
G1 X150.98 Y127.395 E1.51297
G1 X150.276 Y127.961 E1.54301
G1 X149.526 Y128.463 E1.57303
G1 X148.733 Y128.896 E1.60308
G1 X147.906 Y129.258 E1.6331
G1 X147.049 Y129.544 E1.66315
G1 X146.171 Y129.755 E1.69319
G1 X145.277 Y129.886 E1.72324
G1 X144.578 Y129.933 E1.74654
G1 X143.485 Y129.968 E1.78291
G1 X141.932 Y129.991 E1.83457
G1 X139.29 Y130.067 E1.92248
G1 X136.794 Y130.211 E2.00564
G1 X134.229 Y130.431 E2.09126
G1 X131.722 Y130.717 E2.17519
G1 X129.219 Y131.076 E2.25929
G1 X126.695 Y131.51 E2.34447
G1 X124.199 Y132.013 E2.42915
G1 X121.767 Y132.573 E2.51216
G1 X119.276 Y133.223 E2.59778
G1 X116.846 Y133.932 E2.68198
G1 X114.4 Y134.72 E2.76745
G1 X112.05 Y135.552 E2.85036
G1 X109.649 Y136.479 E2.93597
G1 X107.312 Y137.458 E3.02024
G1 X104.976 Y138.515 E3.10552
G1 X103.55 Y139.2 E3.15814
G1 X102.908 Y139.516 E3.18194
G1 X102.08 Y139.879 E3.21201
G1 X101.643 Y140.037 E3.22746
G1 X101.297 Y140.153 E3.2396
G1 X100.848 Y140.292 E3.25523
G1 X100.553 Y140.376 E3.26543
G1 X99.425 Y140.629 E3.30388
G1 X99.002 Y140.699 E3.31814
G1 X97.701 Y140.83 E3.36163
G1 X96.837 Y140.859 E3.39039
G1 X95.676 Y140.881 E3.42901
G1 X94.965 Y140.885 E3.45266
G1 X94.32 Y140.868 E3.47412
G1 X93.783 Y140.837 E3.49201
G1 X92.565 Y140.693 E3.5328
G1 X92.226 Y140.632 E3.54426
G1 X91.905 Y140.569 E3.55514
G1 X91.436 Y140.469 E3.57109
G1 X90.562 Y140.242 E3.60112
G1 X89.875 Y140.003 E3.62531
G1 X89.434 Y139.832 E3.64105
G1 X89.117 Y139.703 E3.65243
G1 X88.672 Y139.513 E3.66852
G1 X87.566 Y138.959 E3.70966
G1 X86.939 Y138.596 E3.73376
G1 X86.136 Y138.079 E3.76553
G1 X85.862 Y137.884 E3.77671
G1 X85.036 Y137.23 E3.81175
G1 X84.735 Y136.965 E3.82509
G1 X83.783 Y136.007 E3.87001
G1 X83.5 Y135.682 E3.88435
G1 X82.937 Y134.976 E3.91438
G1 X82.44 Y134.222 E3.94442
G1 X82.011 Y133.427 E3.97446
G1 X81.509 Y132.189 E4.01889
G1 X81.414 Y131.902 E4.02895
G1 X81.168 Y131.033 E4.05899
G1 X81 Y130.146 E4.08901
G1 X80.912 Y129.247 E4.11906
G1 X80.897 Y128.602 E4.14052
G1 X80.902 Y128.114 E4.15675
G1 X80.889 Y125.551 E4.24199
G1 X80.847 Y124.405 E4.28014
G1 X80.814 Y123.016 E4.32635
G1 X80.832 Y122.113 E4.35639
G1 X80.931 Y121.216 E4.3864
G1 X81.108 Y120.33 E4.41645
G1 X81.326 Y119.572 E4.44269
G1 X81.406 Y119.33 E4.45116
G1 X81.728 Y118.486 E4.48121
G1 X82.122 Y117.674 E4.51123
G1 X82.587 Y116.9 E4.54126
G1 X83.216 Y116.049 E4.57646
G1 X83.379 Y115.851 E4.58499
G1 X83.647 Y115.538 E4.59869
G1 X83.823 Y115.341 E4.60748
G1 X84.686 Y114.485 E4.64791
G1 X85.099 Y114.121 E4.66622
G1 X85.773 Y113.576 E4.69505
G1 X85.985 Y113.419 E4.70382
G1 X86.416 Y113.117 E4.72132
G1 X87.747 Y112.234 E4.77445
G1 X89.836 Y110.762 E4.85945
G1 X92.049 Y109.103 E4.95144
G1 X92.421 Y108.836 E4.96667
G1 X92.751 Y108.611 E4.97995
G1 X93.642 Y108.069 E5.01464
G1 X93.86 Y107.951 E5.02288
G1 X95.07 Y107.395 E5.06717
G1 X95.462 Y107.245 E5.08113
G1 X96.319 Y106.96 E5.11117
G1 X96.765 Y106.844 E5.1265
G1 X97.244 Y106.731 E5.14287
G1 X97.571 Y106.659 E5.15401
G1 X99.173 Y106.336 E5.20836
G1 X101.729 Y105.776 E5.29539
G1 X104.164 Y105.171 E5.37884
G1 X106.631 Y104.483 E5.46402
G1 X109.065 Y103.729 E5.54877
G1 X111.456 Y102.915 E5.63278
G1 X113.851 Y102.021 E5.71781
G1 X116.213 Y101.064 E5.80257
G1 X118.495 Y100.063 E5.88545
G1 X120.83 Y98.958 E5.97137
G1 X121.294 Y98.726 E5.98863
G1 X122.253 Y98.267 E6.02399
G1 X122.768 Y98.039 E6.04272
G1 X123.121 Y97.891 E6.05545
G1 X123.969 Y97.579 E6.08551
G1 X124.406 Y97.451 E6.10065
G1 X124.643 Y97.387 E6.10882
G1 X124.978 Y97.302 E6.12031
G1 X125.26 Y97.236 E6.12994
G1 X126.147 Y97.07 E6.15996
G1 X126.689 Y97.007 E6.17811
G1 X127.109 Y96.97 E6.19213
G1 X127.423 Y96.948 E6.2026
G1 X127.861 Y96.923 E6.21719
G1 X128.764 Y96.911 E6.24723
G1 X129.365 Y96.948 E6.26725
G1 X129.772 Y96.985 E6.28085
G0 F6000 X129.809 Y96.587
G1 F1200 X130.721 Y96.71 E6.31145
G1 X131.816 Y96.967 E6.34886
G1 X132.574 Y97.188 E6.37513
G1 X132.914 Y97.293 E6.38696
G1 X133.313 Y97.424 E6.40093
G1 X134.174 Y97.749 E6.43154
G1 X135.255 Y98.286 E6.47168
G1 X135.959 Y98.693 E6.49873
G1 X136.145 Y98.807 E6.50599
G1 X136.653 Y99.139 E6.52617
G1 X136.975 Y99.363 E6.53922
G1 X139.137 Y100.816 E6.62586
G1 X141.272 Y102.166 E6.70987
G1 X143.451 Y103.458 E6.79413
G1 X145.634 Y104.671 E6.87719
G1 X149.092 Y106.436 E7.00632
G1 X149.9 Y106.876 E7.03692
G1 X150.668 Y107.384 E7.06755
G1 X151.388 Y107.958 E7.09817
G1 X152.057 Y108.591 E7.1288
G1 X152.667 Y109.28 E7.15941
G1 X153.216 Y110.019 E7.19003
G1 X153.698 Y110.804 E7.22067
G1 X154.11 Y111.627 E7.25128
G1 X154.45 Y112.483 E7.28191
G1 X154.714 Y113.365 E7.31254
G1 X154.9 Y114.266 E7.34314
G1 X155.007 Y115.181 E7.37378
G1 X155.022 Y116.508 E7.41791
G1 X154.826 Y120.288 E7.54381
G1 X154.738 Y121.204 E7.57441
G1 X154.571 Y122.11 E7.60506
G1 X154.327 Y122.997 E7.63565
G1 X154.006 Y123.86 E7.66628
G1 X153.612 Y124.692 E7.6969
G1 X153.146 Y125.487 E7.72755
G1 X152.614 Y126.238 E7.75816
G1 X152.019 Y126.94 E7.78876
G1 X151.364 Y127.588 E7.81941
G1 X150.656 Y128.176 E7.85002
G1 X149.9 Y128.701 E7.88063
G1 X149.101 Y129.159 E7.91126
G1 X148.265 Y129.545 E7.94189
G1 X147.399 Y129.857 E7.9725
G1 X146.509 Y130.093 E8.00313
G1 X145.602 Y130.251 E8.03375
G1 X144.592 Y130.333 E8.06745
G1 X143.491 Y130.368 E8.10409
G1 X141.948 Y130.391 E8.15542
G1 X139.326 Y130.467 E8.24266
G1 X136.783 Y130.613 E8.32738
G1 X134.269 Y130.828 E8.4113
G1 X131.787 Y131.112 E8.49439
G1 X129.271 Y131.472 E8.57893
G1 X126.776 Y131.901 E8.66313
G1 X124.296 Y132.401 E8.74728
G1 X121.853 Y132.964 E8.83066
G1 X119.384 Y133.608 E8.91553
G1 X116.976 Y134.311 E8.99896
G1 X114.551 Y135.092 E9.0837
G1 X112.149 Y135.942 E9.16844
G1 X109.799 Y136.85 E9.25223
G1 X107.495 Y137.814 E9.3353
G1 X105.135 Y138.883 E9.42147
G1 X103.68 Y139.581 E9.47515
G1 X103.084 Y139.875 E9.49725
G1 X102.241 Y140.246 E9.52788
G1 X101.77 Y140.416 E9.54454
G1 X101.424 Y140.532 E9.55668
G1 X100.958 Y140.677 E9.57291
G1 X100.663 Y140.761 E9.58311
G1 X99.491 Y141.024 E9.62306
G1 X99.068 Y141.094 E9.63732
G1 X97.715 Y141.229 E9.68255
G1 X96.844 Y141.259 E9.71153
G1 X95.679 Y141.281 E9.75029
G1 X94.968 Y141.285 E9.77394
G1 X94.297 Y141.267 E9.79626
G1 X93.76 Y141.236 E9.81415
G1 X92.494 Y141.086 E9.85655
G1 X91.822 Y140.96 E9.87929
G1 X91.353 Y140.86 E9.89524
G1 X90.461 Y140.629 E9.92589
G1 X89.731 Y140.376 E9.95159
G1 X89.29 Y140.205 E9.96732
G1 X88.96 Y140.071 E9.97917
G1 X88.515 Y139.881 E9.99526
G1 X87.366 Y139.306 E10.03799
G1 X86.739 Y138.943 E10.06209
G1 X85.904 Y138.405 E10.09513
G1 X85.63 Y138.21 E10.10631
G1 X84.772 Y137.53 E10.14273
G1 X84.471 Y137.265 E10.15606
G1 X83.807 Y136.627 E10.18669
G1 X83.481 Y136.27 E10.20277
G1 X83.198 Y135.945 E10.2171
G1 X82.624 Y135.225 E10.24773
G1 X82.115 Y134.458 E10.27835
G1 X81.674 Y133.65 E10.30896
G1 X81.305 Y132.806 E10.3396
G1 X81.129 Y132.315 E10.35695
G1 X81.034 Y132.028 E10.367
G1 X80.783 Y131.142 E10.39763
G1 X80.61 Y130.238 E10.42824
G1 X80.515 Y129.322 E10.45887
G1 X80.497 Y128.598 E10.48296
G1 X80.502 Y128.112 E10.49913
G1 X80.489 Y125.537 E10.58477
G1 X80.447 Y124.415 E10.62212
G1 X80.414 Y123.026 E10.66833
G1 X80.432 Y122.105 E10.69897
G1 X80.53 Y121.19 E10.72957
G1 X80.707 Y120.286 E10.76021
G1 X80.947 Y119.447 E10.78924
G1 X81.027 Y119.205 E10.79771
G1 X81.353 Y118.344 E10.82834
G1 X81.753 Y117.515 E10.85895
G1 X82.224 Y116.724 E10.88957
G1 X82.907 Y115.795 E10.92792
G1 X83.07 Y115.597 E10.93645
G1 X83.349 Y115.272 E10.9507
G1 X83.525 Y115.075 E10.95948
G1 X84.421 Y114.185 E11.00149
G1 X84.834 Y113.821 E11.0198
G1 X85.535 Y113.255 E11.04976
G1 X85.747 Y113.098 E11.05854
G1 X86.195 Y112.783 E11.07675
G1 X87.542 Y111.89 E11.13051
G1 X89.595 Y110.443 E11.21404
G1 X91.809 Y108.783 E11.30608
G1 X92.196 Y108.506 E11.32191
G1 X92.526 Y108.281 E11.3352
G1 X93.451 Y107.717 E11.37123
G1 X93.669 Y107.599 E11.37947
G1 X94.497 Y107.196 E11.4101
G1 X94.927 Y107.021 E11.42554
G1 X95.319 Y106.871 E11.4395
G1 X96.192 Y106.58 E11.47011
G1 X96.673 Y106.454 E11.48665
G1 X97.152 Y106.341 E11.50302
G1 X97.492 Y106.267 E11.51459
G1 X99.076 Y105.948 E11.56833
G1 X101.645 Y105.385 E11.6558
G1 X104.065 Y104.784 E11.73874
G1 X106.52 Y104.099 E11.82351
G1 X108.955 Y103.345 E11.90829
G1 X111.323 Y102.538 E11.9915
G1 X113.678 Y101.659 E12.07511
G1 X116.038 Y100.703 E12.1598
G1 X118.371 Y99.68 E12.24453
G1 X120.641 Y98.605 E12.32806
G1 X121.12 Y98.366 E12.34587
G1 X122.089 Y97.902 E12.3816
G1 X122.613 Y97.67 E12.40066
G1 X122.966 Y97.522 E12.41339
G1 X123.83 Y97.204 E12.44401
G1 X124.302 Y97.065 E12.46038
G1 X124.539 Y97.001 E12.46855
G1 X124.886 Y96.913 E12.48045
G1 X125.168 Y96.847 E12.49008
G1 X126.073 Y96.676 E12.52072
G1 X126.654 Y96.609 E12.54017
G1 X127.4 Y96.548 E12.56506
G1 X127.838 Y96.523 E12.57966
G1 X128.759 Y96.511 E12.61029
G1 X129.402 Y96.55 E12.63172
G1 X129.809 Y96.587 E12.64531
G0 F6000 X129.845 Y96.188
G1 F1200 X130.774 Y96.313 E12.67649
G1 X131.928 Y96.583 E12.71591
G1 X132.686 Y96.804 E12.74217
G1 X133.038 Y96.913 E12.75442
G1 X133.437 Y97.044 E12.76839
G1 X134.315 Y97.374 E12.79959
G1 X135.454 Y97.939 E12.84188
G1 X135.868 Y98.175 E12.85773
G1 X136.354 Y98.466 E12.87657
G1 X136.882 Y98.811 E12.89754
G1 X137.176 Y99.015 E12.90945
G1 X139.369 Y100.49 E12.99735
G1 X141.484 Y101.827 E13.08057
G1 X143.655 Y103.114 E13.16451
G1 X145.798 Y104.305 E13.24606
G1 X149.306 Y106.097 E13.37708
G1 X150.092 Y106.524 E13.40683
G1 X150.875 Y107.04 E13.43802
G1 X151.611 Y107.621 E13.4692
G1 X152.295 Y108.263 E13.5004
G1 X152.922 Y108.96 E13.53159
G1 X153.488 Y109.708 E13.56278
G1 X153.987 Y110.502 E13.59398
G1 X154.417 Y111.336 E13.62518
G1 X154.775 Y112.203 E13.65638
G1 X155.057 Y113.097 E13.68756
G1 X155.262 Y114.012 E13.71875
G1 X155.389 Y114.941 E13.74994
G1 X155.436 Y115.878 E13.78114
G1 X155.421 Y116.529 E13.8028
G1 X155.225 Y120.309 E13.92869
G1 X155.137 Y121.242 E13.95986
G1 X154.969 Y122.165 E13.99106
G1 X154.723 Y123.07 E14.02225
G1 X154.402 Y123.951 E14.05344
G1 X154.006 Y124.801 E14.08463
G1 X153.539 Y125.615 E14.11584
G1 X153.005 Y126.386 E14.14704
G1 X152.407 Y127.108 E14.17822
G1 X151.749 Y127.777 E14.20943
G1 X151.037 Y128.387 E14.24061
G1 X150.276 Y128.935 E14.2718
G1 X149.471 Y129.416 E14.30299
G1 X148.627 Y129.826 E14.3342
G1 X147.752 Y130.163 E14.36539
G1 X146.851 Y130.425 E14.3966
G1 X145.932 Y130.608 E14.42776
G1 X144.605 Y130.733 E14.47209
G1 X143.497 Y130.768 E14.50896
G1 X141.897 Y130.791 E14.56219
G1 X139.358 Y130.865 E14.64667
G1 X136.841 Y131.01 E14.73052
G1 X134.316 Y131.226 E14.81481
G1 X131.819 Y131.512 E14.89841
G1 X129.324 Y131.869 E14.98223
G1 X126.851 Y132.294 E15.06569
G1 X124.394 Y132.789 E15.14906
G1 X121.939 Y133.355 E15.23285
G1 X119.491 Y133.994 E15.317
G1 X117.062 Y134.702 E15.40115
G1 X114.701 Y135.463 E15.48366
G1 X112.301 Y136.312 E15.56833
G1 X109.95 Y137.22 E15.65215
G1 X107.636 Y138.189 E15.73559
G1 X105.33 Y139.233 E15.81978
G1 X103.851 Y139.944 E15.87436
G1 X103.261 Y140.234 E15.89623
G1 X102.403 Y140.612 E15.92741
G1 X101.898 Y140.795 E15.94528
G1 X101.552 Y140.911 E15.95742
G1 X101.067 Y141.061 E15.9743
G1 X100.772 Y141.145 E15.9845
G1 X99.556 Y141.418 E16.02595
G1 X99.133 Y141.488 E16.04021
G1 X98.202 Y141.602 E16.07141
G1 X97.729 Y141.629 E16.08717
G1 X96.852 Y141.659 E16.11635
G1 X95.681 Y141.681 E16.15531
G1 X94.97 Y141.685 E16.17896
G1 X94.274 Y141.667 E16.20211
G1 X93.737 Y141.636 E16.22001
G1 X92.423 Y141.48 E16.26402
G1 X92.084 Y141.419 E16.27547
G1 X91.738 Y141.351 E16.2872
G1 X91.269 Y141.251 E16.30315
G1 X90.361 Y141.017 E16.33434
G1 X89.586 Y140.749 E16.36161
G1 X89.145 Y140.578 E16.37734
G1 X88.803 Y140.438 E16.38963
G1 X88.358 Y140.248 E16.40573
G1 X87.166 Y139.652 E16.45005
G1 X86.539 Y139.289 E16.47415
G1 X85.672 Y138.731 E16.50844
G1 X85.398 Y138.536 E16.51963
G1 X84.507 Y137.83 E16.55744
G1 X84.206 Y137.565 E16.57078
G1 X83.529 Y136.916 E16.60197
G1 X83.179 Y136.533 E16.61923
G1 X82.896 Y136.208 E16.63356
G1 X82.311 Y135.475 E16.66475
G1 X81.79 Y134.695 E16.69595
G1 X81.338 Y133.873 E16.72715
G1 X80.958 Y133.016 E16.75833
G1 X80.749 Y132.441 E16.77868
G1 X80.654 Y132.154 E16.78873
G1 X80.398 Y131.252 E16.81992
G1 X80.219 Y130.331 E16.85113
G1 X80.119 Y129.398 E16.88233
G1 X80.097 Y128.595 E16.90905
G1 X80.101 Y128.111 E16.92515
G1 X80.089 Y125.554 E17.0102
G1 X80.047 Y124.424 E17.04781
G1 X80.014 Y123.035 E17.09402
G1 X80.032 Y122.098 E17.12519
G1 X80.129 Y121.165 E17.15639
G1 X80.306 Y120.244 E17.18758
G1 X80.567 Y119.321 E17.21948
G1 X80.647 Y119.079 E17.22796
G1 X80.979 Y118.202 E17.25915
G1 X81.385 Y117.357 E17.29033
G1 X81.861 Y116.549 E17.32152
G1 X82.599 Y115.541 E17.36307
G1 X82.762 Y115.343 E17.3716
G1 X83.051 Y115.005 E17.3864
G1 X83.227 Y114.808 E17.39518
G1 X84.157 Y113.885 E17.43876
G1 X84.57 Y113.521 E17.45707
G1 X85.296 Y112.933 E17.48814
G1 X85.508 Y112.776 E17.49692
G1 X85.974 Y112.45 E17.51583
G1 X87.295 Y111.573 E17.56857
G1 X89.37 Y110.112 E17.65298
G1 X91.569 Y108.463 E17.7444
G1 X91.97 Y108.175 E17.76082
G1 X92.3 Y107.95 E17.7741
G1 X93.261 Y107.365 E17.81152
G1 X93.479 Y107.247 E17.81977
G1 X94.322 Y106.836 E17.85096
G1 X94.784 Y106.647 E17.86756
G1 X95.176 Y106.497 E17.88152
G1 X96.065 Y106.2 E17.9127
G1 X96.581 Y106.065 E17.93044
G1 X97.06 Y105.952 E17.9468
G1 X97.413 Y105.875 E17.95882
G1 X99.024 Y105.55 E18.01348
G1 X101.543 Y104.999 E18.09925
G1 X103.967 Y104.397 E18.18232
G1 X106.389 Y103.72 E18.26596
G1 X108.823 Y102.967 E18.3507
G1 X111.191 Y102.16 E18.43391
G1 X113.555 Y101.278 E18.51783
G1 X115.876 Y100.338 E18.60112
G1 X118.189 Y99.323 E18.68513
G1 X120.469 Y98.244 E18.76903
G1 X120.946 Y98.005 E18.78677
G1 X121.925 Y97.537 E18.82286
G1 X122.459 Y97.302 E18.84227
G1 X122.812 Y97.154 E18.855
G1 X123.691 Y96.828 E18.88618
G1 X124.197 Y96.678 E18.90373
G1 X124.434 Y96.614 E18.9119
G1 X125.077 Y96.457 E18.93391
G1 X125.999 Y96.283 E18.96512
G1 X126.619 Y96.21 E18.98588
G1 X127.039 Y96.173 E18.99991
G1 X127.377 Y96.149 E19.01118
G1 X127.815 Y96.124 E19.02577
G1 X128.753 Y96.11 E19.05697
G1 X129.438 Y96.151 E19.0798
G1 X129.845 Y96.188 E19.09339
G1 F1500 E12.59339
;MESH:Filament_Guide_EZR_Compatible.stl
G0 F6000 X129.254 Y106.553
G0 X128.76 Y108.139
G0 X129.675 Y108.858
G0 X130.288 Y109.438
