;FLAVOR:Marlin
;TIME:9318
;Filament used: 6.43692m
;Layer height: 0.2
;MINX:11.264
;MINY:73.389
;MINZ:0.2
;MAXX:223.723
;MAXY:161.601
;MAXZ:3
;Generated with Cura_SteamEngine 4.6.2
M140 S60
M105
M190 S60
M104 S200
M105
M109 S200
M82 ;absolute extrusion mode
; Ender 3 Custom Start G-code
G92 E0 ; Reset Extruder
G28 ; Home all axes
G1 Z2.0 F3000 ; Move Z Axis up little to prevent scratching of Heat Bed
G1 X0.1 Y20 Z0.3 F5000.0 ; Move to start position
G1 X0.1 Y200.0 Z0.3 F1500.0 E15 ; Draw the first line
G1 X0.4 Y200.0 Z0.3 F5000.0 ; Move to side a little
G1 X0.4 Y20 Z0.3 F1500.0 E30 ; Draw the second line
G92 E0 ; Reset Extruder
G1 Z2.0 F3000 ; Move Z Axis up little to prevent scratching of Heat Bed
G1 X5 Y20 Z0.3 F5000.0 ; Move over to prevent blob squish
G92 E0
G92 E0
G1 F1500 E-6
;LAYER_COUNT:15
;LAYER:0
M107
M204 S500
M205 X8 Y8
G0 F7500 X72.257 Y74.299 Z0.2
;TYPE:SKIRT
G1 F1500 E0
G1 X78.004 Y74.402 E0.18162
G1 X80.504 Y74.367 E0.26062
G1 X80.842 Y74.368 E0.2713
G1 X81.262 Y74.378 E0.28457
G1 X83.911 Y74.495 E0.36836
G1 X86.451 Y74.537 E0.44862
G1 X86.818 Y74.55 E0.46023
G1 X87.166 Y74.568 E0.47124
G1 X89.836 Y74.688 E0.55569
G1 X92.678 Y74.74 E0.6455
G1 X95.379 Y74.858 E0.73093
G1 X97.581 Y74.899 E0.80051
G1 X98.316 Y74.905 E0.82374
G1 X100.416 Y74.949 E0.89011
G1 X103.088 Y74.915 E0.97454
G1 X103.582 Y74.916 E0.99015
G1 X104.017 Y74.926 E1.0039
G1 X106.617 Y75.042 E1.08613
G1 X109.393 Y75.089 E1.17386
G1 X110.085 Y75.111 E1.19574
G1 X111.73 Y75.185 E1.24777
G1 X114.592 Y75.218 E1.3382
G1 X115.498 Y75.241 E1.36684
G1 X116.335 Y75.281 E1.39332
G1 X118.999 Y75.37 E1.47754
G1 X119.292 Y75.374 E1.4868
G1 X122.039 Y75.419 E1.57361
G1 X126.332 Y75.413 E1.70925
G1 X127.234 Y75.455 E1.73778
G1 X127.912 Y75.54 E1.75937
G1 X130.304 Y75.921 E1.83591
G1 X132.866 Y76.256 E1.91755
G1 X135.372 Y76.512 E1.99714
G1 X137.876 Y76.696 E2.07648
G1 X140.437 Y76.812 E2.15748
G1 X142.711 Y76.841 E2.22934
G1 X143.18 Y76.857 E2.24416
G1 X143.911 Y76.869 E2.26726
G1 X144.812 Y76.925 E2.29579
G1 X145.636 Y77.046 E2.3221
G1 X146.358 Y77.187 E2.34535
G1 X146.699 Y77.262 E2.35638
G1 X147.275 Y77.406 E2.37514
G1 X148.487 Y77.747 E2.41492
G1 X151.046 Y78.429 E2.4986
G1 X153.486 Y79.006 E2.57783
G1 X155.988 Y79.524 E2.65856
G1 X158.47 Y79.963 E2.7382
G1 X160.991 Y80.337 E2.81873
G1 X163.525 Y80.64 E2.89936
G1 X166.041 Y80.869 E2.97919
G1 X168.567 Y81.027 E3.05916
G1 X171.109 Y81.114 E3.13953
G1 X173.673 Y81.129 E3.22055
G1 X176.176 Y81.073 E3.29965
G1 X178.741 Y80.943 E3.3808
G1 X181.262 Y80.743 E3.46071
G1 X183.759 Y80.474 E3.54006
G1 X186.31 Y80.126 E3.62142
G1 X188.829 Y79.71 E3.70209
G1 X191.285 Y79.233 E3.78114
G1 X193.798 Y78.669 E3.86252
G1 X196.214 Y78.056 E3.94128
G1 X198.701 Y77.35 E4.02296
G1 X199.428 Y77.128 E4.04698
G1 X199.997 Y76.966 E4.06567
G1 X201.163 Y76.707 E4.10341
G1 X201.621 Y76.633 E4.11807
G1 X202.518 Y76.528 E4.14661
G1 X203.501 Y76.505 E4.17768
G1 X203.864 Y76.514 E4.18915
G1 X204.847 Y76.586 E4.22029
G1 X205.273 Y76.638 E4.23386
G1 X206.164 Y76.787 E4.2624
G1 X207.038 Y77.014 E4.29093
G1 X207.888 Y77.318 E4.31945
G1 X208.864 Y77.778 E4.35355
G1 X209.173 Y77.944 E4.36463
G1 X209.949 Y78.406 E4.39317
G1 X210.681 Y78.935 E4.4217
G1 X211.363 Y79.526 E4.45022
G1 X211.991 Y80.176 E4.47878
G1 X212.558 Y80.879 E4.50731
G1 X212.833 Y81.271 E4.52244
G1 X213.109 Y81.685 E4.53816
G1 X213.576 Y82.458 E4.5667
G1 X213.973 Y83.269 E4.59523
G1 X214.297 Y84.112 E4.62377
G1 X214.56 Y85.046 E4.65443
G1 X214.609 Y85.258 E4.6613
G1 X214.81 Y86.443 E4.69928
G1 X214.884 Y87.118 E4.72074
G1 X214.945 Y88.319 E4.75873
G1 X214.939 Y89.003 E4.78035
G1 X214.948 Y91.558 E4.86108
G1 X215.029 Y94.091 E4.94115
G1 X215.183 Y96.654 E5.02228
G1 X215.405 Y99.151 E5.10149
G1 X215.702 Y101.691 E5.1823
G1 X216.07 Y104.207 E5.26264
G1 X216.507 Y106.7 E5.34261
G1 X217.015 Y109.188 E5.42285
G1 X217.59 Y111.647 E5.50264
G1 X218.24 Y114.108 E5.58307
G1 X218.969 Y116.581 E5.66453
G1 X219.735 Y118.933 E5.74269
G1 X220.819 Y121.944 E5.84381
G1 X221.06 Y122.579 E5.86527
G1 X221.249 Y123.122 E5.88343
G1 X221.355 Y123.457 E5.89454
G1 X221.483 Y123.894 E5.90893
G1 X221.735 Y124.851 E5.94019
G1 X221.832 Y125.255 E5.95332
G1 X221.91 Y125.608 E5.96475
G1 X222.292 Y127.497 E6.02564
G1 X222.418 Y128.188 E6.04783
G1 X222.676 Y129.728 E6.09717
G1 X222.783 Y130.482 E6.12123
G1 X222.854 Y131.138 E6.14208
G1 X222.906 Y131.819 E6.16366
G1 X222.924 Y133.099 E6.20411
G1 X222.909 Y133.403 E6.21373
G1 X222.824 Y134.302 E6.24226
G1 X222.661 Y135.19 E6.27079
G1 X222.457 Y135.942 E6.29541
G1 X222.312 Y136.406 E6.31077
G1 X222.004 Y137.256 E6.33934
G1 X221.451 Y138.392 E6.37926
G1 X221.319 Y138.625 E6.38772
G1 X220.718 Y139.562 E6.42289
G1 X220.439 Y139.949 E6.43797
G1 X219.879 Y140.657 E6.46649
G1 X218.956 Y141.594 E6.50805
G1 X218.798 Y141.735 E6.51474
G1 X218.099 Y142.306 E6.54326
G1 X217.351 Y142.813 E6.57181
G1 X216.405 Y143.328 E6.60584
G1 X216.089 Y143.479 E6.61691
G1 X215.257 Y143.832 E6.64547
G1 X214.398 Y144.11 E6.67399
G1 X213.518 Y144.311 E6.70251
G1 X212.712 Y144.425 E6.72824
G1 X212.384 Y144.458 E6.73865
G1 X211.482 Y144.508 E6.7672
G1 X210.497 Y144.472 E6.79834
G1 X209.441 Y144.379 E6.83184
G1 X208.873 Y144.316 E6.84989
G1 X208.479 Y144.264 E6.86245
G1 X207.974 Y144.188 E6.87859
G1 X207.321 Y144.068 E6.89956
G1 X206.995 Y143.997 E6.91011
G1 X206.61 Y143.906 E6.92261
G1 X206.1 Y143.774 E6.93925
G1 X205.486 Y143.594 E6.95947
G1 X204.159 Y143.16 E7.00358
G1 X201.642 Y142.376 E7.08688
G1 X199.203 Y141.691 E7.16693
G1 X196.695 Y141.062 E7.24863
G1 X194.281 Y140.53 E7.32674
G1 X191.753 Y140.047 E7.40806
G1 X189.255 Y139.643 E7.48801
G1 X186.734 Y139.307 E7.56837
G1 X184.226 Y139.046 E7.64805
G1 X181.655 Y138.851 E7.72952
G1 X179.149 Y138.731 E7.80879
G1 X176.623 Y138.683 E7.88862
G1 X174.054 Y138.707 E7.9698
G1 X171.525 Y138.802 E8.04976
G1 X168.984 Y138.969 E8.13022
G1 X166.47 Y139.206 E8.21001
G1 X163.95 Y139.515 E8.29023
G1 X161.403 Y139.902 E8.37163
G1 X158.956 Y140.344 E8.4502
G1 X156.462 Y140.868 E8.53073
G1 X153.954 Y141.47 E8.61222
G1 X151.546 Y142.119 E8.69102
G1 X149.075 Y142.862 E8.77255
G1 X146.685 Y143.654 E8.85211
G1 X144.311 Y144.517 E8.93192
G1 X141.911 Y145.467 E9.01348
G1 X139.589 Y146.463 E9.09331
G1 X137.328 Y147.509 E9.17203
G1 X134.987 Y148.673 E9.25464
G1 X132.791 Y149.844 E9.33327
G1 X130.569 Y151.111 E9.41409
G1 X128.411 Y152.425 E9.49393
G1 X126.271 Y153.811 E9.57449
G1 X124.172 Y155.257 E9.65502
G1 X122.131 Y156.749 E9.73491
G1 X119.753 Y158.6 E9.83013
G1 X119.016 Y159.123 E9.85868
G1 X118.236 Y159.578 E9.88721
G1 X117.419 Y159.963 E9.91575
G1 X116.571 Y160.274 E9.94429
G1 X115.635 Y160.522 E9.97489
G1 X115.361 Y160.581 E9.98374
G1 X114.471 Y160.732 E10.01226
G1 X113.57 Y160.804 E10.04082
G1 X112.667 Y160.795 E10.06936
G1 X111.769 Y160.707 E10.09787
G1 X110.881 Y160.54 E10.12642
G1 X110.042 Y160.304 E10.15396
G1 X109.498 Y160.126 E10.17204
G1 X108.653 Y159.808 E10.20057
G1 X108.076 Y159.539 E10.22069
G1 X107.077 Y159.035 E10.25604
G1 X106.587 Y158.771 E10.27363
G1 X106.26 Y158.583 E10.28555
G1 X105.795 Y158.298 E10.30278
G1 X104.967 Y157.756 E10.33405
G1 X104.372 Y157.338 E10.35702
G1 X101.595 Y155.283 E10.46618
G1 X99.505 Y153.821 E10.54677
G1 X97.39 Y152.427 E10.62681
G1 X95.225 Y151.088 E10.70725
G1 X93.031 Y149.814 E10.78741
G1 X90.836 Y148.622 E10.86633
G1 X88.532 Y147.455 E10.94794
G1 X86.231 Y146.369 E11.02833
G1 X83.902 Y145.349 E11.10867
G1 X81.542 Y144.393 E11.18913
G1 X79.191 Y143.521 E11.26836
G1 X76.747 Y142.69 E11.34992
G1 X74.359 Y141.953 E11.42889
G1 X71.911 Y141.272 E11.50917
G1 X69.421 Y140.654 E11.59024
G1 X66.929 Y140.11 E11.67083
G1 X64.447 Y139.644 E11.75063
G1 X61.955 Y139.246 E11.83036
G1 X59.448 Y138.919 E11.91025
G1 X56.91 Y138.661 E11.99086
G1 X54.373 Y138.475 E12.07123
G1 X51.83 Y138.36 E12.15167
G1 X49.27 Y138.317 E12.23257
G1 X46.771 Y138.346 E12.31153
G1 X44.206 Y138.449 E12.39265
G1 X41.702 Y138.62 E12.47195
G1 X39.158 Y138.866 E12.55271
G1 X36.62 Y139.184 E12.63353
G1 X34.079 Y139.576 E12.71477
G1 X32.778 Y139.806 E12.75651
G1 X31.812 Y139.982 E12.78754
G1 X29.602 Y140.34 E12.85828
G1 X29.091 Y140.41 E12.87457
G1 X27.206 Y140.639 E12.93457
G1 X26.818 Y140.678 E12.94689
G1 X25.341 Y140.796 E12.99371
G1 X24.479 Y140.838 E13.02098
G1 X24.252 Y140.843 E13.02815
G1 X23.821 Y140.843 E13.04177
G1 X23.277 Y140.832 E13.05896
G1 X22.376 Y140.774 E13.08749
G1 X21.185 Y140.572 E13.12566
G1 X20.826 Y140.489 E13.13731
G1 X19.956 Y140.247 E13.16584
G1 X19.111 Y139.928 E13.19438
G1 X18.297 Y139.537 E13.22291
G1 X17.726 Y139.206 E13.24376
G1 X17.532 Y139.085 E13.25099
G1 X16.788 Y138.573 E13.27953
G1 X16.091 Y137.998 E13.30808
G1 X15.449 Y137.363 E13.33661
G1 X14.885 Y136.701 E13.36409
G1 X14.574 Y136.302 E13.38007
G1 X14.051 Y135.565 E13.40863
G1 X13.772 Y135.108 E13.42554
G1 X13.636 Y134.871 E13.43418
G1 X13.108 Y133.812 E13.47157
G1 X13 Y133.56 E13.48023
G1 X12.681 Y132.715 E13.50877
G1 X12.397 Y131.659 E13.54332
G1 X12.334 Y131.362 E13.55292
G1 X12.23 Y130.789 E13.57132
G1 X12.181 Y130.469 E13.58155
G1 X12.083 Y129.571 E13.61009
G1 X12.064 Y128.816 E13.63395
G1 X12.069 Y128.347 E13.64877
G1 X12.168 Y127.031 E13.69047
G1 X12.268 Y126.35 E13.71222
G1 X12.335 Y125.954 E13.72491
G1 X12.462 Y125.324 E13.74522
G1 X12.658 Y124.506 E13.77179
G1 X13.028 Y123.11 E13.81743
G1 X13.324 Y122.046 E13.85232
G1 X13.941 Y119.553 E13.93347
G1 X14.502 Y116.971 E14.01696
G1 X14.702 Y116.005 E14.04813
G1 X14.766 Y115.731 E14.05702
G1 X14.899 Y115.216 E14.07383
G1 X15.029 Y114.772 E14.08844
G1 X15.256 Y114.068 E14.11182
G1 X15.376 Y113.723 E14.12336
G1 X15.65 Y113.022 E14.14714
G1 X16.086 Y112.014 E14.18184
G1 X16.99 Y109.879 E14.2551
G1 X17.947 Y107.443 E14.3378
G1 X18.777 Y105.137 E14.41523
G1 X19.579 Y102.692 E14.49654
G1 X20.302 Y100.263 E14.57662
G1 X20.966 Y97.778 E14.65789
G1 X21.54 Y95.354 E14.7366
G1 X22.067 Y92.812 E14.81863
G1 X22.504 Y90.348 E14.8977
G1 X22.67 Y89.248 E14.93285
G1 X22.787 Y88.535 E14.95568
G1 X22.979 Y87.626 E14.98503
G1 X23.166 Y86.905 E15.00857
G1 X23.431 Y86.042 E15.03709
G1 X23.72 Y85.319 E15.0617
G1 X23.817 Y85.101 E15.06924
G1 X24.22 Y84.293 E15.09777
G1 X24.932 Y83.187 E15.13933
G1 X25.229 Y82.785 E15.15512
G1 X25.797 Y82.083 E15.18365
G1 X26.192 Y81.662 E15.20189
G1 X26.441 Y81.411 E15.21306
G1 X27.105 Y80.799 E15.2416
G1 X27.506 Y80.477 E15.25785
G1 X27.853 Y80.213 E15.27162
G1 X28.279 Y79.907 E15.2882
G1 X28.572 Y79.707 E15.29941
G1 X29.339 Y79.231 E15.32793
G1 X29.85 Y78.964 E15.34615
G1 X30.344 Y78.723 E15.36351
G1 X31.352 Y78.296 E15.3981
G1 X32.205 Y77.988 E15.42676
G1 X32.669 Y77.833 E15.44222
G1 X32.968 Y77.741 E15.4521
G1 X33.413 Y77.615 E15.46671
G1 X33.672 Y77.548 E15.47517
G1 X34.007 Y77.467 E15.48606
G1 X34.312 Y77.399 E15.49593
G1 X34.649 Y77.33 E15.5068
G1 X35.566 Y77.162 E15.53626
G1 X36.295 Y77.048 E15.55957
G1 X36.84 Y76.977 E15.57694
G1 X37.21 Y76.936 E15.5887
G1 X38.87 Y76.781 E15.64138
G1 X39.235 Y76.754 E15.65294
G1 X40.55 Y76.682 E15.69456
G1 X41.744 Y76.648 E15.7323
G1 X42.683 Y76.635 E15.76197
G1 X44.859 Y76.648 E15.83073
G1 X47.519 Y76.674 E15.91478
G1 X50.024 Y76.627 E15.99394
G1 X52.578 Y76.508 E16.07473
G1 X55.085 Y76.318 E16.15417
G1 X57.646 Y76.053 E16.23552
G1 X60.139 Y75.722 E16.31499
G1 X62.677 Y75.313 E16.39622
G1 X65.132 Y74.844 E16.47519
G1 X65.837 Y74.688 E16.498
G1 X67.209 Y74.404 E16.54227
G1 X68.101 Y74.26 E16.57082
G1 X68.976 Y74.196 E16.59855
G1 X69.247 Y74.188 E16.60711
G1 X69.922 Y74.191 E16.62844
G1 X71.458 Y74.263 E16.67703
G0 F1350 X72.257 Y74.299
G0 F7500 X72.25 Y73.899
G1 F1500 X78.005 Y74.002 E16.8589
G1 X80.505 Y73.967 E16.9379
G1 X80.843 Y73.968 E16.94858
G1 X81.28 Y73.978 E16.96239
G1 X83.936 Y74.095 E17.04639
G1 X86.458 Y74.137 E17.12609
G1 X86.839 Y74.151 E17.13814
G1 X87.205 Y74.17 E17.14972
G1 X89.826 Y74.288 E17.23262
G1 X92.695 Y74.34 E17.32329
G1 X95.403 Y74.459 E17.40893
G1 X97.592 Y74.499 E17.47811
G1 X98.324 Y74.505 E17.50124
G1 X100.419 Y74.549 E17.56745
G1 X103.088 Y74.515 E17.65179
G1 X103.582 Y74.516 E17.6674
G1 X104.035 Y74.527 E17.68172
G1 X106.606 Y74.642 E17.76303
G1 X109.406 Y74.689 E17.85152
G1 X110.103 Y74.712 E17.87355
G1 X111.722 Y74.785 E17.92476
G1 X114.6 Y74.818 E18.0157
G1 X115.517 Y74.841 E18.04469
G1 X116.368 Y74.882 E18.07161
G1 X119.016 Y74.97 E18.15532
G1 X119.297 Y74.974 E18.1642
G1 X122.045 Y75.019 E18.25104
G1 X126.333 Y75.013 E18.38653
G1 X127.253 Y75.055 E18.41563
G1 X127.975 Y75.145 E18.43862
G1 X130.383 Y75.528 E18.51566
G1 X132.888 Y75.856 E18.59549
G1 X135.409 Y76.113 E18.67556
G1 X137.922 Y76.298 E18.75518
G1 X140.43 Y76.412 E18.83451
G1 X142.724 Y76.441 E18.907
G1 X143.2 Y76.457 E18.92204
G1 X143.917 Y76.469 E18.9447
G1 X144.836 Y76.525 E18.97379
G1 X145.71 Y76.653 E19.0017
G1 X146.444 Y76.796 E19.02533
G1 X146.785 Y76.871 E19.03637
G1 X147.383 Y77.021 E19.05585
G1 X148.633 Y77.373 E19.09688
G1 X151.093 Y78.028 E19.17732
G1 X153.587 Y78.618 E19.25829
G1 X156.067 Y79.131 E19.33831
G1 X158.562 Y79.573 E19.41838
G1 X161.03 Y79.939 E19.49721
G1 X163.572 Y80.243 E19.5781
G1 X166.066 Y80.47 E19.65723
G1 X168.571 Y80.626 E19.73654
G1 X171.125 Y80.714 E19.81728
G1 X173.666 Y80.729 E19.89757
G1 X176.183 Y80.672 E19.97712
G1 X178.688 Y80.545 E20.05638
G1 X181.223 Y80.345 E20.13672
G1 X183.734 Y80.074 E20.21652
G1 X186.263 Y79.73 E20.29717
G1 X188.725 Y79.323 E20.37602
G1 X191.22 Y78.838 E20.45633
G1 X193.692 Y78.283 E20.53638
G1 X196.112 Y77.669 E20.61527
G1 X198.601 Y76.962 E20.69702
G1 X199.318 Y76.743 E20.72071
G1 X199.887 Y76.581 E20.73941
G1 X201.099 Y76.312 E20.77863
G1 X201.557 Y76.238 E20.79329
G1 X202.472 Y76.13 E20.8224
G1 X203.511 Y76.105 E20.85524
G1 X203.874 Y76.114 E20.86672
G1 X204.895 Y76.189 E20.89906
G1 X205.321 Y76.241 E20.91262
G1 X206.23 Y76.392 E20.94174
G1 X207.121 Y76.622 E20.97082
G1 X207.99 Y76.927 E20.99992
G1 X209.053 Y77.425 E21.03701
G1 X209.362 Y77.591 E21.04809
G1 X210.154 Y78.062 E21.07721
G1 X210.901 Y78.599 E21.10627
G1 X211.599 Y79.199 E21.13536
G1 X212.243 Y79.858 E21.16447
G1 X212.827 Y80.57 E21.19357
G1 X213.166 Y81.049 E21.21211
G1 X213.442 Y81.463 E21.22783
G1 X213.919 Y82.251 E21.25694
G1 X214.325 Y83.077 E21.28602
G1 X214.659 Y83.935 E21.31511
G1 X214.95 Y84.956 E21.34866
G1 X214.999 Y85.168 E21.35553
G1 X215.208 Y86.4 E21.39502
G1 X215.282 Y87.075 E21.41647
G1 X215.345 Y88.323 E21.45595
G1 X215.339 Y89.007 E21.47757
G1 X215.348 Y91.544 E21.55773
G1 X215.429 Y94.089 E21.63819
G1 X215.58 Y96.593 E21.71745
G1 X215.807 Y99.144 E21.79837
G1 X216.096 Y101.619 E21.87711
G1 X216.467 Y104.151 E21.95796
G1 X216.899 Y106.622 E22.03722
G1 X217.401 Y109.081 E22.11652
G1 X217.983 Y111.567 E22.1972
G1 X218.634 Y114.031 E22.27773
G1 X219.337 Y116.418 E22.35635
G1 X220.125 Y118.839 E22.4368
G1 X221.183 Y121.775 E22.53541
G1 X221.434 Y122.437 E22.55778
G1 X221.63 Y123.001 E22.57664
G1 X221.736 Y123.336 E22.58775
G1 X221.869 Y123.791 E22.60272
G1 X222.124 Y124.757 E22.63429
G1 X222.221 Y125.161 E22.64742
G1 X222.302 Y125.528 E22.6593
G1 X222.685 Y127.425 E22.72044
G1 X222.813 Y128.121 E22.7428
G1 X223.072 Y129.672 E22.79249
G1 X223.179 Y130.426 E22.81655
G1 X223.253 Y131.108 E22.83823
G1 X223.305 Y131.789 E22.85981
G1 X223.323 Y133.118 E22.90181
G1 X223.308 Y133.422 E22.91142
G1 X223.223 Y134.339 E22.94052
G1 X223.058 Y135.245 E22.96962
G1 X222.838 Y136.062 E22.99635
G1 X222.693 Y136.526 E23.01171
G1 X222.381 Y137.392 E23.0408
G1 X221.799 Y138.589 E23.08285
G1 X221.667 Y138.822 E23.09132
G1 X221.042 Y139.796 E23.12788
G1 X220.763 Y140.183 E23.14296
G1 X220.193 Y140.906 E23.17205
G1 X219.562 Y141.576 E23.20113
G1 X219.065 Y142.034 E23.22248
G1 X218.352 Y142.616 E23.25156
G1 X217.591 Y143.135 E23.28067
G1 X216.577 Y143.689 E23.31718
G1 X216.261 Y143.84 E23.32825
G1 X215.414 Y144.201 E23.35734
G1 X214.539 Y144.486 E23.38641
G1 X213.642 Y144.695 E23.41552
G1 X212.752 Y144.823 E23.44393
G1 X212.424 Y144.856 E23.45434
G1 X211.505 Y144.908 E23.48343
G1 X210.463 Y144.871 E23.51637
G1 X209.396 Y144.776 E23.55022
G1 X208.828 Y144.713 E23.56828
G1 X208.42 Y144.66 E23.58128
G1 X207.915 Y144.584 E23.59741
G1 X207.236 Y144.459 E23.61923
G1 X206.91 Y144.388 E23.62977
G1 X206.51 Y144.293 E23.64276
