;FLAVOR:Marlin
;TIME:15043
;Filament used: 8.20955m
;Layer height: 0.2
;MINX:60.5
;MINY:80
;MINZ:0.2
;MAXX:174.5
;MAXY:155
;MAXZ:50
;Generated with Cura_SteamEngine 4.6.2
M140 S60
M105
M190 S60
M104 S200
M105
M109 S200
M82 ;absolute extrusion mode
; Ender 3 Custom Start G-code
G92 E0 ; Reset Extruder
G28 ; Home all axes
G1 Z2.0 F3000 ; Move Z Axis up little to prevent scratching of Heat Bed
G1 X0.1 Y20 Z0.3 F5000.0 ; Move to start position
G1 X0.1 Y200.0 Z0.3 F1500.0 E15 ; Draw the first line
G1 X0.4 Y200.0 Z0.3 F5000.0 ; Move to side a little
G1 X0.4 Y20 Z0.3 F1500.0 E30 ; Draw the second line
G92 E0 ; Reset Extruder
G1 Z2.0 F3000 ; Move Z Axis up little to prevent scratching of Heat Bed
G1 X5 Y20 Z0.3 F5000.0 ; Move over to prevent blob squish
G92 E0
G92 E0
G1 F1500 E-6
;LAYER_COUNT:250
;LAYER:0
M107
M204 S500
M205 X8 Y8
G0 F7500 X94.694 Y151.346 Z0.2
;TYPE:SKIRT
G1 F1500 E0
G1 X92.187 Y151.524 E0.07941
G1 X89.646 Y151.775 E0.16009
G1 X87.138 Y152.096 E0.23998
G1 X84.633 Y152.49 E0.32011
G1 X82.146 Y152.952 E0.40003
G1 X79.655 Y153.488 E0.48054
G1 X78.85 Y153.686 E0.50674
G1 X77.819 Y153.925 E0.54018
G1 X76.931 Y154.089 E0.56871
G1 X75.87 Y154.182 E0.60236
G1 X75.524 Y154.194 E0.6133
G1 X75.17 Y154.2 E0.62449
G1 X72.075 Y154.199 E0.72228
G1 X71.377 Y154.19 E0.74434
G1 X70.476 Y154.139 E0.77286
G1 X69.582 Y154.007 E0.80141
G1 X68.704 Y153.798 E0.82993
G1 X67.847 Y153.511 E0.85848
G1 X67.02 Y153.15 E0.887
G1 X66.227 Y152.717 E0.91554
G1 X65.476 Y152.216 E0.94407
G1 X64.772 Y151.65 E0.97261
G1 X64.121 Y151.024 E1.00115
G1 X63.528 Y150.343 E1.02968
G1 X62.998 Y149.612 E1.05821
G1 X62.534 Y148.837 E1.08675
G1 X62.14 Y148.024 E1.1153
G1 X61.82 Y147.18 E1.14382
G1 X61.576 Y146.31 E1.17237
G1 X61.41 Y145.422 E1.20091
G1 X61.313 Y144.267 E1.23754
G1 X61.3 Y143.658 E1.25678
G1 X61.301 Y94.564 E2.80801
G1 X61.311 Y93.866 E2.83007
G1 X61.364 Y92.964 E2.85862
G1 X61.496 Y92.071 E2.88714
G1 X61.707 Y91.193 E2.91567
G1 X61.995 Y90.337 E2.94421
G1 X62.357 Y89.51 E2.97274
G1 X62.792 Y88.718 E3.00129
G1 X63.294 Y87.967 E3.02983
G1 X63.861 Y87.264 E3.05837
G1 X64.488 Y86.614 E3.0869
G1 X65.499 Y85.771 E3.12849
G1 X65.802 Y85.55 E3.14034
G1 X67.91 Y83.988 E3.22324
G1 X68.518 Y83.512 E3.24764
G1 X69.322 Y82.899 E3.27959
G1 X70.063 Y82.383 E3.30812
G1 X70.848 Y81.936 E3.33666
G1 X71.669 Y81.559 E3.36521
G1 X72.52 Y81.257 E3.39374
G1 X73.394 Y81.031 E3.42226
G1 X74.285 Y80.883 E3.4508
G1 X75.193 Y80.815 E3.47957
G1 X75.832 Y80.8 E3.49977
G1 X158.791 Y80.8 E6.12104
G1 X158.937 Y80.801 E6.12565
G1 X159.635 Y80.811 E6.14771
G1 X160.537 Y80.864 E6.17626
G1 X161.43 Y80.996 E6.20478
G1 X162.308 Y81.207 E6.23331
G1 X163.164 Y81.495 E6.26185
G1 X163.991 Y81.857 E6.29037
G1 X164.783 Y82.292 E6.31892
G1 X165.67 Y82.896 E6.35283
G1 X168.159 Y84.792 E6.4517
G1 X168.712 Y85.191 E6.47324
G1 X169.527 Y85.793 E6.50526
G1 X170.229 Y86.361 E6.53379
G1 X170.878 Y86.989 E6.56232
G1 X171.469 Y87.672 E6.59086
G1 X171.997 Y88.404 E6.61938
G1 X172.458 Y89.181 E6.64793
G1 X172.849 Y89.995 E6.67646
G1 X173.166 Y90.841 E6.70501
G1 X173.408 Y91.711 E6.73354
G1 X173.571 Y92.599 E6.76207
G1 X173.661 Y93.64 E6.79508
G1 X173.694 Y94.581 E6.82483
G1 X173.7 Y94.938 E6.83612
G1 X173.699 Y143.404 E8.3675
G1 X173.689 Y144.131 E8.39048
G1 X173.637 Y145.033 E8.41902
G1 X173.505 Y145.926 E8.44755
G1 X173.294 Y146.805 E8.47611
G1 X173.007 Y147.661 E8.50464
G1 X172.645 Y148.488 E8.53316
G1 X172.211 Y149.28 E8.5617
G1 X171.709 Y150.031 E8.59024
G1 X171.143 Y150.734 E8.61876
G1 X170.516 Y151.385 E8.64732
G1 X169.835 Y151.977 E8.67583
G1 X169.104 Y152.507 E8.70436
G1 X168.328 Y152.97 E8.73291
G1 X167.515 Y153.363 E8.76144
G1 X166.67 Y153.683 E8.78999
G1 X165.801 Y153.926 E8.8185
G1 X164.913 Y154.091 E8.84704
G1 X163.777 Y154.187 E8.88306
G1 X163.17 Y154.2 E8.90225
G1 X160.07 Y154.199 E9.0002
G1 X159.371 Y154.189 E9.02229
G1 X158.47 Y154.136 E9.05081
G1 X157.576 Y154.004 E9.07936
G1 X157.132 Y153.907 E9.09372
G1 X156.779 Y153.822 E9.10519
G1 X154.162 Y153.219 E9.19005
G1 X151.654 Y152.715 E9.27088
G1 X149.176 Y152.29 E9.35032
G1 X146.67 Y151.933 E9.4303
G1 X144.113 Y151.642 E9.51162
G1 X141.606 Y151.427 E9.59112
G1 X139.057 Y151.283 E9.67179
G1 X136.491 Y151.209 E9.7529
G1 X135.165 Y151.2 E9.7948
G1 X99.864 Y151.2 E10.91021
G1 X97.26 Y151.237 E10.9925
G1 X95.493 Y151.313 E11.04838
G0 F1350 X94.694 Y151.346
G0 F7500 X94.738 Y151.744
G1 F1500 X92.218 Y151.922 E11.12821
G1 X89.703 Y152.171 E11.20806
G1 X87.214 Y152.49 E11.28735
G1 X84.662 Y152.891 E11.36897
G1 X82.231 Y153.343 E11.4471
G1 X79.738 Y153.88 E11.52768
G1 X78.941 Y154.075 E11.55361
G1 X77.91 Y154.314 E11.58705
G1 X77.005 Y154.483 E11.61614
G1 X75.883 Y154.582 E11.65173
G1 X75.537 Y154.594 E11.66267
G1 X75.17 Y154.6 E11.67426
G1 X72.07 Y154.599 E11.77222
G1 X71.372 Y154.59 E11.79427
G1 X70.453 Y154.538 E11.82336
G1 X69.542 Y154.407 E11.85244
G1 X68.646 Y154.197 E11.88152
G1 X67.771 Y153.91 E11.91061
G1 X66.924 Y153.548 E11.93972
G1 X66.112 Y153.114 E11.96881
G1 X65.341 Y152.612 E11.99788
G1 X64.616 Y152.044 E12.02698
G1 X63.943 Y151.415 E12.05609
G1 X63.328 Y150.731 E12.08515
G1 X62.774 Y149.996 E12.11423
G1 X62.286 Y149.215 E12.14333
G1 X61.867 Y148.395 E12.17243
G1 X61.521 Y147.542 E12.20151
G1 X61.251 Y146.662 E12.2306
G1 X61.058 Y145.761 E12.25971
G1 X60.944 Y144.848 E12.28878
G1 X60.913 Y144.277 E12.30685
G1 X60.9 Y143.658 E12.32642
G1 X60.901 Y94.558 E13.87783
G1 X60.911 Y93.86 E13.89989
G1 X60.964 Y92.941 E13.92898
G1 X61.097 Y92.03 E13.95807
G1 X61.308 Y91.134 E13.98715
G1 X61.596 Y90.26 E14.01623
G1 X61.959 Y89.413 E14.04535
G1 X62.394 Y88.602 E14.07443
G1 X62.898 Y87.832 E14.1035
G1 X63.467 Y87.108 E14.1326
G1 X64.097 Y86.436 E14.1617
G1 X64.782 Y85.821 E14.19079
G1 X65.264 Y85.448 E14.21005
G1 X65.501 Y85.275 E14.21932
G1 X67.671 Y83.667 E14.30466
G1 X68.275 Y83.194 E14.3289
G1 X69.079 Y82.581 E14.36085
G1 X69.835 Y82.055 E14.38995
G1 X70.633 Y81.596 E14.41903
G1 X71.468 Y81.209 E14.44811
G1 X72.334 Y80.896 E14.47721
G1 X73.224 Y80.659 E14.50631
G1 X74.131 Y80.5 E14.53541
G1 X75.181 Y80.415 E14.56869
G1 X75.832 Y80.4 E14.58927
G1 X158.791 Y80.4 E17.21053
G1 X158.943 Y80.401 E17.21534
G1 X159.641 Y80.411 E17.23739
G1 X160.56 Y80.464 E17.26648
G1 X161.471 Y80.597 E17.29557
G1 X162.367 Y80.808 E17.32465
G1 X163.241 Y81.096 E17.35373
G1 X164.088 Y81.459 E17.38285
G1 X164.899 Y81.894 E17.41193
G1 X165.912 Y82.578 E17.45055
G1 X168.389 Y84.465 E17.54894
G1 X168.95 Y84.869 E17.57078
G1 X169.765 Y85.471 E17.6028
G1 X170.481 Y86.049 E17.63187
G1 X171.144 Y86.688 E17.66097
G1 X171.749 Y87.382 E17.69006
G1 X172.292 Y88.125 E17.71914
G1 X172.768 Y88.913 E17.74823
G1 X173.174 Y89.74 E17.77734
G1 X173.507 Y90.598 E17.80642
G1 X173.764 Y91.482 E17.8355
G1 X173.944 Y92.385 E17.8646
G1 X174.06 Y93.625 E17.90395
G1 X174.093 Y94.566 E17.9337
G1 X174.1 Y94.938 E17.94546
G1 X174.099 Y143.41 E19.47703
G1 X174.089 Y144.137 E19.50001
G1 X174.036 Y145.056 E19.52909
G1 X173.904 Y145.967 E19.55818
G1 X173.693 Y146.863 E19.58726
G1 X173.406 Y147.738 E19.61636
G1 X173.043 Y148.584 E19.64545
G1 X172.609 Y149.396 E19.67454
G1 X172.105 Y150.167 E19.70364
G1 X171.537 Y150.891 E19.73272
G1 X170.908 Y151.563 E19.7618
G1 X170.223 Y152.178 E19.79089
G1 X169.487 Y152.731 E19.81998
G1 X168.706 Y153.219 E19.84908
G1 X167.886 Y153.637 E19.87816
G1 X167.032 Y153.982 E19.90726
G1 X166.152 Y154.251 E19.93634
G1 X165.251 Y154.444 E19.96545
G1 X164.338 Y154.557 E19.99452
G1 X163.788 Y154.587 E20.01193
G1 X163.17 Y154.6 E20.03146
G1 X160.064 Y154.599 E20.1296
G1 X159.365 Y154.589 E20.15169
G1 X158.446 Y154.536 E20.18077
G1 X157.535 Y154.403 E20.20986
G1 X157.038 Y154.296 E20.22593
G1 X156.689 Y154.212 E20.23727
G1 X154.065 Y153.608 E20.32235
G1 X151.606 Y153.113 E20.4016
G1 X149.095 Y152.682 E20.4821
G1 X146.6 Y152.327 E20.56173
G1 X144.07 Y152.039 E20.64219
G1 X141.585 Y151.826 E20.721
G1 X139.058 Y151.683 E20.80097
G1 X136.477 Y151.609 E20.88256
G1 X135.162 Y151.6 E20.92411
G1 X99.87 Y151.6 E22.03923
G1 X97.247 Y151.637 E22.12212
G1 X95.537 Y151.71 E22.1762
G0 F1350 X94.738 Y151.744
G0 F7500 X94.747 Y152.144
G1 F1500 X92.253 Y152.321 E22.2552
G1 X89.753 Y152.569 E22.33458
G1 X87.26 Y152.888 E22.414
G1 X84.767 Y153.279 E22.49373
G1 X82.277 Y153.742 E22.57376
G1 X79.821 Y154.271 E22.65314
G1 X79.031 Y154.465 E22.67884
G1 X78 Y154.704 E22.71228
G1 X77.078 Y154.876 E22.74192
G1 X75.897 Y154.981 E22.77938
G1 X75.551 Y154.993 E22.79032
G1 X75.17 Y155 E22.80236
G1 X72.065 Y154.999 E22.90047
G1 X71.367 Y154.99 E22.92253
G1 X70.431 Y154.938 E22.95215
G1 X69.502 Y154.806 E22.9818
G1 X68.588 Y154.596 E23.01143
G1 X67.695 Y154.309 E23.04107
G1 X66.83 Y153.946 E23.07071
G1 X65.999 Y153.512 E23.10033
G1 X65.208 Y153.008 E23.12996
G1 X64.463 Y152.438 E23.1596
G1 X63.769 Y151.807 E23.18924
G1 X63.132 Y151.12 E23.21884
G1 X62.555 Y150.38 E23.24849
G1 X62.043 Y149.594 E23.27813
G1 X61.6 Y148.767 E23.30778
G1 X61.229 Y147.906 E23.3374
G1 X60.933 Y147.016 E23.36704
G1 X60.714 Y146.104 E23.39667
G1 X60.573 Y145.177 E23.4263
G1 X60.513 Y144.288 E23.45445
G1 X60.5 Y143.658 E23.47436
G1 X60.501 Y94.552 E25.02597
G1 X60.511 Y93.854 E25.04803
G1 X60.565 Y92.918 E25.07765
G1 X60.697 Y91.99 E25.10727
G1 X60.909 Y91.076 E25.13692
G1 X61.198 Y90.184 E25.16654
G1 X61.561 Y89.319 E25.19618
G1 X61.997 Y88.489 E25.22581
G1 X62.502 Y87.698 E25.25546
G1 X63.073 Y86.954 E25.28509
G1 X63.705 Y86.261 E25.31473
G1 X64.393 Y85.624 E25.34436
G1 X65.028 Y85.125 E25.36987
G1 X65.297 Y84.929 E25.38039
G1 X67.408 Y83.364 E25.46342
G1 X68.033 Y82.875 E25.4885
G1 X68.837 Y82.262 E25.52044
G1 X69.606 Y81.726 E25.55006
G1 X70.418 Y81.257 E25.57969
G1 X71.267 Y80.859 E25.60932
G1 X72.148 Y80.535 E25.63898
G1 X73.052 Y80.287 E25.6686
G1 X73.974 Y80.117 E25.69822
G1 X75.169 Y80.015 E25.73612
G1 X75.495 Y80.005 E25.74642
G1 X75.832 Y80 E25.75707
G1 X158.791 Y80 E28.37834
G1 X158.949 Y80.001 E28.38333
G1 X159.647 Y80.011 E28.40539
G1 X160.583 Y80.065 E28.43501
G1 X161.511 Y80.197 E28.46463
G1 X162.425 Y80.409 E28.49427
G1 X163.317 Y80.698 E28.5239
G1 X164.182 Y81.061 E28.55354
G1 X165.012 Y81.497 E28.58317
G1 X166.155 Y82.26 E28.62659
G1 X168.636 Y84.15 E28.72514
G1 X169.188 Y84.547 E28.74662
G1 X170.003 Y85.149 E28.77864
G1 X170.732 Y85.738 E28.80825
G1 X171.41 Y86.387 E28.8379
G1 X172.029 Y87.091 E28.86752
G1 X172.586 Y87.846 E28.89717
G1 X173.077 Y88.645 E28.9268
G1 X173.498 Y89.483 E28.95643
G1 X173.846 Y90.354 E28.98607
G1 X174.119 Y91.251 E29.0157
G1 X174.314 Y92.168 E29.04532
G1 X174.43 Y93.099 E29.07496
G1 X174.46 Y93.611 E29.09117
G1 X174.493 Y94.552 E29.12092
G1 X174.5 Y94.938 E29.13312
G1 X174.499 Y143.415 E30.66485
G1 X174.489 Y144.142 E30.68783
G1 X174.436 Y145.079 E30.71748
G1 X174.304 Y146.007 E30.7471
G1 X174.093 Y146.921 E30.77674
G1 X173.804 Y147.813 E30.80636
G1 X173.441 Y148.678 E30.836
G1 X173.006 Y149.509 E30.86564
G1 X172.501 Y150.299 E30.89527
G1 X171.931 Y151.044 E30.92491
G1 X171.3 Y151.738 E30.95454
G1 X170.611 Y152.375 E30.98419
G1 X169.871 Y152.951 E31.01382
G1 X169.085 Y153.462 E31.04345
G1 X168.258 Y153.904 E31.07307
G1 X167.396 Y154.274 E31.10271
G1 X166.506 Y154.569 E31.13234
G1 X165.594 Y154.788 E31.16198
G1 X164.667 Y154.928 E31.1916
G1 X163.799 Y154.987 E31.21909
G1 X163.17 Y155 E31.23897
G1 X160.059 Y154.999 E31.33727
G1 X159.36 Y154.989 E31.35935
G1 X158.423 Y154.935 E31.38901
G1 X157.495 Y154.803 E31.41863
G1 X156.944 Y154.685 E31.43643
G1 X156.495 Y154.577 E31.45102
G1 X154.002 Y154.003 E31.53186
G1 X151.531 Y153.506 E31.6115
G1 X149.037 Y153.078 E31.69145
G1 X146.535 Y152.722 E31.7713
G1 X144.063 Y152.44 E31.84992
G1 X141.528 Y152.223 E31.93031
G1 X139.025 Y152.082 E32.00952
G1 X136.509 Y152.009 E32.08905
G1 X135.159 Y152 E32.13171
G1 X99.876 Y152 E33.24655
G1 X97.269 Y152.037 E33.32894
G1 X95.546 Y152.111 E33.38343
G0 F1350 X94.747 Y152.144
G1 F1500 E27.38343
;MESH:Single_Car-Stackable_v1.stl
G0 F7500 X78.162 Y134.073
G0 X76.327 Y134.073
G0 X76.497 Y136
;TYPE:WALL-INNER
G1 F1500 E33.38343
G1 X79.745 Y136 E33.48605
G1 X114.681 Y97.182 E35.13619
G1 X114.151 Y95.997 E35.1772
G1 X76.497 Y95.997 E36.36696
G1 X76.497 Y135.2 E37.60567
G0 F1350 X76.497 Y136
G0 F7500 X76.897 Y135.6
G1 F1500 X79.567 Y135.6 E37.69003
G1 X114.21 Y97.108 E39.32631
G1 X113.892 Y96.397 E39.35092
G1 X76.897 Y96.397 E40.51986
G1 X76.897 Y134.8 E41.73328
G0 F1350 X76.897 Y135.6
G0 F7500 X77.297 Y135.2
;TYPE:WALL-OUTER
G1 F1500 X79.389 Y135.2 E41.79608
G1 X113.634 Y97.151 E43.33267
G1 X113.739 Y97.034 E43.33739
G1 X113.633 Y96.797 E43.34518
G1 X113.475 Y96.797 E43.34993
G1 X77.297 Y96.797 E44.43589
G1 X77.297 Y134.4 E45.56463
G0 F1350 X77.297 Y135.2
G0 F7500 X77.697 Y135.2
G0 X77.697 Y135.64
G1 F1500 E39.56463
G0 F7500 X79.494 Y135.436
G0 X82.019 Y133.729
G0 X80.654 Y132.502
G0 X112.004 Y108.231
G0 X110.677 Y106.963
G0 X118.143 Y99.7
;TYPE:WALL-INNER
G1 F1500 E45.56463
G1 X118 Y99.55 E45.57118
G1 X117.857 Y99.7 E45.57536
G1 X84.317 Y134.787 E47.10905
G1 X84.837 Y136 E47.15075
G1 X151.162 Y136 E49.24643
G1 X151.682 Y134.787 E49.28813
G1 X118.695 Y100.278 E50.79654
G0 F1350 X118.143 Y99.7
G0 F7500 X118 Y100.129
G1 F1500 X117.857 Y100.279 E50.80309
G1 X84.789 Y134.872 E52.31519
G1 X85.101 Y135.6 E52.34022
G1 X150.898 Y135.6 E54.41922
G1 X151.21 Y134.872 E54.44424
G1 X118.143 Y100.279 E55.95632
G1 X118 Y100.129 E55.9605
G0 F7500 X118 Y100.708
;TYPE:WALL-OUTER
G1 F1500 X85.261 Y134.957 E57.38271
G1 X85.365 Y135.2 E57.39064
G1 X150.634 Y135.2 E59.34984
G1 X150.738 Y134.957 E59.35777
G1 X118.552 Y101.286 E60.75597
G0 F1350 X118 Y100.708
G0 F7500 X117.724 Y100.997
G0 X117.407 Y100.692
G1 F1500 E54.75597
G0 F7500 X118 Y100.379
G0 X151.911 Y134.745
G0 X152.993 Y133.773
G0 X155.505 Y135.436
G0 X158.502 Y136
;TYPE:WALL-INNER
G1 F1500 E60.75597
G1 X158.502 Y95.997 E62.01995
G1 X120.849 Y95.997 E63.20968
G1 X120.319 Y97.182 E63.2507
G1 X122.467 Y99.57 E63.35218
G1 X155.254 Y136 E64.90081
G1 X157.702 Y136 E64.97816
G0 F1350 X158.502 Y136
G0 F7500 X158.102 Y135.6
G1 F1500 X158.102 Y96.397 E66.21686
G1 X121.108 Y96.397 E67.38576
G1 X120.79 Y97.108 E67.41037
G1 X122.764 Y99.302 E67.50363
G1 X155.432 Y135.6 E69.04664
G1 X157.302 Y135.6 E69.10572
G0 F1350 X158.102 Y135.6
G0 F7500 X157.702 Y135.2
;TYPE:WALL-OUTER
G1 F1500 X157.702 Y96.797 E70.25848
G1 X121.525 Y96.797 E71.34441
G1 X121.367 Y96.797 E71.34915
G1 X121.261 Y97.034 E71.35695
G1 X121.366 Y97.151 E71.36167
G1 X123.061 Y99.034 E71.43772
G1 X155.61 Y135.2 E72.89824
G1 X156.902 Y135.2 E72.93702
G0 F1350 X157.702 Y135.2
G0 F7500 X157.702 Y134.8
G0 X158.142 Y134.8
G1 F1500 E66.93702
G0 F7500 X158.698 Y95.801
G0 X158.698 Y95.213
G0 X162.5 Y95.003
;TYPE:WALL-INNER
G1 F1500 E72.93702
G1 X162.5 Y143 E74.45359
G1 X160.5 Y143 E74.51678
G1 X160.5 Y140 E74.61157
G1 X74.5 Y140 E77.32893
G1 X74.5 Y143 E77.42372
G1 X72.5 Y143 E77.48691
G1 X72.5 Y95.003 E79.00348
G1 X76.502 Y95.003 E79.12993
G1 X76.502 Y92 E79.22482
G1 X158.498 Y92 E81.81566
G1 X158.498 Y95.003 E81.91054
G1 X161.7 Y95.003 E82.01172
G0 F1350 X162.5 Y95.003
G0 F7500 X162.9 Y94.603
G1 F1500 X162.9 Y143.4 E83.55356
G1 X160.1 Y143.4 E83.64203
G1 X160.1 Y140.4 E83.73682
G1 X74.9 Y140.4 E86.4289
G1 X74.9 Y143.4 E86.52369
G1 X72.1 Y143.4 E86.61216
G1 X72.1 Y94.603 E88.15401
G1 X76.102 Y94.603 E88.28046
G1 X76.102 Y91.6 E88.37535
G1 X158.898 Y91.6 E90.99146
G1 X158.898 Y94.603 E91.08635
G1 X162.1 Y94.603 E91.18752
G0 F1350 X162.9 Y94.603
G0 F7500 X163.3 Y94.203
;TYPE:WALL-OUTER
G1 F1500 X163.3 Y143.8 E92.67629
G1 X159.7 Y143.8 E92.78435
G1 X159.7 Y140.8 E92.8744
G1 X75.3 Y140.8 E95.40786
G1 X75.3 Y143.8 E95.49791
G1 X71.7 Y143.8 E95.60597
G1 X71.7 Y94.203 E97.09474
G1 X75.702 Y94.203 E97.21487
G1 X75.702 Y91.2 E97.30501
G1 X159.298 Y91.2 E99.81434
G1 X159.298 Y94.203 E99.90448
G1 X162.5 Y94.203 E100.00059
G0 F1350 X163.3 Y94.203
G0 F7500 X163.3 Y94.603
G0 X162.86 Y94.643
G0 X162.11 Y95.113
G0 X162.11 Y95.393
;TYPE:SKIN
G1 F1500 X162.11 Y142.61 E101.49252
G1 X160.89 Y142.61 E101.53106
G1 X160.89 Y139.61 E101.62586
G1 X74.11 Y139.61 E104.36785
G1 X74.11 Y142.61 E104.46265
G1 X72.89 Y142.61 E104.50119
G1 X72.89 Y95.393 E105.99312
G1 X76.892 Y95.393 E106.11957
G1 X76.892 Y92.39 E106.21445
