;FLAVOR:Marlin
;TIME:2060
;Filament used: 1.03674m
;Layer height: 0.2
;MINX:66.752
;MINY:91.5
;MINZ:0.2
;MAXX:168.25
;MAXY:143.5
;MAXZ:2.2
;Generated with Cura_SteamEngine 4.6.2
M140 S60
M105
M190 S60
M104 S200
M105
M109 S200
M82 ;absolute extrusion mode
; Ender 3 Custom Start G-code
G92 E0 ; Reset Extruder
G28 ; Home all axes
G1 Z2.0 F3000 ; Move Z Axis up little to prevent scratching of Heat Bed
G1 X0.1 Y20 Z0.3 F5000.0 ; Move to start position
G1 X0.1 Y200.0 Z0.3 F1500.0 E15 ; Draw the first line
G1 X0.4 Y200.0 Z0.3 F5000.0 ; Move to side a little
G1 X0.4 Y20 Z0.3 F1500.0 E30 ; Draw the second line
G92 E0 ; Reset Extruder
G1 Z2.0 F3000 ; Move Z Axis up little to prevent scratching of Heat Bed
G1 X5 Y20 Z0.3 F5000.0 ; Move over to prevent blob squish
G92 E0
G92 E0
G1 F1500 E-6
;LAYER_COUNT:11
;LAYER:0
M107
M204 S500
M205 X8 Y8
G0 F7500 X152.489 Y92.318 Z0.2
;TYPE:SKIRT
G1 F1500 E0
G1 X153.254 Y92.354 E0.0242
G1 X154.09 Y92.428 E0.05072
G1 X154.413 Y92.47 E0.06101
G1 X155.238 Y92.612 E0.08746
G1 X155.676 Y92.706 E0.10161
G1 X156.462 Y92.908 E0.12726
G1 X156.659 Y92.967 E0.13375
G1 X157.159 Y93.131 E0.15038
G1 X157.56 Y93.274 E0.16383
G1 X158.318 Y93.579 E0.18965
G1 X158.547 Y93.682 E0.19758
G1 X158.974 Y93.886 E0.21254
G1 X159.341 Y94.072 E0.22554
G1 X160.045 Y94.464 E0.251
G1 X160.217 Y94.569 E0.25736
G1 X160.691 Y94.877 E0.27523
G1 X161.074 Y95.141 E0.28992
G1 X161.75 Y95.649 E0.31664
G1 X161.905 Y95.776 E0.32297
G1 X162.275 Y96.095 E0.33841
G1 X162.604 Y96.392 E0.35242
G1 X163.406 Y97.202 E0.38843
G1 X163.761 Y97.603 E0.40535
G1 X164.453 Y98.476 E0.44055
G1 X164.827 Y99.005 E0.46102
G1 X165.293 Y99.726 E0.48815
G1 X165.434 Y99.966 E0.49694
G1 X165.835 Y100.721 E0.52396
G1 X166.037 Y101.142 E0.53871
G1 X166.36 Y101.889 E0.56443
G1 X166.442 Y102.102 E0.57164
G1 X166.609 Y102.57 E0.58734
G1 X166.742 Y102.973 E0.60075
G1 X166.966 Y103.755 E0.62645
G1 X167.014 Y103.952 E0.63286
G1 X167.122 Y104.448 E0.6489
G1 X167.208 Y104.897 E0.66334
G1 X167.339 Y105.796 E0.69205
G1 X167.359 Y105.995 E0.69837
G1 X167.392 Y106.409 E0.71149
G1 X167.419 Y106.863 E0.72586
G1 X167.433 Y107.183 E0.73598
G1 X167.446 Y107.788 E0.7551
G1 X167.449 Y126.162 E1.33567
G1 X167.439 Y126.846 E1.35728
G1 X167.44 Y129.134 E1.42958
G1 X167.45 Y130.727 E1.47991
G1 X167.448 Y131.886 E1.51653
G1 X167.439 Y132.528 E1.53682
G1 X167.386 Y133.43 E1.56537
G1 X167.254 Y134.323 E1.59389
G1 X167.044 Y135.201 E1.62242
G1 X166.756 Y136.057 E1.65095
G1 X166.394 Y136.885 E1.67951
G1 X165.96 Y137.677 E1.70804
G1 X165.463 Y138.421 E1.73631
G1 X165.394 Y138.515 E1.74
G1 X164.827 Y139.218 E1.76854
G1 X164.201 Y139.869 E1.79707
G1 X163.52 Y140.462 E1.8256
G1 X162.789 Y140.992 E1.85413
G1 X162.014 Y141.456 E1.88268
G1 X161.201 Y141.849 E1.91121
G1 X160.356 Y142.169 E1.93976
G1 X159.487 Y142.413 E1.96828
G1 X158.599 Y142.579 E1.99682
G1 X157.378 Y142.677 E2.03553
G1 X156.102 Y142.7 E2.07585
G1 X152.766 Y142.688 E2.18126
G1 X150.617 Y142.7 E2.24916
G1 X143.547 Y142.677 E2.47256
G1 X136.174 Y142.63 E2.70553
G1 X132.766 Y142.591 E2.81322
G1 X130.979 Y142.586 E2.86968
G1 X124.71 Y142.534 E3.06777
G1 X123.457 Y142.517 E3.10736
G1 X114.224 Y142.43 E3.39911
G1 X113.445 Y142.416 E3.42373
G1 X105.999 Y142.352 E3.65901
G1 X105.175 Y142.337 E3.68505
G1 X104.751 Y142.335 E3.69845
G1 X100.19 Y142.284 E3.84257
G1 X99.561 Y142.286 E3.86245
G1 X97.714 Y142.26 E3.92081
G1 X96.889 Y142.257 E3.94688
G1 X95.824 Y142.243 E3.98054
G1 X95.386 Y142.246 E3.99438
G1 X93.919 Y142.222 E4.04073
G1 X93.168 Y142.215 E4.06447
G1 X89.89 Y142.177 E4.16805
G1 X89.282 Y142.179 E4.18726
G1 X87.868 Y142.158 E4.23194
G1 X87.077 Y142.156 E4.25694
G1 X86.243 Y142.14 E4.28329
G1 X83.748 Y142.105 E4.36213
G1 X83.198 Y142.104 E4.37951
G1 X79.241 Y142.056 E4.50455
G1 X78.526 Y142.037 E4.52715
G1 X77.625 Y141.973 E4.55569
G1 X76.734 Y141.83 E4.58421
G1 X75.858 Y141.608 E4.61276
G1 X75.204 Y141.387 E4.63457
G1 X75.026 Y141.32 E4.64058
G1 X74.195 Y140.965 E4.66914
G1 X73.4 Y140.538 E4.69765
G1 X72.645 Y140.042 E4.72619
G1 X71.937 Y139.481 E4.75473
G1 X71.504 Y139.083 E4.77332
G1 X71.353 Y138.936 E4.77998
G1 X70.734 Y138.278 E4.80852
G1 X70.176 Y137.568 E4.83705
G1 X69.683 Y136.811 E4.8656
G1 X69.259 Y136.013 E4.89415
G1 X68.907 Y135.182 E4.92267
G1 X68.636 Y134.343 E4.95053
G1 X68.586 Y134.162 E4.95646
G1 X68.385 Y133.282 E4.98498
G1 X68.234 Y132.018 E5.0252
G1 X68.174 Y130.949 E5.05903
G1 X68.16 Y130.598 E5.07013
G1 X68.139 Y129.608 E5.10142
G1 X68.062 Y127.574 E5.16574
G1 X67.818 Y120.688 E5.38345
G1 X67.692 Y116.55 E5.51426
G1 X67.62 Y113.842 E5.59985
G1 X67.56 Y110.716 E5.69865
G1 X67.552 Y109.777 E5.72832
G1 X67.552 Y108.081 E5.78191
G1 X67.558 Y107.584 E5.79761
G1 X67.568 Y107.234 E5.80867
G1 X67.6 Y106.545 E5.83047
G1 X67.727 Y105.348 E5.8685
G1 X67.839 Y104.673 E5.89012
G1 X68.032 Y103.767 E5.91939
G1 X68.109 Y103.472 E5.92902
G1 X68.356 Y102.662 E5.95578
G1 X68.501 Y102.25 E5.96958
G1 X68.809 Y101.477 E5.99587
G1 X68.905 Y101.262 E6.00331
G1 X69.105 Y100.84 E6.01807
G1 X69.298 Y100.456 E6.03165
G1 X69.781 Y99.602 E6.06265
G1 X69.98 Y99.286 E6.07445
G1 X70.222 Y98.919 E6.08834
G1 X70.397 Y98.666 E6.09806
G1 X71.108 Y97.753 E6.13462
G1 X71.401 Y97.418 E6.14869
G1 X72.025 Y96.765 E6.17722
G1 X72.705 Y96.17 E6.20577
G1 X73.434 Y95.637 E6.23431
G1 X74.208 Y95.171 E6.26286
G1 X75.019 Y94.776 E6.29136
G1 X75.863 Y94.453 E6.31991
G1 X76.732 Y94.207 E6.34845
G1 X77.619 Y94.038 E6.37698
G1 X78.518 Y93.948 E6.40553
G1 X79.421 Y93.939 E6.43406
G1 X80.064 Y93.981 E6.45442
G1 X80.61 Y94.034 E6.47176
G1 X83.278 Y94.254 E6.55634
G1 X85.786 Y94.389 E6.6357
G1 X88.347 Y94.455 E6.71665
G1 X90.884 Y94.448 E6.79681
G1 X93.409 Y94.371 E6.87663
G1 X95.953 Y94.219 E6.95716
G1 X98.461 Y93.999 E7.03671
G1 X101.033 Y93.7 E7.11852
G1 X103.479 Y93.345 E7.19662
G1 X107.19 Y92.676 E7.31577
G1 X108.008 Y92.512 E7.34213
G1 X108.901 Y92.373 E7.37068
G1 X109.67 Y92.318 E7.39504
G1 X110.023 Y92.306 E7.4062
G1 X110.37 Y92.3 E7.41717
G1 X151.689 Y92.301 E8.72273
G0 F1350 X151.696 Y92.301
G0 X152.489 Y92.318
G0 F7500 X152.508 Y91.919
G1 F1500 X153.273 Y91.955 E8.74693
G1 X154.142 Y92.031 E8.77449
G1 X154.465 Y92.073 E8.78478
G1 X155.322 Y92.221 E8.81226
G1 X155.76 Y92.315 E8.82642
G1 X156.577 Y92.525 E8.85307
G1 X156.774 Y92.584 E8.85957
G1 X157.293 Y92.754 E8.87683
G1 X157.694 Y92.897 E8.89028
G1 X158.482 Y93.214 E8.91712
G1 X158.711 Y93.317 E8.92505
G1 X159.155 Y93.529 E8.9406
G1 X159.522 Y93.715 E8.9536
G1 X160.253 Y94.123 E8.98005
G1 X160.425 Y94.228 E8.98642
G1 X160.918 Y94.547 E9.00497
G1 X161.301 Y94.811 E9.01967
G1 X162.003 Y95.34 E9.04744
G1 X162.158 Y95.467 E9.05377
G1 X162.543 Y95.798 E9.06982
G1 X162.872 Y96.095 E9.08382
G1 X163.706 Y96.937 E9.12127
G1 X164.061 Y97.338 E9.13819
G1 X164.779 Y98.245 E9.17474
G1 X165.153 Y98.774 E9.19521
G1 X165.637 Y99.524 E9.22342
G1 X165.778 Y99.764 E9.23221
G1 X166.196 Y100.548 E9.26028
G1 X166.398 Y100.969 E9.27504
G1 X166.733 Y101.746 E9.30177
G1 X166.815 Y101.959 E9.30899
G1 X166.989 Y102.445 E9.3253
G1 X167.122 Y102.848 E9.33871
G1 X167.355 Y103.661 E9.36543
G1 X167.403 Y103.858 E9.37184
G1 X167.515 Y104.373 E9.38849
G1 X167.601 Y104.822 E9.40293
G1 X167.737 Y105.756 E9.43276
G1 X167.757 Y105.955 E9.43908
G1 X167.791 Y106.386 E9.45274
G1 X167.833 Y107.172 E9.47761
G1 X167.846 Y107.788 E9.49708
G1 X167.849 Y126.167 E10.0778
G1 X167.839 Y126.851 E10.09941
G1 X167.84 Y129.131 E10.17146
G1 X167.85 Y130.727 E10.22189
G1 X167.848 Y131.892 E10.2587
G1 X167.839 Y132.534 E10.27898
G1 X167.786 Y133.453 E10.30807
G1 X167.654 Y134.364 E10.33715
G1 X167.443 Y135.26 E10.36624
G1 X167.155 Y136.134 E10.39532
G1 X166.792 Y136.981 E10.42443
G1 X166.357 Y137.792 E10.45351
G1 X165.785 Y138.657 E10.48628
G1 X165.716 Y138.751 E10.48996
G1 X165.14 Y139.469 E10.51905
G1 X164.503 Y140.134 E10.54815
G1 X163.811 Y140.742 E10.57725
G1 X163.069 Y141.287 E10.60634
G1 X162.282 Y141.765 E10.63544
G1 X161.457 Y142.174 E10.66453
G1 X160.6 Y142.509 E10.6936
G1 X159.717 Y142.769 E10.72269
G1 X158.814 Y142.951 E10.7518
G1 X157.899 Y143.054 E10.78089
G1 X157.386 Y143.077 E10.79711
G1 X156.101 Y143.1 E10.83772
G1 X152.768 Y143.088 E10.94304
G1 X150.616 Y143.1 E11.01104
G1 X143.546 Y143.077 E11.23443
G1 X136.17 Y143.03 E11.46749
G1 X132.761 Y142.991 E11.57522
G1 X130.976 Y142.986 E11.63162
G1 X124.704 Y142.934 E11.8298
G1 X123.453 Y142.917 E11.86933
G1 X114.216 Y142.83 E12.16121
G1 X113.441 Y142.816 E12.1857
G1 X105.992 Y142.752 E12.42107
G1 X104.746 Y142.735 E12.46045
G1 X100.187 Y142.684 E12.60451
G1 X99.555 Y142.686 E12.62448
G1 X97.707 Y142.66 E12.68288
G1 X96.882 Y142.657 E12.70894
G1 X95.835 Y142.643 E12.74203
G1 X95.379 Y142.646 E12.75644
G1 X93.908 Y142.622 E12.80292
G1 X93.164 Y142.615 E12.82643
G1 X89.889 Y142.577 E12.92992
G1 X89.277 Y142.579 E12.94926
G1 X87.863 Y142.558 E12.99394
G1 X87.069 Y142.556 E13.01903
G1 X86.227 Y142.54 E13.04564
G1 X83.743 Y142.505 E13.12413
G1 X83.194 Y142.504 E13.14148
G1 X79.23 Y142.456 E13.26674
G1 X78.515 Y142.437 E13.28934
G1 X77.597 Y142.373 E13.31842
G1 X76.688 Y142.229 E13.3475
G1 X75.794 Y142.007 E13.3766
G1 X75.063 Y141.762 E13.40096
G1 X74.885 Y141.695 E13.40697
G1 X74.038 Y141.333 E13.43608
G1 X73.226 Y140.9 E13.46515
G1 X72.454 Y140.397 E13.49427
G1 X71.729 Y139.83 E13.52335
G1 X71.225 Y139.369 E13.54493
G1 X71.074 Y139.222 E13.55159
G1 X70.443 Y138.552 E13.58067
G1 X69.872 Y137.83 E13.60976
G1 X69.366 Y137.06 E13.63887
G1 X68.929 Y136.25 E13.66795
G1 X68.564 Y135.405 E13.69703
G1 X68.251 Y134.449 E13.72882
G1 X68.201 Y134.268 E13.73475
G1 X67.994 Y133.371 E13.76384
G1 X67.835 Y132.04 E13.80619
G1 X67.775 Y130.971 E13.84002
G1 X67.76 Y130.607 E13.85154
G1 X67.739 Y129.631 E13.88238
G1 X67.662 Y127.589 E13.94695
G1 X67.418 Y120.701 E14.16473
G1 X67.292 Y116.563 E14.29554
G1 X67.22 Y113.85 E14.38129
G1 X67.16 Y110.72 E14.48021
G1 X67.152 Y109.777 E14.51
G1 X67.152 Y108.076 E14.56375
G1 X67.158 Y107.579 E14.57945
G1 X67.168 Y107.215 E14.59096
G1 X67.2 Y106.526 E14.61275
G1 X67.332 Y105.283 E14.65225
G1 X67.444 Y104.608 E14.67387
G1 X67.645 Y103.666 E14.7043
G1 X67.722 Y103.371 E14.71394
G1 X67.979 Y102.529 E14.74175
G1 X68.124 Y102.117 E14.75556
G1 X68.444 Y101.314 E14.78287
G1 X68.54 Y101.099 E14.79031
G1 X68.748 Y100.661 E14.80563
G1 X68.941 Y100.277 E14.81921
G1 X69.442 Y99.388 E14.85145
G1 X69.641 Y99.072 E14.86325
G1 X69.893 Y98.691 E14.87768
G1 X70.068 Y98.438 E14.8874
G1 X70.807 Y97.49 E14.92538
G1 X71.1 Y97.155 E14.93945
G1 X71.736 Y96.489 E14.96855
G1 X72.427 Y95.88 E14.99765
G1 X73.168 Y95.334 E15.02673
G1 X73.954 Y94.854 E15.05583
G1 X74.778 Y94.445 E15.0849
G1 X75.635 Y94.108 E15.114
G1 X76.518 Y93.847 E15.14309
G1 X77.42 Y93.664 E15.17217
G1 X78.335 Y93.559 E15.20127
G1 X79.255 Y93.534 E15.23035
G1 X80.103 Y93.583 E15.25719
G1 X80.688 Y93.64 E15.27576
G1 X83.296 Y93.854 E15.35844
G1 X85.782 Y93.989 E15.43711
G1 X88.356 Y94.055 E15.51847
G1 X90.871 Y94.048 E15.59794
G1 X93.407 Y93.97 E15.6781
G1 X95.894 Y93.822 E15.75682
G1 X98.45 Y93.598 E15.8379
G1 X100.966 Y93.305 E15.91793
G1 X103.413 Y92.951 E15.99606
G1 X107.13 Y92.281 E16.11539
G1 X107.929 Y92.12 E16.14115
G1 X108.839 Y91.978 E16.17025
G1 X109.657 Y91.918 E16.19617
G1 X110.01 Y91.906 E16.20733
G1 X110.37 Y91.9 E16.2187
G1 X151.702 Y91.901 E17.52467
G1 X151.708 Y91.902 E17.52487
G0 F1350 X152.508 Y91.919
G0 F7500 X152.527 Y91.519
G1 F1500 X153.292 Y91.555 E17.54907
G1 X154.193 Y91.635 E17.57765
G1 X154.516 Y91.677 E17.58794
G1 X155.406 Y91.83 E17.61647
G1 X155.844 Y91.924 E17.63063
G1 X156.692 Y92.141 E17.65828
G1 X156.889 Y92.2 E17.66478
G1 X157.428 Y92.377 E17.68271
G1 X157.829 Y92.52 E17.69616
G1 X158.646 Y92.849 E17.72399
G1 X158.875 Y92.952 E17.73192
G1 X159.336 Y93.172 E17.74806
G1 X159.703 Y93.358 E17.76106
G1 X160.462 Y93.781 E17.78852
G1 X160.634 Y93.886 E17.79489
G1 X161.145 Y94.218 E17.81414
G1 X161.528 Y94.482 E17.82884
G1 X162.257 Y95.03 E17.85766
G1 X162.412 Y95.157 E17.86399
G1 X162.811 Y95.501 E17.88063
G1 X163.14 Y95.798 E17.89464
G1 X164.005 Y96.672 E17.93349
G1 X164.36 Y97.073 E17.95041
G1 X165.106 Y98.014 E17.98836
G1 X165.48 Y98.543 E18.00883
G1 X165.982 Y99.321 E18.03808
G1 X166.123 Y99.561 E18.04688
G1 X166.556 Y100.374 E18.07598
G1 X166.758 Y100.795 E18.09074
G1 X167.107 Y101.602 E18.11852
G1 X167.189 Y101.815 E18.12573
G1 X167.369 Y102.32 E18.14267
G1 X167.502 Y102.723 E18.15608
G1 X167.743 Y103.566 E18.18378
G1 X167.791 Y103.763 E18.19019
G1 X167.908 Y104.298 E18.20749
G1 X167.994 Y104.747 E18.22194
G1 X168.135 Y105.716 E18.25288
G1 X168.155 Y105.915 E18.2592
G1 X168.191 Y106.362 E18.27337
G1 X168.218 Y106.816 E18.28774
G1 X168.242 Y107.482 E18.3088
G1 X168.246 Y107.788 E18.31847
G1 X168.249 Y126.173 E18.89938
G1 X168.239 Y126.857 E18.92099
G1 X168.24 Y129.128 E18.99275
G1 X168.25 Y130.728 E19.04331
G1 X168.248 Y131.897 E19.08024
G1 X168.239 Y132.539 E19.10053
G1 X168.186 Y133.476 E19.13018
G1 X168.053 Y134.404 E19.15981
G1 X167.842 Y135.318 E19.18945
G1 X167.553 Y136.21 E19.21907
G1 X167.19 Y137.075 E19.24871
G1 X166.754 Y137.905 E19.27834
G1 X166.107 Y138.894 E19.31568
G1 X166.038 Y138.988 E19.31936
G1 X165.452 Y139.72 E19.34899
G1 X164.805 Y140.399 E19.37863
G1 X164.102 Y141.02 E19.40827
G1 X163.35 Y141.58 E19.43789
G1 X162.552 Y142.073 E19.46753
G1 X161.715 Y142.496 E19.49716
G1 X160.845 Y142.847 E19.5268
G1 X159.949 Y143.122 E19.55642
G1 X159.032 Y143.32 E19.58606
G1 X158.102 Y143.44 E19.61569
G1 X157.395 Y143.477 E19.63806
G1 X156.099 Y143.5 E19.67902
G1 X152.768 Y143.488 E19.78427
G1 X150.614 Y143.5 E19.85233
G1 X143.544 Y143.477 E20.07572
G1 X136.165 Y143.43 E20.30888
G1 X132.755 Y143.391 E20.41663
G1 X130.972 Y143.386 E20.47297
G1 X124.699 Y143.334 E20.67119
G1 X123.45 Y143.317 E20.71066
G1 X114.209 Y143.23 E21.00266
G1 X113.437 Y143.216 E21.02705
G1 X105.985 Y143.152 E21.26252
G1 X104.742 Y143.135 E21.3018
G1 X100.186 Y143.084 E21.44577
G1 X99.549 Y143.086 E21.4659
G1 X97.699 Y143.06 E21.52436
G1 X96.876 Y143.057 E21.55036
G1 X95.845 Y143.043 E21.58294
G1 X95.372 Y143.045 E21.59789
G1 X93.952 Y143.021 E21.64276
G1 X93.161 Y143.015 E21.66776
G1 X89.888 Y142.977 E21.77118
G1 X89.271 Y142.979 E21.79068
G1 X87.857 Y142.958 E21.83536
G1 X87.062 Y142.956 E21.86048
G1 X86.217 Y142.94 E21.88718
G1 X83.737 Y142.905 E21.96555
G1 X83.189 Y142.904 E21.98287
G1 X79.22 Y142.856 E22.10828
G1 X78.505 Y142.837 E22.13088
G1 X77.569 Y142.772 E22.16053
G1 X76.642 Y142.628 E22.19017
G1 X75.731 Y142.405 E22.21981
G1 X74.922 Y142.136 E22.24675
G1 X74.744 Y142.069 E22.25276
G1 X73.881 Y141.701 E22.2824
G1 X73.053 Y141.262 E22.31201
G1 X72.265 Y140.753 E22.34165
G1 X71.523 Y140.179 E22.37129
G1 X70.946 Y139.656 E22.3959
G1 X70.795 Y139.509 E22.40256
G1 X70.151 Y138.827 E22.4322
G1 X69.568 Y138.092 E22.46184
G1 X69.05 Y137.31 E22.49148
G1 X68.6 Y136.487 E22.52112
G1 X68.222 Y135.629 E22.55074
G1 X67.865 Y134.556 E22.58647
G1 X67.815 Y134.375 E22.59241
G1 X67.604 Y133.461 E22.62204
G1 X67.472 Y132.533 E22.65166
G1 X67.435 Y132.062 E22.66659
G1 X67.375 Y130.993 E22.70042
G1 X67.361 Y130.615 E22.71237
G1 X67.34 Y129.656 E22.74268
G1 X67.263 Y127.604 E22.80756
G1 X67.018 Y120.713 E23.02544
G1 X66.892 Y116.575 E23.15625
G1 X66.82 Y113.858 E23.24213
G1 X66.76 Y110.724 E23.34117
G1 X66.752 Y109.777 E23.37109
G1 X66.752 Y108.071 E23.425
G1 X66.758 Y107.574 E23.4407
G1 X66.769 Y107.197 E23.45262
G1 X66.801 Y106.508 E23.47441
G1 X66.937 Y105.217 E23.51543
G1 X67.049 Y104.542 E23.53705
G1 X67.258 Y103.565 E23.56862
G1 X67.335 Y103.27 E23.57825
G1 X67.602 Y102.396 E23.60713
G1 X67.747 Y101.984 E23.62093
G1 X68.079 Y101.151 E23.64926
G1 X68.175 Y100.936 E23.6567
G1 X68.391 Y100.481 E23.67262
G1 X68.584 Y100.097 E23.6862
G1 X69.104 Y99.175 E23.71964
G1 X69.303 Y98.859 E23.73144
G1 X69.564 Y98.463 E23.74643
G1 X69.739 Y98.21 E23.75615
G1 X70.506 Y97.226 E23.79557
G1 X70.799 Y96.891 E23.80963
G1 X71.446 Y96.212 E23.83927
G1 X72.149 Y95.591 E23.86891
G1 X72.901 Y95.031 E23.89853
G1 X73.699 Y94.538 E23.92817
G1 X74.536 Y94.115 E23.9578
G1 X75.406 Y93.764 E23.98745
G1 X76.302 Y93.489 E24.01706
G1 X77.219 Y93.291 E24.0467
G1 X78.15 Y93.172 E24.07636
G1 X79.087 Y93.133 E24.10599
