;FLAVOR:Marlin
;TIME:7719
;Filament used: 2.92575m
;Layer height: 0.12
;MINX:72.411
;MINY:87.743
;MINZ:0.12
;MAXX:152.03
;MAXY:138.413
;MAXZ:36.12
;Generated with Cura_SteamEngine 4.7.0
M140 S60
M105
M190 S60
M104 S200
M105
M109 S200
M82 ;absolute extrusion mode
; Ender 3 Custom Start G-code
G92 E0 ; Reset Extruder
G28 ; Home all axes
G1 Z2.0 F3000 ; Move Z Axis up little to prevent scratching of Heat Bed
G1 X0.1 Y20 Z0.3 F5000.0 ; Move to start position
G1 X0.1 Y200.0 Z0.3 F1500.0 E15 ; Draw the first line
G1 X0.4 Y200.0 Z0.3 F5000.0 ; Move to side a little
G1 X0.4 Y20 Z0.3 F1500.0 E30 ; Draw the second line
G92 E0 ; Reset Extruder
G1 Z2.0 F3000 ; Move Z Axis up little to prevent scratching of Heat Bed
G1 X5 Y20 Z0.3 F5000.0 ; Move over to prevent blob squish
G92 E0
G92 E0
G1 F1500 E-6.5
;LAYER_COUNT:303
;LAYER:0
M107
M204 S500
M205 X8 Y8
G0 F6000 X76.392 Y97.736 Z0.12
;TYPE:SKIRT
G1 F1500 E0
G1 F1200 X77.139 Y97.168 E0.01873
G1 X77.931 Y96.666 E0.03744
G1 X78.762 Y96.233 E0.05614
G1 X79.525 Y95.91 E0.07267
G1 X79.818 Y95.799 E0.07893
G1 X80.156 Y95.678 E0.08609
G1 X88.383 Y92.865 E0.2596
G1 X89.123 Y92.622 E0.27515
G1 X89.74 Y92.439 E0.28799
G1 X90.655 Y92.237 E0.30669
G1 X91.585 Y92.113 E0.32541
G1 X92.224 Y92.074 E0.33819
G1 X92.444 Y92.067 E0.34258
G1 X92.675 Y92.062 E0.34719
G1 X93.072 Y92.058 E0.35511
G1 X103.179 Y92.059 E0.55681
G1 X103.896 Y92.07 E0.57112
G1 X105.122 Y92.158 E0.59565
G1 X106.145 Y92.29 E0.61623
G1 X107.053 Y92.419 E0.63454
G1 X109.56 Y92.704 E0.68489
G1 X112.069 Y92.916 E0.73514
G1 X114.591 Y93.059 E0.78555
G1 X117.114 Y93.129 E0.83591
G1 X119.638 Y93.129 E0.88628
G1 X122.134 Y93.057 E0.93611
G1 X124.636 Y92.916 E0.98612
G1 X127.167 Y92.699 E1.03682
G1 X129.667 Y92.415 E1.08703
G1 X131.012 Y92.233 E1.11411
G1 X131.411 Y92.176 E1.12216
G1 X132.647 Y92.071 E1.14691
G1 X132.966 Y92.062 E1.15328
G1 X133.276 Y92.058 E1.15947
G1 X140.465 Y92.059 E1.30293
G1 X141.163 Y92.068 E1.31686
G1 X142.099 Y92.12 E1.33557
G1 X143.028 Y92.252 E1.3543
G1 X143.942 Y92.462 E1.37301
G1 X144.835 Y92.749 E1.39173
G1 X145.7 Y93.112 E1.41045
G1 X146.531 Y93.546 E1.42916
G1 X147.322 Y94.05 E1.44788
G1 X148.067 Y94.62 E1.4666
G1 X148.761 Y95.251 E1.48531
G1 X149.398 Y95.938 E1.50401
G1 X149.975 Y96.678 E1.52274
G1 X150.487 Y97.464 E1.54146
G1 X150.93 Y98.291 E1.56018
G1 X151.301 Y99.152 E1.57889
G1 X151.597 Y100.042 E1.59761
G1 X151.816 Y100.954 E1.61632
G1 X151.957 Y101.881 E1.63503
G1 X152.017 Y102.759 E1.6526
G1 X152.026 Y103.08 E1.65901
G1 X152.03 Y103.388 E1.66515
G1 X152.029 Y126.811 E2.13258
G1 X152.02 Y127.538 E2.14709
G1 X151.969 Y128.475 E2.16582
G1 X151.837 Y129.403 E2.18453
G1 X151.628 Y130.317 E2.20324
G1 X151.341 Y131.21 E2.22195
G1 X150.979 Y132.076 E2.24069
G1 X150.545 Y132.907 E2.25939
G1 X150.041 Y133.698 E2.27811
G1 X149.472 Y134.443 E2.29682
G1 X148.841 Y135.138 E2.31555
G1 X148.154 Y135.776 E2.33426
G1 X147.415 Y136.353 E2.35297
G1 X146.629 Y136.865 E2.37169
G1 X145.803 Y137.308 E2.3904
G1 X144.941 Y137.68 E2.40913
G1 X144.052 Y137.976 E2.42783
G1 X143.14 Y138.196 E2.44655
G1 X142.213 Y138.337 E2.46527
G1 X141.326 Y138.398 E2.48301
G1 X141.002 Y138.407 E2.48948
G1 X140.7 Y138.411 E2.4955
G1 X133.467 Y138.413 E2.63985
G1 X133.19 Y138.41 E2.64537
G1 X132.669 Y138.397 E2.65577
G1 X131.733 Y138.333 E2.6745
G1 X130.806 Y138.19 E2.69322
G1 X129.917 Y137.976 E2.71146
G1 X129.587 Y137.881 E2.71832
G1 X127.124 Y137.217 E2.76922
G1 X124.737 Y136.641 E2.81822
G1 X122.195 Y136.107 E2.87006
G1 X119.71 Y135.658 E2.92045
G1 X117.24 Y135.282 E2.97031
G1 X114.727 Y134.974 E3.02084
G1 X112.23 Y134.738 E3.07089
G1 X109.719 Y134.572 E3.12111
G1 X107.223 Y134.478 E3.17096
G1 X104.671 Y134.454 E3.22189
G1 X102.165 Y134.502 E3.27191
G1 X99.953 Y134.602 E3.31609
G1 X98.763 Y134.671 E3.33988
G1 X98.413 Y134.685 E3.34687
G1 X98.182 Y134.691 E3.35148
G1 X97.748 Y134.694 E3.36014
G1 X97.302 Y134.688 E3.36904
G1 X96.366 Y134.635 E3.38775
G1 X95.437 Y134.503 E3.40648
G1 X94.523 Y134.292 E3.4252
G1 X93.631 Y134.005 E3.4439
G1 X92.766 Y133.642 E3.46262
G1 X91.935 Y133.207 E3.48134
G1 X91.144 Y132.702 E3.50006
G1 X90.423 Y132.152 E3.51816
G1 X90.013 Y131.811 E3.5288
G1 X87.956 Y130.151 E3.58155
G1 X85.958 Y128.631 E3.63165
G1 X83.928 Y127.175 E3.68151
G1 X81.85 Y125.771 E3.73155
G1 X78.84 Y123.881 E3.80248
G1 X77.768 Y123.237 E3.82744
G1 X76.985 Y122.721 E3.84615
G1 X76.249 Y122.139 E3.86487
G1 X75.566 Y121.497 E3.88358
G1 X74.939 Y120.799 E3.9023
G1 X74.375 Y120.05 E3.92102
G1 X73.876 Y119.256 E3.93973
G1 X73.446 Y118.422 E3.95845
G1 X73.089 Y117.555 E3.97717
G1 X72.808 Y116.661 E3.99587
G1 X72.603 Y115.745 E4.0146
G1 X72.477 Y114.816 E4.03331
G1 X72.439 Y114.23 E4.04503
G1 X72.434 Y114.1 E4.04762
G1 X72.427 Y113.824 E4.05313
G1 X72.42 Y113.244 E4.06471
G1 X72.411 Y106.658 E4.19614
G1 X72.414 Y106.372 E4.20185
G1 X72.425 Y105.926 E4.21075
G1 X72.488 Y104.99 E4.22947
G1 X72.631 Y104.063 E4.24819
G1 X72.852 Y103.152 E4.2669
G1 X73.15 Y102.262 E4.28563
G1 X73.522 Y101.402 E4.30433
G1 X73.967 Y100.576 E4.32305
G1 X74.48 Y99.791 E4.34176
G1 X75.058 Y99.052 E4.36049
G1 X75.697 Y98.366 E4.3792
G1 X76.392 Y97.736 E4.39791
G0 F6000 X76.779 Y97.937
G1 F1200 X77.521 Y97.392 E4.41629
G1 X78.307 Y96.913 E4.43466
G1 X79.132 Y96.504 E4.45303
G1 X79.667 Y96.284 E4.46458
G1 X79.96 Y96.173 E4.47083
G1 X80.286 Y96.056 E4.47774
G1 X88.513 Y93.243 E4.65125
G1 X89.247 Y93.002 E4.66667
G1 X89.843 Y92.826 E4.67907
G1 X90.742 Y92.628 E4.69744
G1 X91.655 Y92.508 E4.71582
G1 X92.237 Y92.473 E4.72745
G1 X92.457 Y92.466 E4.73184
G1 X93.072 Y92.458 E4.74412
G1 X103.173 Y92.459 E4.9457
G1 X103.89 Y92.47 E4.96001
G1 X105.072 Y92.555 E4.98365
G1 X106.089 Y92.686 E5.00412
G1 X107.023 Y92.819 E5.02294
G1 X109.517 Y93.102 E5.07303
G1 X112.049 Y93.317 E5.12374
G1 X114.556 Y93.458 E5.17385
G1 X117.103 Y93.529 E5.2247
G1 X119.615 Y93.529 E5.27483
G1 X122.166 Y93.456 E5.32576
G1 X124.694 Y93.313 E5.37629
G1 X127.179 Y93.1 E5.42606
G1 X129.764 Y92.806 E5.47798
G1 X131.01 Y92.637 E5.50307
G1 X131.468 Y92.572 E5.51231
G1 X132.658 Y92.471 E5.53614
G1 X132.977 Y92.462 E5.54251
G1 X133.276 Y92.458 E5.54848
G1 X140.46 Y92.459 E5.69184
G1 X141.158 Y92.468 E5.70577
G1 X142.077 Y92.52 E5.72414
G1 X142.988 Y92.651 E5.74251
G1 X143.884 Y92.861 E5.76087
G1 X144.759 Y93.148 E5.77925
G1 X145.606 Y93.51 E5.79763
G1 X146.418 Y93.944 E5.816
G1 X147.189 Y94.446 E5.83436
G1 X147.914 Y95.014 E5.85274
G1 X148.587 Y95.643 E5.87113
G1 X149.202 Y96.327 E5.88948
G1 X149.756 Y97.062 E5.90785
G1 X150.244 Y97.843 E5.92623
G1 X150.663 Y98.663 E5.9446
G1 X151.009 Y99.516 E5.96297
G1 X151.279 Y100.396 E5.98134
G1 X151.472 Y101.297 E5.99973
G1 X151.586 Y102.21 E6.01809
G1 X151.617 Y102.77 E6.02929
G1 X151.626 Y103.091 E6.03569
G1 X151.63 Y103.388 E6.04162
G1 X151.629 Y126.806 E6.50895
G1 X151.62 Y127.533 E6.52346
G1 X151.569 Y128.452 E6.54183
G1 X151.438 Y129.364 E6.56022
G1 X151.228 Y130.26 E6.57858
G1 X150.942 Y131.135 E6.59695
G1 X150.581 Y131.982 E6.61533
G1 X150.147 Y132.794 E6.6337
G1 X149.645 Y133.566 E6.65208
G1 X149.077 Y134.291 E6.67046
G1 X148.449 Y134.964 E6.68883
G1 X147.765 Y135.58 E6.7072
G1 X147.03 Y136.134 E6.72556
G1 X146.25 Y136.623 E6.74394
G1 X145.43 Y137.042 E6.76231
G1 X144.577 Y137.388 E6.78068
G1 X143.697 Y137.659 E6.79906
G1 X142.797 Y137.852 E6.81743
G1 X141.883 Y137.967 E6.83581
G1 X141.315 Y137.998 E6.84716
G1 X140.991 Y138.007 E6.85363
G1 X140.7 Y138.011 E6.85944
G1 X133.467 Y138.013 E7.00378
G1 X133.2 Y138.01 E7.00911
G1 X132.679 Y137.997 E7.01951
G1 X131.76 Y137.934 E7.03789
G1 X130.851 Y137.791 E7.05625
G1 X130.027 Y137.591 E7.07318
G1 X129.735 Y137.507 E7.07924
G1 X127.207 Y136.825 E7.13149
G1 X124.809 Y136.247 E7.18072
G1 X122.283 Y135.716 E7.23223
G1 X119.805 Y135.268 E7.28248
G1 X117.278 Y134.884 E7.33349
G1 X114.781 Y134.577 E7.38369
G1 X112.258 Y134.339 E7.43427
G1 X109.724 Y134.172 E7.48495
G1 X107.241 Y134.078 E7.53453
G1 X104.667 Y134.054 E7.5859
G1 X102.14 Y134.102 E7.63634
G1 X99.912 Y134.203 E7.68085
G1 X98.74 Y134.271 E7.70427
G1 X98.402 Y134.285 E7.71103
G1 X98.171 Y134.291 E7.71564
G1 X97.753 Y134.294 E7.72398
G1 X97.307 Y134.288 E7.73288
G1 X96.388 Y134.236 E7.75125
G1 X95.477 Y134.104 E7.76962
G1 X94.581 Y133.893 E7.78799
G1 X93.706 Y133.606 E7.80637
G1 X92.86 Y133.244 E7.82473
G1 X92.048 Y132.809 E7.84311
G1 X91.277 Y132.306 E7.86148
G1 X90.679 Y131.844 E7.87656
G1 X90.236 Y131.476 E7.88806
G1 X88.221 Y129.85 E7.93973
G1 X86.211 Y128.32 E7.99014
G1 X84.139 Y126.834 E8.04102
G1 X82.085 Y125.446 E8.09049
G1 X79.038 Y123.533 E8.16229
G1 X77.974 Y122.894 E8.18706
G1 X77.206 Y122.387 E8.20542
G1 X76.485 Y121.814 E8.2238
G1 X75.816 Y121.181 E8.24218
G1 X75.205 Y120.493 E8.26054
G1 X74.656 Y119.754 E8.27891
G1 X74.173 Y118.97 E8.29729
G1 X73.76 Y118.147 E8.31567
G1 X73.42 Y117.291 E8.33405
G1 X73.155 Y116.41 E8.35241
G1 X72.968 Y115.508 E8.37079
G1 X72.839 Y114.214 E8.39674
G1 X72.834 Y114.084 E8.39934
G1 X72.827 Y113.819 E8.40463
G1 X72.82 Y113.243 E8.41612
G1 X72.811 Y106.657 E8.54755
G1 X72.814 Y106.382 E8.55304
G1 X72.825 Y105.936 E8.56195
G1 X72.888 Y105.017 E8.58033
G1 X73.03 Y104.108 E8.59869
G1 X73.25 Y103.214 E8.61706
G1 X73.548 Y102.342 E8.63545
G1 X73.919 Y101.5 E8.65381
G1 X74.363 Y100.693 E8.67219
G1 X74.875 Y99.928 E8.69056
G1 X75.451 Y99.21 E8.70893
G1 X76.087 Y98.545 E8.7273
G1 X76.779 Y97.937 E8.74568
G0 F6000 X77.165 Y98.142
G1 F1200 X77.902 Y97.62 E8.7637
G1 X78.682 Y97.165 E8.78172
G1 X79.808 Y96.659 E8.80636
G1 X80.101 Y96.548 E8.81261
G1 X80.415 Y96.435 E8.81927
G1 X88.77 Y93.579 E8.99548
G1 X89.372 Y93.382 E9.00812
G1 X89.946 Y93.212 E9.02006
G1 X90.828 Y93.019 E9.03808
G1 X91.724 Y92.904 E9.05611
G1 X92.25 Y92.873 E9.06662
G1 X92.47 Y92.866 E9.07102
G1 X93.072 Y92.858 E9.08303
G1 X103.166 Y92.859 E9.28447
G1 X103.883 Y92.87 E9.29878
G1 X105.021 Y92.951 E9.32154
G1 X105.889 Y93.062 E9.33901
G1 X106.953 Y93.213 E9.36045
G1 X109.471 Y93.499 E9.41103
G1 X112.029 Y93.716 E9.46226
G1 X114.559 Y93.858 E9.51283
G1 X117.092 Y93.929 E9.56339
G1 X119.626 Y93.929 E9.61396
G1 X122.166 Y93.856 E9.66467
G1 X124.714 Y93.712 E9.7156
G1 X127.257 Y93.494 E9.76654
G1 X129.766 Y93.209 E9.81693
G1 X131.097 Y93.029 E9.84373
G1 X131.524 Y92.968 E9.85234
G1 X132.669 Y92.871 E9.87527
G1 X132.988 Y92.862 E9.88164
G1 X133.276 Y92.858 E9.88739
G1 X140.455 Y92.859 E10.03065
G1 X141.153 Y92.868 E10.04458
G1 X142.054 Y92.919 E10.06259
G1 X142.948 Y93.051 E10.08063
G1 X143.826 Y93.26 E10.09864
G1 X144.683 Y93.547 E10.11667
G1 X145.51 Y93.908 E10.13468
G1 X146.303 Y94.341 E10.15271
G1 X147.054 Y94.842 E10.17073
G1 X147.758 Y95.408 E10.18875
G1 X148.409 Y96.034 E10.20678
G1 X149.002 Y96.715 E10.2248
G1 X149.532 Y97.446 E10.24281
G1 X149.996 Y98.221 E10.26084
G1 X150.39 Y99.034 E10.27887
G1 X150.71 Y99.878 E10.29688
G1 X150.954 Y100.748 E10.31491
G1 X151.12 Y101.636 E10.33294
G1 X151.217 Y102.781 E10.35587
G1 X151.226 Y103.102 E10.36228
G1 X151.23 Y103.388 E10.36799
G1 X151.229 Y126.801 E10.83522
G1 X151.22 Y127.528 E10.84973
G1 X151.169 Y128.43 E10.86776
G1 X151.038 Y129.324 E10.88579
G1 X150.829 Y130.202 E10.9038
G1 X150.543 Y131.059 E10.92183
G1 X150.182 Y131.887 E10.93986
G1 X149.75 Y132.679 E10.95786
G1 X149.249 Y133.431 E10.97589
G1 X148.683 Y134.135 E10.99392
G1 X148.058 Y134.786 E11.01193
G1 X147.377 Y135.38 E11.02996
G1 X146.646 Y135.911 E11.04799
G1 X145.872 Y136.375 E11.066
G1 X145.059 Y136.769 E11.08403
G1 X144.215 Y137.089 E11.10205
G1 X143.345 Y137.334 E11.12008
G1 X142.458 Y137.5 E11.13809
G1 X141.304 Y137.598 E11.1612
G1 X140.98 Y137.607 E11.16767
G1 X140.7 Y137.611 E11.17326
G1 X133.467 Y137.613 E11.3176
G1 X133.21 Y137.61 E11.32273
G1 X132.689 Y137.597 E11.33313
G1 X131.788 Y137.534 E11.35116
G1 X130.896 Y137.392 E11.36918
G1 X130.137 Y137.207 E11.38477
G1 X129.821 Y137.117 E11.39133
G1 X127.299 Y136.436 E11.44346
G1 X124.912 Y135.86 E11.49246
G1 X122.331 Y135.318 E11.54509
G1 X119.864 Y134.872 E11.59512
G1 X117.35 Y134.49 E11.64587
G1 X114.831 Y134.18 E11.69652
G1 X112.286 Y133.94 E11.74753
G1 X109.768 Y133.774 E11.79789
G1 X107.225 Y133.678 E11.84867
G1 X104.663 Y133.654 E11.8998
G1 X102.152 Y133.702 E11.94992
G1 X99.872 Y133.805 E11.99547
G1 X98.717 Y133.872 E12.01855
G1 X98.392 Y133.886 E12.02505
G1 X98.161 Y133.892 E12.02966
G1 X97.759 Y133.894 E12.03768
G1 X97.313 Y133.888 E12.04658
G1 X96.411 Y133.836 E12.06461
G1 X95.518 Y133.704 E12.08263
G1 X94.639 Y133.494 E12.10066
G1 X93.783 Y133.207 E12.11868
G1 X92.956 Y132.845 E12.13669
G1 X92.163 Y132.412 E12.15472
G1 X91.412 Y131.91 E12.17275
G1 X90.934 Y131.537 E12.18485
G1 X90.458 Y131.141 E12.19721
G1 X88.469 Y129.537 E12.2482
G1 X86.44 Y127.993 E12.29908
G1 X84.374 Y126.51 E12.34983
G1 X82.287 Y125.1 E12.40009
G1 X79.258 Y123.198 E12.47147
G1 X78.18 Y122.551 E12.49656
G1 X77.427 Y122.053 E12.51458
G1 X76.721 Y121.489 E12.53261
G1 X76.068 Y120.866 E12.55062
G1 X75.472 Y120.187 E12.56865
G1 X74.939 Y119.458 E12.58667
G1 X74.473 Y118.685 E12.60468
G1 X74.076 Y117.873 E12.62272
G1 X73.753 Y117.03 E12.64074
G1 X73.506 Y116.161 E12.65876
G1 X73.337 Y115.274 E12.67678
G1 X73.239 Y114.199 E12.69833
G1 X73.227 Y113.814 E12.70601
G1 X73.22 Y113.243 E12.71741
G1 X73.211 Y106.657 E12.84884
G1 X73.214 Y106.392 E12.85413
G1 X73.225 Y105.946 E12.86303
G1 X73.287 Y105.045 E12.88105
G1 X73.429 Y104.153 E12.89908
G1 X73.649 Y103.277 E12.9171
G1 X73.946 Y102.424 E12.93513
G1 X74.316 Y101.6 E12.95315
G1 X74.759 Y100.813 E12.97118
G1 X75.269 Y100.068 E12.98919
G1 X75.843 Y99.371 E13.00721
G1 X76.477 Y98.727 E13.02525
G1 X77.165 Y98.142 E13.04327
G1 F1500 E6.54327
;MESH:seal.stl
G0 F6000 X83.478 Y105.465
G0 X83.827 Y106.486
G0 X85.398 Y112.394
G0 X92.914 Y114.971
G0 X133.374 Y116.514
G0 X134.746 Y125.613
;TYPE:WALL-INNER
G1 F1500 E13.04327
G1 F1200 X134.746 Y125.414 E13.04724
G1 X134.746 Y115.142 E13.25223
G1 X92.884 Y115.142 E14.08763
G1 X85.22 Y112.522 E14.24926
G1 X85.212 Y107.475 E14.34998
G1 X92.873 Y104.858 E14.51154
G1 X101.917 Y104.858 E14.69202
G1 X101.917 Y111.8 E14.83056
G1 X134.746 Y111.8 E15.4857
G1 X134.746 Y104.858 E15.62423
G1 X139.23 Y104.858 E15.71371
G1 X139.23 Y125.611 E16.12786
G1 X134.945 Y125.613 E16.21338
G1 X134.746 Y125.613 E16.21594
G0 F6000 X134.346 Y126.013
G1 F1200 X134.346 Y125.814 E16.21992
G1 X134.346 Y115.542 E16.4249
G1 X92.819 Y115.542 E17.25362
G1 X84.821 Y112.808 E17.4223
G1 X84.811 Y107.189 E17.53443
G1 X92.805 Y104.458 E17.70301
G1 X102.317 Y104.458 E17.89283
G1 X102.317 Y111.4 E18.03137
G1 X134.346 Y111.4 E18.67054
G1 X134.346 Y104.458 E18.80908
G1 X139.63 Y104.458 E18.91453
G1 X139.63 Y126.011 E19.34464
G1 X134.545 Y126.013 E19.44612
G1 X134.346 Y126.013 E19.44869
G0 F6000 X133.946 Y126.413
G1 F1200 X133.946 Y126.214 E19.45266
G1 X133.946 Y115.942 E19.65765
G1 X92.751 Y115.942 E20.47974
G1 X84.421 Y113.095 E20.65541
G1 X84.411 Y106.903 E20.77898
G1 X92.737 Y104.058 E20.95457
G1 X102.717 Y104.058 E21.15373
G1 X102.717 Y111 E21.29226
G1 X133.946 Y111 E21.91547
G1 X133.946 Y104.058 E22.05401
G1 X140.03 Y104.058 E22.17542
G1 X140.03 Y126.411 E22.6215
G1 X134.145 Y126.413 E22.73894
G1 X133.946 Y126.413 E22.74151
G0 F6000 X133.546 Y126.813
G1 F1200 X133.546 Y126.614 E22.74548
G1 X133.546 Y116.342 E22.95047
G1 X92.683 Y116.342 E23.76593
G1 X84.021 Y113.382 E23.94861
G1 X84.011 Y106.617 E24.08361
G1 X92.669 Y103.658 E24.2662
G1 X103.117 Y103.658 E24.4747
G1 X103.117 Y110.6 E24.61324
G1 X133.546 Y110.6 E25.22048
G1 X133.546 Y103.658 E25.35902
G1 X140.43 Y103.658 E25.4964
G1 X140.43 Y126.811 E25.95844
G1 X133.745 Y126.813 E26.09184
G1 X133.546 Y126.813 E26.09441
G0 F6000 X133.146 Y127.213
;TYPE:WALL-OUTER
G1 F1200 X133.146 Y116.742 E26.30337
G1 X97.92 Y116.742 E27.00635
G1 X97.921 Y123.499 E27.14119
G1 X97.646 Y123.499 E27.14668
G1 X97.646 Y116.742 E27.28152
G1 X92.615 Y116.742 E27.38192
G1 X83.621 Y113.669 E27.57159
G1 X83.611 Y106.332 E27.71801
G1 X92.604 Y103.258 E27.90767
G1 X103.517 Y103.258 E28.12545
G1 X103.517 Y110.2 E28.26399
G1 X133.146 Y110.2 E28.85527
G1 X133.146 Y103.258 E28.9938
G1 X140.83 Y103.258 E29.14714
G1 X140.83 Y127.211 E29.62515
G1 X133.146 Y127.213 E29.77849
G0 F6000 X133.416 Y126.943
G0 X134.856 Y125.223
G0 X135.136 Y125.223
;TYPE:SKIN
