;FLAVOR:Marlin
;TIME:9445
;Filament used: 4.84329m
;Layer height: 0.2
;MINX:64
;MINY:86.5
;MINZ:0.2
;MAXX:171
;MAXY:148.5
;MAXZ:40
;Generated with Cura_SteamEngine 4.6.2
M140 S60
M105
M190 S60
M104 S200
M105
M109 S200
M82 ;absolute extrusion mode
; Ender 3 Custom Start G-code
G92 E0 ; Reset Extruder
G28 ; Home all axes
G1 Z2.0 F3000 ; Move Z Axis up little to prevent scratching of Heat Bed
G1 X0.1 Y20 Z0.3 F5000.0 ; Move to start position
G1 X0.1 Y200.0 Z0.3 F1500.0 E15 ; Draw the first line
G1 X0.4 Y200.0 Z0.3 F5000.0 ; Move to side a little
G1 X0.4 Y20 Z0.3 F1500.0 E30 ; Draw the second line
G92 E0 ; Reset Extruder
G1 Z2.0 F3000 ; Move Z Axis up little to prevent scratching of Heat Bed
G1 X5 Y20 Z0.3 F5000.0 ; Move over to prevent blob squish
G92 E0
G92 E0
G1 F1500 E-6
;LAYER_COUNT:200
;LAYER:0
M107
M204 S500
M205 X8 Y8
G0 F7500 X78.824 Y87.311 Z0.2
;TYPE:SKIRT
G1 F1500 E0
G1 X79.725 Y87.364 E0.02852
G1 X80.681 Y87.509 E0.05907
G1 X83.379 Y88.049 E0.14601
G1 X85.897 Y88.48 E0.22673
G1 X88.434 Y88.841 E0.3077
G1 X90.964 Y89.128 E0.38815
G1 X93.451 Y89.339 E0.46702
G1 X95.97 Y89.481 E0.54674
G1 X99.916 Y89.564 E0.67145
G1 X135.074 Y89.564 E1.78234
G1 X137.679 Y89.527 E1.86466
G1 X140.245 Y89.418 E1.94581
G1 X142.752 Y89.24 E2.02522
G1 X145.293 Y88.989 E2.1059
G1 X147.801 Y88.668 E2.18579
G1 X150.306 Y88.274 E2.26592
G1 X152.837 Y87.804 E2.34726
G1 X154.296 Y87.51 E2.39428
G1 X155.188 Y87.372 E2.4228
G1 X155.995 Y87.315 E2.44836
G1 X156.634 Y87.3 E2.46856
G1 X159.425 Y87.301 E2.55675
G1 X160.123 Y87.31 E2.57881
G1 X161.024 Y87.361 E2.60732
G1 X161.918 Y87.493 E2.63587
G1 X162.796 Y87.702 E2.66439
G1 X163.653 Y87.989 E2.69295
G1 X164.48 Y88.35 E2.72146
G1 X165.273 Y88.783 E2.75001
G1 X166.024 Y89.284 E2.77853
G1 X166.728 Y89.85 E2.80708
G1 X167.379 Y90.476 E2.83561
G1 X167.972 Y91.157 E2.86414
G1 X168.502 Y91.888 E2.89267
G1 X168.966 Y92.663 E2.92122
G1 X169.36 Y93.476 E2.94976
G1 X169.68 Y94.32 E2.97828
G1 X169.924 Y95.19 E3.00683
G1 X170.09 Y96.078 E3.03538
G1 X170.187 Y97.223 E3.07168
G1 X170.2 Y97.83 E3.09087
G1 X170.199 Y134.647 E4.25418
G1 X170.189 Y135.367 E4.27693
G1 X170.137 Y136.268 E4.30545
G1 X170.004 Y137.162 E4.33401
G1 X169.794 Y138.04 E4.36253
G1 X169.506 Y138.896 E4.39107
G1 X169.144 Y139.723 E4.41959
G1 X168.711 Y140.515 E4.44811
G1 X168.209 Y141.266 E4.47666
G1 X167.642 Y141.969 E4.50519
G1 X167.015 Y142.62 E4.53375
G1 X166.334 Y143.212 E4.56226
G1 X165.243 Y143.968 E4.6042
G1 X164.319 Y144.523 E4.63826
G1 X161.665 Y146.164 E4.73686
G1 X160.876 Y146.604 E4.7654
G1 X160.052 Y146.973 E4.79393
G1 X159.198 Y147.268 E4.82248
G1 X158.322 Y147.486 E4.851
G1 X157.43 Y147.625 E4.87952
G1 X156.673 Y147.681 E4.90351
G1 X156.344 Y147.693 E4.91391
G1 X155.972 Y147.7 E4.92567
G1 X79.405 Y147.7 E7.34497
G1 X79.26 Y147.699 E7.34955
G1 X78.559 Y147.689 E7.3717
G1 X77.657 Y147.636 E7.40025
G1 X76.764 Y147.504 E7.42877
G1 X75.885 Y147.293 E7.45733
G1 X75.029 Y147.005 E7.48587
G1 X74.202 Y146.643 E7.5144
G1 X73.375 Y146.187 E7.54424
G1 X72.613 Y145.719 E7.57249
G1 X71.563 Y145.052 E7.6118
G1 X70.232 Y144.257 E7.66078
G1 X69.71 Y143.938 E7.68011
G1 X68.961 Y143.434 E7.70864
G1 X68.26 Y142.865 E7.73717
G1 X67.611 Y142.236 E7.76572
G1 X67.021 Y141.553 E7.79424
G1 X66.494 Y140.82 E7.82277
G1 X66.033 Y140.043 E7.85131
G1 X65.643 Y139.228 E7.87986
G1 X65.327 Y138.382 E7.9084
G1 X65.086 Y137.512 E7.93692
G1 X64.924 Y136.624 E7.96544
G1 X64.834 Y135.568 E7.99893
G1 X64.805 Y134.68 E8.027
G1 X64.8 Y134.347 E8.03753
G1 X64.801 Y98.021 E9.18532
G1 X64.811 Y97.356 E9.20634
G1 X64.865 Y96.454 E9.23489
G1 X64.998 Y95.561 E9.26342
G1 X65.209 Y94.683 E9.29195
G1 X65.498 Y93.827 E9.3205
G1 X65.861 Y93 E9.34903
G1 X66.295 Y92.209 E9.37754
G1 X66.798 Y91.458 E9.4061
G1 X67.366 Y90.756 E9.43463
G1 X67.993 Y90.106 E9.46317
G1 X68.675 Y89.514 E9.49171
G1 X69.407 Y88.985 E9.52024
G1 X70.183 Y88.523 E9.54878
G1 X70.997 Y88.132 E9.57731
G1 X71.842 Y87.813 E9.60585
G1 X72.712 Y87.571 E9.63438
G1 X73.6 Y87.407 E9.66292
G1 X74.723 Y87.313 E9.69852
G1 X75.33 Y87.3 E9.71771
G1 X78.024 Y87.301 E9.80283
G0 F1350 X78.125 Y87.301
G0 X78.824 Y87.311
G0 F7500 X78.83 Y86.911
G1 F1500 X79.749 Y86.964 E9.83192
G1 X80.76 Y87.116 E9.86422
G1 X83.495 Y87.664 E9.95236
G1 X85.949 Y88.084 E10.03102
G1 X88.499 Y88.446 E10.1124
G1 X90.971 Y88.727 E10.19101
G1 X93.507 Y88.942 E10.27143
G1 X95.973 Y89.081 E10.34947
G1 X99.925 Y89.164 E10.47437
G1 X135.068 Y89.164 E11.58479
G1 X137.692 Y89.127 E11.66771
G1 X140.201 Y89.02 E11.74706
G1 X142.721 Y88.842 E11.82688
G1 X145.236 Y88.593 E11.90674
G1 X147.725 Y88.274 E11.98603
G1 X150.277 Y87.873 E12.06765
G1 X152.75 Y87.413 E12.14713
G1 X154.217 Y87.118 E12.19441
G1 X155.127 Y86.976 E12.22351
G1 X155.983 Y86.915 E12.25063
G1 X156.634 Y86.9 E12.27121
G1 X159.43 Y86.901 E12.35955
G1 X160.128 Y86.91 E12.38161
G1 X161.047 Y86.962 E12.41069
G1 X161.958 Y87.093 E12.43977
G1 X162.854 Y87.303 E12.46885
G1 X163.729 Y87.59 E12.49795
G1 X164.576 Y87.952 E12.52705
G1 X165.388 Y88.386 E12.55614
G1 X166.159 Y88.888 E12.58521
G1 X166.884 Y89.456 E12.61432
G1 X167.557 Y90.085 E12.64342
G1 X168.172 Y90.769 E12.67249
G1 X168.726 Y91.504 E12.70157
G1 X169.214 Y92.285 E12.73067
G1 X169.633 Y93.105 E12.75976
G1 X169.979 Y93.958 E12.78885
G1 X170.249 Y94.838 E12.81793
G1 X170.442 Y95.739 E12.84705
G1 X170.556 Y96.652 E12.87612
G1 X170.587 Y97.212 E12.89384
G1 X170.6 Y97.83 E12.91337
G1 X170.599 Y134.652 E14.07684
G1 X170.589 Y135.372 E14.09959
G1 X170.536 Y136.291 E14.12868
G1 X170.404 Y137.202 E14.15777
G1 X170.193 Y138.099 E14.18688
G1 X169.905 Y138.973 E14.21596
G1 X169.543 Y139.819 E14.24503
G1 X169.108 Y140.631 E14.27414
G1 X168.604 Y141.402 E14.30325
G1 X168.036 Y142.126 E14.33232
G1 X167.407 Y142.798 E14.36141
G1 X166.722 Y143.413 E14.39049
G1 X165.986 Y143.966 E14.41958
G1 X165.449 Y144.311 E14.43975
G1 X164.495 Y144.884 E14.47491
G1 X161.875 Y146.504 E14.57224
G1 X161.072 Y146.954 E14.60133
G1 X160.233 Y147.332 E14.6304
G1 X159.364 Y147.636 E14.65949
G1 X158.471 Y147.863 E14.68861
G1 X157.563 Y148.013 E14.71769
G1 X156.687 Y148.081 E14.74545
G1 X156.358 Y148.093 E14.75585
G1 X155.972 Y148.1 E14.76805
G1 X79.405 Y148.1 E17.18735
G1 X79.254 Y148.099 E17.19212
G1 X78.553 Y148.089 E17.21427
G1 X77.634 Y148.036 E17.24336
G1 X76.723 Y147.903 E17.27245
G1 X75.827 Y147.692 E17.30153
G1 X74.952 Y147.404 E17.33064
G1 X74.106 Y147.041 E17.35973
G1 X73.166 Y146.528 E17.39356
G1 X72.399 Y146.057 E17.422
G1 X71.339 Y145.384 E17.46168
G1 X70.024 Y144.599 E17.51007
G1 X69.502 Y144.28 E17.5294
G1 X68.738 Y143.766 E17.55849
G1 X68.021 Y143.188 E17.58759
G1 X67.357 Y142.55 E17.61669
G1 X66.752 Y141.857 E17.64575
G1 X66.208 Y141.113 E17.67488
G1 X65.732 Y140.326 E17.70394
G1 X65.325 Y139.5 E17.73303
G1 X64.991 Y138.642 E17.76212
G1 X64.734 Y137.758 E17.79121
G1 X64.554 Y136.855 E17.82031
G1 X64.435 Y135.581 E17.86074
G1 X64.406 Y134.693 E17.88881
G1 X64.4 Y134.347 E17.89974
G1 X64.401 Y98.015 E19.04773
G1 X64.411 Y97.35 E19.06875
G1 X64.465 Y96.431 E19.09783
G1 X64.598 Y95.52 E19.12692
G1 X64.81 Y94.624 E19.15602
G1 X65.099 Y93.749 E19.18513
G1 X65.463 Y92.904 E19.2142
G1 X65.898 Y92.093 E19.24328
G1 X66.403 Y91.322 E19.2724
G1 X66.972 Y90.599 E19.30148
G1 X67.602 Y89.927 E19.33058
G1 X68.288 Y89.313 E19.35967
G1 X69.024 Y88.761 E19.38874
G1 X69.806 Y88.274 E19.41785
G1 X70.627 Y87.858 E19.44693
G1 X71.481 Y87.514 E19.47602
G1 X72.361 Y87.245 E19.5051
G1 X73.262 Y87.054 E19.5342
G1 X74.176 Y86.942 E19.56329
G1 X74.712 Y86.913 E19.58025
G1 X75.33 Y86.9 E19.59979
G1 X78.03 Y86.901 E19.6851
G0 F1350 X78.131 Y86.901
G0 X78.83 Y86.911
G0 F7500 X78.835 Y86.511
G1 F1500 X79.772 Y86.565 E19.71475
G1 X80.838 Y86.724 E19.74881
G1 X83.563 Y87.27 E19.83662
G1 X86.007 Y87.688 E19.91497
G1 X88.529 Y88.046 E19.99545
G1 X91.014 Y88.328 E20.07448
G1 X93.53 Y88.542 E20.15426
G1 X96.003 Y88.681 E20.23253
G1 X99.933 Y88.764 E20.35673
G1 X135.062 Y88.764 E21.46671
G1 X137.67 Y88.727 E21.54912
G1 X140.192 Y88.62 E21.62888
G1 X142.686 Y88.443 E21.70788
G1 X145.186 Y88.195 E21.78726
G1 X147.679 Y87.876 E21.86667
G1 X150.172 Y87.485 E21.94641
G1 X152.741 Y87.007 E22.02898
G1 X154.138 Y86.726 E22.074
G1 X155.065 Y86.58 E22.10365
G1 X155.971 Y86.515 E22.13235
G1 X156.297 Y86.505 E22.14266
G1 X156.634 Y86.5 E22.15331
G1 X159.435 Y86.501 E22.24181
G1 X160.133 Y86.51 E22.26387
G1 X161.069 Y86.562 E22.29349
G1 X161.998 Y86.694 E22.32314
G1 X162.912 Y86.904 E22.35277
G1 X163.805 Y87.191 E22.38241
G1 X164.67 Y87.554 E22.41205
G1 X165.501 Y87.988 E22.44167
G1 X166.292 Y88.492 E22.47131
G1 X167.037 Y89.062 E22.50095
G1 X167.731 Y89.693 E22.53058
G1 X168.368 Y90.38 E22.56019
G1 X168.945 Y91.12 E22.58983
G1 X169.457 Y91.906 E22.61947
G1 X169.9 Y92.733 E22.64912
G1 X170.271 Y93.594 E22.67874
G1 X170.567 Y94.484 E22.70838
G1 X170.786 Y95.396 E22.73801
G1 X170.927 Y96.323 E22.76764
G1 X170.987 Y97.201 E22.79545
G1 X171 Y97.83 E22.81533
G1 X170.999 Y134.658 E23.97899
G1 X170.989 Y135.378 E24.00174
G1 X170.936 Y136.314 E24.03136
G1 X170.803 Y137.243 E24.06101
G1 X170.592 Y138.156 E24.09062
G1 X170.304 Y139.049 E24.12027
G1 X169.941 Y139.914 E24.14991
G1 X169.505 Y140.744 E24.17953
G1 X169 Y141.535 E24.20919
G1 X168.43 Y142.279 E24.2388
G1 X167.799 Y142.973 E24.26844
G1 X167.11 Y143.61 E24.29809
G1 X166.37 Y144.186 E24.32772
G1 X165.655 Y144.654 E24.35472
G1 X164.706 Y145.224 E24.3897
G1 X162.086 Y146.844 E24.48703
G1 X161.268 Y147.303 E24.51667
G1 X160.413 Y147.69 E24.54632
G1 X159.529 Y148.004 E24.57596
G1 X158.622 Y148.24 E24.60557
G1 X157.698 Y148.399 E24.6352
G1 X156.702 Y148.481 E24.66678
G1 X156.373 Y148.493 E24.67718
G1 X155.972 Y148.5 E24.68985
G1 X79.405 Y148.5 E27.10915
G1 X79.248 Y148.499 E27.11411
G1 X78.547 Y148.489 E27.13626
G1 X77.611 Y148.436 E27.16588
G1 X76.682 Y148.303 E27.19554
G1 X75.769 Y148.091 E27.22515
G1 X74.876 Y147.803 E27.2548
G1 X74.012 Y147.439 E27.28442
G1 X72.957 Y146.869 E27.32231
G1 X72.185 Y146.394 E27.35095
G1 X71.168 Y145.748 E27.38902
G1 X69.815 Y144.94 E27.43882
G1 X69.293 Y144.621 E27.45815
G1 X68.514 Y144.098 E27.48779
G1 X67.783 Y143.511 E27.51742
G1 X67.104 Y142.864 E27.54705
G1 X66.483 Y142.161 E27.57669
G1 X65.924 Y141.408 E27.60632
G1 X65.432 Y140.61 E27.63594
G1 X65.009 Y139.773 E27.66557
G1 X64.659 Y138.903 E27.6952
G1 X64.384 Y138.006 E27.72485
G1 X64.186 Y137.089 E27.75449
G1 X64.068 Y136.159 E27.78411
G1 X64.035 Y135.594 E27.802
G1 X64.006 Y134.706 E27.83007
G1 X64 Y134.347 E27.84141
G1 X64.001 Y98.009 E28.98959
G1 X64.011 Y97.344 E29.0106
G1 X64.065 Y96.407 E29.04026
G1 X64.199 Y95.479 E29.06989
G1 X64.411 Y94.565 E29.09953
G1 X64.7 Y93.673 E29.12916
G1 X65.065 Y92.809 E29.1588
G1 X65.501 Y91.979 E29.18842
G1 X66.007 Y91.189 E29.21806
G1 X66.578 Y90.445 E29.2477
G1 X67.21 Y89.752 E29.27733
G1 X67.899 Y89.116 E29.30696
G1 X68.64 Y88.541 E29.3366
G1 X69.427 Y88.031 E29.36623
G1 X70.255 Y87.59 E29.39587
G1 X71.117 Y87.221 E29.4255
G1 X72.008 Y86.927 E29.45514
G1 X72.92 Y86.709 E29.48477
G1 X73.847 Y86.571 E29.51438
G1 X74.701 Y86.513 E29.54143
G1 X75.33 Y86.5 E29.56131
G1 X78.035 Y86.501 E29.64678
G0 F1350 X78.136 Y86.501
G0 X78.835 Y86.511
G1 F1500 E23.64678
;MESH:Single_Car-Stackable_v1.stl
G0 F7500 X79.307 Y96.508
G0 X79.349 Y99.111
G0 X78.835 Y100.184
G0 X77.514 Y100.946
G0 X77.514 Y98.682
G0 X76.182 Y98.682
G0 X76.182 Y134.052
G0 X79.36 Y134.052
G0 X79.698 Y133.974
;TYPE:WALL-INNER
G1 F1500 E29.64678
G1 X114.492 Y133.974 E30.74617
G1 X114.987 Y132.694 E30.78953
G1 X82.592 Y103.292 E32.17185
G1 X79.542 Y103.292 E32.26822
G1 X79.542 Y133.33 E33.21734
G0 F1350 X79.542 Y133.974
G0 X79.698 Y133.974
G0 F7500 X79.942 Y133.574
G1 F1500 X114.218 Y133.574 E34.30036
G1 X114.515 Y132.806 E34.32638
G1 X82.438 Y103.692 E35.69514
G1 X79.942 Y103.692 E35.77401
G1 X79.942 Y132.774 E36.69292
G0 F1350 X79.942 Y133.574
G0 F7500 X80.342 Y133.174
;TYPE:WALL-OUTER
G1 F1500 X113.781 Y133.174 E37.69667
G1 X113.944 Y133.174 E37.70156
G1 X114.043 Y132.918 E37.7098
G1 X113.923 Y132.809 E37.71395
G1 X82.284 Y104.092 E38.99653
G1 X80.342 Y104.092 E39.05482
G1 X80.342 Y132.374 E39.90377
G0 F1350 X80.342 Y133.174
G0 F7500 X80.742 Y133.174
G0 X80.742 Y133.614
G1 F1500 E33.90377
G0 F7500 X114.103 Y133.406
G0 X114.318 Y132.86
G0 X116.094 Y130.739
G0 X117.038 Y131.27
;TYPE:WALL-INNER
G1 F1500 E39.90377
G1 X148.248 Y104.599 E41.20095
G1 X147.763 Y103.292 E41.245
G1 X86.314 Y103.292 E43.18661
G1 X85.829 Y104.599 E43.23066
G1 X114.508 Y129.108 E44.42266
G1 X116.43 Y130.751 E44.50256
G0 F1350 X117.038 Y131.27
G0 F7500 X117.038 Y130.744
G1 F1500 X147.776 Y104.476 E45.78013
G1 X147.485 Y103.692 E45.80655
G1 X86.592 Y103.692 E47.73059
G1 X86.301 Y104.476 E47.75702
G1 X114.768 Y128.804 E48.94021
G1 X116.43 Y130.225 E49.0093
G0 F1350 X117.038 Y130.744
G0 F7500 X117.038 Y130.218
;TYPE:WALL-OUTER
G1 F1500 X147.179 Y104.46 E50.19942
G1 X147.304 Y104.353 E50.20436
G1 X147.207 Y104.092 E50.21272
G1 X147.042 Y104.092 E50.21697
G1 X87.035 Y104.092 E52.01821
G1 X86.87 Y104.092 E52.02317
G1 X86.773 Y104.353 E52.03152
G1 X86.898 Y104.46 E52.03575
G1 X115.028 Y128.5 E53.14648
G1 X116.89 Y130.092 E53.22002
G0 F1350 X117.038 Y130.218
G0 F7500 X117.342 Y129.959
G0 X117.626 Y130.293
G1 F1500 E47.22002
G0 F7500 X137.942 Y113.656
G0 X139.722 Y115.616
G0 X152.626 Y103.855
G0 X154.887 Y103.864
G0 X155.302 Y133.974
;TYPE:WALL-INNER
G1 F1500 E53.22002
G1 X155.459 Y133.974 E53.22498
G1 X155.459 Y103.292 E54.19444
G1 X152.409 Y103.292 E54.29081
G1 X120.013 Y132.694 E55.67316
G1 X120.508 Y133.974 E55.71652
G1 X154.502 Y133.974 E56.79063
G0 F1350 X155.302 Y133.974
G0 F7500 X155.059 Y133.574
G1 F1500 X155.059 Y103.692 E57.73482
G1 X152.563 Y103.692 E57.81368
G1 X120.485 Y132.806 E59.18247
G1 X120.782 Y133.574 E59.20849
G1 X154.259 Y133.574 E60.26627
G0 F1350 X155.059 Y133.574
G0 F7500 X154.659 Y133.174
;TYPE:WALL-OUTER
G1 F1500 X154.659 Y104.092 E61.13923
G1 X152.717 Y104.092 E61.19752
G1 X121.077 Y132.809 E62.48013
G1 X120.957 Y132.918 E62.48499
G1 X121.056 Y133.174 E62.49323
G1 X121.219 Y133.174 E62.49741
G1 X154.659 Y133.174 E63.50119
G0 F7500 X154.659 Y132.774
G0 X155.099 Y132.774
G0 X155.302 Y136.5
;TYPE:WALL-INNER
G1 F1500 X79.698 Y136.5 E65.89006
G1 X79.698 Y134.234 E65.96166
G1 X79.542 Y134.234 E65.96487
G1 X76 Y134.234 E66.07678
G1 X76 Y98.5 E67.20588
G1 X77.696 Y98.5 E67.25946
G1 X77.696 Y100.764 E67.331
G1 X157.304 Y100.764 E69.84638
G1 X157.304 Y98.5 E69.91792
G1 X159 Y98.5 E69.97151
G1 X159 Y134.234 E71.1006
G1 X155.459 Y134.234 E71.21249
G1 X155.302 Y134.234 E71.21572
G1 X155.302 Y136.5 E71.28732
G0 F7500 X155.702 Y136.9
G1 F1500 X79.298 Y136.9 E73.70147
G1 X79.298 Y134.634 E73.77306
G1 X75.6 Y134.634 E73.88991
G1 X75.6 Y98.1 E75.04428
G1 X78.096 Y98.1 E75.12315
G1 X78.096 Y100.364 E75.19468
G1 X156.904 Y100.364 E77.68479
G1 X156.904 Y98.1 E77.75632
G1 X159.4 Y98.1 E77.83519
G1 X159.4 Y134.634 E78.98956
G1 X155.702 Y134.634 E79.10641
G1 X155.702 Y136.1 E79.15273
G0 F1350 X155.702 Y136.9
G0 F7500 X156.102 Y137.3
;TYPE:WALL-OUTER
G1 F1500 X78.898 Y137.3 E81.47018
G1 X78.898 Y135.034 E81.5382
G1 X75.2 Y135.034 E81.6492
G1 X75.2 Y97.7 E82.76987
G1 X78.496 Y97.7 E82.86881
G1 X78.496 Y99.964 E82.93677
G1 X156.504 Y99.964 E85.27835
G1 X156.504 Y97.7 E85.34631
G1 X159.8 Y97.7 E85.44525
G1 X159.8 Y135.034 E86.56591
G1 X156.102 Y135.034 E86.67692
G1 X156.102 Y136.5 E86.72092
G0 F1350 X156.102 Y137.3
G0 F7500 X155.702 Y137.3
G0 X155.662 Y136.86
G0 X155.192 Y136.11
G0 X154.912 Y136.11
;TYPE:SKIN
G1 F1500 X80.088 Y136.11 E89.08515
G1 X80.088 Y134.364 E89.14032
G1 X114.759 Y134.364 E90.23582
G1 X115.447 Y132.585 E90.29609
G1 X82.742 Y102.902 E91.69163
G1 X79.152 Y102.902 E91.80506
G1 X79.152 Y133.844 E92.78274
G1 X76.39 Y133.844 E92.87001
G1 X76.39 Y98.89 E93.97446
G1 X77.306 Y98.89 E94.0034
G1 X77.306 Y101.154 E94.07494
G1 X157.694 Y101.154 E96.61497
G1 X157.694 Y98.89 E96.6865
G1 X158.61 Y98.89 E96.71545
G1 X158.61 Y133.844 E97.81989
G1 X155.849 Y133.844 E97.90713
G1 X155.849 Y102.902 E98.88481
G1 X152.259 Y102.902 E98.99824
G1 X119.553 Y132.585 E100.39381
G1 X120.241 Y134.364 E100.45408
G1 X154.912 Y134.364 E101.54958
G1 X154.912 Y135.31 E101.57947
G0 F1350 X154.912 Y136.11
