;FLAVOR:Marlin
;TIME:6216
;Filament used: 2.78645m
;Layer height: 0.2
;MINX:78.675
;MINY:80.5
;MINZ:0.2
;MAXX:155.756
;MAXY:154.5
;MAXZ:67.4
;Generated with Cura_SteamEngine 4.6.2
M140 S60
M105
M190 S60
M104 S220
M105
M109 S220
M82 ;absolute extrusion mode
; Ender 3 Custom Start G-code
G92 E0 ; Reset Extruder
G28 ; Home all axes
G1 Z2.0 F3000 ; Move Z Axis up little to prevent scratching of Heat Bed
G1 X0.1 Y20 Z0.3 F5000.0 ; Move to start position
G1 X0.1 Y200.0 Z0.3 F1500.0 E15 ; Draw the first line
G1 X0.4 Y200.0 Z0.3 F5000.0 ; Move to side a little
G1 X0.4 Y20 Z0.3 F1500.0 E30 ; Draw the second line
G92 E0 ; Reset Extruder
G1 Z2.0 F3000 ; Move Z Axis up little to prevent scratching of Heat Bed
G1 X5 Y20 Z0.3 F5000.0 ; Move over to prevent blob squish
G92 E0
G92 E0
G1 F1500 E-6.5
;LAYER_COUNT:337
;LAYER:0
M107
G0 F6000 X132.018 Y81.311 Z0.2
;TYPE:SKIRT
G1 F1500 E0
G1 F1200 X132.465 Y81.327 E0.01488
G1 X132.982 Y81.357 E0.0321
G1 X133.332 Y81.383 E0.04377
G1 X134.012 Y81.446 E0.06649
G1 X135.078 Y81.602 E0.10232
G1 X135.382 Y81.663 E0.11263
G1 X136.077 Y81.823 E0.13635
G1 X136.779 Y82.001 E0.16044
G1 X137.89 Y82.351 E0.19918
G1 X138.23 Y82.48 E0.21128
G1 X138.611 Y82.634 E0.22495
G1 X139.383 Y82.963 E0.25286
G1 X140.404 Y83.467 E0.29073
G1 X140.687 Y83.627 E0.30154
G1 X141.066 Y83.852 E0.3162
G1 X141.829 Y84.328 E0.34611
G1 X142.761 Y84.985 E0.38404
G1 X143.025 Y85.194 E0.39524
G1 X143.577 Y85.657 E0.4192
G1 X144.012 Y86.038 E0.43843
G1 X144.892 Y86.908 E0.47959
G1 X145.523 Y87.613 E0.51106
G1 X145.759 Y87.886 E0.52306
G1 X145.984 Y88.156 E0.53475
G1 X146.604 Y88.982 E0.5691
G1 X146.776 Y89.237 E0.57933
G1 X147.054 Y89.673 E0.59653
G1 X147.545 Y90.487 E0.62815
G1 X147.977 Y91.28 E0.65819
G1 X148.173 Y91.706 E0.67378
G1 X148.54 Y92.566 E0.70488
G1 X148.72 Y93.019 E0.72109
G1 X149.104 Y94.187 E0.76199
G1 X149.343 Y95.094 E0.79318
G1 X149.427 Y95.434 E0.80483
G1 X149.489 Y95.707 E0.81414
G1 X149.688 Y96.915 E0.85486
G1 X149.781 Y97.813 E0.88489
G1 X149.812 Y98.18 E0.89714
G1 X149.839 Y98.582 E0.91054
G1 X149.861 Y99.116 E0.92832
G1 X149.91 Y102.451 E1.03925
G1 X150.019 Y105.016 E1.12464
G1 X150.197 Y107.523 E1.20823
G1 X150.445 Y110.032 E1.29209
G1 X150.773 Y112.595 E1.37803
G1 X151.164 Y115.08 E1.4617
G1 X151.625 Y117.563 E1.5457
G1 X152.159 Y120.044 E1.6301
G1 X152.766 Y122.522 E1.71496
G1 X153.451 Y125.009 E1.80076
G1 X154.183 Y127.4 E1.88393
G1 X154.376 Y127.991 E1.9046
G1 X154.491 Y128.364 E1.91759
G1 X154.719 Y129.238 E1.94763
G1 X154.868 Y130.128 E1.97764
G1 X154.942 Y131.187 E2.01295
G1 X154.956 Y132.054 E2.04179
G1 X154.954 Y133.057 E2.07515
G1 X154.944 Y133.769 E2.09883
G1 X154.891 Y134.671 E2.12889
G1 X154.759 Y135.564 E2.15891
G1 X154.548 Y136.442 E2.18895
G1 X154.261 Y137.298 E2.21897
G1 X153.899 Y138.126 E2.24903
G1 X153.465 Y138.918 E2.27907
G1 X152.963 Y139.668 E2.30908
G1 X152.396 Y140.372 E2.33915
G1 X151.804 Y140.989 E2.36759
G1 X150.726 Y142.022 E2.41725
G1 X150.191 Y142.527 E2.44172
G1 X148.403 Y144.307 E2.52563
G1 X146.622 Y146.184 E2.61169
G1 X145.031 Y147.956 E2.6909
G1 X144.447 Y148.555 E2.71872
G1 X144.136 Y148.849 E2.73296
G1 X143.678 Y149.257 E2.75336
G1 X143.044 Y149.788 E2.78086
G1 X142.231 Y150.402 E2.81475
G1 X141.984 Y150.57 E2.82469
G1 X141.469 Y150.901 E2.84505
G1 X141.288 Y151.011 E2.85209
G1 X140.652 Y151.39 E2.87672
G1 X139.666 Y151.907 E2.91375
G1 X139.099 Y152.161 E2.93441
G1 X138.693 Y152.33 E2.94904
G1 X138.187 Y152.532 E2.96716
G1 X137.04 Y152.913 E3.00736
G1 X136.135 Y153.155 E3.03852
G1 X135.788 Y153.241 E3.05041
G1 X135.423 Y153.325 E3.06286
G1 X134.195 Y153.53 E3.10427
G1 X133.678 Y153.584 E3.12156
G1 X133.303 Y153.616 E3.13408
G1 X132.575 Y153.665 E3.15835
G1 X132.092 Y153.686 E3.17443
G1 X131.356 Y153.699 E3.19891
G1 X130.881 Y153.7 E3.21471
G1 X98.038 Y153.699 E4.30707
G1 X97.332 Y153.689 E4.33056
G1 X96.858 Y153.671 E4.34633
G1 X96.314 Y153.638 E4.36446
G1 X95.988 Y153.613 E4.37533
G1 X95.321 Y153.551 E4.39761
G1 X94.233 Y153.391 E4.43419
G1 X93.928 Y153.329 E4.44454
G1 X93.468 Y153.224 E4.46023
G1 X92.579 Y153 E4.49073
G1 X91.446 Y152.643 E4.53024
G1 X91.112 Y152.516 E4.54212
G1 X90.726 Y152.36 E4.55597
G1 X89.931 Y152.02 E4.58473
G1 X88.896 Y151.506 E4.62316
G1 X88.629 Y151.354 E4.63338
G1 X88.254 Y151.13 E4.64791
G1 X87.473 Y150.64 E4.67858
G1 X86.53 Y149.971 E4.71703
G1 X86.282 Y149.773 E4.72759
G1 X85.748 Y149.323 E4.75081
G1 X85.23 Y148.867 E4.77377
G1 X84.427 Y148.077 E4.81123
G1 X83.77 Y147.331 E4.84429
G1 X83.322 Y146.79 E4.86766
G1 X82.685 Y145.933 E4.90317
G1 X82.534 Y145.706 E4.91224
G1 X82.144 Y145.083 E4.93669
G1 X81.771 Y144.456 E4.96095
G1 X81.25 Y143.459 E4.99837
G1 X81.006 Y142.91 E5.01835
G1 X80.83 Y142.485 E5.03365
G1 X80.591 Y141.882 E5.05522
G1 X80.239 Y140.833 E5.09202
G1 X80.147 Y140.499 E5.10355
G1 X80.04 Y140.076 E5.11806
G1 X79.839 Y139.202 E5.14789
G1 X79.637 Y137.989 E5.18879
G1 X79.604 Y137.677 E5.19922
G1 X79.571 Y137.298 E5.21188
G1 X79.509 Y136.389 E5.24218
G1 X79.487 Y135.884 E5.25899
G1 X79.475 Y135.156 E5.28321
G1 X79.476 Y99.863 E6.45706
G1 X79.486 Y99.157 E6.48054
G1 X79.503 Y98.699 E6.49579
G1 X79.557 Y97.867 E6.52352
G1 X79.61 Y97.286 E6.54292
G1 X79.795 Y96.074 E6.5837
G1 X79.988 Y95.174 E6.61431
G1 X80.075 Y94.802 E6.62702
G1 X80.171 Y94.424 E6.63999
G1 X80.485 Y93.412 E6.67523
G1 X80.598 Y93.105 E6.68611
G1 X80.771 Y92.666 E6.70181
G1 X81.123 Y91.831 E6.73195
G1 X81.654 Y90.754 E6.77189
G1 X81.944 Y90.249 E6.79126
G1 X82.155 Y89.903 E6.80473
G1 X82.503 Y89.347 E6.82655
G1 X83.176 Y88.397 E6.86527
G1 X83.405 Y88.11 E6.87748
G1 X83.665 Y87.798 E6.89099
G1 X84.224 Y87.152 E6.91941
G1 X85.014 Y86.335 E6.95721
G1 X85.238 Y86.128 E6.96735
G1 X85.78 Y85.654 E6.9913
G1 X86.316 Y85.205 E7.01455
G1 X87.216 Y84.532 E7.05193
G1 X87.749 Y84.183 E7.07312
G1 X88.057 Y83.993 E7.08516
G1 X88.651 Y83.636 E7.10821
G1 X89.684 Y83.093 E7.14702
G1 X89.992 Y82.953 E7.15828
G1 X90.605 Y82.693 E7.18042
G1 X91.199 Y82.453 E7.20173
G1 X92.315 Y82.075 E7.24092
G1 X93.288 Y81.822 E7.27436
G1 X93.892 Y81.682 E7.29498
G1 X95.026 Y81.486 E7.33326
G1 X95.39 Y81.444 E7.34544
G1 X95.829 Y81.403 E7.36011
G1 X96.693 Y81.341 E7.38892
G1 X97.199 Y81.317 E7.40577
G1 X97.986 Y81.302 E7.43195
G1 X98.683 Y81.3 E7.45513
G1 X131.312 Y81.301 E8.54038
G1 X132.018 Y81.311 E8.56386
G0 F6000 X132.024 Y80.911
G1 F1200 X132.488 Y80.928 E8.5793
G1 X133.005 Y80.958 E8.59653
G1 X133.369 Y80.985 E8.60867
G1 X134.049 Y81.048 E8.63138
G1 X135.156 Y81.21 E8.66859
G1 X135.46 Y81.271 E8.6789
G1 X136.175 Y81.435 E8.7033
G1 X136.877 Y81.613 E8.72739
G1 X138.032 Y81.977 E8.76767
G1 X138.372 Y82.106 E8.77976
G1 X138.768 Y82.266 E8.79397
G1 X139.54 Y82.595 E8.82188
G1 X140.601 Y83.119 E8.86124
G1 X140.884 Y83.279 E8.87205
G1 X141.278 Y83.513 E8.88729
G1 X142.041 Y83.989 E8.9172
G1 X143.009 Y84.671 E8.95659
G1 X143.273 Y84.88 E8.96779
G1 X143.841 Y85.356 E8.99244
G1 X144.276 Y85.737 E9.01167
G1 X145.19 Y86.642 E9.05445
G1 X145.821 Y87.347 E9.08592
G1 X146.066 Y87.63 E9.09837
G1 X146.291 Y87.9 E9.11006
G1 X146.936 Y88.759 E9.14579
G1 X147.108 Y89.014 E9.15602
G1 X147.397 Y89.466 E9.17386
G1 X147.888 Y90.28 E9.20548
G1 X148.328 Y91.088 E9.23608
G1 X148.54 Y91.547 E9.25289
G1 X148.912 Y92.419 E9.28443
G1 X149.092 Y92.872 E9.30064
G1 X149.491 Y94.085 E9.34311
G1 X149.73 Y94.992 E9.37431
G1 X149.817 Y95.345 E9.3864
G1 X149.879 Y95.618 E9.39571
G1 X150.086 Y96.874 E9.43805
G1 X150.179 Y97.772 E9.46808
G1 X150.211 Y98.154 E9.48083
G1 X150.238 Y98.556 E9.49423
G1 X150.261 Y99.111 E9.5127
G1 X150.31 Y102.463 E9.6242
G1 X150.417 Y104.972 E9.70773
G1 X150.595 Y107.488 E9.79162
G1 X150.845 Y110.012 E9.87598
G1 X151.166 Y112.52 E9.96007
G1 X151.553 Y114.982 E10.04297
G1 X152.022 Y117.504 E10.12829
G1 X152.554 Y119.978 E10.21245
G1 X153.154 Y122.426 E10.29628
G1 X153.821 Y124.849 E10.37987
G1 X154.577 Y127.32 E10.46582
G1 X154.758 Y127.873 E10.48517
G1 X154.873 Y128.246 E10.49815
G1 X155.106 Y129.137 E10.52878
G1 X155.261 Y130.044 E10.55939
G1 X155.342 Y131.18 E10.59727
G1 X155.356 Y132.054 E10.62634
G1 X155.354 Y133.063 E10.6599
G1 X155.344 Y133.775 E10.68358
G1 X155.291 Y134.694 E10.7142
G1 X155.159 Y135.605 E10.74482
G1 X154.948 Y136.501 E10.77543
G1 X154.66 Y137.376 E10.80607
G1 X154.297 Y138.222 E10.83669
G1 X153.862 Y139.033 E10.8673
G1 X153.358 Y139.804 E10.89794
G1 X152.79 Y140.528 E10.92854
G1 X152.081 Y141.278 E10.96287
G1 X151 Y142.313 E11.01265
G1 X150.464 Y142.819 E11.03716
G1 X148.693 Y144.583 E11.1203
G1 X146.925 Y146.445 E11.2057
G1 X145.328 Y148.224 E11.28522
G1 X144.722 Y148.846 E11.3141
G1 X144.411 Y149.14 E11.32833
G1 X143.935 Y149.563 E11.34951
G1 X143.301 Y150.094 E11.37702
G1 X142.456 Y150.733 E11.41225
G1 X142.209 Y150.901 E11.42219
G1 X141.681 Y151.241 E11.44308
G1 X141.493 Y151.355 E11.45039
G1 X140.857 Y151.734 E11.47501
G1 X139.832 Y152.271 E11.5135
G1 X139.254 Y152.53 E11.53457
G1 X138.841 Y152.702 E11.54945
G1 X138.335 Y152.904 E11.56757
G1 X137.143 Y153.299 E11.60934
G1 X136.238 Y153.541 E11.64049
G1 X135.877 Y153.631 E11.65287
G1 X135.512 Y153.715 E11.66532
G1 X134.236 Y153.928 E11.70835
G1 X133.719 Y153.982 E11.72564
G1 X133.33 Y154.015 E11.73863
G1 X132.602 Y154.064 E11.76289
G1 X132.1 Y154.086 E11.77961
G1 X131.357 Y154.099 E11.80432
G1 X130.882 Y154.1 E11.82012
G1 X98.032 Y154.099 E12.91272
G1 X97.326 Y154.089 E12.9362
G1 X96.834 Y154.071 E12.95258
G1 X96.29 Y154.038 E12.9707
G1 X95.951 Y154.012 E12.98201
G1 X95.284 Y153.95 E13.00429
G1 X94.153 Y153.783 E13.04232
G1 X93.848 Y153.721 E13.05267
G1 X93.37 Y153.612 E13.06897
G1 X92.481 Y153.388 E13.09947
G1 X91.304 Y153.017 E13.14051
G1 X90.97 Y152.89 E13.1524
G1 X90.569 Y152.728 E13.16678
G1 X89.774 Y152.388 E13.19554
G1 X88.698 Y151.854 E13.23549
G1 X88.431 Y151.702 E13.24571
G1 X88.042 Y151.469 E13.26079
G1 X87.261 Y150.979 E13.29146
G1 X86.28 Y150.284 E13.33145
G1 X86.032 Y150.086 E13.342
G1 X85.484 Y149.623 E13.36586
G1 X84.966 Y149.167 E13.38881
G1 X84.131 Y148.347 E13.42774
G1 X83.609 Y147.76 E13.45387
G1 X83.462 Y147.586 E13.46144
G1 X83.014 Y147.045 E13.4848
G1 X82.352 Y146.155 E13.5217
G1 X82.201 Y145.928 E13.53077
G1 X81.8 Y145.287 E13.55591
G1 X81.427 Y144.66 E13.58018
G1 X80.886 Y143.625 E13.61902
G1 X80.637 Y143.065 E13.63941
G1 X80.458 Y142.633 E13.65496
G1 X80.219 Y142.03 E13.67653
G1 X79.854 Y140.939 E13.7148
G1 X79.762 Y140.605 E13.72632
G1 X79.651 Y140.166 E13.74138
G1 X79.45 Y139.292 E13.77121
G1 X79.239 Y138.031 E13.81373
G1 X79.206 Y137.719 E13.82417
G1 X79.172 Y137.325 E13.83732
G1 X79.11 Y136.416 E13.86762
G1 X79.087 Y135.892 E13.88507
G1 X79.075 Y135.156 E13.90955
G1 X79.076 Y99.857 E15.0836
G1 X79.086 Y99.151 E15.10708
G1 X79.104 Y98.675 E15.12293
G1 X79.134 Y98.168 E15.13982
G1 X79.159 Y97.831 E15.15106
G1 X79.212 Y97.25 E15.17046
G1 X79.404 Y95.99 E15.21286
G1 X79.597 Y95.09 E15.24347
G1 X79.687 Y94.704 E15.25665
G1 X79.783 Y94.326 E15.26962
G1 X80.109 Y93.274 E15.30626
G1 X80.222 Y92.967 E15.31714
G1 X80.402 Y92.51 E15.33347
G1 X80.754 Y91.675 E15.36361
G1 X81.306 Y90.556 E15.40511
G1 X81.816 Y89.691 E15.43851
G1 X82.164 Y89.135 E15.46033
G1 X82.863 Y88.148 E15.50055
G1 X83.092 Y87.861 E15.51276
G1 X83.362 Y87.536 E15.52682
G1 X83.921 Y86.89 E15.55523
G1 X84.743 Y86.041 E15.59454
G1 X84.967 Y85.834 E15.60468
G1 X85.523 Y85.347 E15.62926
G1 X86.059 Y84.898 E15.65252
G1 X86.994 Y84.199 E15.69135
G1 X87.257 Y84.024 E15.70185
G1 X87.851 Y83.651 E15.72518
G1 X88.445 Y83.294 E15.74823
G1 X89.519 Y82.729 E15.7886
G1 X90.126 Y82.458 E15.81071
G1 X90.455 Y82.322 E15.82255
G1 X91.049 Y82.082 E15.84385
G1 X92.209 Y81.69 E15.88458
G1 X93.198 Y81.433 E15.91857
G1 X93.802 Y81.293 E15.93919
G1 X94.98 Y81.089 E15.97895
G1 X95.344 Y81.047 E15.99114
G1 X95.8 Y81.004 E16.00637
G1 X96.664 Y80.942 E16.03518
G1 X97.19 Y80.918 E16.0527
G1 X97.985 Y80.902 E16.07914
G1 X98.682 Y80.9 E16.10233
G1 X131.318 Y80.901 E17.1878
G1 X132.024 Y80.911 E17.21129
G0 F6000 X132.03 Y80.511
G1 F1200 X132.511 Y80.528 E17.2273
G1 X133.028 Y80.558 E17.24452
G1 X133.406 Y80.587 E17.25713
G1 X134.086 Y80.65 E17.27984
G1 X135.235 Y80.818 E17.31847
G1 X135.539 Y80.879 E17.32878
G1 X136.274 Y81.047 E17.35385
G1 X136.976 Y81.225 E17.37794
G1 X138.174 Y81.603 E17.41972
G1 X138.514 Y81.732 E17.43182
G1 X138.925 Y81.898 E17.44656
G1 X139.697 Y82.227 E17.47447
G1 X140.798 Y82.77 E17.5153
G1 X141.081 Y82.93 E17.52612
G1 X141.489 Y83.173 E17.54191
G1 X142.252 Y83.649 E17.57182
G1 X143.258 Y84.357 E17.61274
G1 X143.522 Y84.566 E17.62394
G1 X144.105 Y85.055 E17.64925
G1 X144.54 Y85.436 E17.66848
G1 X145.488 Y86.375 E17.71286
G1 X146.119 Y87.08 E17.74433
G1 X146.373 Y87.374 E17.75725
G1 X146.598 Y87.644 E17.76894
G1 X147.267 Y88.535 E17.806
G1 X147.439 Y88.79 E17.81623
G1 X147.739 Y89.259 E17.83475
G1 X148.23 Y90.073 E17.86636
G1 X148.68 Y90.896 E17.89756
G1 X148.907 Y91.388 E17.91558
G1 X149.284 Y92.271 E17.94752
G1 X149.464 Y92.724 E17.96373
G1 X149.878 Y93.983 E18.00781
G1 X150.117 Y94.89 E18.03901
G1 X150.269 Y95.53 E18.06088
G1 X150.483 Y96.833 E18.1048
G1 X150.576 Y97.731 E18.13483
G1 X150.61 Y98.127 E18.14805
G1 X150.637 Y98.529 E18.16145
G1 X150.661 Y99.105 E18.18063
G1 X150.71 Y102.44 E18.29156
G1 X150.817 Y104.963 E18.37555
G1 X150.994 Y107.457 E18.45871
G1 X151.242 Y109.955 E18.5422
G1 X151.56 Y112.444 E18.62566
G1 X151.954 Y114.953 E18.71013
G1 X152.413 Y117.419 E18.79356
G1 X152.94 Y119.87 E18.87694
G1 X153.543 Y122.33 E18.96119
G1 X154.213 Y124.764 E19.04515
G1 X154.948 Y127.166 E19.1287
G1 X155.141 Y127.755 E19.14931
G1 X155.256 Y128.128 E19.1623
G1 X155.494 Y129.035 E19.19349
G1 X155.653 Y129.959 E19.22467
G1 X155.742 Y131.173 E19.26516
G1 X155.756 Y132.055 E19.29449
G1 X155.754 Y133.068 E19.32819
G1 X155.744 Y133.78 E19.35187
G1 X155.691 Y134.717 E19.38309
G1 X155.558 Y135.645 E19.41427
G1 X155.347 Y136.559 E19.44547
G1 X155.058 Y137.451 E19.47665
G1 X154.695 Y138.316 E19.50785
G1 X154.259 Y139.147 E19.53906
G1 X153.754 Y139.937 E19.57025
G1 X153.184 Y140.682 E19.60145
G1 X152.358 Y141.566 E19.64169
G1 X151.275 Y142.604 E19.69158
G1 X150.757 Y143.092 E19.71525
G1 X148.947 Y144.895 E19.80023
G1 X147.23 Y146.704 E19.88318
G1 X145.626 Y148.491 E19.96305
G1 X144.997 Y149.137 E19.99304
G1 X144.686 Y149.431 E20.00727
G1 X144.192 Y149.87 E20.02925
G1 X143.558 Y150.401 E20.05676
G1 X142.681 Y151.064 E20.09332
G1 X142.434 Y151.232 E20.10326
G1 X141.892 Y151.58 E20.12468
G1 X141.698 Y151.698 E20.13223
G1 X141.062 Y152.077 E20.15686
G1 X139.999 Y152.635 E20.19679
G1 X139.409 Y152.899 E20.21829
G1 X138.989 Y153.073 E20.23341
G1 X138.483 Y153.275 E20.25153
G1 X137.247 Y153.686 E20.29485
G1 X136.342 Y153.928 E20.32601
G1 X135.967 Y154.021 E20.33886
G1 X135.602 Y154.105 E20.35132
G1 X134.278 Y154.325 E20.39596
G1 X133.761 Y154.379 E20.41325
G1 X133.357 Y154.414 E20.42673
G1 X132.629 Y154.463 E20.451
G1 X132.108 Y154.486 E20.46835
G1 X131.358 Y154.499 E20.4933
G1 X130.883 Y154.5 E20.5091
G1 X98.026 Y154.499 E21.60192
G1 X97.32 Y154.489 E21.62541
G1 X96.81 Y154.47 E21.64238
G1 X96.266 Y154.437 E21.66051
G1 X95.914 Y154.41 E21.67225
G1 X95.247 Y154.348 E21.69453
G1 X94.074 Y154.175 E21.73397
G1 X93.769 Y154.113 E21.74432
G1 X93.272 Y154 E21.76127
G1 X92.383 Y153.776 E21.79176
G1 X91.161 Y153.391 E21.83438
G1 X90.827 Y153.264 E21.84626
G1 X90.412 Y153.096 E21.86115
G1 X89.617 Y152.756 E21.88991
G1 X88.5 Y152.201 E21.9314
G1 X88.233 Y152.049 E21.94161
G1 X87.829 Y151.808 E21.95726
G1 X87.048 Y151.318 E21.98793
G1 X86.031 Y150.596 E22.02941
G1 X85.783 Y150.398 E22.03996
G1 X85.22 Y149.924 E22.06444
G1 X84.702 Y149.468 E22.0874
G1 X83.836 Y148.616 E22.1278
G1 X83.307 Y148.021 E22.15428
G1 X83.154 Y147.841 E22.16214
G1 X82.706 Y147.3 E22.1855
G1 X82.019 Y146.376 E22.2238
G1 X81.868 Y146.149 E22.23287
G1 X81.456 Y145.492 E22.25866
G1 X81.083 Y144.865 E22.28292
G1 X80.522 Y143.79 E22.32325
G1 X80.268 Y143.22 E22.34401
G1 X80.086 Y142.78 E22.35985
G1 X79.847 Y142.177 E22.38142
G1 X79.468 Y141.045 E22.42113
G1 X79.376 Y140.711 E22.43265
G1 X79.261 Y140.255 E22.44829
G1 X79.06 Y139.381 E22.47812
G1 X78.841 Y138.073 E22.52223
G1 X78.808 Y137.761 E22.53266
G1 X78.772 Y137.353 E22.54629
G1 X78.71 Y136.444 E22.57659
