;FLAVOR:Marlin
;TIME:3633
;Filament used: 1.95504m
;Layer height: 0.2
;MINX:49.776
;MINY:79.001
;MINZ:0.2
;MAXX:173.456
;MAXY:140.99
;MAXZ:6.4
;Generated with Cura_SteamEngine 4.7.0
M140 S60
M105
M190 S60
M104 S200
M105
M109 S200
M82 ;absolute extrusion mode
; Ender 3 Custom Start G-code
G92 E0 ; Reset Extruder
G28 ; Home all axes
G1 Z2.0 F3000 ; Move Z Axis up little to prevent scratching of Heat Bed
G1 X0.1 Y20 Z0.3 F5000.0 ; Move to start position
G1 X0.1 Y200.0 Z0.3 F1500.0 E15 ; Draw the first line
G1 X0.4 Y200.0 Z0.3 F5000.0 ; Move to side a little
G1 X0.4 Y20 Z0.3 F1500.0 E30 ; Draw the second line
G92 E0 ; Reset Extruder
G1 Z2.0 F3000 ; Move Z Axis up little to prevent scratching of Heat Bed
G1 X5 Y20 Z0.3 F5000.0 ; Move over to prevent blob squish
G92 E0
G92 E0
G1 F1500 E-6.5
;LAYER_COUNT:32
;LAYER:0
M107
G0 F6000 X58.582 Y91.583 Z0.2
;TYPE:SKIRT
G1 F1500 E0
G1 F1200 X60.799 Y90.169 E0.08746
G1 X62.468 Y89.023 E0.1548
G1 X62.632 Y88.92 E0.16124
G1 X63.034 Y88.646 E0.17742
G1 X63.261 Y88.496 E0.18647
G1 X63.493 Y88.346 E0.19566
G1 X64.301 Y87.87 E0.22685
G1 X64.763 Y87.639 E0.24403
G1 X64.947 Y87.552 E0.2508
G1 X66.241 Y87.037 E0.29712
G1 X66.64 Y86.907 E0.31108
G1 X66.917 Y86.821 E0.32072
G1 X67.402 Y86.677 E0.33755
G1 X67.739 Y86.583 E0.34919
G1 X68.017 Y86.51 E0.35875
G1 X68.313 Y86.436 E0.36889
G1 X68.566 Y86.377 E0.37754
G1 X68.793 Y86.327 E0.38527
G1 X69.248 Y86.231 E0.40073
G1 X69.557 Y86.17 E0.41121
G1 X69.877 Y86.112 E0.42203
G1 X70.337 Y86.039 E0.43752
G1 X71.667 Y85.856 E0.48217
G1 X74.2 Y85.471 E0.56738
G1 X76.688 Y85.02 E0.65148
G1 X79.152 Y84.502 E0.73523
G1 X81.613 Y83.913 E0.81939
G1 X84.027 Y83.26 E0.90257
G1 X86.433 Y82.536 E0.98614
G1 X88.834 Y81.739 E1.07028
G1 X91.205 Y80.876 E1.1542
G1 X93.609 Y79.924 E1.2402
G1 X93.781 Y79.853 E1.24639
G1 X94.662 Y79.532 E1.27758
G1 X95.568 Y79.287 E1.30879
G1 X96.491 Y79.121 E1.33998
G1 X97.777 Y79.021 E1.38288
G1 X98.745 Y79.003 E1.41509
G1 X98.95 Y79.001 E1.4219
G1 X121.464 Y79.002 E2.17072
G1 X122.172 Y79.013 E2.19427
G1 X123.084 Y79.065 E2.22466
G1 X124.123 Y79.168 E2.25938
G1 X126.735 Y79.389 E2.34657
G1 X129.195 Y79.529 E2.42852
G1 X131.736 Y79.601 E2.51307
G1 X134.789 Y79.593 E2.61461
G1 X136.264 Y79.565 E2.66368
G1 X136.474 Y79.563 E2.67067
G1 X158.012 Y79.564 E3.38702
G1 X158.7 Y79.574 E3.40991
G1 X159.636 Y79.628 E3.44109
G1 X160.565 Y79.761 E3.4723
G1 X161.478 Y79.973 E3.50348
G1 X162.371 Y80.261 E3.53469
G1 X163.235 Y80.625 E3.56587
G1 X164.065 Y81.061 E3.59705
G1 X164.855 Y81.567 E3.62826
G1 X165.6 Y82.137 E3.65946
G1 X166.293 Y82.769 E3.69065
G1 X166.929 Y83.458 E3.72184
G1 X167.505 Y84.199 E3.75305
G1 X168.015 Y84.985 E3.78422
G1 X168.457 Y85.813 E3.81543
G1 X168.826 Y86.675 E3.84662
G1 X169.121 Y87.565 E3.87781
G1 X169.335 Y88.461 E3.90845
G1 X169.569 Y89.662 E3.94914
G1 X172.924 Y108.613 E4.58926
G1 X172.955 Y108.799 E4.59553
G1 X173.186 Y110.248 E4.64433
G1 X173.235 Y110.593 E4.65592
G1 X173.272 Y110.884 E4.66568
G1 X173.305 Y111.176 E4.67545
G1 X173.349 Y111.616 E4.69016
G1 X173.377 Y111.937 E4.70088
G1 X173.406 Y112.348 E4.71458
G1 X173.424 Y112.668 E4.72524
G1 X173.442 Y113.104 E4.73975
G1 X173.45 Y113.402 E4.74967
G1 X173.456 Y113.825 E4.76374
G1 X173.456 Y114.146 E4.77442
G1 X173.449 Y114.613 E4.78995
G1 X173.441 Y114.894 E4.7993
G1 X173.425 Y115.288 E4.81241
G1 X173.407 Y115.612 E4.82321
G1 X173.378 Y116.025 E4.83698
G1 X173.355 Y116.303 E4.84626
G1 X173.31 Y116.773 E4.86196
G1 X173.273 Y117.104 E4.87304
G1 X173.225 Y117.484 E4.88578
G1 X173.187 Y117.761 E4.89508
G1 X173.113 Y118.247 E4.91143
G1 X173.058 Y118.572 E4.92239
G1 X172.991 Y118.938 E4.93477
G1 X172.933 Y119.232 E4.94473
G1 X172.84 Y119.672 E4.95969
G1 X172.773 Y119.971 E4.96988
G1 X172.663 Y120.428 E4.98552
G1 X172.579 Y120.752 E4.99665
G1 X172.458 Y121.195 E5.01192
G1 X172.378 Y121.475 E5.02161
G1 X172.279 Y121.803 E5.033
G1 X172.19 Y122.084 E5.04281
G1 X172.029 Y122.57 E5.05983
G1 X171.915 Y122.897 E5.07135
G1 X171.79 Y123.238 E5.08343
G1 X171.694 Y123.491 E5.09243
G1 X171.529 Y123.909 E5.10738
G1 X171.405 Y124.209 E5.11818
G1 X171.226 Y124.626 E5.13327
G1 X171.115 Y124.876 E5.14237
G1 X170.947 Y125.242 E5.15576
G1 X170.815 Y125.519 E5.16597
G1 X170.632 Y125.89 E5.17973
G1 X170.471 Y126.204 E5.19146
G1 X170.234 Y126.648 E5.2082
G1 X170.094 Y126.902 E5.21785
G1 X169.923 Y127.203 E5.22936
G1 X169.766 Y127.47 E5.23966
G1 X169.503 Y127.904 E5.25654
G1 X169.366 Y128.125 E5.26519
G1 X169.159 Y128.449 E5.27798
G1 X168.942 Y128.775 E5.291
G1 X168.668 Y129.172 E5.30705
G1 X168.507 Y129.4 E5.31633
G1 X168.314 Y129.665 E5.32724
G1 X168.131 Y129.909 E5.33738
G1 X167.81 Y130.325 E5.35486
G1 X167.607 Y130.58 E5.3657
G1 X167.32 Y130.93 E5.38075
G1 X167.112 Y131.176 E5.39147
G1 X166.79 Y131.546 E5.40778
G1 X166.618 Y131.739 E5.41638
G1 X166.368 Y132.013 E5.42872
G1 X166.102 Y132.294 E5.44158
G1 X165.822 Y132.58 E5.4549
G1 X165.63 Y132.772 E5.46393
G1 X165.307 Y133.086 E5.47891
G1 X165.123 Y133.261 E5.48736
G1 X164.83 Y133.533 E5.50065
G1 X164.548 Y133.786 E5.51325
G1 X164.152 Y134.129 E5.53068
G1 X163.929 Y134.317 E5.54038
G1 X163.611 Y134.578 E5.55406
G1 X163.379 Y134.763 E5.56393
G1 X163.079 Y134.996 E5.57657
G1 X162.83 Y135.184 E5.58694
G1 X162.453 Y135.46 E5.60248
G1 X162.191 Y135.646 E5.61317
G1 X161.896 Y135.849 E5.62508
G1 X161.672 Y135.999 E5.63405
G1 X161.243 Y136.279 E5.65109
G1 X160.966 Y136.454 E5.66198
G1 X160.655 Y136.644 E5.67411
G1 X160.38 Y136.806 E5.68472
G1 X159.955 Y137.049 E5.701
G1 X159.712 Y137.184 E5.71025
G1 X159.363 Y137.372 E5.72343
G1 X159.075 Y137.522 E5.73423
G1 X158.652 Y137.734 E5.74997
G1 X158.383 Y137.864 E5.75991
G1 X158.058 Y138.016 E5.77184
G1 X157.765 Y138.148 E5.78253
G1 X157.291 Y138.353 E5.79971
G1 X157.036 Y138.459 E5.80889
G1 X156.711 Y138.59 E5.82055
G1 X156.397 Y138.712 E5.83175
G1 X155.905 Y138.893 E5.84919
G1 X155.595 Y139.001 E5.86011
G1 X155.266 Y139.111 E5.87164
G1 X154.997 Y139.197 E5.88104
G1 X154.533 Y139.339 E5.89718
G1 X154.213 Y139.432 E5.90826
G1 X153.836 Y139.535 E5.92126
G1 X153.543 Y139.611 E5.93133
G1 X153.055 Y139.73 E5.94803
G1 X152.774 Y139.795 E5.95763
G1 X152.404 Y139.875 E5.97022
G1 X152.098 Y139.936 E5.98059
G1 X151.691 Y140.012 E5.99437
G1 X151.378 Y140.066 E6.00493
G1 X150.862 Y140.147 E6.0223
G1 X150.517 Y140.195 E6.03389
G1 X150.1 Y140.247 E6.04786
G1 X149.839 Y140.277 E6.0566
G1 X149.441 Y140.317 E6.06991
G1 X149.098 Y140.346 E6.08136
G1 X148.634 Y140.378 E6.09682
G1 X148.342 Y140.394 E6.10655
G1 X147.94 Y140.411 E6.11993
G1 X147.63 Y140.42 E6.13025
G1 X147.203 Y140.426 E6.14445
G1 X146.883 Y140.426 E6.1551
G1 X146.415 Y140.419 E6.17066
G1 X146.131 Y140.411 E6.18011
G1 X145.739 Y140.395 E6.19316
G1 X145.419 Y140.377 E6.20382
G1 X145.005 Y140.348 E6.21762
G1 X144.717 Y140.324 E6.22724
G1 X144.23 Y140.277 E6.24351
G1 X143.909 Y140.241 E6.25425
G1 X143.178 Y140.148 E6.27876
G1 X142.962 Y140.118 E6.28602
G1 X142.826 Y140.104 E6.29056
G1 X141.373 Y139.9 E6.33936
G1 X138.884 Y139.622 E6.42266
G1 X136.383 Y139.414 E6.50613
G1 X133.845 Y139.276 E6.59067
G1 X131.349 Y139.209 E6.67372
G1 X128.825 Y139.215 E6.75767
G1 X126.309 Y139.29 E6.84139
G1 X123.814 Y139.437 E6.92452
G1 X121.273 Y139.658 E7.00935
G1 X118.818 Y139.942 E7.09155
G1 X115.009 Y140.518 E7.21968
G1 X114.253 Y140.648 E7.24519
G1 X113.912 Y140.702 E7.25667
G1 X113.391 Y140.775 E7.27417
G1 X113.112 Y140.81 E7.28352
G1 X112.849 Y140.84 E7.29233
G1 X112.546 Y140.87 E7.30245
G1 X112.279 Y140.893 E7.31137
G1 X112.025 Y140.912 E7.31984
G1 X111.309 Y140.957 E7.3437
G1 X110.98 Y140.973 E7.35466
G1 X110.706 Y140.982 E7.36377
G1 X110.439 Y140.988 E7.37266
G1 X110.009 Y140.99 E7.38696
G1 X109.58 Y140.986 E7.40123
G1 X109.21 Y140.976 E7.41354
G1 X108.42 Y140.942 E7.43984
G1 X107.907 Y140.908 E7.45694
G1 X107.14 Y140.839 E7.48255
G1 X106.551 Y140.77 E7.50228
G1 X105.998 Y140.69 E7.52086
G1 X105.724 Y140.646 E7.53009
G1 X105.208 Y140.558 E7.5475
G1 X104.869 Y140.495 E7.55897
G1 X104.253 Y140.37 E7.57987
G1 X103.741 Y140.254 E7.59733
G1 X103.109 Y140.094 E7.61902
G1 X102.623 Y139.959 E7.6358
G1 X101.767 Y139.7 E7.66554
G1 X101.344 Y139.562 E7.68034
G1 X98.825 Y138.687 E7.76903
G1 X96.416 Y137.926 E7.85306
G1 X93.987 Y137.234 E7.93706
G1 X91.588 Y136.624 E8.01939
G1 X89.095 Y136.063 E8.10438
G1 X86.642 Y135.585 E8.1875
G1 X84.138 Y135.169 E8.27193
G1 X81.662 Y134.83 E8.35505
G1 X79.143 Y134.557 E8.43932
G1 X76.669 Y134.359 E8.52187
G1 X75.385 Y134.3 E8.56462
G1 X75.274 Y134.291 E8.56833
G1 X73.855 Y134.211 E8.6156
G1 X72.819 Y134.103 E8.65024
G1 X72.727 Y134.089 E8.65334
G1 X71.918 Y133.934 E8.68073
G1 X71.184 Y133.765 E8.70579
G1 X68.643 Y133.221 E8.79221
G1 X66.353 Y132.792 E8.86971
G1 X65.44 Y132.58 E8.90088
G1 X64.464 Y132.259 E8.93505
G1 X64.38 Y132.227 E8.93804
G1 X63.342 Y131.769 E8.97578
G1 X62.892 Y131.542 E8.99254
G1 X62.585 Y131.381 E9.00407
G1 X62.17 Y131.155 E9.01979
G1 X61.879 Y130.991 E9.0309
G1 X61.578 Y130.815 E9.04249
G1 X61.174 Y130.567 E9.05826
G1 X60.615 Y130.207 E9.08038
G1 X60.341 Y130.025 E9.09132
G1 X60.162 Y129.902 E9.09854
G1 X59.84 Y129.673 E9.11168
G1 X59.623 Y129.513 E9.12065
G1 X59.115 Y129.128 E9.14185
G1 X58.805 Y128.886 E9.15493
G1 X58.493 Y128.63 E9.16835
G1 X58.173 Y128.356 E9.18237
G1 X57.709 Y127.946 E9.20296
G1 X57.034 Y127.296 E9.23413
G1 X56.171 Y126.273 E9.27864
G1 X56.136 Y126.226 E9.28059
G1 X55.743 Y125.664 E9.3034
G1 X55.447 Y125.21 E9.32143
G1 X54.41 Y123.568 E9.38602
G1 X52.565 Y120.839 E9.49558
G1 X52.218 Y120.291 E9.51716
G1 X52.059 Y120.023 E9.52752
G1 X51.615 Y119.196 E9.55874
G1 X51.243 Y118.335 E9.58994
G1 X51.067 Y117.838 E9.60747
G1 X50.884 Y117.28 E9.627
G1 X50.782 Y116.952 E9.63843
G1 X50.661 Y116.54 E9.65271
G1 X50.576 Y116.235 E9.66324
G1 X50.509 Y115.98 E9.67201
G1 X50.442 Y115.712 E9.6812
G1 X50.383 Y115.462 E9.68974
G1 X50.322 Y115.188 E9.69908
G1 X50.227 Y114.734 E9.71451
G1 X50.175 Y114.467 E9.72355
G1 X50.117 Y114.151 E9.73424
G1 X50.037 Y113.651 E9.75108
G1 X49.948 Y112.998 E9.773
G1 X49.915 Y112.735 E9.78182
G1 X49.898 Y112.583 E9.7869
G1 X49.868 Y112.274 E9.79723
G1 X49.842 Y111.962 E9.80764
G1 X49.822 Y111.674 E9.81724
G1 X49.79 Y111.113 E9.83593
G1 X49.776 Y110.176 E9.8671
G1 X49.843 Y109.24 E9.89831
G1 X49.931 Y108.622 E9.91907
G1 X49.963 Y108.436 E9.92535
G1 X50.096 Y107.782 E9.94755
G1 X50.166 Y107.484 E9.95773
G1 X50.7 Y105.01 E10.04191
G1 X50.919 Y103.819 E10.08219
G1 X50.99 Y103.506 E10.09286
G1 X51.189 Y102.447 E10.1287
G1 X51.401 Y101.532 E10.15994
G1 X51.446 Y101.37 E10.16553
G1 X51.736 Y100.478 E10.19673
G1 X52.14 Y99.53 E10.231
G1 X52.239 Y99.325 E10.23858
G1 X52.396 Y99.011 E10.25025
G1 X52.502 Y98.808 E10.25787
G1 X52.819 Y98.217 E10.28018
G1 X53.056 Y97.798 E10.29619
G1 X53.255 Y97.463 E10.30915
G1 X53.47 Y97.116 E10.32272
G1 X53.803 Y96.6 E10.34315
G1 X53.956 Y96.37 E10.35234
G1 X54.093 Y96.169 E10.36043
G1 X54.296 Y95.88 E10.37217
G1 X54.454 Y95.666 E10.38102
G1 X54.853 Y95.137 E10.40306
G1 X55.041 Y94.895 E10.41325
G1 X55.184 Y94.716 E10.42087
G1 X55.397 Y94.457 E10.43202
G1 X55.625 Y94.19 E10.4437
G1 X56.042 Y93.719 E10.46463
G1 X56.693 Y93.044 E10.49582
G1 X57.399 Y92.427 E10.527
G1 X57.943 Y92.019 E10.54962
G1 X58.163 Y91.864 E10.55857
G1 X58.582 Y91.583 E10.57535
G0 F6000 X58.797 Y91.92
G1 F1200 X61.039 Y90.489 E10.66381
G1 X62.695 Y89.353 E10.73061
G1 X62.848 Y89.257 E10.73661
G1 X63.259 Y88.977 E10.75315
G1 X63.478 Y88.831 E10.76191
G1 X63.71 Y88.681 E10.7711
G1 X64.504 Y88.216 E10.8017
G1 X64.934 Y88 E10.81771
G1 X65.118 Y87.913 E10.82448
G1 X66.365 Y87.417 E10.86911
G1 X66.764 Y87.287 E10.88307
G1 X67.031 Y87.204 E10.89237
G1 X67.516 Y87.06 E10.9092
G1 X67.841 Y86.97 E10.92041
G1 X68.119 Y86.897 E10.92997
G1 X68.404 Y86.826 E10.93974
G1 X68.657 Y86.767 E10.94838
G1 X68.876 Y86.718 E10.95585
G1 X69.331 Y86.622 E10.97131
G1 X69.629 Y86.564 E10.98141
G1 X69.949 Y86.506 E10.99223
G1 X70.392 Y86.435 E11.00715
G1 X71.705 Y86.254 E11.05123
G1 X74.294 Y85.861 E11.13833
G1 X76.77 Y85.412 E11.22202
G1 X79.229 Y84.895 E11.3056
G1 X81.697 Y84.304 E11.39001
G1 X84.141 Y83.643 E11.47421
G1 X86.536 Y82.922 E11.5574
G1 X88.992 Y82.107 E11.64347
G1 X91.34 Y81.253 E11.72657
G1 X93.725 Y80.308 E11.8119
G1 X93.934 Y80.222 E11.81941
G1 X94.799 Y79.908 E11.85002
G1 X95.689 Y79.67 E11.88066
G1 X96.595 Y79.51 E11.91126
G1 X97.785 Y79.421 E11.95095
G1 X98.753 Y79.403 E11.98315
G1 X98.95 Y79.401 E11.9897
G1 X121.458 Y79.402 E12.73832
G1 X122.166 Y79.413 E12.76187
G1 X123.044 Y79.463 E12.79112
G1 X124.118 Y79.569 E12.82702
G1 X126.679 Y79.786 E12.9125
G1 X129.195 Y79.929 E12.99632
G1 X131.726 Y80.001 E13.08054
G1 X134.797 Y79.993 E13.18268
G1 X136.271 Y79.965 E13.23171
G1 X136.474 Y79.963 E13.23847
G1 X158.006 Y79.964 E13.95462
G1 X158.694 Y79.974 E13.97751
G1 X159.613 Y80.027 E14.00813
G1 X160.524 Y80.16 E14.03875
G1 X161.42 Y80.372 E14.06937
G1 X162.295 Y80.66 E14.10001
G1 X163.141 Y81.023 E14.13063
G1 X163.952 Y81.459 E14.16125
G1 X164.722 Y81.963 E14.19186
G1 X165.446 Y82.531 E14.22247
G1 X166.118 Y83.161 E14.2531
G1 X166.732 Y83.847 E14.28373
G1 X167.285 Y84.583 E14.31434
G1 X167.772 Y85.364 E14.34496
G1 X168.189 Y86.185 E14.37558
G1 X168.533 Y87.039 E14.40621
G1 X168.802 Y87.919 E14.43681
G1 X168.943 Y88.538 E14.45793
G1 X169.14 Y89.545 E14.49206
G1 X169.175 Y89.732 E14.49838
G1 X172.53 Y108.683 E15.1385
G1 X172.56 Y108.862 E15.14453
G1 X172.791 Y110.311 E15.19334
G1 X172.838 Y110.643 E15.20449
G1 X172.875 Y110.934 E15.21425
G1 X172.907 Y111.216 E15.22368
G1 X172.951 Y111.656 E15.23839
G1 X172.978 Y111.965 E15.24871
G1 X173.007 Y112.376 E15.26241
G1 X173.024 Y112.685 E15.27271
G1 X173.042 Y113.121 E15.28722
G1 X173.05 Y113.408 E15.29677
G1 X173.056 Y113.831 E15.31084
G1 X173.056 Y114.14 E15.32112
G1 X173.049 Y114.607 E15.33665
G1 X173.041 Y114.878 E15.34567
G1 X173.025 Y115.272 E15.35878
G1 X173.008 Y115.584 E15.36918
G1 X172.979 Y115.997 E15.38295
G1 X172.957 Y116.265 E15.39189
G1 X172.912 Y116.735 E15.40759
G1 X172.876 Y117.053 E15.41824
G1 X172.828 Y117.433 E15.43098
G1 X172.791 Y117.701 E15.43998
G1 X172.717 Y118.187 E15.45633
G1 X172.665 Y118.5 E15.46688
G1 X172.598 Y118.866 E15.47926
G1 X172.542 Y119.149 E15.48885
G1 X172.449 Y119.589 E15.50381
G1 X172.384 Y119.878 E15.51366
G1 X172.274 Y120.335 E15.52929
G1 X172.193 Y120.647 E15.54002
G1 X172.072 Y121.09 E15.55529
G1 X171.995 Y121.36 E15.56463
G1 X171.896 Y121.688 E15.57602
G1 X171.81 Y121.958 E15.58545
G1 X171.649 Y122.444 E15.60248
G1 X171.539 Y122.759 E15.61357
G1 X171.414 Y123.1 E15.62565
G1 X171.322 Y123.344 E15.63433
G1 X171.157 Y123.762 E15.64927
G1 X171.038 Y124.051 E15.65967
G1 X170.859 Y124.468 E15.67476
G1 X170.752 Y124.709 E15.68353
G1 X170.584 Y125.075 E15.69693
G1 X170.456 Y125.342 E15.70677
G1 X170.273 Y125.713 E15.72053
G1 X170.118 Y126.016 E15.73185
G1 X169.881 Y126.46 E15.74859
G1 X169.747 Y126.704 E15.75785
G1 X169.576 Y127.005 E15.76937
G1 X169.424 Y127.263 E15.77933
G1 X169.161 Y127.697 E15.7962
G1 X169.029 Y127.91 E15.80454
G1 X168.822 Y128.234 E15.81733
G1 X168.613 Y128.548 E15.82987
G1 X168.339 Y128.945 E15.84592
G1 X168.183 Y129.164 E15.85486
G1 X167.99 Y129.429 E15.86576
G1 X167.814 Y129.665 E15.87555
G1 X167.493 Y130.081 E15.89303
G1 X167.298 Y130.326 E15.90345
G1 X167.011 Y130.676 E15.9185
G1 X166.81 Y130.914 E15.92886
G1 X166.488 Y131.284 E15.94518
G1 X166.322 Y131.47 E15.95347
G1 X166.072 Y131.744 E15.9658
G1 X165.816 Y132.014 E15.97818
G1 X165.536 Y132.3 E15.99149
G1 X165.351 Y132.485 E16.00019
G1 X165.028 Y132.799 E16.01518
G1 X164.851 Y132.968 E16.02331
G1 X164.558 Y133.24 E16.03661
G1 X164.286 Y133.483 E16.04874
G1 X163.89 Y133.826 E16.06617
G1 X163.675 Y134.008 E16.07554
G1 X163.357 Y134.269 E16.08922
G1 X163.134 Y134.447 E16.09871
G1 X162.834 Y134.68 E16.11134
G1 X162.594 Y134.861 E16.12134
G1 X162.217 Y135.137 E16.13688
G1 X161.964 Y135.316 E16.14719
G1 X161.669 Y135.519 E16.1591
G1 X161.454 Y135.664 E16.16773
G1 X161.025 Y135.944 E16.18476
G1 X160.757 Y136.113 E16.1953
G1 X160.446 Y136.303 E16.20742
G1 X160.181 Y136.459 E16.21765
G1 X159.756 Y136.702 E16.23394
G1 X159.522 Y136.832 E16.24284
G1 X159.173 Y137.02 E16.25602
G1 X158.895 Y137.164 E16.26644
