;FLAVOR:Marlin
;TIME:9503
;Filament used: 6.54008m
;Layer height: 0.2
;MINX:13.326
;MINY:78.456
;MINZ:0.2
;MAXX:221.667
;MAXY:156.533
;MAXZ:4.4
;Generated with Cura_SteamEngine 4.6.2
M140 S60
M105
M190 S60
M104 S200
M105
M109 S200
M82 ;absolute extrusion mode
; Ender 3 Custom Start G-code
G92 E0 ; Reset Extruder
G28 ; Home all axes
G1 Z2.0 F3000 ; Move Z Axis up little to prevent scratching of Heat Bed
G1 X0.1 Y20 Z0.3 F5000.0 ; Move to start position
G1 X0.1 Y200.0 Z0.3 F1500.0 E15 ; Draw the first line
G1 X0.4 Y200.0 Z0.3 F5000.0 ; Move to side a little
G1 X0.4 Y20 Z0.3 F1500.0 E30 ; Draw the second line
G92 E0 ; Reset Extruder
G1 Z2.0 F3000 ; Move Z Axis up little to prevent scratching of Heat Bed
G1 X5 Y20 Z0.3 F5000.0 ; Move over to prevent blob squish
G92 E0
G92 E0
G1 F1500 E-6
;LAYER_COUNT:22
;LAYER:0
M107
M204 S500
M205 X8 Y8
G0 F7500 X73.291 Y79.371 Z0.2
;TYPE:SKIRT
G1 F1500 E0
G1 X75.328 Y79.405 E0.06437
G1 X76.571 Y79.438 E0.10366
G1 X79.111 Y79.469 E0.18392
G1 X80.281 Y79.447 E0.2209
G1 X81.557 Y79.44 E0.26122
G1 X82.128 Y79.453 E0.27926
G1 X82.719 Y79.483 E0.29796
G1 X85.307 Y79.578 E0.37979
G1 X85.844 Y79.584 E0.39676
G1 X87.523 Y79.621 E0.44982
G1 X89.256 Y79.706 E0.50465
G1 X91.801 Y79.786 E0.5851
G1 X92.443 Y79.791 E0.60539
G1 X93.388 Y79.816 E0.63526
G1 X94.187 Y79.857 E0.66054
G1 X96.79 Y79.951 E0.74284
G1 X98.127 Y79.966 E0.78509
G1 X98.92 Y79.986 E0.81015
G1 X101.472 Y80.017 E0.89079
G1 X102.619 Y79.996 E0.92704
G1 X103.895 Y79.989 E0.96736
G1 X104.463 Y80.002 E0.98531
G1 X105.128 Y80.035 E1.00635
G1 X107.727 Y80.131 E1.08853
G1 X108.717 Y80.14 E1.11981
G1 X109.917 Y80.171 E1.15774
G1 X110.164 Y80.184 E1.16555
G1 X112.734 Y80.278 E1.24681
G1 X115.314 Y80.303 E1.32834
G1 X115.9 Y80.324 E1.34686
G1 X118.554 Y80.43 E1.43079
G1 X119.468 Y80.44 E1.45967
G1 X122.003 Y80.493 E1.53979
G1 X124.614 Y80.506 E1.62229
G1 X125.333 Y80.491 E1.64501
G1 X126.243 Y80.486 E1.67377
G1 X126.96 Y80.507 E1.69643
G1 X129.593 Y80.678 E1.7798
G1 X132.097 Y80.77 E1.85897
G1 X134.664 Y80.791 E1.94009
G1 X137.2 Y80.741 E2.02023
G1 X139.695 Y80.621 E2.09916
G1 X141.63 Y80.47 E2.16048
G1 X142.243 Y80.43 E2.17989
G1 X143.146 Y80.411 E2.20843
G1 X144.025 Y80.469 E2.23627
G1 X144.687 Y80.542 E2.25731
G1 X145.579 Y80.681 E2.28584
G1 X146.228 Y80.834 E2.3069
G1 X149.019 Y81.587 E2.39825
G1 X151.545 Y82.214 E2.48048
G1 X154.002 Y82.746 E2.55991
G1 X156.483 Y83.213 E2.63968
G1 X159.013 Y83.615 E2.72063
G1 X161.544 Y83.944 E2.80127
G1 X164.058 Y84.199 E2.88112
G1 X166.578 Y84.382 E2.96095
G1 X169.119 Y84.495 E3.04132
G1 X171.689 Y84.537 E3.12253
G1 X174.18 Y84.507 E3.20125
G1 X176.756 Y84.402 E3.28271
G1 X179.28 Y84.229 E3.36265
G1 X181.813 Y83.982 E3.44306
G1 X184.323 Y83.666 E3.523
G1 X186.813 Y83.281 E3.60261
G1 X189.365 Y82.812 E3.6846
G1 X191.78 Y82.297 E3.76262
G1 X194.284 Y81.689 E3.84404
G1 X196.952 Y80.957 E3.93145
G1 X198.771 Y80.429 E3.9913
G1 X199.321 Y80.283 E4.00928
G1 X200.206 Y80.101 E4.03783
G1 X201.103 Y79.998 E4.06636
G1 X202.201 Y79.98 E4.10106
G1 X202.949 Y80.013 E4.12471
G1 X203.151 Y80.027 E4.13111
G1 X204.049 Y80.13 E4.15967
G1 X204.933 Y80.311 E4.18818
G1 X205.799 Y80.57 E4.21674
G1 X206.637 Y80.904 E4.24525
G1 X207.444 Y81.311 E4.27381
G1 X208.21 Y81.788 E4.30232
G1 X208.751 Y82.185 E4.32352
G1 X209.088 Y82.45 E4.33707
G1 X209.772 Y83.039 E4.36559
G1 X210.402 Y83.687 E4.39415
G1 X210.972 Y84.387 E4.42267
G1 X211.478 Y85.135 E4.4512
G1 X211.916 Y85.925 E4.47975
G1 X212.282 Y86.751 E4.50829
G1 X212.522 Y87.436 E4.53123
G1 X212.678 Y87.937 E4.54781
G1 X212.908 Y88.81 E4.57633
G1 X213.06 Y89.7 E4.60486
G1 X213.139 Y90.995 E4.64585
G1 X213.136 Y91.546 E4.66326
G1 X213.104 Y93.293 E4.71847
G1 X213.13 Y95.906 E4.80104
G1 X213.227 Y98.414 E4.88035
G1 X213.394 Y100.922 E4.95977
G1 X213.638 Y103.482 E5.04102
G1 X213.949 Y105.999 E5.12116
G1 X214.33 Y108.488 E5.20072
G1 X214.792 Y111.03 E5.28235
G1 X215.306 Y113.462 E5.3609
G1 X215.91 Y115.972 E5.44247
G1 X216.561 Y118.376 E5.52116
G1 X217.306 Y120.846 E5.60268
G1 X218.11 Y123.261 E5.68311
G1 X218.894 Y125.422 E5.75574
G1 X219.103 Y125.977 E5.77448
G1 X219.215 Y126.289 E5.78496
G1 X219.367 Y126.735 E5.79984
G1 X219.62 Y127.601 E5.82835
G1 X219.719 Y128.05 E5.84288
G1 X219.868 Y128.82 E5.86766
G1 X220.571 Y132.905 E5.99863
G1 X220.69 Y133.657 E6.02269
G1 X220.751 Y134.111 E6.03716
G1 X220.807 Y134.609 E6.053
G1 X220.868 Y135.51 E6.08153
G1 X220.846 Y136.457 E6.11146
G1 X220.813 Y136.931 E6.12647
G1 X220.711 Y137.829 E6.15503
G1 X220.529 Y138.713 E6.18355
G1 X220.177 Y139.836 E6.22073
G1 X220.038 Y140.203 E6.23313
G1 X219.681 Y141.032 E6.26165
G1 X219.252 Y141.827 E6.2902
G1 X218.754 Y142.581 E6.31875
G1 X218.4 Y143.041 E6.33709
G1 X218.231 Y143.248 E6.34553
G1 X217.63 Y143.921 E6.37404
G1 X216.971 Y144.539 E6.40259
G1 X216.216 Y145.128 E6.43285
G1 X215.94 Y145.323 E6.44352
G1 X215.18 Y145.811 E6.47206
G1 X214.38 Y146.229 E6.50058
G1 X213.185 Y146.699 E6.54116
G1 X212.751 Y146.839 E6.55557
G1 X211.881 Y147.078 E6.58407
G1 X210.992 Y147.239 E6.61262
G1 X209.74 Y147.331 E6.65229
G1 X208.925 Y147.336 E6.67804
G1 X208.596 Y147.33 E6.68844
G1 X207.695 Y147.274 E6.71696
G1 X206.464 Y147.065 E6.75641
G1 X205.735 Y146.892 E6.78009
G1 X205.152 Y146.742 E6.79911
G1 X204.491 Y146.562 E6.82075
G1 X203.457 Y146.22 E6.85517
G1 X200.634 Y145.116 E6.95094
G1 X198.242 Y144.253 E7.03129
G1 X195.807 Y143.451 E7.1123
G1 X193.38 Y142.728 E7.19231
G1 X190.937 Y142.074 E7.27222
G1 X188.466 Y141.487 E7.35247
G1 X185.966 Y140.969 E7.43314
G1 X183.488 Y140.526 E7.51268
G1 X180.98 Y140.151 E7.59281
G1 X178.423 Y139.843 E7.67419
G1 X175.937 Y139.614 E7.75307
G1 X173.379 Y139.452 E7.83406
G1 X170.838 Y139.362 E7.9144
G1 X168.306 Y139.345 E7.9944
G1 X165.735 Y139.4 E8.07566
G1 X163.252 Y139.523 E8.15421
G1 X160.697 Y139.723 E8.23519
G1 X158.177 Y139.991 E8.31526
G1 X155.627 Y140.336 E8.39657
G1 X153.172 Y140.739 E8.47518
G1 X150.646 Y141.228 E8.55647
G1 X148.186 Y141.777 E8.63611
G1 X145.705 Y142.403 E8.71696
G1 X143.277 Y143.091 E8.7967
G1 X140.852 Y143.852 E8.87701
G1 X138.449 Y144.681 E8.95733
G1 X136.05 Y145.587 E9.03835
G1 X133.711 Y146.545 E9.11822
G1 X131.405 Y147.568 E9.19793
G1 X129.112 Y148.664 E9.27823
G1 X126.848 Y149.826 E9.35864
G1 X124.612 Y151.052 E9.43921
G1 X122.421 Y152.338 E9.51949
G1 X119.995 Y153.857 E9.60993
G1 X118.886 Y154.459 E9.6498
G1 X118.495 Y154.641 E9.66343
G1 X117.661 Y154.986 E9.69194
G1 X116.799 Y155.255 E9.72048
G1 X115.865 Y155.456 E9.75066
G1 X115.276 Y155.554 E9.76953
G1 X114.955 Y155.602 E9.77979
G1 X114.589 Y155.651 E9.79145
G1 X113.69 Y155.731 E9.81997
G1 X112.787 Y155.731 E9.8485
G1 X112.29 Y155.697 E9.86424
G1 X112.011 Y155.671 E9.8731
G1 X111.566 Y155.62 E9.88725
G1 X110.803 Y155.515 E9.91159
G1 X109.915 Y155.352 E9.94011
G1 X109.3 Y155.191 E9.9602
G1 X108.482 Y154.949 E9.98715
G1 X108.123 Y154.835 E9.99906
G1 X107.698 Y154.692 E10.01323
G1 X106.848 Y154.363 E10.04202
G1 X105.706 Y153.856 E10.0815
G1 X105.149 Y153.59 E10.10101
G1 X104.683 Y153.353 E10.11753
G1 X103.842 Y152.892 E10.14783
G1 X103.025 Y152.419 E10.17766
G1 X102.759 Y152.259 E10.18747
G1 X102.051 Y151.819 E10.21381
G1 X100.82 Y151.033 E10.25996
G1 X98.618 Y149.715 E10.34104
G1 X96.412 Y148.477 E10.42097
G1 X94.154 Y147.293 E10.50153
G1 X91.878 Y146.18 E10.58159
G1 X89.558 Y145.126 E10.6621
G1 X87.238 Y144.15 E10.74163
G1 X84.824 Y143.212 E10.82346
G1 X82.472 Y142.378 E10.90231
G1 X80.02 Y141.584 E10.98375
G1 X77.619 Y140.88 E11.06281
G1 X75.157 Y140.234 E11.14323
G1 X72.678 Y139.657 E11.22366
G1 X70.157 Y139.144 E11.30494
G1 X67.807 Y138.735 E11.38031
G1 X65.442 Y138.352 E11.45601
G1 X61.99 Y137.729 E11.56685
G1 X60.312 Y137.398 E11.62089
G1 X57.036 Y136.698 E11.72674
G1 X55.486 Y136.344 E11.77698
G1 X52.356 Y135.582 E11.87876
G1 X50.983 Y135.227 E11.92357
G1 X48.108 Y134.444 E12.01772
G1 X46.323 Y133.925 E12.07646
G1 X40.295 Y132.062 E12.27582
G1 X38.506 Y131.473 E12.33533
G1 X33.241 Y129.629 E12.5116
G1 X32.078 Y129.207 E12.55069
G1 X25.066 Y126.572 E12.78737
G1 X23.8 Y126.076 E12.83034
G1 X23.193 Y125.821 E12.85114
G1 X22.516 Y125.507 E12.87472
G1 X22.131 Y125.311 E12.88837
G1 X21.831 Y125.151 E12.89911
G1 X21.349 Y124.885 E12.91651
G1 X20.628 Y124.448 E12.94315
G1 X20.407 Y124.301 E12.95154
G1 X19.99 Y124.008 E12.96764
G1 X19.575 Y123.701 E12.98395
G1 X18.638 Y122.917 E13.02255
G1 X18.154 Y122.46 E13.04359
G1 X17.526 Y121.812 E13.0721
G1 X17.035 Y121.214 E13.09655
G1 X16.624 Y120.673 E13.11801
G1 X16.11 Y119.931 E13.14653
G1 X15.828 Y119.453 E13.16407
G1 X15.702 Y119.226 E13.17227
G1 X15.271 Y118.356 E13.20295
G1 X15.12 Y118.01 E13.21488
G1 X14.796 Y117.167 E13.24342
G1 X14.542 Y116.276 E13.27269
G1 X14.434 Y115.819 E13.28753
G1 X14.266 Y114.932 E13.31605
G1 X14.185 Y114.177 E13.34005
G1 X14.149 Y113.657 E13.35652
G1 X14.127 Y112.755 E13.38503
G1 X14.184 Y111.853 E13.41358
G1 X14.245 Y111.396 E13.42815
G1 X14.317 Y110.93 E13.44305
G1 X14.385 Y110.537 E13.45565
G1 X14.467 Y110.116 E13.4692
G1 X14.679 Y109.238 E13.49774
G1 X14.986 Y108.335 E13.52788
G1 X15.12 Y107.994 E13.53946
G1 X15.283 Y107.604 E13.55281
G1 X15.427 Y107.278 E13.56407
G1 X15.828 Y106.469 E13.5926
G1 X16.124 Y105.966 E13.61104
G1 X16.45 Y105.448 E13.63038
G1 X16.778 Y104.956 E13.64907
G1 X17.319 Y104.233 E13.6776
G1 X17.976 Y103.505 E13.70858
G1 X18.499 Y102.982 E13.73195
G1 X20.827 Y100.727 E13.83436
G1 X22.01 Y99.612 E13.88573
G1 X23.703 Y98.062 E13.95826
G1 X24.54 Y97.322 E13.99356
G1 X25.133 Y96.826 E14.01798
G1 X26.462 Y95.739 E14.07223
G1 X27.025 Y95.29 E14.09499
G1 X27.756 Y94.759 E14.12354
G1 X28.748 Y94.18 E14.15983
G1 X29.7 Y93.699 E14.19353
G1 X29.997 Y93.559 E14.20391
G1 X32.337 Y92.41 E14.28627
G1 X34.597 Y91.221 E14.36696
G1 X36.803 Y89.979 E14.44696
G1 X38.97 Y88.678 E14.52682
G1 X40.182 Y87.904 E14.57226
G1 X40.592 Y87.65 E14.5875
G1 X41.145 Y87.331 E14.60767
G1 X41.865 Y86.945 E14.63348
G1 X42.918 Y86.456 E14.67017
G1 X44.411 Y85.868 E14.72087
G1 X45.966 Y85.306 E14.77311
G1 X46.886 Y84.991 E14.80384
G1 X47.902 Y84.675 E14.83746
G1 X60.092 Y81.08 E15.23903
G1 X61.658 Y80.65 E15.29034
G1 X62.003 Y80.562 E15.30159
G1 X62.34 Y80.482 E15.31253
G1 X63.176 Y80.32 E15.33944
G1 X63.925 Y80.207 E15.36337
G1 X66.538 Y79.777 E15.44705
G1 X67.095 Y79.669 E15.46498
G1 X68.475 Y79.42 E15.50928
G1 X69.37 Y79.299 E15.53782
G1 X70.16 Y79.259 E15.56281
G1 X70.402 Y79.256 E15.57046
G1 X70.888 Y79.261 E15.58582
G1 X72.492 Y79.335 E15.63655
G0 F1350 X73.291 Y79.371
G0 F7500 X71.434 Y78.881
G1 F1500 X73.316 Y78.972 E15.69609
G1 X75.338 Y79.006 E15.75999
G1 X76.513 Y79.037 E15.79713
G1 X79.108 Y79.069 E15.87913
G1 X80.279 Y79.047 E15.91613
G1 X81.555 Y79.04 E15.95645
G1 X82.148 Y79.054 E15.9752
G1 X82.68 Y79.081 E15.99203
G1 X85.326 Y79.178 E16.07569
G1 X85.851 Y79.184 E16.09228
G1 X87.541 Y79.221 E16.14569
G1 X89.291 Y79.307 E16.20105
G1 X91.816 Y79.386 E16.28087
G1 X92.452 Y79.391 E16.30097
G1 X93.408 Y79.417 E16.33119
G1 X94.152 Y79.455 E16.35473
G1 X96.808 Y79.552 E16.4387
G1 X98.137 Y79.566 E16.4807
G1 X98.935 Y79.587 E16.50592
G1 X101.47 Y79.617 E16.58603
G1 X102.617 Y79.596 E16.62228
G1 X103.893 Y79.589 E16.66259
G1 X104.483 Y79.602 E16.68124
G1 X105.162 Y79.636 E16.70272
G1 X107.745 Y79.731 E16.78439
G1 X108.726 Y79.741 E16.81539
G1 X109.937 Y79.772 E16.85367
G1 X110.127 Y79.782 E16.85968
G1 X112.752 Y79.878 E16.94268
G1 X115.318 Y79.903 E17.02376
G1 X115.939 Y79.925 E17.04339
G1 X118.574 Y80.031 E17.12672
G1 X119.476 Y80.04 E17.15522
G1 X122.013 Y80.093 E17.2354
G1 X124.607 Y80.106 E17.31736
G1 X125.331 Y80.091 E17.34025
G1 X126.241 Y80.086 E17.369
G1 X126.986 Y80.108 E17.39255
G1 X129.598 Y80.278 E17.47526
G1 X132.115 Y80.37 E17.55484
G1 X134.659 Y80.391 E17.63523
G1 X137.171 Y80.341 E17.71461
G1 X139.712 Y80.219 E17.79499
G1 X141.604 Y80.07 E17.85496
G1 X142.217 Y80.03 E17.87437
G1 X143.137 Y80.011 E17.90345
G1 X144.069 Y80.072 E17.93296
G1 X144.731 Y80.145 E17.954
G1 X145.641 Y80.285 E17.98309
G1 X146.332 Y80.447 E18.00552
G1 X149.156 Y81.21 E18.09795
G1 X151.636 Y81.824 E18.17868
G1 X154.082 Y82.354 E18.25776
G1 X156.549 Y82.818 E18.33707
G1 X159.095 Y83.223 E18.41853
G1 X161.564 Y83.544 E18.4972
G1 X164.091 Y83.8 E18.57746
G1 X166.625 Y83.984 E18.65773
G1 X169.108 Y84.095 E18.73627
G1 X171.691 Y84.137 E18.81789
G1 X174.194 Y84.107 E18.89699
G1 X176.713 Y84.004 E18.97665
G1 X179.247 Y83.83 E19.0569
G1 X181.76 Y83.585 E19.13668
G1 X184.248 Y83.272 E19.21592
G1 X186.786 Y82.88 E19.29706
G1 X189.24 Y82.429 E19.3759
G1 X191.708 Y81.902 E19.45564
G1 X194.188 Y81.3 E19.53627
G1 X196.861 Y80.567 E19.62385
G1 X198.659 Y80.045 E19.68301
G1 X199.223 Y79.896 E19.70144
G1 X200.125 Y79.709 E19.73055
G1 X201.039 Y79.602 E19.75962
G1 X202.216 Y79.58 E19.79682
G1 X202.642 Y79.596 E19.81029
G1 X203.179 Y79.628 E19.82729
G1 X204.094 Y79.732 E19.85639
G1 X204.996 Y79.914 E19.88546
G1 X205.879 Y80.174 E19.91455
G1 X206.737 Y80.51 E19.94366
G1 X207.561 Y80.919 E19.97273
G1 X208.348 Y81.398 E20.00184
G1 X208.998 Y81.871 E20.02724
G1 X209.335 Y82.136 E20.04078
G1 X210.033 Y82.736 E20.06987
G1 X210.677 Y83.394 E20.09896
G1 X211.261 Y84.106 E20.12806
G1 X211.781 Y84.865 E20.15713
G1 X212.233 Y85.667 E20.18622
G1 X212.614 Y86.505 E20.2153
G1 X212.904 Y87.317 E20.24255
G1 X213.06 Y87.818 E20.25913
G1 X213.295 Y88.708 E20.28821
G1 X213.452 Y89.615 E20.3173
G1 X213.53 Y90.532 E20.34637
G1 X213.539 Y90.996 E20.36104
G1 X213.536 Y91.553 E20.37864
G1 X213.504 Y93.344 E20.43524
G1 X213.528 Y95.853 E20.51452
G1 X213.625 Y98.37 E20.59411
G1 X213.796 Y100.928 E20.67511
G1 X214.035 Y103.431 E20.75456
G1 X214.347 Y105.955 E20.83492
G1 X214.725 Y108.427 E20.91394
G1 X215.177 Y110.913 E20.99377
G1 X215.702 Y113.399 E21.07406
G1 X216.289 Y115.839 E21.15335
G1 X216.954 Y118.293 E21.23369
G1 X217.693 Y120.741 E21.31449
G1 X218.482 Y123.113 E21.39347
G1 X219.281 Y125.318 E21.46758
G1 X219.477 Y125.836 E21.48508
G1 X219.593 Y126.16 E21.49595
G1 X219.745 Y126.606 E21.51084
G1 X220.004 Y127.489 E21.53991
G1 X220.111 Y127.973 E21.55558
G1 X220.262 Y128.752 E21.58065
G1 X220.966 Y132.842 E21.71178
G1 X221.085 Y133.594 E21.73584
G1 X221.149 Y134.066 E21.75089
G1 X221.205 Y134.564 E21.76672
G1 X221.268 Y135.483 E21.79583
G1 X221.245 Y136.485 E21.8275
G1 X221.212 Y136.959 E21.84251
G1 X221.109 Y137.874 E21.87161
G1 X220.926 Y138.776 E21.90069
G1 X220.551 Y139.977 E21.94044
G1 X220.412 Y140.344 E21.95284
G1 X220.049 Y141.19 E21.98193
G1 X219.613 Y142.002 E22.01105
G1 X219.109 Y142.772 E22.04013
G1 X218.71 Y143.294 E22.06089
G1 X218.541 Y143.501 E22.06933
G1 X217.928 Y144.188 E22.09843
G1 X217.258 Y144.819 E22.12751
G1 X216.447 Y145.454 E22.16005
G1 X216.171 Y145.649 E22.17073
G1 X215.396 Y146.147 E22.19984
G1 X214.582 Y146.576 E22.22891
G1 X213.308 Y147.08 E22.2722
G1 X212.874 Y147.22 E22.28661
G1 X211.987 Y147.464 E22.31568
G1 X211.081 Y147.631 E22.34479
G1 X209.745 Y147.731 E22.38712
G1 X208.918 Y147.736 E22.41325
G1 X208.589 Y147.73 E22.42365
G1 X207.67 Y147.673 E22.45274
G1 X206.373 Y147.455 E22.4943
G1 X205.635 Y147.28 E22.51826
G1 X205.047 Y147.128 E22.53745
G1 X204.386 Y146.948 E22.5591
G1 X203.312 Y146.593 E22.59484
G1 X200.48 Y145.486 E22.69092
G1 X198.118 Y144.634 E22.77026
G1 X195.683 Y143.832 E22.85126
G1 X193.3 Y143.121 E22.92984
G1 X190.846 Y142.465 E23.0101
G1 X188.324 Y141.865 E23.09201
G1 X185.921 Y141.367 E23.16955
G1 X183.43 Y140.922 E23.24951
G1 X180.91 Y140.546 E23.33001
G1 X178.375 Y140.24 E23.41069
G1 X175.91 Y140.013 E23.48891
G1 X173.338 Y139.85 E23.57034
G1 X170.856 Y139.762 E23.64881
G1 X168.312 Y139.745 E23.7292
G1 X165.764 Y139.799 E23.80973
G1 X163.268 Y139.923 E23.88869
G1 X160.734 Y140.121 E23.969
G1 X158.206 Y140.39 E24.04933
G1 X155.709 Y140.729 E24.12895
G1 X153.207 Y141.139 E24.20906
G1 X150.738 Y141.617 E24.28852
G1 X148.3 Y142.161 E24.36745
G1 X145.807 Y142.79 E24.44869
G1 X143.4 Y143.472 E24.52774
G1 X140.966 Y144.236 E24.60835
G1 X138.573 Y145.062 E24.68834
G1 X136.206 Y145.955 E24.76827
G1 X133.876 Y146.91 E24.84784
G1 X131.574 Y147.931 E24.92741
G1 X129.274 Y149.03 E25.00795
G1 X127.015 Y150.189 E25.08817
G1 X124.842 Y151.381 E25.16649
G1 X122.631 Y152.679 E25.2475
G1 X120.208 Y154.196 E25.33782
