;FLAVOR:Marlin
;TIME:2214
;Filament used: 0.880597m
;Layer height: 0.2
;MINX:101.087
;MINY:100.518
;MINZ:0.2
;MAXX:134.247
;MAXY:134.147
;MAXZ:32.4
;Generated with Cura_SteamEngine 4.6.2
M140 S60
M105
M190 S60
M104 S200
M105
M109 S200
M82 ;absolute extrusion mode
; Ender 3 Custom Start G-code
G92 E0 ; Reset Extruder
G28 ; Home all axes
G1 Z2.0 F3000 ; Move Z Axis up little to prevent scratching of Heat Bed
G1 X0.1 Y20 Z0.3 F5000.0 ; Move to start position
G1 X0.1 Y200.0 Z0.3 F1500.0 E15 ; Draw the first line
G1 X0.4 Y200.0 Z0.3 F5000.0 ; Move to side a little
G1 X0.4 Y20 Z0.3 F1500.0 E30 ; Draw the second line
G92 E0 ; Reset Extruder
G1 Z2.0 F3000 ; Move Z Axis up little to prevent scratching of Heat Bed
G1 X5 Y20 Z0.3 F5000.0 ; Move over to prevent blob squish
G92 E0
G92 E0
G1 F1500 E-6
;LAYER_COUNT:162
;LAYER:0
M107
M204 S500
M205 X8 Y8
G0 F7500 X117.427 Y101.563 Z0.2
;TYPE:SKIRT
G1 F1500 E0
G1 X118.163 Y101.674 E0.02352
G1 X119.2 Y101.799 E0.05652
G1 X120.621 Y101.985 E0.1018
G1 X121.51 Y102.142 E0.13033
G1 X122.558 Y102.434 E0.1647
G1 X122.964 Y102.571 E0.17824
G1 X123.806 Y102.898 E0.20678
G1 X124.584 Y103.279 E0.23416
G1 X124.929 Y103.467 E0.24657
G1 X125.479 Y103.786 E0.26666
G1 X125.969 Y104.094 E0.28495
G1 X126.154 Y104.218 E0.29198
G1 X127.054 Y104.896 E0.32759
G1 X127.272 Y105.08 E0.3366
G1 X127.661 Y105.426 E0.35305
G1 X128.086 Y105.83 E0.37158
G1 X129.317 Y107.054 E0.42643
G1 X130.118 Y107.95 E0.46441
G1 X130.363 Y108.259 E0.47687
G1 X131.097 Y109.316 E0.51753
G1 X131.29 Y109.635 E0.52931
G1 X131.62 Y110.211 E0.55028
G1 X132.029 Y111.016 E0.57881
G1 X132.235 Y111.505 E0.59558
G1 X132.434 Y112.013 E0.61282
G1 X132.614 Y112.507 E0.62943
G1 X132.7 Y112.765 E0.63802
G1 X132.913 Y113.497 E0.66211
G1 X132.97 Y113.723 E0.66948
G1 X133.152 Y114.607 E0.69799
G1 X133.23 Y115.212 E0.71727
G1 X133.38 Y116.765 E0.76657
G1 X133.418 Y117.291 E0.78323
G1 X133.442 Y117.789 E0.79898
G1 X133.447 Y118.004 E0.80578
G1 X133.446 Y118.521 E0.82212
G1 X133.435 Y118.922 E0.83479
G1 X133.37 Y119.822 E0.8633
G1 X133.226 Y120.714 E0.89185
G1 X133.072 Y121.352 E0.91259
G1 X132.994 Y121.635 E0.92187
G1 X132.55 Y122.91 E0.96452
G1 X132.272 Y123.565 E0.98701
G1 X131.702 Y124.705 E1.02728
G1 X131.48 Y125.087 E1.04124
G1 X131.048 Y125.767 E1.0667
G1 X130.704 Y126.264 E1.08579
G1 X130.131 Y127.106 E1.11798
G1 X129.303 Y128.165 E1.16045
G1 X129.168 Y128.316 E1.16685
G1 X128.754 Y128.753 E1.18587
G1 X128.595 Y128.911 E1.19295
G1 X128.301 Y129.191 E1.20578
G1 X128.034 Y129.436 E1.21723
G1 X127.342 Y130.017 E1.24578
G1 X126.946 Y130.306 E1.26127
G1 X126.329 Y130.732 E1.28496
G1 X125.82 Y131.071 E1.30429
G1 X125.419 Y131.33 E1.31937
G1 X124.639 Y131.786 E1.34792
G1 X123.837 Y132.165 E1.37595
G1 X123.285 Y132.397 E1.39487
G1 X122.438 Y132.71 E1.4234
G1 X121.566 Y132.947 E1.45195
G1 X120.677 Y133.105 E1.48048
G1 X120.155 Y133.161 E1.49707
G1 X119.01 Y133.251 E1.53336
G1 X117.592 Y133.337 E1.57825
G1 X116.559 Y133.348 E1.61089
G1 X115.922 Y133.322 E1.63103
G1 X115.315 Y133.282 E1.65025
G1 X114.625 Y133.208 E1.67218
G1 X113.601 Y133.03 E1.70502
G1 X113.341 Y132.971 E1.71344
G1 X112.47 Y132.732 E1.74198
G1 X111.623 Y132.418 E1.77052
G1 X110.655 Y131.946 E1.80455
G1 X110.22 Y131.705 E1.82027
G1 X109.705 Y131.4 E1.83918
G1 X108.711 Y130.771 E1.87635
G1 X107.221 Y129.849 E1.93171
G1 X106.481 Y129.331 E1.96025
G1 X105.79 Y128.749 E1.9888
G1 X105.153 Y128.109 E2.01733
G1 X104.837 Y127.745 E2.03256
G1 X104.578 Y127.432 E2.0454
G1 X104.033 Y126.711 E2.07395
G1 X103.555 Y125.945 E2.10248
G1 X103.146 Y125.14 E2.13101
G1 X102.81 Y124.302 E2.15954
G1 X102.549 Y123.437 E2.18809
G1 X102.348 Y122.435 E2.22038
G1 X102.066 Y120.546 E2.28073
G1 X101.965 Y119.513 E2.31353
G1 X101.938 Y118.853 E2.3344
G1 X101.926 Y118.244 E2.35364
G1 X101.89 Y116.95 E2.39455
G1 X101.887 Y116.505 E2.40861
G1 X101.891 Y116.255 E2.41651
G1 X101.94 Y115.414 E2.44313
G1 X101.986 Y114.949 E2.45789
G1 X102.114 Y114.055 E2.48643
G1 X102.321 Y113.176 E2.51496
G1 X102.605 Y112.319 E2.54349
G1 X102.876 Y111.675 E2.56556
G1 X103.356 Y110.636 E2.60173
G1 X103.498 Y110.343 E2.61201
G1 X104.022 Y109.297 E2.64898
G1 X104.811 Y107.63 E2.70725
G1 X105.233 Y106.832 E2.73578
G1 X105.689 Y106.122 E2.76244
G1 X105.784 Y105.987 E2.76766
G1 X106.336 Y105.272 E2.7962
G1 X106.949 Y104.609 E2.82473
G1 X107.619 Y104.003 E2.85327
G1 X108.381 Y103.429 E2.88342
G1 X108.692 Y103.217 E2.89531
G1 X109.402 Y102.774 E2.92175
G1 X109.624 Y102.648 E2.92982
G1 X110.429 Y102.238 E2.95836
G1 X111.266 Y101.9 E2.98688
G1 X112.13 Y101.637 E3.01542
G1 X113.014 Y101.452 E3.04396
G1 X114.21 Y101.329 E3.08195
G1 X114.437 Y101.319 E3.08913
G1 X115.34 Y101.319 E3.11766
G1 X116.271 Y101.404 E3.1472
G1 X116.634 Y101.454 E3.15878
G0 F1350 X117.427 Y101.563
G0 F7500 X117.487 Y101.167
G1 F1500 X118.237 Y101.281 E3.18275
G1 X119.252 Y101.403 E3.21505
G1 X120.673 Y101.589 E3.26033
G1 X121.58 Y101.748 E3.28943
G1 X122.686 Y102.055 E3.32569
G1 X123.092 Y102.192 E3.33923
G1 X123.951 Y102.524 E3.36833
G1 X124.775 Y102.928 E3.39733
G1 X125.12 Y103.116 E3.40974
G1 X125.441 Y103.298 E3.4214
G1 X125.683 Y103.441 E3.43028
G1 X126.192 Y103.762 E3.4493
G1 X126.377 Y103.886 E3.45634
G1 X127.312 Y104.591 E3.49334
G1 X127.53 Y104.775 E3.50235
G1 X127.934 Y105.134 E3.51943
G1 X128.368 Y105.546 E3.53833
G1 X129.599 Y106.77 E3.59319
G1 X130.431 Y107.701 E3.63264
G1 X130.676 Y108.01 E3.6451
G1 X131.439 Y109.109 E3.68737
G1 X131.794 Y109.704 E3.70926
G1 X131.969 Y110.014 E3.72051
G1 X132.386 Y110.835 E3.74961
G1 X132.608 Y111.359 E3.76759
G1 X132.807 Y111.867 E3.78483
G1 X132.993 Y112.381 E3.8021
G1 X133.079 Y112.639 E3.81069
G1 X133.301 Y113.399 E3.83571
G1 X133.358 Y113.625 E3.84307
G1 X133.544 Y114.526 E3.87214
G1 X133.628 Y115.173 E3.89276
G1 X133.779 Y116.736 E3.94238
G1 X133.817 Y117.262 E3.95904
G1 X133.842 Y117.78 E3.97543
G1 X133.847 Y117.995 E3.98222
G1 X133.846 Y118.532 E3.99919
G1 X133.835 Y118.933 E4.01186
G1 X133.77 Y119.851 E4.04094
G1 X133.625 Y120.76 E4.07003
G1 X133.458 Y121.459 E4.09273
G1 X133.38 Y121.742 E4.10201
G1 X133.097 Y122.618 E4.1311
G1 X132.919 Y123.066 E4.14633
G1 X132.641 Y123.721 E4.16881
G1 X132.048 Y124.906 E4.21068
G1 X131.826 Y125.288 E4.22464
G1 X131.377 Y125.995 E4.25111
G1 X131.033 Y126.492 E4.2702
G1 X130.462 Y127.331 E4.30227
G1 X129.911 Y128.069 E4.33137
G1 X129.466 Y128.583 E4.35285
G1 X129.036 Y129.037 E4.37261
G1 X128.877 Y129.195 E4.37969
G1 X128.572 Y129.486 E4.39301
G1 X128.305 Y129.731 E4.40446
G1 X127.6 Y130.324 E4.43357
G1 X127.173 Y130.635 E4.45026
G1 X126.552 Y131.064 E4.47411
G1 X126.037 Y131.407 E4.49366
G1 X125.636 Y131.666 E4.50875
G1 X124.842 Y132.132 E4.53784
G1 X123.992 Y132.534 E4.56755
G1 X123.44 Y132.766 E4.58647
G1 X122.577 Y133.086 E4.61555
G1 X121.689 Y133.329 E4.64464
G1 X120.783 Y133.494 E4.67374
G1 X120.187 Y133.56 E4.69268
G1 X119.035 Y133.651 E4.7292
G1 X117.617 Y133.737 E4.77408
G1 X116.543 Y133.747 E4.80802
G1 X115.906 Y133.721 E4.82817
G1 X115.285 Y133.681 E4.84783
G1 X114.577 Y133.605 E4.87033
G1 X113.512 Y133.42 E4.90448
G1 X113.252 Y133.361 E4.91291
G1 X112.364 Y133.119 E4.94199
G1 X111.5 Y132.8 E4.97109
G1 X110.461 Y132.296 E5.00758
G1 X110.026 Y132.055 E5.02329
G1 X109.491 Y131.738 E5.04294
G1 X108.494 Y131.107 E5.08022
G1 X107.006 Y130.186 E5.13551
G1 X106.252 Y129.659 E5.16458
G1 X105.546 Y129.068 E5.19367
G1 X104.894 Y128.418 E5.22276
G1 X104.528 Y128 E5.24032
G1 X104.269 Y127.687 E5.25316
G1 X103.714 Y126.953 E5.28223
G1 X103.224 Y126.173 E5.31134
G1 X102.804 Y125.354 E5.34042
G1 X102.456 Y124.501 E5.36953
G1 X102.184 Y123.622 E5.3986
G1 X101.952 Y122.494 E5.43499
G1 X101.67 Y120.605 E5.49534
G1 X101.565 Y119.531 E5.52943
G1 X101.538 Y118.861 E5.55062
G1 X101.526 Y118.252 E5.56987
G1 X101.49 Y116.961 E5.61068
G1 X101.487 Y116.498 E5.62531
G1 X101.491 Y116.248 E5.63321
G1 X101.541 Y115.374 E5.66087
G1 X101.587 Y114.909 E5.67563
G1 X101.718 Y113.998 E5.70471
G1 X101.927 Y113.101 E5.73381
G1 X102.213 Y112.226 E5.7629
G1 X102.513 Y111.507 E5.78752
G1 X102.993 Y110.468 E5.82368
G1 X103.14 Y110.164 E5.83435
G1 X103.661 Y109.125 E5.87108
G1 X104.449 Y107.459 E5.92931
G1 X104.879 Y106.645 E5.9584
G1 X105.362 Y105.892 E5.98666
G1 X105.457 Y105.757 E5.99188
G1 X106.019 Y105.028 E6.02096
G1 X106.642 Y104.35 E6.05006
G1 X107.322 Y103.729 E6.07915
G1 X108.156 Y103.098 E6.1122
G1 X108.467 Y102.886 E6.12409
G1 X109.205 Y102.426 E6.15157
G1 X109.427 Y102.3 E6.15964
G1 X110.246 Y101.881 E6.1887
G1 X111.099 Y101.535 E6.21779
G1 X111.979 Y101.263 E6.24689
G1 X112.879 Y101.069 E6.27598
G1 X114.192 Y100.929 E6.3177
G1 X114.419 Y100.919 E6.32488
G1 X115.34 Y100.919 E6.35399
G1 X116.326 Y101.007 E6.38526
G1 X116.694 Y101.058 E6.397
G0 F1350 X117.487 Y101.167
G0 F7500 X117.547 Y100.772
G1 F1500 X118.252 Y100.879 E6.41953
G1 X119.304 Y101.006 E6.45302
G1 X120.725 Y101.192 E6.4983
G1 X121.649 Y101.353 E6.52793
G1 X122.814 Y101.676 E6.56613
G1 X123.22 Y101.813 E6.57967
G1 X124.095 Y102.151 E6.60931
G1 X124.966 Y102.577 E6.63995
G1 X125.311 Y102.765 E6.65236
G1 X125.886 Y103.097 E6.67334
G1 X126.414 Y103.43 E6.69306
G1 X126.599 Y103.554 E6.7001
G1 X127.57 Y104.285 E6.7385
G1 X127.788 Y104.469 E6.74752
G1 X128.207 Y104.841 E6.76522
G1 X128.408 Y105.029 E6.77392
G1 X128.65 Y105.263 E6.78456
G1 X129.881 Y106.487 E6.83941
G1 X130.744 Y107.453 E6.88034
G1 X130.989 Y107.762 E6.8928
G1 X131.782 Y108.902 E6.93667
G1 X131.975 Y109.221 E6.94846
G1 X132.142 Y109.507 E6.95892
G1 X132.317 Y109.817 E6.97017
G1 X132.743 Y110.653 E6.99981
G1 X132.98 Y111.213 E7.01903
G1 X133.179 Y111.721 E7.03627
G1 X133.373 Y112.254 E7.05419
G1 X133.459 Y112.512 E7.06278
G1 X133.689 Y113.301 E7.08875
G1 X133.746 Y113.527 E7.09612
G1 X133.936 Y114.445 E7.12574
G1 X134.027 Y115.133 E7.14766
G1 X134.178 Y116.707 E7.19763
G1 X134.216 Y117.233 E7.21429
G1 X134.242 Y117.77 E7.23128
G1 X134.247 Y117.985 E7.23807
G1 X134.246 Y118.543 E7.2557
G1 X134.235 Y118.944 E7.26838
G1 X134.169 Y119.879 E7.298
G1 X134.024 Y120.806 E7.32764
G1 X133.844 Y121.565 E7.35229
G1 X133.766 Y121.848 E7.36157
G1 X133.478 Y122.741 E7.39121
G1 X133.287 Y123.223 E7.40759
G1 X133.009 Y123.878 E7.43008
G1 X132.394 Y125.107 E7.4735
G1 X132.172 Y125.489 E7.48746
G1 X131.706 Y126.222 E7.51491
G1 X131.411 Y126.648 E7.53128
G1 X130.793 Y127.556 E7.56598
G1 X130.232 Y128.308 E7.59563
G1 X129.764 Y128.85 E7.61826
G1 X129.318 Y129.321 E7.63875
G1 X129.159 Y129.479 E7.64583
G1 X128.842 Y129.781 E7.65967
G1 X128.575 Y130.026 E7.67112
G1 X127.858 Y130.63 E7.70074
G1 X127.401 Y130.964 E7.71863
G1 X126.775 Y131.396 E7.74266
G1 X126.254 Y131.743 E7.76244
G1 X125.853 Y132.002 E7.77752
G1 X125.044 Y132.477 E7.80716
G1 X124.147 Y132.903 E7.83854
G1 X123.595 Y133.135 E7.85746
G1 X122.716 Y133.461 E7.88708
G1 X121.812 Y133.711 E7.91672
G1 X120.89 Y133.883 E7.94635
G1 X120.219 Y133.958 E7.96769
G1 X119.059 Y134.05 E8.00445
G1 X117.641 Y134.136 E8.04934
G1 X116.526 Y134.147 E8.08457
G1 X115.889 Y134.121 E8.10472
G1 X115.254 Y134.079 E8.12483
G1 X114.759 Y134.03 E8.14054
G1 X114.529 Y134.002 E8.14786
G1 X113.424 Y133.81 E8.1833
G1 X113.164 Y133.751 E8.19173
G1 X112.259 Y133.505 E8.22136
G1 X111.378 Y133.182 E8.25101
G1 X110.267 Y132.646 E8.28998
G1 X109.832 Y132.405 E8.3057
G1 X109.277 Y132.076 E8.32608
G1 X108.277 Y131.443 E8.36348
G1 X106.792 Y130.524 E8.41866
G1 X106.022 Y129.987 E8.44832
G1 X105.302 Y129.387 E8.47793
G1 X104.635 Y128.728 E8.50756
G1 X104.22 Y128.255 E8.52744
G1 X103.961 Y127.942 E8.54028
G1 X103.395 Y127.194 E8.56992
G1 X102.894 Y126.401 E8.59956
G1 X102.462 Y125.569 E8.62918
G1 X102.103 Y124.702 E8.65883
G1 X101.82 Y123.808 E8.68846
G1 X101.557 Y122.553 E8.72897
G1 X101.275 Y120.664 E8.78932
G1 X101.166 Y119.55 E8.82469
G1 X101.138 Y118.869 E8.84623
G1 X101.126 Y118.26 E8.86547
G1 X101.09 Y116.972 E8.90618
G1 X101.087 Y116.492 E8.92135
G1 X101.091 Y116.242 E8.92925
G1 X101.143 Y115.335 E8.95796
G1 X101.189 Y114.87 E8.97272
G1 X101.321 Y113.942 E9.00234
G1 X101.532 Y113.028 E9.03198
G1 X101.82 Y112.135 E9.06163
G1 X102.15 Y111.34 E9.08882
G1 X102.63 Y110.301 E9.12499
G1 X102.782 Y109.984 E9.1361
G1 X103.325 Y108.901 E9.17438
G1 X104.088 Y107.288 E9.23076
G1 X104.524 Y106.458 E9.26038
G1 X105.035 Y105.662 E9.29027
G1 X105.13 Y105.527 E9.29548
G1 X105.702 Y104.783 E9.32514
G1 X106.335 Y104.091 E9.35477
G1 X107.025 Y103.456 E9.3844
G1 X107.93 Y102.768 E9.42032
G1 X108.241 Y102.556 E9.43221
G1 X109.007 Y102.078 E9.46074
G1 X109.229 Y101.952 E9.46881
G1 X110.064 Y101.525 E9.49844
G1 X110.932 Y101.17 E9.52807
G1 X111.827 Y100.89 E9.5577
G1 X112.743 Y100.687 E9.58735
G1 X113.673 Y100.563 E9.61699
G1 X114.402 Y100.52 E9.64007
G1 X115.34 Y100.518 E9.66971
G1 X116.38 Y100.611 E9.7027
G1 X116.755 Y100.663 E9.71466
G0 F1350 X117.547 Y100.772
G0 F7500 X115.171 Y113.221
G1 F1500 X115.487 Y113.389 E9.72597
G1 X115.862 Y113.524 E9.73856
G1 X116.115 Y113.582 E9.74676
G1 X116.006 Y113.621 E9.75042
G1 X115.874 Y113.675 E9.75493
G1 X115.606 Y113.802 E9.7643
G1 X115.48 Y113.87 E9.76882
G1 X115.244 Y114.013 E9.77754
G1 X115.138 Y114.084 E9.78157
G1 X114.897 Y114.262 E9.79104
G1 X114.784 Y114.355 E9.79566
G1 X114.583 Y114.539 E9.80427
G1 X114.438 Y114.691 E9.81091
G1 X114.945 Y113.847 E9.84202
G1 X115.082 Y113.543 E9.85256
G1 X115.085 Y113.529 E9.85301
G0 F1350 X115.124 Y113.317
G0 X115.171 Y113.221
G0 F7500 X115.406 Y112.904
G1 F1500 X115.622 Y113.013 E9.86065
G1 X115.997 Y113.148 E9.87325
G1 X116.274 Y113.205 E9.88218
G1 X116.52 Y113.19 E9.88997
G1 X117.421 Y113.022 E9.91893
G1 X117.668 Y113.016 E9.92674
G1 X118.72 Y113.174 E9.96035
G1 X119.117 Y113.154 E9.97291
G1 X119.257 Y113.118 E9.97748
G1 X119.393 Y113.224 E9.98293
G1 X119.612 Y113.353 E9.99096
G1 X119.828 Y113.446 E9.99839
G1 X120.031 Y113.612 E10.00667
G1 X120.184 Y113.769 E10.0136
G1 X120.467 Y114.365 E10.03445
G1 X120.62 Y114.603 E10.04339
G1 X120.833 Y114.788 E10.0523
G1 X121.014 Y114.88 E10.05872
G1 X121.474 Y115.059 E10.07431
G1 X121.554 Y115.16 E10.07838
G1 X121.805 Y115.589 E10.09409
G1 X121.875 Y115.809 E10.10138
G1 X122.052 Y116.206 E10.11512
G1 X122.071 Y116.279 E10.1175
G1 X121.97 Y116.99 E10.14019
G1 X121.97 Y117.272 E10.1491
G1 X122.108 Y117.655 E10.16197
G1 X122.239 Y117.868 E10.16987
G1 X122.256 Y118.085 E10.17675
G1 X122.25 Y118.532 E10.19087
G1 X122.162 Y118.77 E10.19889
G1 X122.06 Y118.993 E10.20664
G1 X121.456 Y119.22 E10.22702
G1 X121.208 Y119.355 E10.23595
G1 X121.008 Y119.575 E10.24534
G1 X121.079 Y119.447 E10.24997
G1 X121.246 Y119.08 E10.26271
G1 X121.338 Y118.821 E10.27139
G1 X121.368 Y118.72 E10.27472
G1 X121.453 Y118.351 E10.28668
G1 X121.503 Y117.976 E10.29864
G1 X121.518 Y117.688 E10.30775
G1 X121.518 Y117.583 E10.31107
G1 X121.502 Y117.282 E10.32059
G1 X121.491 Y117.181 E10.3238
G1 X121.43 Y116.815 E10.33553
G1 X121.33 Y116.438 E10.34785
G1 X121.237 Y116.18 E10.35652
G1 X121.199 Y116.09 E10.3596
G1 X121.074 Y115.827 E10.3688
G1 X121.025 Y115.736 E10.37207
G1 X120.823 Y115.413 E10.38411
G1 X120.592 Y115.109 E10.39617
G1 X120.405 Y114.901 E10.40501
G1 X120.331 Y114.827 E10.40832
G1 X120.118 Y114.635 E10.41738
G1 X120.038 Y114.571 E10.42061
G1 X119.727 Y114.349 E10.43269
G1 X119.395 Y114.156 E10.44482
G1 X119.128 Y114.03 E10.45415
G1 X119.031 Y113.99 E10.45746
G1 X118.681 Y113.872 E10.46914
G1 X118.301 Y113.783 E10.48147
G1 X117.935 Y113.734 E10.49313
G1 X117.641 Y113.718 E10.50244
G1 X117.537 Y113.718 E10.50572
G1 X117.259 Y113.732 E10.51452
G1 X117.157 Y113.743 E10.51776
G1 X116.77 Y113.807 E10.53016
G1 X116.401 Y113.905 E10.54222
G1 X116.046 Y114.036 E10.55417
G1 X115.778 Y114.163 E10.56355
G1 X115.688 Y114.212 E10.56678
G1 X115.376 Y114.406 E10.57839
G1 X115.054 Y114.65 E10.59116
G1 X114.787 Y114.901 E10.60274
G1 X114.587 Y115.122 E10.61215
G1 X114.521 Y115.203 E10.61546
G1 X114.296 Y115.518 E10.62769
G1 X114.109 Y115.84 E10.63945
G1 X113.945 Y116.2 E10.65195
G1 X113.827 Y116.548 E10.66356
G1 X113.753 Y116.844 E10.6732
G1 X113.73 Y116.97 E10.67725
G1 X113.681 Y117.387 E10.69052
G1 X113.674 Y117.507 E10.69432
G1 X113.675 Y117.825 E10.70436
G1 X113.684 Y117.954 E10.70845
G1 X113.736 Y118.344 E10.72088
G1 X113.757 Y118.457 E10.72451
G1 X113.83 Y118.746 E10.73393
