;FLAVOR:Marlin
;TIME:3394
;Filament used: 0.977178m
;Layer height: 0.12
;MINX:88.883
;MINY:97.751
;MINZ:0.24
;MAXX:139.777
;MAXY:137.246
;MAXZ:24.77
;Generated with Cura_SteamEngine 4.6.2
M140 S60
M105
M190 S60
M104 S200
M105
M109 S200
M82 ;absolute extrusion mode
; Ender 3 Custom Start G-code
G92 E0 ; Reset Extruder
G28 ; Home all axes
G1 Z2.0 F3000 ; Move Z Axis up little to prevent scratching of Heat Bed
G1 X0.1 Y20 Z0.3 F5000.0 ; Move to start position
G1 X0.1 Y200.0 Z0.3 F1500.0 E15 ; Draw the first line
G1 X0.4 Y200.0 Z0.3 F5000.0 ; Move to side a little
G1 X0.4 Y20 Z0.3 F1500.0 E30 ; Draw the second line
G92 E0 ; Reset Extruder
G1 Z2.0 F3000 ; Move Z Axis up little to prevent scratching of Heat Bed
G1 X5 Y20 Z0.3 F5000.0 ; Move over to prevent blob squish
G92 E0
G92 E0
G1 F1500 E-6
;LAYER_COUNT:199
;LAYER:-7
M107
M204 S500
M205 X8 Y8
G0 F9000 X94.739 Y103.814 Z0.24
;TYPE:SUPPORT-INTERFACE
G1 F1500 E0
G1 F1125 X95.444 Y103.181 E0.07563
G1 X95.576 Y103.073 E0.08925
G1 X96.725 Y102.212 E0.20386
G1 X96.805 Y102.159 E0.21152
G1 X97.708 Y101.599 E0.29634
G1 X98.469 Y101.193 E0.36519
G1 X99.422 Y100.753 E0.44898
G1 X100.105 Y100.487 E0.50748
G1 X101.026 Y100.183 E0.5849
G1 X101.176 Y100.14 E0.59736
G1 X102.102 Y99.907 E0.67358
G1 X102.201 Y99.888 E0.68163
G1 X103.487 Y99.669 E0.78576
G1 X104.537 Y99.57 E0.86995
G1 X116.617 Y98.84 E1.83598
G1 X117.611 Y98.816 E1.91535
G1 X117.764 Y98.818 E1.92757
G1 X118.469 Y98.846 E1.98389
G1 X119.394 Y98.904 E2.05787
G1 X120.368 Y98.999 E2.13599
G1 X120.521 Y99.021 E2.14833
G1 X121.284 Y99.147 E2.21006
G1 X122.262 Y99.339 E2.28962
G1 X123.372 Y99.602 E2.38067
G1 X124.159 Y99.845 E2.44642
G1 X125.099 Y100.163 E2.52563
G1 X126.121 Y100.554 E2.61298
G1 X126.873 Y100.897 E2.67896
G1 X127.761 Y101.337 E2.75807
G1 X128.619 Y101.799 E2.83585
G1 X128.743 Y101.872 E2.84734
G1 X129.449 Y102.318 E2.914
G1 X130.276 Y102.874 E2.99355
G1 X131.14 Y103.502 E3.07881
G1 X131.566 Y103.849 E3.12267
G1 X132.08 Y104.284 E3.17642
G1 X132.902 Y105.037 E3.2654
G1 X133.258 Y105.4 E3.30599
G1 X133.924 Y106.107 E3.38352
G1 X134.67 Y106.964 E3.47422
G1 X135.075 Y107.488 E3.52708
G1 X135.657 Y108.286 E3.60592
G1 X136.485 Y109.552 E3.72668
G1 X136.659 Y109.848 E3.75409
G1 X137.185 Y110.835 E3.84336
G1 X137.509 Y111.544 E3.90559
G1 X137.916 Y112.615 E3.99704
G1 X138.136 Y113.325 E4.05638
G1 X138.404 Y114.426 E4.14683
G1 X138.504 Y114.962 E4.19035
G1 X138.524 Y115.099 E4.20141
G1 X138.661 Y116.177 E4.28815
G1 X138.713 Y117.088 E4.36099
G1 X138.717 Y117.261 E4.3748
G1 X138.696 Y118.328 E4.45999
G1 X138.611 Y119.305 E4.53827
G1 X138.592 Y119.465 E4.55113
G1 X138.432 Y120.45 E4.63079
G1 X138.173 Y121.542 E4.72038
G1 X137.896 Y122.442 E4.79555
G1 X137.537 Y123.383 E4.87594
G1 X137.482 Y123.513 E4.88721
G1 X137.106 Y124.322 E4.95842
G1 X137.012 Y124.505 E4.97484
G1 X136.45 Y125.496 E5.06578
G1 X136.131 Y126.01 E5.11407
G1 X136.035 Y126.155 E5.12795
G1 X135.216 Y127.328 E5.24215
G1 X135.106 Y127.476 E5.25687
G1 X134.676 Y128.023 E5.31241
G1 X133.973 Y128.852 E5.39918
G1 X133.518 Y129.327 E5.45168
G1 X132.789 Y130.058 E5.53409
G1 X132.086 Y130.715 E5.6109
G1 X131.971 Y130.815 E5.62307
G1 X131.308 Y131.354 E5.69127
G1 X130.569 Y131.919 E5.76553
G1 X129.674 Y132.55 E5.85294
G1 X129.07 Y132.924 E5.90965
G1 X128.328 Y133.36 E5.97835
G1 X127.35 Y133.882 E6.06684
G1 X126.913 Y134.088 E6.1054
G1 X126.196 Y134.409 E6.16811
G1 X124.844 Y134.935 E6.28391
G1 X124.246 Y135.134 E6.33422
G1 X122.861 Y135.524 E6.44908
G1 X122.059 Y135.708 E6.51476
G1 X120.977 Y135.914 E6.60268
G1 X120.381 Y135.992 E6.65066
G1 X119.461 Y136.091 E6.72453
G1 X117.918 Y136.177 E6.84789
G1 X117.273 Y136.179 E6.89937
G1 X116.294 Y136.15 E6.97756
G1 X104.423 Y135.421 E7.92694
G1 X103.246 Y135.301 E8.02138
G1 X103.149 Y135.284 E8.02924
G1 X101.834 Y135.033 E8.1361
G1 X100.94 Y134.791 E8.21003
G1 X100.766 Y134.738 E8.22455
G1 X100.273 Y134.575 E8.266
G1 X100.147 Y134.527 E8.27676
G1 X99.148 Y134.128 E8.36263
G1 X98.366 Y133.756 E8.43176
G1 X97.5 Y133.278 E8.51072
G1 X97.386 Y133.209 E8.52135
G1 X96.564 Y132.675 E8.5996
G1 X95.809 Y132.116 E8.67459
G1 X95.673 Y132.006 E8.68855
G1 X94.794 Y131.24 E8.78162
G1 X94.725 Y131.172 E8.78935
G1 X94.062 Y130.499 E8.86477
G1 X93.959 Y130.387 E8.87691
G1 X93.224 Y129.515 E8.96795
G1 X92.654 Y128.734 E9.04513
G1 X92.552 Y128.585 E9.05954
G1 X92.026 Y127.736 E9.13927
G1 X91.579 Y126.908 E9.21438
G1 X91.518 Y126.784 E9.22541
G1 X91.146 Y125.959 E9.29765
G1 X90.756 Y124.929 E9.38556
G1 X90.524 Y124.174 E9.44861
G1 X90.306 Y123.301 E9.52044
G1 X90.27 Y123.125 E9.53478
G1 X90.056 Y121.808 E9.64129
G1 X90.037 Y121.638 E9.65494
G1 X89.959 Y120.668 E9.73262
G1 X89.951 Y120.486 E9.74716
G1 X89.94 Y119.782 E9.80337
G1 X89.95 Y114.83 E10.19866
G1 X89.996 Y113.763 E10.28391
G1 X90.094 Y112.855 E10.35681
G1 X90.116 Y112.72 E10.36773
G1 X90.31 Y111.668 E10.45312
G1 X90.48 Y110.983 E10.50946
G1 X90.748 Y110.095 E10.5835
G1 X90.811 Y109.91 E10.5991
G1 X91.131 Y109.069 E10.67093
G1 X91.614 Y108.022 E10.76297
G1 X92.036 Y107.242 E10.83376
G1 X92.118 Y107.108 E10.8463
G1 X92.694 Y106.206 E10.93173
G1 X93.29 Y105.403 E11.01155
G1 X93.884 Y104.696 E11.08526
G1 X93.997 Y104.571 E11.09872
G1 X94.507 Y104.051 E11.15686
G0 F1012.5 X94.739 Y103.814
G0 F9000 X94.4 Y104.159
G1 F1125 X94.4 Y130.842 E13.28681
G0 F9000 X96 Y132.257
G1 F1125 X96 Y102.755 E15.64179
G0 F9000 X97.6 Y101.665
G1 F1125 X97.6 Y133.333 E18.16966
G0 F9000 X99.2 Y134.148
G1 F1125 X99.2 Y100.855 E20.82725
G0 F9000 X100.8 Y100.257
G1 F1125 X100.8 Y134.748 E23.58047
G0 F9000 X102.4 Y135.141
G1 F1125 X102.4 Y99.854 E26.39724
G0 F9000 X104 Y99.62
G1 F1125 X104 Y135.377 E29.25151
G0 F9000 X105.6 Y135.493
G1 F1125 X105.6 Y99.505 E32.12423
G0 F9000 X107.2 Y99.409
G1 F1125 X107.2 Y135.591 E35.01244
G0 F9000 X108.8 Y135.689
G1 F1125 X108.8 Y99.312 E37.9162
G0 F9000 X110.4 Y99.215
G1 F1125 X110.4 Y135.788 E40.83562
G0 F9000 X112 Y135.886
G1 F1125 X112 Y99.119 E43.77052
G0 F9000 X113.6 Y99.022
G1 F1125 X113.6 Y135.984 E46.72099
G0 F9000 X115.2 Y136.082
G1 F1125 X115.2 Y98.925 E49.68702
G0 F9000 X116.8 Y98.835
G1 F1125 X116.8 Y136.164 E52.66678
G0 F9000 X118.4 Y136.151
G1 F1125 X118.4 Y98.844 E55.64479
G0 F9000 X120 Y98.964
G1 F1125 X120 Y136.033 E58.6038
G0 F9000 X121.6 Y135.796
G1 F1125 X121.6 Y99.21 E61.52425
G0 F9000 X123.2 Y99.562
G1 F1125 X123.2 Y135.429 E64.38731
G0 F9000 X124.8 Y134.95
G1 F1125 X124.8 Y100.062 E67.17222
G0 F9000 X126.4 Y100.682
G1 F1125 X126.4 Y134.318 E69.85719
G0 F9000 X128 Y133.536
G1 F1125 X128 Y101.466 E72.41716
G0 F9000 X129.6 Y102.42
G1 F1125 X129.6 Y132.596 E74.82593
G0 F9000 X131.2 Y131.437
G1 F1125 X131.2 Y103.551 E77.05192
G0 F9000 X132.8 Y104.944
G1 F1125 X132.8 Y130.047 E79.05575
G0 F9000 X134.4 Y128.349
G1 F1125 X134.4 Y106.654 E80.78753
G0 F9000 X136 Y108.811
G1 F1125 X136 Y126.206 E82.17608
G0 F9000 X137.6 Y123.218
G1 F1125 X137.6 Y111.784 E83.08879
G1 F1500 E77.08879
G0 F9000 X138.48 Y111.11
G0 X137.561 Y109.281
G0 X136.473 Y107.596
G0 X135.371 Y106.142
G0 X133.528 Y104.162
G0 X131.69 Y102.582
G0 X129.134 Y100.868
G0 X126.39 Y99.513
G0 X123.478 Y98.53
G0 X120.489 Y97.942
G0 X117.602 Y97.751
G0 X103.367 Y98.612
G0 X101.76 Y98.894
G0 X99.602 Y99.537
G0 X97.827 Y100.323
G0 X96.011 Y101.413
G0 X94.743 Y102.379
G0 X93.214 Y103.849
G0 X91.938 Y105.435
G0 X92.8 Y106.063
G1 F1500 E83.08879
G1 F1125 X92.8 Y128.934 E84.91445
G0 F9000 X91.2 Y126.078
G1 F1125 X91.2 Y108.919 E86.28416
G1 F1500 E80.28416
G0 F300 X91.2 Y108.919 Z0.42
G0 F9000 X90.079 Y108.832
G0 X89.519 Y110.438
G0 X89.039 Y112.716
G0 X88.883 Y114.95
G0 X88.897 Y120.742
G0 X89.02 Y122.084
G0 X89.266 Y123.534
G0 X89.796 Y125.409
G0 X90.559 Y127.247
G0 X91.609 Y126.965
;TIME_ELAPSED:68.165335
;LAYER:-6
M140 S60
;TYPE:SUPPORT
G1 F1500 E86.28416
G1 F1125 X98.43 Y133.786 E86.86167
G1 X98.366 Y133.755 E86.86592
G1 X97.5 Y133.276 E86.92517
G1 X97.386 Y133.208 E86.93312
G1 X96.563 Y132.674 E86.99185
G1 X95.809 Y132.115 E87.04805
G1 X95.672 Y132.005 E87.05857
G1 X94.794 Y131.239 E87.12832
G1 X94.725 Y131.171 E87.13412
G1 X94.062 Y130.497 E87.19072
G1 X93.958 Y130.386 E87.19983
G1 X93.224 Y129.514 E87.26807
G1 X92.653 Y128.733 E87.32599
G1 X92.551 Y128.584 E87.3368
G1 X92.026 Y127.735 E87.39656
G1 F1500 E81.39656
G0 F9000 X91.238 Y128.495
G0 X92.484 Y130.296
G0 X93.971 Y131.924
G0 X95.155 Y132.955
G0 X96.629 Y133.966
G0 X97.869 Y134.697
G0 X98.43 Y133.786
G1 F1500 E87.39656
G1 F1125 X99.148 Y134.127 E87.44415
G1 X100.146 Y134.526 E87.50849
G1 X100.272 Y134.574 E87.51657
G1 X100.766 Y134.737 E87.54771
G1 X100.808 Y134.749 E87.55033
G1 X90.653 Y124.594 E88.41011
G1 X90.523 Y124.173 E88.43649
G1 X90.306 Y123.299 E88.49041
G1 X90.27 Y123.124 E88.5011
G1 X90.206 Y122.733 E88.52482
G1 X102.663 Y135.19 E89.57951
G1 X103.149 Y135.282 E89.60913
G1 X103.246 Y135.3 E89.61503
G1 X104.294 Y135.406 E89.67809
G1 X89.993 Y121.106 E90.88887
G1 X89.958 Y120.667 E90.91523
G1 X89.951 Y120.485 E90.92614
G1 X89.939 Y119.781 E90.96829
G1 X89.939 Y119.638 E90.97685
G1 X105.806 Y135.504 E92.32021
G1 X107.313 Y135.597 E92.4106
G1 X89.942 Y118.226 E93.88135
G1 X89.945 Y116.815 E93.96582
G1 X108.819 Y135.689 E95.56382
G1 X110.326 Y135.782 E95.65421
G1 X89.948 Y115.404 E97.37954
G1 X89.95 Y114.829 E97.41397
G1 X89.984 Y114.025 E97.46214
G1 X111.833 Y135.874 E99.31202
G1 X113.34 Y135.967 E99.40241
G1 X90.112 Y112.739 E101.36905
G1 X90.115 Y112.719 E101.37026
G1 X90.31 Y111.667 E101.43431
G1 X90.338 Y111.551 E101.44146
G1 X114.846 Y136.06 E103.51651
G1 X116.293 Y136.149 E103.6033
G1 X116.351 Y136.15 E103.60677
G1 X90.642 Y110.441 E105.78346
G1 X90.747 Y110.094 E105.80517
G1 X90.81 Y109.909 E105.81687
G1 X91.007 Y109.392 E105.84999
G1 X117.791 Y136.176 E108.1177
G1 X117.917 Y136.176 E108.12524
G1 X119.137 Y136.108 E108.19839
G1 X91.435 Y108.405 E110.54387
G1 X91.613 Y108.021 E110.5692
G1 X91.911 Y107.468 E110.60681
G1 X120.428 Y135.985 E113.02125
G1 X120.976 Y135.913 E113.05434
G1 X121.643 Y135.785 E113.095
G1 X92.447 Y106.589 E115.56692
G1 X92.693 Y106.205 E115.59422
G1 X93.027 Y105.755 E115.62777
G1 X122.807 Y135.535 E118.14914
G1 X122.86 Y135.523 E118.15239
G1 X123.912 Y135.226 E118.21784
G1 X93.654 Y104.967 E120.77972
G1 X93.883 Y104.695 E120.80101
G1 X93.997 Y104.569 E120.81118
G1 X94.33 Y104.229 E120.83967
G1 X124.981 Y134.88 E123.43478
G1 X125.999 Y134.484 E123.50018
G1 X95.05 Y103.535 E126.12052
G1 X95.444 Y103.18 E126.15227
G1 X95.576 Y103.072 E126.16248
G1 X95.819 Y102.89 E126.18066
G1 X126.982 Y134.054 E128.81916
G1 X127.349 Y133.88 E128.84348
G1 X127.919 Y133.576 E128.88215
G1 X96.627 Y102.284 E131.53154
G1 X96.725 Y102.21 E131.53889
G1 X96.805 Y102.157 E131.54463
G1 X97.49 Y101.733 E131.59286
G1 X128.824 Y133.066 E134.24576
G1 X129.069 Y132.923 E134.26274
G1 X129.674 Y132.549 E134.30533
G1 X129.701 Y132.529 E134.30734
G1 X98.4 Y101.229 E136.95744
G1 X98.468 Y101.192 E136.96207
G1 X99.365 Y100.779 E137.0212
G1 X130.531 Y131.945 E139.65991
G1 X130.569 Y131.918 E139.6627
G1 X131.308 Y131.353 E139.71839
G1 X131.333 Y131.333 E139.72031
G1 X100.392 Y100.392 E142.33998
G1 X101.025 Y100.182 E142.3799
G1 X101.174 Y100.139 E142.38919
G1 X101.478 Y100.064 E142.40793
G1 X132.108 Y130.693 E145.00123
G1 X132.788 Y130.057 E145.05697
G1 X132.837 Y130.008 E145.06112
G1 X102.641 Y99.813 E147.61766
G1 X103.485 Y99.668 E147.66893
G1 X103.875 Y99.632 E147.69238
G1 X133.543 Y129.3 E150.20426
G1 X133.972 Y128.851 E150.24144
G1 X134.218 Y128.561 E150.26421
G1 X105.187 Y99.53 E152.72216
G1 X106.521 Y99.45 E152.80217
G1 X134.86 Y127.789 E155.20153
G1 X135.105 Y127.475 E155.22538
G1 X135.215 Y127.328 E155.23637
G1 X135.461 Y126.975 E155.26213
G1 X107.854 Y99.369 E157.59947
G1 X109.188 Y99.289 E157.67948
G1 X136.043 Y126.143 E159.95316
G1 X136.13 Y126.009 E159.96272
G1 X136.448 Y125.495 E159.99891
G1 X136.579 Y125.266 E160.0147
G1 X110.522 Y99.208 E162.2209
G1 X111.855 Y99.127 E162.30085
G1 X137.086 Y124.358 E164.43707
G1 X137.105 Y124.322 E164.43951
G1 X137.481 Y123.513 E164.49292
G1 X137.533 Y123.391 E164.50086
G1 X113.189 Y99.047 E166.56198
G1 X114.523 Y98.966 E166.64199
G1 X137.919 Y122.363 E168.62289
G1 X138.172 Y121.542 E168.67432
G1 X138.237 Y121.267 E168.69124
G1 X115.856 Y98.886 E170.58616
G1 X116.616 Y98.84 E170.63174
G1 X117.21 Y98.825 E170.66731
G1 X138.488 Y120.103 E172.46885
G1 X138.59 Y119.464 E172.50759
G1 X138.61 Y119.305 E172.51718
G1 X138.65 Y118.851 E172.54447
G1 X118.656 Y98.857 E174.23729
G1 X119.392 Y98.903 E174.28144
G1 X120.195 Y98.982 E174.32974
G1 X138.711 Y117.498 E175.89743
G1 X138.715 Y117.26 E175.91168
G1 X138.712 Y117.087 E175.92204
G1 X138.66 Y116.176 E175.97667
G1 X138.639 Y116.012 E175.98657
G1 X121.894 Y99.267 E177.40431
G1 X122.261 Y99.338 E177.42668
G1 X123.371 Y99.602 E177.49499
G1 X123.765 Y99.723 E177.51967
G1 X138.383 Y114.341 E178.75732
G1 X138.135 Y113.324 E178.81999
G1 X137.915 Y112.615 E178.86444
G1 X137.82 Y112.364 E178.8805
G1 X125.942 Y100.486 E179.88617
G1 X126.12 Y100.554 E179.89758
G1 X126.871 Y100.897 E179.94701
G1 X127.76 Y101.336 E180.00637
G1 X128.618 Y101.799 E180.06473
G1 X128.742 Y101.872 E180.07335
G1 X136.573 Y109.703 E180.73637
G0 F9000 X136.484 Y109.552
G1 F1125 X135.656 Y108.285 E180.82699
G1 X135.073 Y107.488 E180.8861
G1 X134.669 Y106.964 E180.92572
G1 X133.923 Y106.107 E180.99374
G1 X133.257 Y105.399 E181.05193
G1 X132.901 Y105.037 E181.08233
G1 X132.079 Y104.284 E181.14907
G1 X131.564 Y103.849 E181.18943
G1 X131.139 Y103.501 E181.22231
G1 X130.275 Y102.873 E181.28626
G1 X129.448 Y102.318 E181.34589
G1 X128.742 Y101.872 E181.39588
G1 F1500 E175.39588
G0 F300 X128.742 Y101.872 Z0.54
G0 F9000 X129.134 Y100.868
G0 X126.39 Y99.513
G0 X123.478 Y98.53
G0 X120.489 Y97.942
G0 X117.602 Y97.751
G0 X113.899 Y97.938
G0 X113.951 Y98.8
;TIME_ELAPSED:156.278109
;LAYER:-5
;TYPE:SUPPORT-INTERFACE
G1 F1500 E181.39588
G1 X107.33 Y99.2 E181.52825
G1 X122.548 Y99.2 E181.83194
G1 X123.43 Y99.41 E181.85004
G1 X124.048 Y99.6 E181.86294
G1 X102.703 Y99.6 E182.2889
G1 X102.16 Y99.692 E182.29989
G1 X102.057 Y99.712 E182.30198
G1 X101.115 Y99.949 E182.32137
G1 X100.979 Y99.988 E182.32419
G1 X100.943 Y100 E182.32495
G1 X125.236 Y100 E182.80974
G1 X126.21 Y100.374 E182.83056
G1 X126.268 Y100.4 E182.83183
G1 X99.777 Y100.4 E183.36049
G1 X99.349 Y100.567 E183.36966
G1 X98.844 Y100.8 E183.38076
G1 X127.13 Y100.8 E183.94523
G1 X127.851 Y101.157 E183.96129
G1 X127.931 Y101.2 E183.9631
G1 X98.026 Y101.2 E184.55989
G1 X97.613 Y101.423 E184.56926
G1 X97.328 Y101.6 E184.57595
G1 X128.673 Y101.6 E185.20147
G1 X128.708 Y101.619 E185.20227
G1 X128.855 Y101.705 E185.20567
G1 X129.322 Y102 E185.21669
G1 X96.684 Y102 E185.86802
G1 X96.604 Y102.052 E185.86992
G1 X96.14 Y102.4 E185.8815
G1 X129.932 Y102.4 E186.55585
G1 X130.39 Y102.708 E186.56687
G1 X130.517 Y102.8 E186.57
G1 X95.606 Y102.8 E187.26668
G1 X95.455 Y102.913 E187.27045
G1 X95.311 Y103.032 E187.27417
G1 X95.125 Y103.2 E187.27918
G1 X131.066 Y103.2 E187.99642
G1 X131.27 Y103.349 E188.00146
G1 X131.579 Y103.6 E188.0094
G1 X94.679 Y103.6 E188.74578
G1 X94.542 Y103.723 E188.74946
G1 X94.274 Y104 E188.75715
G1 X132.055 Y104 E189.51111
G1 X132.214 Y104.135 E189.51527
G1 X132.504 Y104.4 E189.52311
G1 X93.885 Y104.4 E190.29379
G1 X93.844 Y104.442 E190.29497
G1 X93.74 Y104.557 E190.29806
G1 X93.536 Y104.8 E190.30439
G1 X132.941 Y104.8 E191.09076
G1 X133.045 Y104.896 E191.09359
G1 X133.344 Y105.2 E191.10209
G1 X93.2 Y105.2 E191.90321
G1 X93.133 Y105.279 E191.90528
G1 X92.895 Y105.6 E191.91325
G1 X133.723 Y105.6 E192.72802
G1 X134.075 Y105.974 E192.73827
G1 X134.098 Y106 E192.73896
G1 X92.599 Y106 E193.56712
G1 X92.533 Y106.088 E193.56931
G1 X92.433 Y106.236 E193.57288
G1 X92.33 Y106.4 E193.57674
G1 X134.45 Y106.4 E194.41729
G1 X134.711 Y106.698 E194.4252
G1 X134.796 Y106.8 E194.42785
G1 X92.077 Y106.8 E195.28035
G1 X91.949 Y107.001 E195.28511
G1 X91.866 Y107.138 E195.28831
G1 X91.833 Y107.2 E195.28971
G1 X135.107 Y107.2 E196.15329
G1 X135.237 Y107.369 E196.15754
G1 X135.406 Y107.6 E196.16325
G1 X91.616 Y107.6 E197.03713
G1 X91.438 Y107.927 E197.04456
G1 X91.405 Y108 E197.04616
G1 X135.697 Y108 E197.93005
G1 X135.824 Y108.175 E197.93437
