;FLAVOR:Marlin
;TIME:3336
;Filament used: 2.80661m
;Layer height: 0.28
;MINX:87.7
;MINY:102.198
;MINZ:0.285
;MAXX:147.298
;MAXY:132.802
;MAXZ:47.885
;Generated with Cura_SteamEngine 4.6.2
M140 S60
M105
M190 S60
M104 S200
M105
M109 S200
M82 ;absolute extrusion mode
; Ender 3 Custom Start G-code
G92 E0 ; Reset Extruder
G28 ; Home all axes
G1 Z2.0 F3000 ; Move Z Axis up little to prevent scratching of Heat Bed
G1 X0.1 Y20 Z0.3 F5000.0 ; Move to start position
G1 X0.1 Y200.0 Z0.3 F1500.0 E15 ; Draw the first line
G1 X0.4 Y200.0 Z0.3 F5000.0 ; Move to side a little
G1 X0.4 Y20 Z0.3 F1500.0 E30 ; Draw the second line
G92 E0 ; Reset Extruder
G1 Z2.0 F3000 ; Move Z Axis up little to prevent scratching of Heat Bed
G1 X5 Y20 Z0.3 F5000.0 ; Move over to prevent blob squish
G92 E0
G92 E0
G1 F1500 E-6
;LAYER_COUNT:171
;LAYER:0
M107
M204 S500
M205 X8 Y8
;MESH:3DBenchy.stl
G0 F7500 X124.263 Y115.941 Z0.285
;TYPE:WALL-INNER
G1 F1500 E0
G1 F1800 X124.228 Y115.886 E0.00294
G1 X124.202 Y115.845 E0.00512
G1 X124.194 Y115.832 E0.00581
G1 X124.11 Y115.73 E0.01176
G1 X123.97 Y115.601 E0.02033
G1 X123.867 Y115.529 E0.02599
G1 X123.721 Y115.45 E0.03346
G1 X123.561 Y115.403 E0.04097
G1 X123.39 Y115.379 E0.04875
G1 X123.209 Y115.397 E0.05694
G1 X123.045 Y115.447 E0.06466
G1 X122.896 Y115.524 E0.07221
G1 X122.776 Y115.615 E0.07899
G1 X122.691 Y115.693 E0.08418
G1 X122.611 Y115.783 E0.0896
G1 X122.49 Y115.946 E0.09875
G1 X122.416 Y116.069 E0.10521
G1 X122.266 Y116.389 E0.12112
G1 X122.216 Y116.533 E0.12798
G1 X122.112 Y116.836 E0.14241
G1 X122.035 Y117.058 E0.15299
G1 X121.92 Y116.77 E0.15837
G1 X121.837 Y116.461 E0.16938
G1 X121.776 Y116.234 E0.17997
G1 X121.695 Y116.043 E0.18931
G1 X121.588 Y115.857 E0.19897
G1 X121.436 Y115.693 E0.20904
G1 X121.262 Y115.563 E0.21882
G1 X121.124 Y115.493 E0.22578
G1 X120.921 Y115.424 E0.23544
G1 X120.707 Y115.386 E0.24522
G1 X120.495 Y115.385 E0.25477
G1 X120.36 Y115.407 E0.26093
G1 X120.205 Y115.451 E0.26818
G1 X120.052 Y115.529 E0.27592
G1 X119.907 Y115.64 E0.28414
G1 X119.791 Y115.783 E0.29243
G1 X119.736 Y115.881 E0.29749
G1 X119.715 Y115.918 E0.2994
G1 X119.699 Y115.946 E0.30086
G1 X119.675 Y116.034 E0.30496
G1 X119.667 Y116.062 E0.30627
G1 X119.654 Y116.029
G1 X119.63 Y115.98
G1 X119.603 Y115.925 E0.30648
G1 X119.595 Y115.912
G1 X119.531 Y115.815 E0.30991
G1 X119.459 Y115.726 E0.31403
G1 X119.365 Y115.632 E0.32002
G1 X119.23 Y115.528 E0.32769
G1 X119.081 Y115.453 E0.3352
G1 X118.919 Y115.398 E0.3429
G1 X118.74 Y115.38 E0.351
G1 X118.572 Y115.392 E0.35859
G1 X118.402 Y115.437 E0.36651
G1 X118.251 Y115.508 E0.37402
G1 X118.083 Y115.618 E0.38306
G1 X117.934 Y115.75 E0.39202
G1 X117.932 Y115.752 E0.39215
G1 X117.847 Y115.841 E0.39769
G1 X117.766 Y115.938 E0.40338
G1 X117.726 Y115.996 E0.40655
G1 X117.675 Y116.07 E0.4106
G1 X117.644 Y116.025 E0.41062
G1 X117.625 Y115.999
G1 X117.612 Y115.981
G1 X117.611 Y115.979 E0.41072
G1 X117.524 Y115.858 E0.41669
G1 X117.379 Y115.7 E0.42635
G1 X117.23 Y115.576 E0.43508
G1 X117.123 Y115.508 E0.44079
G1 X116.977 Y115.439 E0.44806
G1 X116.817 Y115.397 E0.45551
G1 X116.663 Y115.379 E0.46249
G1 X116.533 Y115.384 E0.46834
G1 X116.42 Y115.401 E0.47349
G1 X116.309 Y115.429 E0.47864
G1 X116.187 Y115.473 E0.48448
G1 X116.015 Y115.566 E0.49329
G1 X115.903 Y115.65 E0.49959
G1 X115.793 Y115.762 E0.50666
G1 X115.688 Y115.905 E0.51465
G1 X115.621 Y116.063 E0.52237
G1 X115.573 Y116.233 E0.53033
G1 X115.57 Y116.47 E0.541
G1 X115.586 Y116.609 E0.5473
G1 X115.641 Y116.812 E0.55677
G1 X115.729 Y117.026 E0.56719
G1 X115.876 Y117.301 E0.58123
G1 X116.284 Y118.018 E0.61837
G1 X116.444 Y118.266 E0.63166
G1 X116.284 Y118.48 E0.64369
G1 X116.123 Y118.738 E0.65739
G1 X115.957 Y119.036 E0.67274
G1 X115.956 Y119.038 E0.67285
G1 X115.901 Y119.131 E0.67771
G1 X115.868 Y119.188 E0.68068
G1 X115.829 Y119.253 E0.68409
G1 X115.786 Y119.325 E0.68787
G1 X115.777 Y119.34 E0.68865
G1 X115.769 Y119.315
G1 X115.717 Y119.188 E0.69118
G1 X115.706 Y119.167
G1 X115.652 Y119.061 E0.6946
G1 X115.574 Y118.94 E0.7002
G1 X115.573 Y118.938 E0.7003
G1 X115.485 Y118.825 E0.70675
G1 X115.388 Y118.723 E0.71308
G1 X115.282 Y118.627 E0.71952
G1 X115.169 Y118.544 E0.72584
G1 X115.054 Y118.471 E0.73197
G1 X114.922 Y118.404 E0.73863
G1 X114.788 Y118.352 E0.74511
G1 X114.657 Y118.314 E0.75125
G1 X114.52 Y118.285 E0.75755
G1 X114.376 Y118.268 E0.76408
G1 X114.238 Y118.266 E0.7703
G1 X114.086 Y118.274 E0.77715
G1 X113.965 Y118.299 E0.78271
G1 X113.828 Y118.327 E0.78901
G1 X113.716 Y118.364 E0.79432
G1 X113.686 Y118.374 E0.79574
G1 X113.636 Y118.396 E0.7982
G1 X113.641 Y118.367
G1 X113.653 Y118.297 E0.79889
G1 X113.667 Y118.218 E0.80002
G1 X113.682 Y118.079 E0.80631
G1 X113.708 Y117.85 E0.81669
G1 X113.713 Y117.115 E0.84979
G1 X113.643 Y116.514 E0.87703
G1 X113.514 Y115.988 E0.90141
G1 X113.351 Y115.575 E0.92141
G1 X113.145 Y115.202 E0.94059
G1 X112.9 Y114.877 E0.95892
G1 X112.707 Y114.681 E0.9713
G1 X112.598 Y114.583 E0.9779
G1 X112.395 Y114.432 E0.98929
G1 X112.177 Y114.3 E1.00077
G1 X111.955 Y114.202 E1.0117
G1 X111.821 Y114.152 E1.01814
G1 X111.502 Y114.064 E1.03304
G1 X111.042 Y113.988 E1.05403
G1 X110.484 Y113.95 E1.07921
G1 X109.119 Y113.937 E1.14067
G1 X108.916 Y113.962 E1.14988
G1 X108.785 Y113.989 E1.15591
G1 X108.59 Y114.059 E1.16523
G1 X108.41 Y114.156 E1.17444
G1 X108.267 Y114.273 E1.18276
G1 X108.161 Y114.404 E1.19035
G1 X108.061 Y114.575 E1.19927
G1 X108.015 Y114.755 E1.20763
G1 X107.995 Y114.895 E1.214
G1 X107.992 Y115.018 E1.21954
G1 X108.034 Y115.674 E1.24914
G1 X108.026 Y117.77 E1.34351
G1 X108.026 Y117.86 E1.34756
G1 X108.024 Y118.4 E1.37188
G1 X108.022 Y118.664 E1.38377
G1 X108.02 Y118.912 E1.39493
G1 X108.019 Y119.046 E1.40097
G1 X108.017 Y119.277 E1.41137
G1 X108.016 Y119.415 E1.41758
G1 X108.015 Y119.609 E1.42632
G1 X108.015 Y119.66 E1.42861
G1 X108.013 Y119.83 E1.43627
G1 X108.032 Y120.042 E1.44585
G1 X108.055 Y120.177 E1.45202
G1 X108.113 Y120.36 E1.46066
G1 X108.158 Y120.468 E1.46593
G1 X108.237 Y120.606 E1.47309
G1 X108.342 Y120.735 E1.48058
G1 X108.472 Y120.847 E1.4883
G1 X108.618 Y120.929 E1.49584
G1 X108.781 Y120.989 E1.50366
G1 X108.952 Y121.014 E1.51145
G1 X109.147 Y121.016 E1.52023
G1 X109.657 Y120.973 E1.54327
G1 X110.651 Y120.975 E1.58803
G1 X111.36 Y120.892 E1.62017
G1 X111.826 Y120.765 E1.64192
G1 X112.291 Y120.534 E1.66529
G1 X112.568 Y120.331 E1.68076
G1 X112.569 Y120.33 E1.68082
G1 X112.584 Y120.317 E1.68171
G1 X112.616 Y120.287 E1.68369
G1 X112.655 Y120.252 E1.68605
G1 X112.706 Y120.207 E1.68911
G1 X112.727 Y120.288 E1.69024
G1 X112.743 Y120.349 E1.69125
G1 X112.793 Y120.481 E1.69568
G1 X112.851 Y120.608 E1.70133
G1 X112.852 Y120.609 E1.70139
G1 X112.924 Y120.731 E1.70777
G1 X113.01 Y120.853 E1.71449
G1 X113.165 Y121.026 E1.72495
G1 X113.356 Y121.18 E1.736
G1 X113.492 Y121.266 E1.74324
G1 X113.673 Y121.351 E1.75224
G1 X113.814 Y121.398 E1.75894
G1 X113.948 Y121.431 E1.76515
G1 X114.086 Y121.454 E1.77145
G1 X114.229 Y121.463 E1.7779
G1 X114.37 Y121.461 E1.78425
G1 X114.508 Y121.446 E1.7905
G1 X114.648 Y121.419 E1.79692
G1 X114.792 Y121.376 E1.80369
G1 X114.986 Y121.296 E1.81314
G1 X115.109 Y121.225 E1.81953
G1 X115.232 Y121.143 E1.82619
G1 X115.388 Y121.006 E1.83553
G1 X115.479 Y120.909 E1.84152
G1 X115.57 Y120.795 E1.84809
G1 X115.586 Y120.768 E1.8495
G1 X115.597 Y120.751 E1.85042
G1 X115.622 Y120.712 E1.8525
G1 X115.643 Y120.679 E1.85426
G1 X115.674 Y120.729 E1.85514
G1 X115.689 Y120.753
G1 X115.803 Y120.879 E1.86026
G1 X115.896 Y120.957 E1.865
G1 X115.99 Y121.022 E1.87015
G1 X116.092 Y121.078 E1.87539
G1 X116.243 Y121.139 E1.88272
G1 X116.402 Y121.173 E1.89004
G1 X116.566 Y121.186 E1.89745
G1 X116.758 Y121.162 E1.90616
G1 X116.934 Y121.098 E1.91459
G1 X117.073 Y121.017 E1.92184
G1 X117.198 Y120.917 E1.92905
G1 X117.348 Y120.757 E1.93892
G1 X117.495 Y120.537 E1.95083
G1 X117.532 Y120.482 E1.95382
G1 X117.619 Y120.352 E1.96086
G1 X117.785 Y120.651 E1.97017
G1 X117.824 Y120.705 E1.97287
G1 X117.903 Y120.812 E1.97886
G1 X117.987 Y120.902 E1.9844
G1 X118.099 Y120.999 E1.99107
G1 X118.243 Y121.091 E1.99877
G1 X118.403 Y121.154 E2.00651
G1 X118.568 Y121.192 E2.01413
G1 X118.759 Y121.204 E2.02275
G1 X118.964 Y121.177 E2.03206
G1 X119.084 Y121.143 E2.03768
G1 X119.197 Y121.1 E2.04312
G1 X119.339 Y121.023 E2.05039
G1 X119.468 Y120.924 E2.05772
G1 X119.591 Y120.794 E2.06577
G1 X119.683 Y120.639 E2.07389
G1 X119.747 Y120.484 E2.08144
G1 X119.776 Y120.353 E2.08748
G1 X119.791 Y120.24 E2.09261
G1 X119.794 Y120.128 E2.09766
G1 X119.789 Y120.01 E2.10298
G1 X119.769 Y119.879 E2.10894
G1 X119.715 Y119.685 E2.11801
G1 X119.658 Y119.545 E2.12482
G1 X118.888 Y118.24 E2.19304
G1 X118.884 Y118.217 E2.19409
G1 X118.9 Y118.154 E2.19702
G1 X118.938 Y118.073 E2.20105
G1 X119.464 Y117.187 E2.24744
G1 X119.562 Y117.022 E2.25608
G1 X119.606 Y116.948 E2.25996
G1 X119.639 Y116.865 E2.26398
G1 X119.659 Y116.815 E2.2664
G1 X119.67 Y116.877 E2.26652
G1 X119.683 Y116.925
G1 X119.741 Y117.127 E2.272
G1 X119.813 Y117.304 E2.27875
G1 X120.062 Y117.912 E2.30833
G1 X120.769 Y119.788 E2.3986
G1 X120.905 Y120.076 E2.41294
G1 X120.939 Y120.168 E2.41736
G1 X120.946 Y120.203 E2.41897
G1 X120.94 Y120.246 E2.42092
G1 X120.916 Y120.31 E2.424
G1 X120.689 Y120.795 E2.44811
G1 X120.516 Y121.259 E2.47041
G1 X120.471 Y121.348 E2.4749
G1 X120.442 Y121.389 E2.47716
G1 X120.392 Y121.442 E2.48044
G1 X120.336 Y121.485 E2.48362
G1 X120.247 Y121.524 E2.48799
G1 X119.864 Y121.626 E2.50584
G1 X119.684 Y121.7 E2.5146
G1 X119.537 Y121.789 E2.52234
G1 X119.418 Y121.9 E2.52967
G1 X119.304 Y122.046 E2.53801
G1 X119.235 Y122.209 E2.54598
G1 X119.197 Y122.357 E2.55286
G1 X119.185 Y122.489 E2.55882
G1 X119.186 Y122.61 E2.56427
G1 X119.208 Y122.77 E2.57154
G1 X119.269 Y122.979 E2.58135
G1 X119.364 Y123.181 E2.5914
G1 X119.488 Y123.351 E2.60087
G1 X119.614 Y123.478 E2.60893
G1 X119.761 Y123.577 E2.61691
G1 X119.872 Y123.63 E2.62245
G1 X119.978 Y123.669 E2.62753
G1 X120.086 Y123.696 E2.63254
G1 X120.201 Y123.714 E2.63779
G1 X120.389 Y123.722 E2.64626
G1 X120.523 Y123.713 E2.6523
G1 X120.736 Y123.676 E2.66204
G1 X120.87 Y123.642 E2.66826
G1 X121.106 Y123.566 E2.67943
G1 X121.239 Y123.513 E2.68587
G1 X121.44 Y123.411 E2.69602
G1 X121.556 Y123.342 E2.7021
G1 X121.739 Y123.203 E2.71245
G1 X121.902 Y123.041 E2.72279
G1 X122.054 Y122.849 E2.73382
G1 X122.278 Y122.461 E2.75399
G1 X122.587 Y121.733 E2.7896
G1 X123.023 Y120.587 E2.84481
G1 X124.131 Y117.45 E2.99461
G1 X124.138 Y117.43 E2.99556
G1 X124.243 Y117.204 E3.00678
G1 X124.244 Y117.202 E3.00688
G1 X124.258 Y117.173 E3.00833
G1 X124.259 Y117.171 E3.00843
G1 X124.285 Y117.115 E3.01121
G1 X124.304 Y117.074 E3.01325
G1 X124.345 Y117.142 E3.01452
G1 X124.389 Y117.188 E3.01586
G1 X124.468 Y117.27 E3.02072
G1 X124.469 Y117.271 E3.02078
G1 X124.485 Y117.283 E3.02168
G1 X124.598 Y117.366 E3.028
G1 X124.6 Y117.367 E3.02809
G1 X124.602 Y117.368 E3.02819
G1 X124.75 Y117.445 E3.0357
G1 X124.931 Y117.504 E3.04427
G1 X125.054 Y117.532 E3.04995
G1 X125.06 Y117.533 E3.05022
G1 X125.507 Y117.577 E3.07045
G1 X125.377 Y117.759 E3.07366
G1 X125.373 Y117.764 E3.07394
G1 X124.343 Y119.201 E3.15355
G1 X124.237 Y119.407 E3.16398
G1 X124.185 Y119.528 E3.16991
G1 X124.129 Y119.723 E3.17905
G1 X124.106 Y119.854 E3.18503
G1 X124.095 Y120.058 E3.19423
G1 X124.106 Y120.197 E3.20051
G1 X124.146 Y120.402 E3.20992
G1 X124.218 Y120.6 E3.2194
G1 X124.282 Y120.716 E3.22537
G1 X124.35 Y120.813 E3.2307
G1 X124.438 Y120.917 E3.23684
G1 X124.567 Y121.024 E3.24438
G1 X124.715 Y121.109 E3.25207
G1 X124.865 Y121.16 E3.2592
G1 X125.021 Y121.194 E3.26639
G1 X125.229 Y121.203 E3.27576
G1 X125.882 Y121.174 E3.30519
G1 X126.883 Y121.176 E3.35026
G1 X126.929 Y121.176 E3.35234
G1 X127.32 Y121.177 E3.36994
G1 X126.929 Y121.542 E3.3835
G1 X126.894 Y121.57 E3.38544
G1 X126.056 Y122.239 E3.43372
G1 X125.282 Y122.77 E3.47598
G1 X124.309 Y123.34 E3.52676
G1 X123.322 Y123.818 E3.57614
G1 X122.246 Y124.238 E3.62814
G1 X120.918 Y124.629 E3.69048
G1 X119.826 Y124.848 E3.74062
G1 X118.726 Y124.98 E3.79051
G1 X117.271 Y125.027 E3.85605
G1 X93.191 Y123.563 E4.94228
G1 X93.112 Y123.552 E4.94587
G1 X93.033 Y123.534 E4.94952
G1 X92.93 Y123.501 E4.95439
G1 X92.811 Y123.448 E4.96025
G1 X92.705 Y123.386 E4.96578
G1 X92.628 Y123.33 E4.97007
G1 X92.52 Y123.23 E4.9767
G1 X92.47 Y123.172 E4.98015
G1 X92.391 Y123.059 E4.98635
G1 X92.333 Y122.958 E4.9916
G1 X92.302 Y122.889 E4.995
G1 X92.272 Y122.806 E4.99898
G1 X92.251 Y122.731 E5.00248
G1 X92.22 Y122.568 E5.00995
G1 X92.209 Y122.395 E5.01776
G1 X92.207 Y122.173 E5.02776
G1 X92.207 Y119.944 E5.12812
G1 X92.207 Y119.549 E5.1459
G1 X92.207 Y119.12 E5.16522
G1 X92.386 Y119.549 E5.17083
G1 X92.59 Y119.887 E5.18387
G1 X92.611 Y119.922 E5.18571
G1 X92.968 Y120.338 E5.21039
G1 X93.298 Y120.612 E5.22971
G1 X93.656 Y120.83 E5.24858
G1 X94.041 Y120.992 E5.26739
G1 X94.323 Y121.072 E5.28059
G1 X94.657 Y121.132 E5.29586
G1 X94.981 Y121.154 E5.31049
G1 X95.502 Y121.137 E5.33396
G1 X95.889 Y121.07 E5.35164
G1 X96.03 Y121.032 E5.35822
G1 X96.156 Y120.99 E5.3642
G1 X96.283 Y120.941 E5.37033
G1 X96.505 Y120.833 E5.38144
G1 X96.713 Y120.701 E5.39253
G1 X96.895 Y120.553 E5.4031
G1 X96.999 Y120.453 E5.40959
G1 X97.146 Y120.278 E5.41988
G1 X97.221 Y120.171 E5.42577
G1 X97.288 Y120.058 E5.43168
G1 X97.38 Y119.865 E5.44131
G1 X97.431 Y119.731 E5.44776
G1 X97.474 Y119.545 E5.45636
G1 X97.457 Y119.329 E5.46612
G1 X97.409 Y119.155 E5.47424
G1 X97.33 Y118.995 E5.48228
G1 X97.232 Y118.86 E5.48979
G1 X97.14 Y118.765 E5.49574
G1 X96.972 Y118.632 E5.50539
G1 X96.76 Y118.527 E5.51604
G1 X96.543 Y118.463 E5.52623
G1 X96.348 Y118.441 E5.53507
G1 X96.207 Y118.44 E5.54141
G1 X95.998 Y118.475 E5.55096
G1 X95.832 Y118.534 E5.55889
G1 X95.686 Y118.617 E5.56645
G1 X95.553 Y118.722 E5.57408
G1 X95.407 Y118.896 E5.58431
G1 X95.385 Y118.91 E5.58548
G1 X95.35 Y118.923 E5.58716
G1 X95.199 Y118.955 E5.59411
G1 X95.065 Y118.964 E5.60016
G1 X94.971 Y118.958 E5.6044
G1 X94.819 Y118.929 E5.61137
G1 X94.707 Y118.888 E5.61674
G1 X94.623 Y118.845 E5.62099
G1 X94.508 Y118.762 E5.62737
G1 X94.429 Y118.677 E5.6326
G1 X94.377 Y118.597 E5.63689
G1 X94.325 Y118.496 E5.64201
G1 X94.294 Y118.42 E5.6457
G1 X94.222 Y118.16 E5.65785
G1 X94.18 Y117.859 E5.67154
G1 X94.163 Y117.423 E5.69118
G1 X94.191 Y116.966 E5.7118
G1 X94.254 Y116.636 E5.72692
G1 X94.307 Y116.478 E5.73443
G1 X94.361 Y116.363 E5.74015
G1 X94.419 Y116.27 E5.74508
G1 X94.493 Y116.183 E5.75023
G1 X94.587 Y116.106 E5.7557
G1 X94.697 Y116.045 E5.76136
G1 X94.78 Y116.011 E5.7654
G1 X94.875 Y115.986 E5.76982
G1 X94.971 Y115.972 E5.77419
G1 X95.058 Y115.97 E5.77811
G1 X95.102 Y115.975 E5.7801
G1 X95.15 Y115.987 E5.78233
G1 X95.203 Y116.009 E5.78491
G1 X95.754 Y116.336 E5.81376
G1 X95.963 Y116.425 E5.82399
G1 X96.153 Y116.477 E5.83286
G1 X96.281 Y116.496 E5.83869
G1 X96.441 Y116.5 E5.84589
G1 X96.603 Y116.477 E5.85326
G1 X96.743 Y116.434 E5.85986
G1 X96.886 Y116.363 E5.86704
G1 X96.991 Y116.294 E5.8727
G1 X97.094 Y116.205 E5.87883
G1 X97.226 Y116.05 E5.888
G1 X97.295 Y115.939 E5.89388
G1 X97.354 Y115.821 E5.89982
G1 X97.382 Y115.735 E5.90389
G1 X97.415 Y115.633 E5.90872
G1 X97.424 Y115.575 E5.91136
G1 X97.444 Y115.619
G1 X97.459 Y115.652
G1 X97.502 Y115.711 E5.91179
G1 X97.538 Y115.759 E5.91227
G1 X97.563 Y115.793 E5.91251
G1 X97.683 Y115.919 E5.91862
G1 X97.83 Y116.015 E5.92652
G1 X97.982 Y116.086 E5.93408
G1 X98.149 Y116.127 E5.94182
G1 X98.331 Y116.143 E5.95004
G1 X98.467 Y116.143 E5.95617
G1 X98.895 Y116.087 E5.9756
G1 X99 Y116.074 E5.98037
G1 X99.122 Y116.067 E5.98587
G1 X99.215 Y116.076 E5.99008
G1 X99.217 Y116.122 E5.99215
G1 X99.212 Y116.228 E5.99693
G1 X99.183 Y116.77 E6.02137
G1 X99.193 Y119.581 E6.14793
G1 X99.156 Y120.039 E6.16862
G1 X99.171 Y120.173 E6.1747
G1 X99.199 Y120.319 E6.18139
G1 X99.263 Y120.48 E6.18919
G1 X99.36 Y120.631 E6.19727
G1 X99.484 Y120.759 E6.20529
G1 X99.631 Y120.86 E6.21333
G1 X99.822 Y120.945 E6.22274
G1 X99.95 Y120.98 E6.22871
G1 X100.076 Y121.003 E6.23448
G1 X100.278 Y121.011 E6.24358
G1 X100.417 Y120.999 E6.24986
G1 X100.611 Y120.951 E6.25886
G1 X100.765 Y120.885 E6.26641
G1 X100.916 Y120.787 E6.27451
G1 X101.042 Y120.665 E6.28241
G1 X101.127 Y120.555 E6.28867
