;FLAVOR:Marlin
;TIME:1962
;Filament used: 0.830261m
;Layer height: 0.2
;MINX:86.298
;MINY:84.852
;MINZ:0.2
;MAXX:133.986
;MAXY:135.153
;MAXZ:16
;Generated with Cura_SteamEngine 4.7.0
M140 S60
M105
M190 S60
M104 S200
M105
M109 S200
M82 ;absolute extrusion mode
; Ender 3 Custom Start G-code
G92 E0 ; Reset Extruder
G28 ; Home all axes
G1 Z2.0 F3000 ; Move Z Axis up little to prevent scratching of Heat Bed
G1 X0.1 Y20 Z0.3 F5000.0 ; Move to start position
G1 X0.1 Y200.0 Z0.3 F1500.0 E15 ; Draw the first line
G1 X0.4 Y200.0 Z0.3 F5000.0 ; Move to side a little
G1 X0.4 Y20 Z0.3 F1500.0 E30 ; Draw the second line
G92 E0 ; Reset Extruder
G1 Z2.0 F3000 ; Move Z Axis up little to prevent scratching of Heat Bed
G1 X5 Y20 Z0.3 F5000.0 ; Move over to prevent blob squish
G92 E0
G92 E0
G1 F1500 E-6.5
;LAYER_COUNT:80
;LAYER:0
M107
G0 F6000 X90.476 Y88.109 Z0.2
;TYPE:SKIRT
G1 F1500 E0
G1 F1200 X91.165 Y87.473 E0.03119
G1 X91.906 Y86.897 E0.0624
G1 X92.692 Y86.387 E0.09357
G1 X93.52 Y85.945 E0.12478
G1 X94.382 Y85.576 E0.15597
G1 X95.272 Y85.281 E0.18716
G1 X96.184 Y85.063 E0.21834
G1 X97.112 Y84.924 E0.24955
G1 X97.972 Y84.866 E0.27822
G1 X98.293 Y84.857 E0.2889
G1 X98.601 Y84.853 E0.29915
G1 X121.225 Y84.852 E1.05162
G1 X121.622 Y84.855 E1.06483
G1 X122.092 Y84.855 E1.08046
G1 X123.029 Y84.895 E1.11166
G1 X123.959 Y85.015 E1.14284
G1 X124.876 Y85.213 E1.17405
G1 X125.772 Y85.489 E1.20523
G1 X126.642 Y85.84 E1.23643
G1 X127.478 Y86.264 E1.26761
G1 X128.276 Y86.758 E1.29882
G1 X129.028 Y87.318 E1.33001
G1 X129.73 Y87.939 E1.36118
G1 X130.377 Y88.619 E1.3924
G1 X130.963 Y89.351 E1.42359
G1 X131.485 Y90.13 E1.45478
G1 X131.938 Y90.951 E1.48596
G1 X132.32 Y91.808 E1.51717
G1 X132.628 Y92.694 E1.54837
G1 X132.859 Y93.603 E1.57956
G1 X133.012 Y94.528 E1.61075
G1 X133.091 Y95.703 E1.64992
G1 X133.104 Y96.721 E1.68378
G1 X133.104 Y97.319 E1.70367
G1 X133.141 Y99.928 E1.79045
G1 X133.248 Y102.45 E1.87441
G1 X133.425 Y104.944 E1.95757
G1 X133.672 Y107.437 E2.04089
G1 X133.788 Y108.351 E2.07154
G1 X133.904 Y109.36 E2.10532
G1 X133.971 Y110.284 E2.13613
G1 X133.981 Y110.615 E2.14714
G1 X133.986 Y110.947 E2.15819
G1 X133.985 Y111.247 E2.16817
G1 X133.975 Y111.974 E2.19235
G1 X133.966 Y112.29 E2.20286
G1 X133.912 Y113.566 E2.24534
G1 X133.837 Y116.207 E2.33322
G1 X133.837 Y118.697 E2.41603
G1 X133.91 Y121.259 E2.50128
G1 X133.943 Y121.896 E2.5225
G1 X133.974 Y122.711 E2.54962
G1 X133.981 Y122.978 E2.55851
G1 X133.985 Y123.29 E2.56888
G1 X133.985 Y123.585 E2.5787
G1 X133.975 Y124.298 E2.60241
G1 X133.922 Y125.235 E2.63363
G1 X133.789 Y126.163 E2.66481
G1 X133.578 Y127.077 E2.69601
G1 X133.289 Y127.969 E2.72719
G1 X132.926 Y128.834 E2.75839
G1 X132.49 Y129.664 E2.78958
G1 X131.986 Y130.455 E2.82077
G1 X131.415 Y131.199 E2.85197
G1 X130.784 Y131.893 E2.88316
G1 X130.095 Y132.53 E2.91437
G1 X129.355 Y133.105 E2.94554
G1 X128.568 Y133.616 E2.97675
G1 X127.741 Y134.058 E3.00794
G1 X126.879 Y134.428 E3.03914
G1 X125.989 Y134.723 E3.07032
G1 X125.077 Y134.941 E3.10151
G1 X124.15 Y135.081 E3.13269
G1 X123.285 Y135.14 E3.16153
G1 X122.965 Y135.149 E3.17218
G1 X122.656 Y135.153 E3.18246
G1 X122.265 Y135.152 E3.19546
G1 X121.562 Y135.142 E3.21885
G1 X118.595 Y135.058 E3.31757
G1 X117.301 Y135.049 E3.36061
G1 X103.04 Y135.049 E3.83493
G1 X100.387 Y135.087 E3.92318
G1 X99.272 Y135.128 E3.96029
G1 X99.034 Y135.135 E3.96821
G1 X98.069 Y135.15 E4.00031
G1 X97.749 Y135.15 E4.01095
G1 X97.158 Y135.142 E4.03061
G1 X96.222 Y135.089 E4.06179
G1 X95.293 Y134.957 E4.093
G1 X94.379 Y134.746 E4.1242
G1 X93.487 Y134.458 E4.15538
G1 X92.622 Y134.095 E4.18658
G1 X91.791 Y133.66 E4.21777
G1 X91.001 Y133.156 E4.24894
G1 X90.256 Y132.586 E4.28014
G1 X89.562 Y131.954 E4.31136
G1 X88.925 Y131.266 E4.34254
G1 X88.349 Y130.526 E4.37373
G1 X87.837 Y129.74 E4.40493
G1 X87.395 Y128.913 E4.43612
G1 X87.025 Y128.051 E4.46732
G1 X86.729 Y127.161 E4.49852
G1 X86.511 Y126.249 E4.52971
G1 X86.37 Y125.322 E4.56089
G1 X86.311 Y124.441 E4.59026
G1 X86.302 Y124.109 E4.60131
G1 X86.298 Y123.811 E4.61122
G1 X86.299 Y123.479 E4.62226
G1 X86.309 Y122.806 E4.64465
G1 X86.318 Y122.503 E4.65473
G1 X86.372 Y121.219 E4.69747
G1 X86.446 Y118.585 E4.78512
G1 X86.446 Y116.083 E4.86833
G1 X86.362 Y113.286 E4.9614
G1 X86.322 Y112.399 E4.99093
G1 X86.312 Y112.067 E5.00198
G1 X86.301 Y111.341 E5.02613
G1 X86.301 Y110.999 E5.03751
G1 X86.31 Y110.433 E5.05633
G1 X86.398 Y109.21 E5.09712
G1 X86.538 Y108.12 E5.13367
G1 X86.833 Y105.519 E5.22073
G1 X87.045 Y103.029 E5.30385
G1 X87.186 Y100.546 E5.38657
G1 X87.259 Y97.958 E5.47268
G1 X87.27 Y96.459 E5.52254
G1 X87.281 Y95.702 E5.54772
G1 X87.335 Y94.766 E5.5789
G1 X87.468 Y93.837 E5.61011
G1 X87.68 Y92.924 E5.64129
G1 X87.968 Y92.032 E5.67247
G1 X88.332 Y91.167 E5.70368
G1 X88.768 Y90.337 E5.73486
G1 X89.274 Y89.547 E5.76607
G1 X89.844 Y88.802 E5.79726
G1 X90.476 Y88.109 E5.82846
G0 F6000 X90.868 Y88.284
G1 F1200 X91.554 Y87.67 E5.85908
G1 X92.29 Y87.117 E5.8897
G1 X93.071 Y86.63 E5.92031
G1 X93.892 Y86.213 E5.95094
G1 X94.746 Y85.869 E5.98156
G1 X95.626 Y85.6 E6.01217
G1 X96.527 Y85.408 E6.04281
G1 X97.44 Y85.295 E6.07341
G1 X97.983 Y85.266 E6.09149
G1 X98.304 Y85.257 E6.10217
G1 X98.601 Y85.253 E6.11205
G1 X121.222 Y85.252 E6.86443
G1 X121.619 Y85.255 E6.87763
G1 X122.092 Y85.255 E6.89337
G1 X123.012 Y85.295 E6.92399
G1 X123.925 Y85.415 E6.95462
G1 X124.824 Y85.613 E6.98524
G1 X125.702 Y85.889 E7.01585
G1 X126.553 Y86.24 E7.04647
G1 X127.371 Y86.663 E7.0771
G1 X128.148 Y87.156 E7.1077
G1 X128.88 Y87.714 E7.13832
G1 X129.561 Y88.334 E7.16895
G1 X130.186 Y89.01 E7.19957
G1 X130.749 Y89.738 E7.23018
G1 X131.247 Y90.513 E7.26082
G1 X131.676 Y91.327 E7.29142
G1 X132.033 Y92.176 E7.32205
G1 X132.315 Y93.052 E7.35266
G1 X132.519 Y93.95 E7.38329
G1 X132.645 Y94.862 E7.41391
G1 X132.691 Y95.708 E7.44209
G1 X132.704 Y96.721 E7.47579
G1 X132.704 Y97.325 E7.49588
G1 X132.741 Y99.95 E7.58319
G1 X132.848 Y102.459 E7.66672
G1 X133.026 Y104.975 E7.75061
G1 X133.276 Y107.494 E7.8348
G1 X133.391 Y108.396 E7.86505
G1 X133.507 Y109.405 E7.89883
G1 X133.571 Y110.296 E7.92854
G1 X133.581 Y110.627 E7.93955
G1 X133.586 Y110.947 E7.9502
G1 X133.585 Y111.242 E7.96001
G1 X133.575 Y111.969 E7.98419
G1 X133.566 Y112.273 E7.99431
G1 X133.513 Y113.51 E8.03549
G1 X133.437 Y116.196 E8.12486
G1 X133.437 Y118.708 E8.20841
G1 X133.51 Y121.281 E8.29402
G1 X133.551 Y122.079 E8.3206
G1 X133.575 Y122.725 E8.3421
G1 X133.581 Y122.983 E8.35068
G1 X133.585 Y123.295 E8.36106
G1 X133.585 Y123.58 E8.37054
G1 X133.575 Y124.293 E8.39426
G1 X133.522 Y125.212 E8.42487
G1 X133.39 Y126.123 E8.45549
G1 X133.179 Y127.019 E8.48611
G1 X132.891 Y127.893 E8.51671
G1 X132.528 Y128.74 E8.54736
G1 X132.093 Y129.551 E8.57797
G1 X131.59 Y130.322 E8.60859
G1 X131.021 Y131.046 E8.63922
G1 X130.392 Y131.718 E8.66983
G1 X129.707 Y132.333 E8.70045
G1 X128.971 Y132.886 E8.73107
G1 X128.189 Y133.373 E8.76171
G1 X127.369 Y133.791 E8.79232
G1 X126.515 Y134.136 E8.82296
G1 X125.635 Y134.405 E8.85356
G1 X124.735 Y134.597 E8.88417
G1 X123.821 Y134.71 E8.9148
G1 X123.274 Y134.74 E8.93302
G1 X122.954 Y134.749 E8.94367
G1 X122.656 Y134.753 E8.95358
G1 X122.27 Y134.752 E8.96642
G1 X121.567 Y134.742 E8.98981
G1 X118.609 Y134.658 E9.08823
G1 X117.304 Y134.649 E9.13163
G1 X103.034 Y134.649 E9.60626
G1 X100.41 Y134.686 E9.69354
G1 X99.257 Y134.729 E9.73191
G1 X99.028 Y134.735 E9.73953
G1 X98.063 Y134.75 E9.77163
G1 X97.755 Y134.75 E9.78188
G1 X97.164 Y134.742 E9.80154
G1 X96.244 Y134.69 E9.83218
G1 X95.333 Y134.558 E9.8628
G1 X94.437 Y134.347 E9.89342
G1 X93.562 Y134.06 E9.92405
G1 X92.716 Y133.697 E9.95466
G1 X91.904 Y133.263 E9.98529
G1 X91.133 Y132.76 E10.01591
G1 X90.409 Y132.191 E10.04653
G1 X89.737 Y131.562 E10.07715
G1 X89.121 Y130.878 E10.10776
G1 X88.568 Y130.142 E10.13838
G1 X88.08 Y129.361 E10.16901
G1 X87.662 Y128.541 E10.19962
G1 X87.317 Y127.687 E10.23026
G1 X87.047 Y126.807 E10.26087
G1 X86.855 Y125.907 E10.29148
G1 X86.741 Y124.993 E10.32212
G1 X86.711 Y124.43 E10.34087
G1 X86.702 Y124.098 E10.35192
G1 X86.698 Y123.811 E10.36146
G1 X86.699 Y123.485 E10.37231
G1 X86.709 Y122.812 E10.39469
G1 X86.718 Y122.52 E10.40441
G1 X86.772 Y121.247 E10.44679
G1 X86.846 Y118.596 E10.53499
G1 X86.846 Y116.071 E10.61898
G1 X86.76 Y113.21 E10.71418
G1 X86.722 Y112.381 E10.74178
G1 X86.712 Y112.061 E10.75243
G1 X86.701 Y111.335 E10.77658
G1 X86.701 Y111.005 E10.78755
G1 X86.71 Y110.439 E10.80638
G1 X86.795 Y109.261 E10.84566
G1 X86.937 Y108.149 E10.88295
G1 X87.227 Y105.597 E10.96837
G1 X87.444 Y103.051 E11.05336
G1 X87.586 Y100.544 E11.13688
G1 X87.659 Y97.971 E11.22249
G1 X87.67 Y96.465 E11.27258
G1 X87.681 Y95.708 E11.29776
G1 X87.734 Y94.789 E11.32838
G1 X87.867 Y93.878 E11.359
G1 X88.079 Y92.982 E11.38962
G1 X88.367 Y92.108 E11.42023
G1 X88.73 Y91.262 E11.45085
G1 X89.166 Y90.45 E11.4815
G1 X89.67 Y89.68 E11.51211
G1 X90.238 Y88.956 E11.54272
G1 X90.868 Y88.284 E11.57336
G0 F6000 X91.259 Y88.463
G1 F1200 X91.941 Y87.871 E11.60339
G1 X92.673 Y87.341 E11.63345
G1 X93.449 Y86.879 E11.66349
G1 X94.262 Y86.487 E11.69351
G1 X95.107 Y86.168 E11.72355
G1 X95.977 Y85.925 E11.75359
G1 X96.865 Y85.761 E11.78363
G1 X97.994 Y85.666 E11.82131
G1 X98.315 Y85.657 E11.83199
G1 X98.601 Y85.653 E11.84151
G1 X121.219 Y85.652 E12.59378
G1 X121.616 Y85.655 E12.60699
G1 X122.092 Y85.655 E12.62282
G1 X122.994 Y85.695 E12.65285
G1 X123.889 Y85.815 E12.68288
G1 X124.77 Y86.013 E12.71292
G1 X125.63 Y86.288 E12.74295
G1 X126.463 Y86.639 E12.77301
G1 X127.261 Y87.062 E12.80305
G1 X128.018 Y87.553 E12.83306
G1 X128.729 Y88.11 E12.8631
G1 X129.389 Y88.728 E12.89318
G1 X129.99 Y89.401 E12.92319
G1 X130.53 Y90.125 E12.95323
G1 X131.004 Y90.894 E12.98327
G1 X131.408 Y91.701 E13.01329
G1 X131.739 Y92.542 E13.04335
G1 X131.994 Y93.408 E13.07338
G1 X132.172 Y94.293 E13.1034
G1 X132.27 Y95.191 E13.13344
G1 X132.291 Y95.714 E13.15085
G1 X132.304 Y96.721 E13.18435
G1 X132.304 Y97.331 E13.20464
G1 X132.341 Y99.937 E13.29132
G1 X132.45 Y102.503 E13.37675
G1 X132.628 Y105.01 E13.46034
G1 X132.879 Y107.549 E13.5452
G1 X132.993 Y108.442 E13.57514
G1 X133.109 Y109.451 E13.60892
G1 X133.171 Y110.308 E13.6375
G1 X133.181 Y110.639 E13.64851
G1 X133.186 Y110.947 E13.65876
G1 X133.185 Y111.236 E13.66837
G1 X133.175 Y111.963 E13.69255
G1 X133.167 Y112.256 E13.7023
G1 X133.111 Y113.578 E13.74631
G1 X133.037 Y116.185 E13.83306
G1 X133.037 Y118.719 E13.91734
G1 X133.11 Y121.283 E14.00265
G1 X133.151 Y122.094 E14.02966
G1 X133.175 Y122.74 E14.05116
G1 X133.181 Y122.988 E14.05941
G1 X133.185 Y123.3 E14.06979
G1 X133.185 Y123.574 E14.0789
G1 X133.175 Y124.287 E14.10262
G1 X133.122 Y125.189 E14.13267
G1 X132.99 Y126.082 E14.16269
G1 X132.78 Y126.96 E14.19272
G1 X132.492 Y127.816 E14.22276
G1 X132.13 Y128.644 E14.25282
G1 X131.696 Y129.436 E14.28285
G1 X131.194 Y130.186 E14.31287
G1 X130.627 Y130.889 E14.34291
G1 X130 Y131.54 E14.37297
G1 X129.319 Y132.132 E14.40298
G1 X128.587 Y132.662 E14.43304
G1 X127.812 Y133.125 E14.46307
G1 X126.999 Y133.517 E14.49309
G1 X126.154 Y133.836 E14.52313
G1 X125.284 Y134.079 E14.55317
G1 X124.396 Y134.245 E14.58322
G1 X123.263 Y134.34 E14.62104
G1 X122.943 Y134.349 E14.63168
G1 X122.656 Y134.353 E14.64123
G1 X122.276 Y134.352 E14.65387
G1 X121.573 Y134.342 E14.67725
G1 X118.622 Y134.258 E14.77544
G1 X117.307 Y134.249 E14.81918
G1 X103.028 Y134.249 E15.2941
G1 X100.39 Y134.286 E15.38185
G1 X99.242 Y134.329 E15.42006
G1 X99.022 Y134.335 E15.42738
G1 X98.057 Y134.35 E15.45948
G1 X97.76 Y134.35 E15.46936
G1 X97.169 Y134.342 E15.48902
G1 X96.267 Y134.29 E15.51907
G1 X95.374 Y134.158 E15.54909
G1 X94.496 Y133.948 E15.57912
G1 X93.639 Y133.661 E15.60918
G1 X92.812 Y133.299 E15.6392
G1 X92.02 Y132.866 E15.66923
G1 X91.269 Y132.364 E15.69927
G1 X90.565 Y131.797 E15.72934
G1 X89.915 Y131.171 E15.75935
G1 X89.322 Y130.49 E15.78938
G1 X88.792 Y129.758 E15.81944
G1 X88.329 Y128.983 E15.84947
G1 X87.936 Y128.17 E15.8795
G1 X87.616 Y127.325 E15.90956
G1 X87.373 Y126.456 E15.93957
G1 X87.207 Y125.568 E15.96961
G1 X87.111 Y124.419 E16.00796
G1 X87.102 Y124.087 E16.01901
G1 X87.098 Y123.811 E16.02819
G1 X87.099 Y123.49 E16.03887
G1 X87.109 Y122.817 E16.06125
G1 X87.117 Y122.537 E16.07057
G1 X87.175 Y121.158 E16.11648
G1 X87.246 Y118.607 E16.20136
G1 X87.246 Y116.059 E16.2861
G1 X87.161 Y113.227 E16.38034
G1 X87.122 Y112.363 E16.4091
G1 X87.112 Y112.055 E16.41935
G1 X87.101 Y111.329 E16.4435
G1 X87.101 Y111.012 E16.45405
G1 X87.11 Y110.446 E16.47287
G1 X87.192 Y109.312 E16.51069
G1 X87.328 Y108.247 E16.5464
G1 X87.628 Y105.605 E16.63484
G1 X87.841 Y103.107 E16.71822
G1 X87.986 Y100.544 E16.8036
G1 X88.059 Y97.985 E16.88875
G1 X88.07 Y96.471 E16.93911
G1 X88.081 Y95.714 E16.96429
G1 X88.134 Y94.812 E16.99434
G1 X88.267 Y93.919 E17.02437
G1 X88.478 Y93.041 E17.0544
G1 X88.766 Y92.185 E17.08444
G1 X89.128 Y91.358 E17.11447
G1 X89.563 Y90.566 E17.14452
G1 X90.065 Y89.816 E17.17454
G1 X90.632 Y89.113 E17.20458
G1 X91.259 Y88.463 E17.23462
G1 F1500 E10.73462
;MESH:CONTAINER.stl
G0 F6000 X97.617 Y107.966
G0 X102.83 Y107.973
G0 X108.413 Y117.382
G0 X106.978 Y117.382
G0 X107.144 Y118.553
;TYPE:WALL-INNER
G1 F1500 E17.23462
G1 F1200 X107.144 Y118.555 E17.23468
G1 X107.144 Y118.755 E17.24134
G1 X107.344 Y118.755 E17.24564
G1 X107.346 Y118.754 E17.24572
G1 X107.96 Y118.747 E17.26614
G1 X112.999 Y118.734 E17.43374
G1 X113.198 Y118.734 E17.44036
G1 X113.198 Y118.535 E17.44464
G1 X113.194 Y117.354 E17.48392
G1 X113.198 Y116.041 E17.52759
G1 X112.325 Y116.035 E17.55663
G1 X111.184 Y116.033 E17.59458
G1 X109.466 Y116.027 E17.65172
G1 X107.344 Y116.022 E17.7223
G1 X107.144 Y116.022 E17.72895
G1 X107.144 Y116.222 E17.73326
G1 X107.148 Y117.383 E17.77187
G1 X107.144 Y118.553 E17.81079
G0 F6000 X107.545 Y118.351
;TYPE:WALL-OUTER
G1 F1200 X107.956 Y118.347 E17.82446
G1 X112.797 Y118.335 E17.98547
G1 X112.794 Y117.353 E18.01813
G1 X112.797 Y116.438 E18.04856
G1 X112.323 Y116.435 E18.06433
G1 X111.183 Y116.433 E18.10225
G1 X109.465 Y116.427 E18.15939
G1 X107.545 Y116.423 E18.22325
G1 X107.548 Y117.384 E18.25521
G1 X107.545 Y118.351 E18.28737
G1 F1500 E11.78737
G0 F6000 X107.245 Y118.35
G0 X106.978 Y117.382
G0 X108.413 Y117.382
G0 X106.947 Y124.714
G0 X106.947 Y123.239
G0 X97.898 Y123.553
;TYPE:WALL-INNER
G1 F1500 E18.28737
G1 F1200 X97.898 Y123.449 E18.29083
G1 X98.068 Y123.411 E18.29663
G1 X98.068 Y111.35 E18.69778
G1 X97.898 Y111.315 E18.70355
G1 X97.898 Y111.217 E18.70681
G1 X98.068 Y111.217 E18.70843
G1 X98.099 Y111.217 E18.70912
G1 X98.109 Y111.282 E18.70999
G1 X98.115 Y111.321
G1 X122.213 Y111.321 E19.51149
G1 X122.217 Y111.292 E19.51247
G1 X122.229 Y111.217 E19.51499
G1 X122.386 Y111.217 E19.52022
G1 X122.386 Y111.317 E19.52182
G1 X122.257 Y111.344 E19.52279
G1 X122.216 Y111.353 E19.5229
G1 X122.216 Y123.411 E19.92395
G1 X122.258 Y123.42 E19.92538
G1 X122.386 Y123.449 E19.92975
G1 X122.386 Y123.553 E19.93321
G1 X122.229 Y123.553 E19.9351
G1 X122.217 Y123.475 E19.93592
G1 X122.213 Y123.449
G1 X98.115 Y123.449 E20.73668
G1 X98.11 Y123.481
G1 X98.099 Y123.553 E20.73769
G1 X98.068 Y123.553
G1 X97.898 Y123.553 E20.73941
G0 F6000 X97.498 Y123.953
;TYPE:WALL-OUTER
G1 F1200 X97.498 Y123.129 E20.76681
G1 X97.668 Y123.091 E20.77261
G1 X97.668 Y111.676 E21.15227
G1 X97.498 Y111.641 E21.15804
G1 X97.498 Y110.817 E21.18545
G1 X98.442 Y110.817 E21.21685
G1 X98.458 Y110.921 E21.22035
G1 X121.87 Y110.921 E21.99903
G1 X121.886 Y110.817 E22.00253
G1 X122.786 Y110.817 E22.03247
G1 X122.786 Y111.641 E22.05987
G1 X122.616 Y111.677 E22.06565
G1 X122.616 Y123.091 E22.44528
G1 X122.786 Y123.129 E22.45108
G1 X122.786 Y123.953 E22.47848
G1 X121.886 Y123.953 E22.50842
G1 X121.87 Y123.849 E22.51192
G1 X98.458 Y123.849 E23.2906
G1 X98.442 Y123.953 E23.2941
G1 X97.498 Y123.953 E23.3255
G0 F6000 X97.768 Y123.683
G0 X98.178 Y123.059
G0 X98.458 Y123.059
;TYPE:SKIN
G1 F1200 X98.458 Y111.711 E23.70294
G1 X121.826 Y111.711 E24.48016
G1 X121.826 Y123.059 E24.8576
G1 X98.458 Y123.059 E25.63482
G1 F1500 E19.13482
G0 F6000 X98.178 Y123.059
G0 X98.278 Y118.866
G0 X96.803 Y118.866
G0 X108.413 Y117.382
G0 X106.978 Y117.382
G0 X107.004 Y118.866
G0 X106.752 Y119.149
G1 F1500 E25.63482
G1 F1200 X107.964 Y119.137 E25.67513
