;FLAVOR:Marlin
;TIME:3473
;Filament used: 0.9448m
;Layer height: 0.12
;MINX:63.369
;MINY:86.387
;MINZ:0.12
;MAXX:149.358
;MAXY:133.722
;MAXZ:20.16
;Generated with Cura_SteamEngine 4.7.0
M140 S60
M105
M190 S60
M104 S200
M105
M109 S200
M82 ;absolute extrusion mode
; Ender 3 Custom Start G-code
G92 E0 ; Reset Extruder
G28 ; Home all axes
G1 Z2.0 F3000 ; Move Z Axis up little to prevent scratching of Heat Bed
G1 X0.1 Y20 Z0.3 F5000.0 ; Move to start position
G1 X0.1 Y200.0 Z0.3 F1500.0 E15 ; Draw the first line
G1 X0.4 Y200.0 Z0.3 F5000.0 ; Move to side a little
G1 X0.4 Y20 Z0.3 F1500.0 E30 ; Draw the second line
G92 E0 ; Reset Extruder
G1 Z2.0 F3000 ; Move Z Axis up little to prevent scratching of Heat Bed
G1 X5 Y20 Z0.3 F5000.0 ; Move over to prevent blob squish
G92 E0
G92 E0
G1 F1500 E-6.5
;LAYER_COUNT:168
;LAYER:0
M107
M204 S500
M205 X8 Y8
G0 F6000 X67.788 Y88.843 Z0.12
;TYPE:SKIRT
G1 F1500 E0
G1 F1200 X68.552 Y88.299 E0.01872
G1 X69.33 Y87.837 E0.03677
G1 X69.484 Y87.754 E0.04026
G1 X70.328 Y87.344 E0.05899
G1 X71.204 Y87.008 E0.07771
G1 X72.205 Y86.724 E0.09848
G1 X72.428 Y86.672 E0.10305
G1 X73.35 Y86.499 E0.12177
G1 X74.621 Y86.389 E0.14723
G1 X75.197 Y86.387 E0.15872
G1 X75.741 Y86.399 E0.16958
G1 X77.814 Y86.475 E0.21098
G1 X80.335 Y86.496 E0.26129
G1 X82.874 Y86.445 E0.31197
G1 X83.979 Y86.398 E0.33404
G1 X84.328 Y86.389 E0.34101
G1 X84.507 Y86.387 E0.34458
G1 X85.445 Y86.416 E0.36331
G1 X85.932 Y86.463 E0.37307
G1 X87.136 Y86.607 E0.39727
G1 X87.384 Y86.632 E0.40224
G1 X87.951 Y86.704 E0.41365
G1 X90.494 Y86.955 E0.46464
G1 X92.994 Y87.13 E0.51465
G1 X95.489 Y87.234 E0.56449
G1 X98.013 Y87.268 E0.61486
G1 X100.537 Y87.23 E0.66524
G1 X103.055 Y87.122 E0.71553
G1 X105.563 Y86.942 E0.76571
G1 X107.858 Y86.708 E0.81175
G1 X108.432 Y86.657 E0.82325
G1 X109.651 Y86.619 E0.84759
G1 X110.287 Y86.636 E0.86028
G1 X111.972 Y86.701 E0.89393
G1 X114.424 Y86.725 E0.94287
G1 X118.031 Y86.64 E1.01487
G1 X118.49 Y86.62 E1.02404
G1 X119.188 Y86.612 E1.03797
G1 X119.337 Y86.615 E1.04094
G1 X120.273 Y86.674 E1.05966
G1 X121.609 Y86.899 E1.0867
G1 X121.854 Y86.956 E1.09172
G1 X122.568 Y87.148 E1.10647
G1 X123.74 Y87.505 E1.13092
G1 X126.21 Y88.222 E1.18225
G1 X128.666 Y88.859 E1.23288
G1 X131.134 Y89.426 E1.28341
G1 X133.521 Y89.903 E1.33199
G1 X135.783 Y90.276 E1.37774
G1 X135.907 Y90.302 E1.38027
G1 X136.616 Y90.412 E1.39459
G1 X137.603 Y90.575 E1.41455
G1 X138.177 Y90.685 E1.42621
G1 X138.454 Y90.746 E1.43188
G1 X139.206 Y90.94 E1.44737
G1 X139.409 Y91 E1.4516
G1 X139.806 Y91.126 E1.45991
G1 X139.978 Y91.184 E1.46353
G1 X140.939 Y91.559 E1.48412
G1 X141.15 Y91.653 E1.48873
G1 X142.001 Y92.077 E1.5077
G1 X142.272 Y92.227 E1.51388
G1 X143.209 Y92.808 E1.53588
G1 X143.414 Y92.95 E1.54086
G1 X144.161 Y93.517 E1.55958
G1 X144.6 Y93.9 E1.5712
G1 X144.688 Y93.981 E1.57359
G1 X145.389 Y94.688 E1.59346
G1 X145.582 Y94.901 E1.59919
G1 X146.231 Y95.687 E1.61954
G1 X146.453 Y95.983 E1.62692
G1 X146.983 Y96.757 E1.64564
G1 X147.369 Y97.426 E1.66105
G1 X147.524 Y97.718 E1.66765
G1 X148.066 Y98.904 E1.69367
G1 X148.289 Y99.48 E1.706
G1 X148.644 Y100.559 E1.72867
G1 X148.735 Y100.893 E1.73558
G1 X148.857 Y101.385 E1.74569
G1 X148.876 Y101.47 E1.74743
G1 X148.948 Y101.818 E1.75452
G1 X149.038 Y102.292 E1.76415
G1 X149.105 Y102.68 E1.77201
G1 X149.184 Y103.243 E1.78335
G1 X149.248 Y103.805 E1.79464
G1 X149.296 Y104.342 E1.8054
G1 X149.322 Y104.745 E1.81346
G1 X149.337 Y105.036 E1.81927
G1 X149.35 Y105.379 E1.82612
G1 X149.358 Y105.844 E1.8354
G1 X149.357 Y106.071 E1.83993
G1 X149.351 Y106.396 E1.84642
G1 X149.325 Y107.163 E1.86174
G1 X149.303 Y107.57 E1.86987
G1 X149.273 Y107.992 E1.87831
G1 X149.246 Y108.309 E1.88466
G1 X149.125 Y109.514 E1.90883
G1 X148.899 Y112.152 E1.96167
G1 X148.791 Y114.049 E1.99958
G1 X148.75 Y114.639 E2.01139
G1 X148.645 Y115.571 E2.0301
G1 X148.461 Y116.49 E2.04881
G1 X148.199 Y117.391 E2.06753
G1 X147.862 Y118.266 E2.08624
G1 X147.451 Y119.109 E2.10496
G1 X146.97 Y119.914 E2.12367
G1 X146.423 Y120.676 E2.14239
G1 X145.812 Y121.387 E2.1611
G1 X145.143 Y122.045 E2.17983
G1 X144.42 Y122.643 E2.19855
G1 X143.649 Y123.177 E2.21727
G1 X142.836 Y123.643 E2.23597
G1 X141.985 Y124.039 E2.2547
G1 X141.104 Y124.36 E2.27341
G1 X140.279 Y124.588 E2.29049
G1 X140.075 Y124.636 E2.29467
G1 X137.627 Y125.241 E2.345
G1 X135.231 Y125.905 E2.39461
G1 X132.777 Y126.662 E2.44586
G1 X130.389 Y127.473 E2.49619
G1 X128.045 Y128.344 E2.54609
G1 X125.685 Y129.297 E2.59688
G1 X123.389 Y130.302 E2.6469
G1 X121.148 Y131.358 E2.69634
G1 X120.7 Y131.584 E2.70635
G1 X119.418 Y132.215 E2.73487
G1 X118.559 Y132.593 E2.7536
G1 X117.672 Y132.897 E2.77231
G1 X117.164 Y133.033 E2.7828
G1 X116.967 Y133.081 E2.78685
G1 X116.047 Y133.264 E2.80557
G1 X115.115 Y133.368 E2.82428
G1 X114.027 Y133.389 E2.846
G1 X113.896 Y133.385 E2.84861
G1 X112.655 Y133.276 E2.87347
G1 X111.799 Y133.152 E2.89074
G1 X110.876 Y133.005 E2.90939
G1 X108.344 Y132.672 E2.96035
G1 X105.889 Y132.42 E3.0096
G1 X103.321 Y132.229 E3.06099
G1 X100.835 Y132.114 E3.11065
G1 X98.317 Y132.071 E3.16091
G1 X95.824 Y132.097 E3.21066
G1 X93.267 Y132.197 E3.26173
G1 X90.787 Y132.364 E3.31133
G1 X88.264 Y132.606 E3.36191
G1 X85.785 Y132.914 E3.41176
G1 X82.711 Y133.393 E3.47385
G1 X81.721 Y133.563 E3.4939
G1 X80.791 Y133.682 E3.51261
G1 X79.854 Y133.722 E3.53132
G1 X78.917 Y133.682 E3.55004
G1 X77.987 Y133.562 E3.56875
G1 X77.07 Y133.363 E3.58748
G1 X76.174 Y133.087 E3.60619
G1 X75.048 Y132.615 E3.63055
G1 X74.939 Y132.562 E3.63297
G1 X74.114 Y132.116 E3.65169
G1 X73.329 Y131.601 E3.67042
G1 X72.374 Y130.83 E3.69492
G1 X72.156 Y130.633 E3.70078
G1 X71.487 Y129.975 E3.7195
G1 X70.695 Y129.023 E3.74422
G1 X70.652 Y128.965 E3.74566
G1 X69.939 Y127.875 E3.77165
G1 X69.744 Y127.534 E3.77949
G1 X69.273 Y126.612 E3.80015
G1 X69.08 Y126.186 E3.80948
G1 X68.773 Y125.481 E3.82483
G1 X68.529 Y124.87 E3.83796
G1 X68.219 Y124.02 E3.85602
G1 X68.038 Y123.482 E3.86734
G1 X67.79 Y122.675 E3.88419
G1 X67.711 Y122.406 E3.88979
G1 X67.418 Y121.358 E3.9115
G1 X67.341 Y121.067 E3.91751
G1 X67.106 Y120.125 E3.93688
G1 X66.975 Y119.574 E3.94819
G1 X66.764 Y118.654 E3.96702
G1 X66.542 Y117.614 E3.98824
G1 X66.064 Y115.281 E4.03577
G1 X65.729 Y113.546 E4.07103
G1 X65.324 Y111.4 E4.11461
G1 X65.079 Y110.128 E4.14046
G1 X64.823 Y108.773 E4.16798
G1 X64.581 Y107.473 E4.19437
G1 X64.313 Y106.011 E4.22403
G1 X64.192 Y105.321 E4.23801
G1 X63.908 Y103.653 E4.27178
G1 X63.79 Y102.912 E4.28675
G1 X63.726 Y102.474 E4.29559
G1 X63.64 Y101.858 E4.308
G1 X63.548 Y101.151 E4.32223
G1 X63.491 Y100.609 E4.3331
G1 X63.415 Y99.659 E4.35212
G1 X63.391 Y99.269 E4.35992
G1 X63.38 Y99.021 E4.36487
G1 X63.37 Y98.671 E4.37186
G1 X63.369 Y98.591 E4.37346
G1 X63.377 Y98.005 E4.38515
G1 X63.388 Y97.736 E4.39052
G1 X63.429 Y97.142 E4.40241
G1 X63.461 Y96.806 E4.40914
G1 X63.589 Y95.877 E4.42786
G1 X63.796 Y94.962 E4.44658
G1 X64.081 Y94.069 E4.46528
G1 X64.267 Y93.594 E4.47546
G1 X64.405 Y93.265 E4.48258
G1 X64.805 Y92.417 E4.5013
G1 X65.275 Y91.605 E4.52002
G1 X65.812 Y90.837 E4.53872
G1 X66.413 Y90.117 E4.55744
G1 X67.074 Y89.45 E4.57618
G1 X67.788 Y88.843 E4.59488
G0 F6000 X68.114 Y89.097
G1 F1200 X68.869 Y88.57 E4.61325
G1 X69.52 Y88.189 E4.6283
G1 X69.674 Y88.106 E4.6318
G1 X70.503 Y87.705 E4.65017
G1 X71.363 Y87.377 E4.66854
G1 X72.296 Y87.114 E4.68789
G1 X72.519 Y87.062 E4.69246
G1 X73.424 Y86.892 E4.71083
G1 X74.632 Y86.789 E4.73503
G1 X75.189 Y86.786 E4.74614
G1 X75.563 Y86.794 E4.75361
G1 X77.795 Y86.875 E4.79818
G1 X80.34 Y86.896 E4.84897
G1 X82.899 Y86.845 E4.90005
G1 X83.996 Y86.798 E4.92196
G1 X84.333 Y86.789 E4.92869
G1 X84.512 Y86.787 E4.93226
G1 X85.885 Y86.861 E4.9597
G1 X87.213 Y87.019 E4.98639
G1 X87.334 Y87.028 E4.98881
G1 X87.937 Y87.105 E5.00094
G1 X90.46 Y87.354 E5.05153
G1 X92.949 Y87.528 E5.10132
G1 X95.502 Y87.634 E5.15232
G1 X98.013 Y87.668 E5.20243
G1 X100.559 Y87.63 E5.25324
G1 X103.067 Y87.522 E5.30334
G1 X105.599 Y87.34 E5.354
G1 X108.061 Y87.09 E5.40338
G1 X108.466 Y87.055 E5.4115
G1 X109.641 Y87.019 E5.43496
G1 X110.127 Y87.031 E5.44466
G1 X111.953 Y87.101 E5.48112
G1 X114.43 Y87.125 E5.53056
G1 X118.057 Y87.04 E5.60296
G1 X118.507 Y87.02 E5.61195
G1 X119.18 Y87.012 E5.62538
G1 X119.329 Y87.015 E5.62835
G1 X120.248 Y87.074 E5.64673
G1 X121.518 Y87.289 E5.67243
G1 X121.763 Y87.346 E5.67745
G1 X122.452 Y87.531 E5.69169
G1 X123.594 Y87.879 E5.71552
G1 X126.112 Y88.61 E5.76784
G1 X128.573 Y89.249 E5.81858
G1 X131.038 Y89.814 E5.86905
G1 X133.467 Y90.3 E5.91848
G1 X135.718 Y90.671 E5.96401
G1 X135.829 Y90.694 E5.96627
G1 X136.551 Y90.807 E5.98085
G1 X137.538 Y90.97 E6.00082
G1 X138.091 Y91.076 E6.01205
G1 X138.368 Y91.137 E6.01771
G1 X139.093 Y91.324 E6.03266
G1 X139.296 Y91.384 E6.03688
G1 X139.678 Y91.505 E6.04488
G1 X139.85 Y91.563 E6.0485
G1 X140.777 Y91.924 E6.06835
G1 X140.988 Y92.018 E6.07296
G1 X141.807 Y92.427 E6.09123
G1 X142.078 Y92.577 E6.09741
G1 X142.981 Y93.137 E6.11862
G1 X143.186 Y93.279 E6.12359
G1 X143.919 Y93.836 E6.14196
G1 X144.329 Y94.194 E6.15283
G1 X144.417 Y94.275 E6.15521
G1 X145.093 Y94.957 E6.17438
G1 X145.286 Y95.17 E6.18011
G1 X145.911 Y95.927 E6.1997
G1 X146.133 Y96.223 E6.20709
G1 X146.653 Y96.983 E6.22546
G1 X147.016 Y97.613 E6.23997
G1 X147.171 Y97.905 E6.24657
G1 X147.693 Y99.048 E6.27165
G1 X147.916 Y99.624 E6.28397
G1 X148.258 Y100.665 E6.30584
G1 X148.349 Y100.999 E6.31275
G1 X148.467 Y101.473 E6.3225
G1 X148.486 Y101.558 E6.32423
G1 X148.555 Y101.893 E6.33106
G1 X148.645 Y102.367 E6.34069
G1 X148.687 Y102.601 E6.34543
G1 X148.711 Y102.745 E6.34835
G1 X148.787 Y103.289 E6.35931
G1 X148.851 Y103.851 E6.37059
G1 X148.897 Y104.368 E6.38095
G1 X148.923 Y104.771 E6.38901
G1 X148.937 Y105.052 E6.39463
G1 X148.95 Y105.395 E6.40148
G1 X148.958 Y105.843 E6.41042
G1 X148.957 Y106.07 E6.41495
G1 X148.951 Y106.382 E6.42118
G1 X148.925 Y107.149 E6.43649
G1 X148.904 Y107.542 E6.44434
G1 X148.874 Y107.964 E6.45279
G1 X148.848 Y108.269 E6.4589
G1 X148.724 Y109.508 E6.48375
G1 X148.502 Y112.097 E6.5356
G1 X148.4 Y113.886 E6.57136
G1 X148.35 Y114.611 E6.58586
G1 X148.247 Y115.526 E6.60424
G1 X148.064 Y116.428 E6.62261
G1 X147.804 Y117.311 E6.64097
G1 X147.468 Y118.168 E6.65934
G1 X147.059 Y118.993 E6.67772
G1 X146.58 Y119.779 E6.69609
G1 X146.035 Y120.521 E6.71446
G1 X145.427 Y121.213 E6.73284
G1 X144.761 Y121.849 E6.75122
G1 X144.043 Y122.425 E6.76959
G1 X143.278 Y122.936 E6.78795
G1 X142.471 Y123.38 E6.80633
G1 X141.628 Y123.751 E6.82471
G1 X140.757 Y124.048 E6.84308
G1 X140.188 Y124.198 E6.85482
G1 X140.04 Y124.233 E6.85785
G1 X137.505 Y124.86 E6.90997
G1 X135.134 Y125.517 E6.95907
G1 X132.646 Y126.284 E7.01102
G1 X130.247 Y127.099 E7.06158
G1 X127.916 Y127.964 E7.1112
G1 X125.542 Y128.924 E7.1623
G1 X123.238 Y129.932 E7.21249
G1 X120.935 Y131.017 E7.26329
G1 X120.523 Y131.225 E7.2725
G1 X119.241 Y131.856 E7.30102
G1 X118.398 Y132.227 E7.3194
G1 X117.526 Y132.523 E7.33778
G1 X117.069 Y132.645 E7.34722
G1 X116.872 Y132.693 E7.35126
G1 X115.969 Y132.872 E7.36963
G1 X115.054 Y132.971 E7.388
G1 X114.039 Y132.989 E7.40826
G1 X113.908 Y132.985 E7.41087
G1 X112.712 Y132.881 E7.43483
G1 X111.856 Y132.757 E7.45209
G1 X110.885 Y132.603 E7.47171
G1 X108.439 Y132.281 E7.52094
G1 X105.884 Y132.018 E7.5722
G1 X103.368 Y131.831 E7.62255
G1 X100.827 Y131.714 E7.67331
G1 X98.319 Y131.671 E7.72337
G1 X95.804 Y131.697 E7.77356
G1 X93.26 Y131.796 E7.82437
G1 X90.758 Y131.965 E7.87441
G1 X88.209 Y132.209 E7.92551
G1 X85.739 Y132.516 E7.97518
G1 X82.647 Y132.998 E8.03763
G1 X81.653 Y133.169 E8.05776
G1 X80.74 Y133.285 E8.07613
G1 X79.82 Y133.322 E8.0945
G1 X78.9 Y133.279 E8.11288
G1 X77.988 Y133.156 E8.13125
G1 X77.09 Y132.954 E8.14961
G1 X76.212 Y132.675 E8.168
G1 X75.223 Y132.255 E8.18944
G1 X75.114 Y132.202 E8.19186
G1 X74.304 Y131.764 E8.21024
G1 X73.535 Y131.257 E8.22862
G1 X72.642 Y130.534 E8.25155
G1 X72.424 Y130.337 E8.25741
G1 X71.768 Y129.69 E8.2758
G1 X71.016 Y128.785 E8.29928
G1 X70.973 Y128.727 E8.30072
G1 X70.286 Y127.676 E8.32578
G1 X70.091 Y127.335 E8.33362
G1 X69.638 Y126.447 E8.35351
G1 X69.377 Y125.868 E8.36618
G1 X69.14 Y125.322 E8.37806
G1 X68.905 Y124.733 E8.39072
G1 X68.595 Y123.883 E8.40877
G1 X68.421 Y123.365 E8.41968
G1 X68.173 Y122.558 E8.43653
G1 X68.096 Y122.298 E8.44194
G1 X67.803 Y121.25 E8.46365
G1 X67.729 Y120.97 E8.46943
G1 X67.495 Y120.032 E8.48873
G1 X67.365 Y119.485 E8.49995
G1 X67.154 Y118.565 E8.51878
G1 X66.934 Y117.534 E8.53982
G1 X66.457 Y115.205 E8.58726
G1 X66.122 Y113.472 E8.62249
G1 X65.717 Y111.326 E8.66607
G1 X65.472 Y110.054 E8.69192
G1 X65.216 Y108.7 E8.71942
G1 X64.974 Y107.401 E8.74579
G1 X64.707 Y105.941 E8.77541
G1 X64.586 Y105.254 E8.78933
G1 X64.303 Y103.589 E8.82303
G1 X64.208 Y102.998 E8.83498
G1 X64.122 Y102.418 E8.84668
G1 X64.052 Y101.923 E8.85665
G1 X63.945 Y101.1 E8.87322
G1 X63.89 Y100.577 E8.88371
G1 X63.814 Y99.627 E8.90273
G1 X63.79 Y99.252 E8.91023
G1 X63.779 Y99.004 E8.91518
G1 X63.769 Y98.586 E8.92353
G1 X63.777 Y98.021 E8.9348
G1 X63.788 Y97.752 E8.94018
G1 X63.827 Y97.18 E8.95162
G1 X63.859 Y96.844 E8.95835
G1 X63.986 Y95.932 E8.97673
G1 X64.191 Y95.035 E8.99509
G1 X64.636 Y93.749 E9.02225
G1 X64.774 Y93.42 E9.02937
G1 X65.167 Y92.587 E9.04775
G1 X65.63 Y91.792 E9.06611
G1 X66.161 Y91.039 E9.08449
G1 X66.755 Y90.336 E9.10286
G1 X67.408 Y89.687 E9.12123
G1 X68.114 Y89.097 E9.13959
G0 F6000 X68.439 Y89.352
G1 F1200 X69.186 Y88.844 E9.15762
G1 X69.71 Y88.541 E9.1697
G1 X69.864 Y88.458 E9.17319
G1 X70.677 Y88.065 E9.19121
G1 X71.522 Y87.746 E9.20924
G1 X72.387 Y87.503 E9.22717
G1 X72.61 Y87.451 E9.23174
G1 X73.497 Y87.286 E9.24974
G1 X74.643 Y87.189 E9.27269
G1 X75.18 Y87.186 E9.28341
G1 X75.554 Y87.194 E9.29087
G1 X77.777 Y87.275 E9.33527
G1 X80.344 Y87.296 E9.3865
G1 X82.88 Y87.246 E9.43711
G1 X84.013 Y87.197 E9.45975
G1 X84.337 Y87.189 E9.46621
G1 X84.516 Y87.187 E9.46979
G1 X85.838 Y87.258 E9.49621
G1 X87.13 Y87.412 E9.52217
G1 X87.283 Y87.425 E9.52524
G1 X87.88 Y87.501 E9.53725
G1 X90.429 Y87.752 E9.58836
G1 X92.939 Y87.928 E9.63857
G1 X95.481 Y88.034 E9.68934
G1 X98.014 Y88.068 E9.7399
G1 X100.547 Y88.03 E9.79045
G1 X103.112 Y87.92 E9.84169
G1 X105.638 Y87.739 E9.89223
G1 X108.096 Y87.489 E9.94153
G1 X108.501 Y87.454 E9.94964
G1 X109.631 Y87.419 E9.9722
G1 X110.117 Y87.431 E9.98191
G1 X111.9 Y87.499 E10.01751
G1 X114.465 Y87.525 E10.0687
G1 X118.086 Y87.439 E10.14098
G1 X118.525 Y87.42 E10.14975
G1 X119.172 Y87.412 E10.16267
G1 X119.321 Y87.415 E10.16564
G1 X120.223 Y87.473 E10.18368
G1 X121.427 Y87.678 E10.20805
G1 X121.672 Y87.735 E10.21307
G1 X122.335 Y87.913 E10.22677
G1 X123.514 Y88.272 E10.25136
G1 X125.996 Y88.993 E10.30294
G1 X128.456 Y89.631 E10.35366
G1 X130.983 Y90.211 E10.4054
G1 X133.408 Y90.696 E10.45475
G1 X135.653 Y91.066 E10.50016
G1 X135.754 Y91.087 E10.50222
G1 X136.486 Y91.201 E10.517
G1 X137.473 Y91.364 E10.53696
G1 X138.005 Y91.467 E10.54778
G1 X138.282 Y91.528 E10.55344
G1 X138.979 Y91.707 E10.5678
G1 X139.182 Y91.767 E10.57202
G1 X139.55 Y91.884 E10.57973
G1 X139.722 Y91.942 E10.58335
G1 X140.614 Y92.29 E10.60246
G1 X140.825 Y92.384 E10.60707
G1 X141.614 Y92.777 E10.62466
G1 X141.885 Y92.927 E10.63084
G1 X142.753 Y93.466 E10.65123
G1 X142.958 Y93.608 E10.65621
G1 X143.677 Y94.155 E10.67423
G1 X144.058 Y94.488 E10.68433
G1 X144.146 Y94.569 E10.68672
G1 X144.797 Y95.225 E10.70516
G1 X144.99 Y95.438 E10.7109
G1 X145.591 Y96.167 E10.72975
G1 X145.813 Y96.463 E10.73714
G1 X146.322 Y97.209 E10.75516
G1 X146.662 Y97.801 E10.76878
G1 X146.817 Y98.093 E10.77538
G1 X147.32 Y99.192 E10.7995
G1 X147.543 Y99.768 E10.81183
G1 X147.872 Y100.77 E10.83287
G1 X147.963 Y101.104 E10.83978
G1 X148.076 Y101.56 E10.84916
G1 X148.095 Y101.645 E10.85089
G1 X148.162 Y101.967 E10.85746
G1 X148.252 Y102.441 E10.86709
G1 X148.316 Y102.811 E10.87458
G1 X148.389 Y103.334 E10.88512
G1 X148.453 Y103.896 E10.89641
G1 X148.498 Y104.393 E10.90636
G1 X148.524 Y104.796 E10.91442
G1 X148.538 Y105.067 E10.91984
G1 X148.551 Y105.41 E10.92669
G1 X148.558 Y105.841 E10.93529
G1 X148.557 Y106.068 E10.93982
G1 X148.551 Y106.369 E10.94583
G1 X148.525 Y107.136 E10.96114
G1 X148.505 Y107.513 E10.96868
G1 X148.475 Y107.935 E10.97712
