;FLAVOR:Marlin
;TIME:8755
;Filament used: 4.06689m
;Layer height: 0.2
;MINX:32.514
;MINY:74.698
;MINZ:0.2
;MAXX:187.498
;MAXY:145.294
;MAXZ:8
;Generated with Cura_SteamEngine 4.7.0
M140 S60
M105
M190 S60
M104 S200
M105
M109 S200
M82 ;absolute extrusion mode
; Ender 3 Custom Start G-code
G92 E0 ; Reset Extruder
G28 ; Home all axes
G1 Z2.0 F3000 ; Move Z Axis up little to prevent scratching of Heat Bed
G1 X0.1 Y20 Z0.3 F5000.0 ; Move to start position
G1 X0.1 Y200.0 Z0.3 F1500.0 E15 ; Draw the first line
G1 X0.4 Y200.0 Z0.3 F5000.0 ; Move to side a little
G1 X0.4 Y20 Z0.3 F1500.0 E30 ; Draw the second line
G92 E0 ; Reset Extruder
G1 Z2.0 F3000 ; Move Z Axis up little to prevent scratching of Heat Bed
G1 X5 Y20 Z0.3 F5000.0 ; Move over to prevent blob squish
G92 E0
G92 E0
G1 F1500 E-6.5
;LAYER_COUNT:40
;LAYER:0
M107
M204 S500
M205 X8 Y8
G0 F6000 X50.478 Y82.259 Z0.2
;TYPE:SKIRT
G1 F1500 E0
G1 F1200 X51.295 Y81.8 E0.03117
G1 X52.149 Y81.411 E0.06238
G1 X53.033 Y81.097 E0.09358
G1 X53.94 Y80.859 E0.12477
G1 X54.864 Y80.7 E0.15595
G1 X55.799 Y80.619 E0.18717
G1 X56.736 Y80.619 E0.21833
G1 X57.498 Y80.677 E0.24375
G1 X57.73 Y80.703 E0.25152
G1 X58.17 Y80.762 E0.26628
G1 X58.738 Y80.849 E0.28539
G1 X59.659 Y81.03 E0.31661
G1 X59.97 Y81.119 E0.32737
G1 X59.972 Y81.113 E0.32758
G1 X60.934 Y81.376 E0.36075
G1 X63.503 Y82.04 E0.44901
G1 X65.877 Y82.584 E0.53001
G1 X68.414 Y83.089 E0.61605
G1 X70.881 Y83.508 E0.69928
G1 X73.359 Y83.857 E0.78251
G1 X75.891 Y84.141 E0.86725
G1 X78.395 Y84.35 E0.95082
G1 X80.893 Y84.488 E1.03403
G1 X83.416 Y84.556 E1.11798
G1 X85.938 Y84.552 E1.20186
G1 X88.462 Y84.477 E1.28585
G1 X90.944 Y84.333 E1.36854
G1 X93.486 Y84.113 E1.4534
G1 X95.945 Y83.829 E1.53573
G1 X98.46 Y83.467 E1.62024
G1 X100.939 Y83.039 E1.70391
G1 X103.425 Y82.536 E1.78827
G1 X105.842 Y81.977 E1.87079
G1 X108.289 Y81.336 E1.95492
G1 X110.705 Y80.631 E2.03863
G1 X113.127 Y79.848 E2.12329
G1 X115.468 Y79.017 E2.20591
G1 X117.854 Y78.094 E2.291
G1 X120.128 Y77.139 E2.37303
G1 X122.689 Y75.974 E2.46661
G1 X123.067 Y75.796 E2.48051
G1 X123.932 Y75.433 E2.51171
G1 X124.824 Y75.144 E2.5429
G1 X125.738 Y74.933 E2.57409
G1 X126.537 Y74.814 E2.60096
G1 X126.716 Y74.794 E2.60695
G1 X127.31 Y74.744 E2.62678
G1 X127.713 Y74.721 E2.64021
G1 X128.054 Y74.707 E2.65156
G1 X128.285 Y74.701 E2.65924
G1 X128.721 Y74.698 E2.67374
G1 X129.16 Y74.704 E2.68835
G1 X130.097 Y74.757 E2.71956
G1 X131.025 Y74.889 E2.75074
G1 X131.694 Y75.035 E2.77351
G1 X132.593 Y75.301 E2.80469
G1 X133.123 Y75.498 E2.8235
G1 X134.03 Y75.862 E2.85601
G1 X135.08 Y76.275 E2.89353
G1 X135.938 Y76.655 E2.92474
G1 X136.4 Y76.897 E2.94209
G1 X136.589 Y77.002 E2.94928
G1 X137.003 Y77.244 E2.96523
G1 X138.984 Y78.461 E3.04256
G1 X141.201 Y79.738 E3.12766
G1 X143.383 Y80.914 E3.2101
G1 X145.637 Y82.047 E3.294
G1 X147.944 Y83.126 E3.37871
G1 X150.222 Y84.115 E3.46131
G1 X152.531 Y85.042 E3.54407
G1 X154.945 Y85.93 E3.62962
G1 X157.307 Y86.725 E3.71251
G1 X159.728 Y87.464 E3.7967
G1 X161.394 Y87.93 E3.85424
G1 X162.331 Y88.183 E3.88652
G1 X162.686 Y88.285 E3.8988
G1 X163.878 Y88.65 E3.94027
G1 X164.081 Y88.714 E3.94735
G1 X165.113 Y89.052 E3.98347
G1 X166.508 Y89.506 E4.03226
G1 X167.379 Y89.803 E4.06287
G1 X167.663 Y89.904 E4.07289
G1 X167.939 Y90.007 E4.08269
G1 X168.142 Y90.085 E4.08992
G1 X168.441 Y90.204 E4.10063
G1 X169.03 Y90.444 E4.12178
G1 X169.83 Y90.782 E4.15067
G1 X170.682 Y91.186 E4.18203
G1 X171.14 Y91.428 E4.19926
G1 X171.424 Y91.584 E4.21003
G1 X171.844 Y91.822 E4.22609
G1 X172.64 Y92.319 E4.2573
G1 X173.39 Y92.881 E4.28847
G1 X174.286 Y93.701 E4.32887
G1 X174.406 Y93.824 E4.33459
G1 X176.279 Y95.687 E4.42245
G1 X177.888 Y97.203 E4.49598
G1 X178.287 Y97.571 E4.51403
G1 X179.773 Y98.979 E4.58212
G1 X181.683 Y100.688 E4.66736
G1 X182.259 Y101.181 E4.69258
G1 X183.135 Y101.938 E4.73109
G1 X183.818 Y102.581 E4.76229
G1 X184.444 Y103.28 E4.7935
G1 X185.007 Y104.029 E4.82466
G1 X185.378 Y104.607 E4.84751
G1 X185.713 Y105.166 E4.86918
G1 X185.894 Y105.478 E4.88118
G1 X185.944 Y105.568 E4.8846
G1 X186.364 Y106.406 E4.91578
G1 X186.711 Y107.278 E4.94699
G1 X187.055 Y108.474 E4.98839
G1 X187.117 Y108.747 E4.9977
G1 X187.217 Y109.237 E5.01433
G1 X187.325 Y109.838 E5.03464
G1 X187.451 Y110.768 E5.06585
G1 X187.498 Y111.704 E5.09703
G1 X187.465 Y112.642 E5.12824
G1 X187.305 Y113.834 E5.16824
G1 X187.257 Y114.087 E5.17681
G1 X187.139 Y114.634 E5.19542
G1 X187.009 Y115.169 E5.21373
G1 X186.749 Y116.07 E5.24492
G1 X186.413 Y116.946 E5.27613
G1 X186.004 Y117.79 E5.30732
G1 X185.524 Y118.596 E5.33852
G1 X184.977 Y119.358 E5.36972
G1 X184.347 Y120.093 E5.40192
G1 X183.871 Y120.601 E5.42507
G1 X183.201 Y121.258 E5.45628
G1 X182.802 Y121.6 E5.47376
G1 X182.513 Y121.836 E5.48617
G1 X181.91 Y122.295 E5.51138
G1 X181.537 Y122.559 E5.52658
G1 X180.759 Y123.061 E5.55737
G1 X180.468 Y123.229 E5.56855
G1 X180.158 Y123.401 E5.58034
G1 X179.908 Y123.535 E5.58977
G1 X179.421 Y123.789 E5.60804
G1 X178.572 Y124.187 E5.63923
G1 X177.684 Y124.513 E5.67069
G1 X176.816 Y124.79 E5.701
G1 X174.51 Y125.49 E5.78115
G1 X174.337 Y125.541 E5.78715
G1 X173.693 Y125.725 E5.80943
G1 X173.32 Y125.824 E5.82226
G1 X172.095 Y126.128 E5.86424
G1 X171.888 Y126.178 E5.87132
G1 X168.794 Y126.882 E5.97686
G1 X168.108 Y127.035 E6.00024
G1 X163.502 Y128.034 E6.157
G1 X162.879 Y128.161 E6.17814
G1 X162.534 Y128.225 E6.18981
G1 X161.238 Y128.444 E6.23353
G1 X158.687 Y128.913 E6.3198
G1 X156.23 Y129.436 E6.40335
G1 X153.77 Y130.034 E6.48755
G1 X151.363 Y130.691 E6.57054
G1 X148.923 Y131.432 E6.65535
G1 X146.576 Y132.218 E6.73767
G1 X144.181 Y133.096 E6.82252
G1 X141.842 Y134.028 E6.90626
G1 X139.564 Y135.013 E6.98881
G1 X137.272 Y136.082 E7.07292
G1 X134.994 Y137.223 E7.15766
G1 X132.792 Y138.406 E7.2408
G1 X130.627 Y139.649 E7.32383
G1 X128.448 Y140.982 E7.40879
G1 X127.35 Y141.698 E7.45239
G1 X127.164 Y141.808 E7.45958
G1 X126.201 Y142.436 E7.49782
G1 X125.223 Y143.004 E7.53543
G1 X123.822 Y143.724 E7.58782
G1 X122.993 Y144.138 E7.61864
G1 X122.136 Y144.521 E7.64987
G1 X121.251 Y144.829 E7.68103
G1 X120.342 Y145.061 E7.71223
G1 X119.417 Y145.215 E7.74342
G1 X118.482 Y145.29 E7.77462
G1 X117.842 Y145.294 E7.79591
G1 X117.702 Y145.291 E7.80057
G1 X117.211 Y145.27 E7.81691
G1 X116.894 Y145.249 E7.82748
G1 X115.962 Y145.147 E7.85866
G1 X114.933 Y144.94 E7.89357
G1 X114.034 Y144.674 E7.92475
G1 X113.268 Y144.379 E7.95206
G1 X112.911 Y144.226 E7.96497
G1 X111.047 Y143.397 E8.03283
G1 X108.679 Y142.422 E8.118
G1 X106.417 Y141.563 E8.19848
G1 X103.981 Y140.719 E8.28422
G1 X101.583 Y139.961 E8.36787
G1 X99.155 Y139.271 E8.45183
G1 X96.751 Y138.659 E8.53433
G1 X94.257 Y138.1 E8.61934
G1 X91.774 Y137.616 E8.70348
G1 X89.323 Y137.21 E8.78611
G1 X86.784 Y136.863 E8.87134
G1 X84.3 Y136.594 E8.95445
G1 X81.822 Y136.397 E9.03712
G1 X79.267 Y136.267 E9.12221
G1 X76.776 Y136.211 E9.20509
G1 X74.254 Y136.224 E9.28897
G1 X71.733 Y136.31 E9.37287
G1 X69.204 Y136.467 E9.45714
G1 X66.734 Y136.691 E9.53963
G1 X64.202 Y136.993 E9.62445
G1 X61.735 Y137.359 E9.7074
G1 X59.244 Y137.8 E9.79154
G1 X56.788 Y138.306 E9.87494
G1 X54.334 Y138.886 E9.95881
G1 X51.912 Y139.53 E10.04216
G1 X49.424 Y140.269 E10.12849
G1 X47.918 Y140.754 E10.18111
G1 X47.579 Y140.866 E10.19298
G1 X46.677 Y141.122 E10.22417
G1 X45.756 Y141.3 E10.25537
G1 X44.823 Y141.399 E10.28657
G1 X43.885 Y141.418 E10.31778
G1 X42.95 Y141.358 E10.34894
G1 X42.393 Y141.283 E10.36763
G1 X42.08 Y141.233 E10.37818
G1 X41.715 Y141.169 E10.3905
G1 X41.463 Y141.12 E10.39904
G1 X40.551 Y140.902 E10.43023
G1 X39.661 Y140.607 E10.46141
G1 X38.799 Y140.237 E10.49261
G1 X37.972 Y139.795 E10.5238
G1 X37.185 Y139.284 E10.55501
G1 X36.445 Y138.708 E10.5862
G1 X35.756 Y138.072 E10.61739
G1 X35.125 Y137.379 E10.64856
G1 X34.554 Y136.634 E10.67978
G1 X34.049 Y135.844 E10.71097
G1 X33.614 Y135.013 E10.74216
G1 X33.25 Y134.149 E10.77335
G1 X32.962 Y133.256 E10.80455
G1 X32.75 Y132.343 E10.83573
G1 X32.621 Y131.451 E10.8657
G1 X32.586 Y131.088 E10.87783
G1 X32.569 Y130.879 E10.88481
G1 X32.526 Y130.186 E10.9079
G1 X32.514 Y128.947 E10.94911
G1 X32.53 Y128.607 E10.96043
G1 X32.549 Y128.305 E10.9705
G1 X32.594 Y127.717 E10.99011
G1 X32.659 Y126.999 E11.01409
G1 X32.783 Y126.07 E11.04526
G1 X33.067 Y124.866 E11.08641
G1 X33.139 Y124.623 E11.09484
G1 X33.298 Y124.129 E11.1121
G1 X33.483 Y123.598 E11.1308
G1 X33.829 Y122.726 E11.162
G1 X34.235 Y121.911 E11.19229
G1 X34.79 Y120.903 E11.23056
G1 X35.019 Y120.5 E11.24598
G1 X36.22 Y118.25 E11.3308
G1 X37.326 Y116.032 E11.41324
G1 X38.398 Y113.716 E11.49812
G1 X39.384 Y111.417 E11.58132
G1 X40.318 Y109.06 E11.66565
G1 X41.17 Y106.719 E11.7485
G1 X41.974 Y104.297 E11.83338
G1 X42.687 Y101.928 E11.91567
G1 X43.349 Y99.48 E12.00001
G1 X43.93 Y97.067 E12.08256
G1 X44.459 Y94.556 E12.16791
G1 X44.911 Y92.06 E12.25228
G1 X45.121 Y90.742 E12.29667
G1 X45.188 Y90.308 E12.31128
G1 X45.371 Y89.388 E12.34247
G1 X45.631 Y88.487 E12.37367
G1 X45.968 Y87.612 E12.40485
G1 X46.186 Y87.14 E12.42214
G1 X46.297 Y86.914 E12.43052
G1 X46.746 Y86.09 E12.46173
G1 X47.027 Y85.648 E12.47915
G1 X47.13 Y85.494 E12.48531
G1 X47.684 Y84.737 E12.51651
G1 X48.3 Y84.03 E12.5477
G1 X48.975 Y83.379 E12.57889
G1 X49.703 Y82.787 E12.6101
G1 X50.478 Y82.259 E12.64129
G0 F6000 X50.761 Y82.555
G1 F1200 X51.567 Y82.111 E12.6719
G1 X52.409 Y81.738 E12.70253
G1 X53.28 Y81.44 E12.73314
G1 X54.174 Y81.219 E12.76377
G1 X55.083 Y81.076 E12.79438
G1 X56.002 Y81.012 E12.82502
G1 X56.922 Y81.029 E12.85562
G1 X57.454 Y81.075 E12.87338
G1 X57.686 Y81.101 E12.88115
G1 X58.11 Y81.157 E12.89537
G1 X58.678 Y81.244 E12.91449
G1 X59.581 Y81.423 E12.9451
G1 X59.865 Y81.505 E12.95494
G1 X59.867 Y81.499 E12.95515
G1 X60.878 Y81.775 E12.99
G1 X63.386 Y82.424 E13.07617
G1 X65.782 Y82.973 E13.15792
G1 X68.34 Y83.482 E13.24467
G1 X70.83 Y83.905 E13.32867
G1 X73.33 Y84.257 E13.41265
G1 X75.846 Y84.539 E13.49685
G1 X78.343 Y84.747 E13.58019
G1 X80.894 Y84.888 E13.66517
G1 X83.406 Y84.956 E13.74875
G1 X85.951 Y84.952 E13.83339
G1 X88.461 Y84.878 E13.91691
G1 X90.969 Y84.732 E14.00047
G1 X93.531 Y84.51 E14.086
G1 X96.011 Y84.224 E14.16903
G1 X98.548 Y83.859 E14.25428
G1 X100.981 Y83.439 E14.3364
G1 X103.523 Y82.925 E14.42266
G1 X105.928 Y82.368 E14.50477
G1 X108.397 Y81.721 E14.58966
G1 X110.835 Y81.009 E14.67414
G1 X113.247 Y80.23 E14.75844
G1 X115.598 Y79.395 E14.84142
G1 X117.986 Y78.472 E14.92657
G1 X120.311 Y77.495 E15.01045
G1 X122.876 Y76.329 E15.10416
G1 X123.238 Y76.158 E15.11748
G1 X124.087 Y75.802 E15.1481
G1 X124.964 Y75.521 E15.17873
G1 X125.861 Y75.317 E15.20933
G1 X126.581 Y75.212 E15.23353
G1 X126.76 Y75.192 E15.23952
G1 X127.333 Y75.143 E15.25865
G1 X127.736 Y75.12 E15.27207
G1 X128.065 Y75.107 E15.28302
G1 X128.296 Y75.101 E15.29071
G1 X128.716 Y75.098 E15.30468
G1 X129.155 Y75.104 E15.31928
G1 X130.074 Y75.157 E15.3499
G1 X130.985 Y75.289 E15.38051
G1 X131.597 Y75.423 E15.40135
G1 X132.48 Y75.685 E15.43198
G1 X132.974 Y75.87 E15.44953
G1 X133.809 Y76.205 E15.47945
G1 X134.934 Y76.647 E15.51966
G1 X135.776 Y77.021 E15.5503
G1 X136.206 Y77.247 E15.56646
G1 X136.395 Y77.352 E15.57365
G1 X136.794 Y77.585 E15.58901
G1 X138.797 Y78.815 E15.66719
G1 X140.976 Y80.071 E15.75084
G1 X143.235 Y81.288 E15.83619
G1 X145.452 Y82.403 E15.91873
G1 X147.765 Y83.484 E16.00364
G1 X150.063 Y84.482 E16.08697
G1 X152.411 Y85.424 E16.17112
G1 X154.785 Y86.298 E16.25526
G1 X157.179 Y87.103 E16.33927
G1 X159.668 Y87.864 E16.42583
G1 X161.221 Y88.298 E16.47946
G1 X162.226 Y88.569 E16.51408
G1 X162.569 Y88.668 E16.52596
G1 X163.761 Y89.033 E16.56742
G1 X163.956 Y89.095 E16.57423
G1 X166.384 Y89.886 E16.65916
G1 X167.249 Y90.181 E16.68956
G1 X167.523 Y90.279 E16.69924
G1 X167.799 Y90.382 E16.70903
G1 X167.995 Y90.457 E16.71601
G1 X168.29 Y90.575 E16.72658
G1 X169.01 Y90.869 E16.75245
G1 X169.674 Y91.15 E16.77643
G1 X170.495 Y91.54 E16.80666
G1 X170.953 Y91.782 E16.82389
G1 X171.227 Y91.932 E16.83428
G1 X171.647 Y92.17 E16.85034
G1 X172.427 Y92.658 E16.88094
G1 X173.163 Y93.212 E16.91158
G1 X174 Y93.981 E16.94938
G1 X174.121 Y94.105 E16.95514
G1 X175.987 Y95.96 E17.04266
G1 X177.645 Y97.523 E17.11844
G1 X178.012 Y97.861 E17.13504
G1 X179.514 Y99.284 E17.20385
G1 X181.416 Y100.986 E17.28874
G1 X181.998 Y101.484 E17.31422
G1 X182.874 Y102.241 E17.35273
G1 X183.544 Y102.872 E17.38334
G1 X184.156 Y103.56 E17.41397
G1 X184.707 Y104.298 E17.4446
G1 X185.035 Y104.812 E17.46488
G1 X185.37 Y105.371 E17.48655
G1 X185.544 Y105.672 E17.49812
G1 X185.594 Y105.762 E17.50154
G1 X186.006 Y106.586 E17.53218
G1 X186.345 Y107.442 E17.56281
G1 X186.665 Y108.562 E17.60155
G1 X186.727 Y108.835 E17.61086
G1 X186.823 Y109.308 E17.62691
G1 X186.931 Y109.909 E17.64722
G1 X187.054 Y110.822 E17.67786
G1 X187.098 Y111.741 E17.70846
G1 X187.062 Y112.661 E17.73909
G1 X186.912 Y113.76 E17.77598
G1 X186.864 Y114.013 E17.78454
G1 X186.75 Y114.54 E17.80248
G1 X186.62 Y115.075 E17.82079
G1 X186.364 Y115.959 E17.8514
G1 X186.032 Y116.818 E17.88203
G1 X185.627 Y117.645 E17.91266
G1 X185.152 Y118.433 E17.94326
G1 X184.61 Y119.178 E17.9739
G1 X184.055 Y119.82 E18.00213
G1 X183.579 Y120.328 E18.02528
G1 X182.921 Y120.972 E18.0559
G1 X182.549 Y121.29 E18.07218
G1 X182.26 Y121.526 E18.08459
G1 X181.679 Y121.968 E18.10887
G1 X181.306 Y122.232 E18.12407
G1 X180.556 Y122.717 E18.15378
G1 X180.274 Y122.879 E18.16459
G1 X179.964 Y123.051 E18.17638
G1 X179.723 Y123.18 E18.18548
G1 X179.236 Y123.434 E18.20374
G1 X178.402 Y123.824 E18.23437
G1 X177.563 Y124.132 E18.26409
G1 X176.7 Y124.407 E18.29422
G1 X174.394 Y125.107 E18.37437
G1 X173.583 Y125.34 E18.40244
G1 X173.224 Y125.436 E18.4148
G1 X171.999 Y125.74 E18.45678
G1 X171.799 Y125.788 E18.46362
G1 X168.707 Y126.491 E18.56908
G1 X168.023 Y126.644 E18.59239
G1 X163.27 Y127.674 E18.75415
G1 X162.8 Y127.769 E18.7701
G1 X162.467 Y127.831 E18.78136
G1 X161.176 Y128.049 E18.82491
G1 X158.603 Y128.522 E18.91192
G1 X156.125 Y129.049 E18.99618
G1 X153.666 Y129.647 E19.08036
G1 X151.256 Y130.306 E19.16345
G1 X148.817 Y131.046 E19.24823
G1 X146.416 Y131.85 E19.33244
G1 X144.043 Y132.719 E19.4165
G1 X141.702 Y133.653 E19.50033
G1 X139.381 Y134.657 E19.58444
G1 X137.088 Y135.725 E19.66857
G1 X134.845 Y136.849 E19.75201
G1 X132.583 Y138.065 E19.83743
G1 X130.399 Y139.319 E19.92119
G1 X128.267 Y140.623 E20.00431
G1 X127.132 Y141.363 E20.04938
G1 X126.953 Y141.469 E20.0563
G1 X125.983 Y142.101 E20.09481
G1 X125.041 Y142.649 E20.13105
G1 X123.753 Y143.311 E20.17922
G1 X122.814 Y143.78 E20.21413
G1 X121.973 Y144.155 E20.24476
G1 X121.103 Y144.456 E20.27537
G1 X120.21 Y144.68 E20.306
G1 X119.301 Y144.826 E20.33662
G1 X118.383 Y144.893 E20.36723
G1 X117.851 Y144.895 E20.38493
G1 X117.711 Y144.892 E20.38958
G1 X117.237 Y144.871 E20.40536
G1 X116.92 Y144.85 E20.41593
G1 X116.005 Y144.749 E20.44655
G1 X115.03 Y144.552 E20.47963
G1 X114.147 Y144.29 E20.51027
G1 X113.425 Y144.011 E20.53601
G1 X112.933 Y143.799 E20.55383
G1 X111.183 Y143.02 E20.61754
G1 X108.838 Y142.054 E20.70189
G1 X106.553 Y141.187 E20.78318
G1 X104.117 Y140.343 E20.86893
G1 X101.685 Y139.574 E20.95376
G1 X99.248 Y138.882 E21.03802
G1 X96.866 Y138.275 E21.11978
G1 X94.323 Y137.705 E21.20646
G1 X91.878 Y137.228 E21.28931
G1 X89.336 Y136.807 E21.37501
G1 X86.879 Y136.471 E21.45749
G1 X84.338 Y136.197 E21.5425
G1 X81.805 Y135.995 E21.62701
G1 X79.296 Y135.868 E21.71057
G1 X76.783 Y135.811 E21.79417
G1 X74.239 Y135.824 E21.87879
G1 X71.695 Y135.911 E21.96345
G1 X69.212 Y136.065 E22.0462
G1 X66.653 Y136.297 E22.13166
G1 X64.163 Y136.594 E22.21506
G1 X61.684 Y136.962 E22.29842
G1 X59.158 Y137.409 E22.38374
G1 X56.72 Y137.911 E22.46653
G1 X54.245 Y138.496 E22.55111
G1 X51.768 Y139.155 E22.63636
G1 X49.354 Y139.872 E22.72012
G1 X47.716 Y140.399 E22.77735
G1 X47.453 Y140.486 E22.78657
G1 X46.567 Y140.736 E22.81718
G1 X45.663 Y140.909 E22.8478
G1 X44.747 Y141.003 E22.87842
G1 X43.827 Y141.017 E22.90903
G1 X42.456 Y140.888 E22.95483
G1 X42.143 Y140.838 E22.96537
G1 X41.792 Y140.776 E22.97723
G1 X41.54 Y140.727 E22.98576
G1 X40.645 Y140.512 E23.01638
G1 X39.771 Y140.221 E23.04702
G1 X38.927 Y139.854 E23.07763
G1 X38.117 Y139.416 E23.10825
G1 X37.348 Y138.909 E23.13889
