;FLAVOR:Marlin
;TIME:6449
;Filament used: 3.14532m
;Layer height: 0.12
;MINX:96.103
;MINY:87.586
;MINZ:0.24
;MAXX:147.276
;MAXY:147.415
;MAXZ:35.45
;Generated with Cura_SteamEngine 4.6.2
M140 S60
M105
M190 S60
M104 S200
M105
M109 S200
M82 ;absolute extrusion mode
; Ender 3 Custom Start G-code
G92 E0 ; Reset Extruder
G28 ; Home all axes
G1 Z2.0 F3000 ; Move Z Axis up little to prevent scratching of Heat Bed
G1 X0.1 Y20 Z0.3 F5000.0 ; Move to start position
G1 X0.1 Y200.0 Z0.3 F1500.0 E15 ; Draw the first line
G1 X0.4 Y200.0 Z0.3 F5000.0 ; Move to side a little
G1 X0.4 Y20 Z0.3 F1500.0 E30 ; Draw the second line
G92 E0 ; Reset Extruder
G1 Z2.0 F3000 ; Move Z Axis up little to prevent scratching of Heat Bed
G1 X5 Y20 Z0.3 F5000.0 ; Move over to prevent blob squish
G92 E0
G92 E0
G1 F1500 E-6
;LAYER_COUNT:291
;LAYER:-7
M107
M204 S500
M205 X8 Y8
G0 F9000 X100.945 Y93.455 Z0.24
;TYPE:SUPPORT-INTERFACE
G1 F1500 E0
G1 F1125 X101.57 Y92.806 E0.07192
G1 X101.695 Y92.686 E0.08575
G1 X102.366 Y92.083 E0.15777
G1 X102.482 Y91.987 E0.16979
G1 X103.194 Y91.437 E0.2416
G1 X103.353 Y91.324 E0.25717
G1 X104.091 Y90.834 E0.32789
G1 X104.217 Y90.758 E0.33963
G1 X105.011 Y90.312 E0.41233
G1 X105.161 Y90.234 E0.42582
G1 X105.976 Y89.851 E0.49771
G1 X106.119 Y89.791 E0.51009
G1 X106.978 Y89.462 E0.58351
G1 X107.128 Y89.41 E0.59618
G1 X107.978 Y89.155 E0.66702
G1 X108.151 Y89.109 E0.68131
G1 X109.046 Y88.908 E0.75453
G1 X109.176 Y88.885 E0.76507
G1 X110.081 Y88.751 E0.8381
G1 X110.25 Y88.733 E0.85167
G1 X111.323 Y88.658 E0.93753
G1 X111.828 Y88.65 E0.97784
G1 X119.771 Y88.651 E1.61189
G1 X120.765 Y88.687 E1.69129
G1 X120.913 Y88.698 E1.70313
G1 X121.164 Y88.725 E1.72328
G1 X121.72 Y88.751 E1.76772
G1 X121.72 Y88.772 E1.76939
G1 X123.323 Y88.658 E1.89767
G1 X123.828 Y88.65 E1.93799
G1 X131.771 Y88.651 E2.57203
G1 X132.895 Y88.696 E2.66183
G1 X133.812 Y88.798 E2.73548
G1 X133.987 Y88.823 E2.74959
G1 X134.876 Y88.987 E2.82175
G1 X134.999 Y89.015 E2.83182
G1 X135.893 Y89.249 E2.90559
G1 X136.056 Y89.298 E2.91917
G1 X136.898 Y89.585 E2.99018
G1 X137.064 Y89.648 E3.00436
G1 X137.867 Y89.989 E3.074
G1 X138.056 Y90.077 E3.09064
G1 X138.967 Y90.551 E3.17261
G1 X139.746 Y91.026 E3.24544
G1 X139.897 Y91.126 E3.2599
G1 X140.611 Y91.637 E3.32999
G1 X140.759 Y91.75 E3.34485
G1 X141.45 Y92.326 E3.41666
G1 X141.563 Y92.427 E3.42876
G1 X142.212 Y93.052 E3.50068
G1 X142.332 Y93.177 E3.51451
G1 X142.935 Y93.848 E3.58653
G1 X143.031 Y93.964 E3.59855
G1 X143.59 Y94.688 E3.67156
G1 X143.684 Y94.819 E3.68443
G1 X144.184 Y95.573 E3.75665
G1 X144.26 Y95.699 E3.76839
G1 X144.706 Y96.493 E3.84109
G1 X144.784 Y96.643 E3.85459
G1 X145.167 Y97.458 E3.92647
G1 X145.227 Y97.601 E3.93885
G1 X145.556 Y98.46 E4.01227
G1 X145.608 Y98.61 E4.02495
G1 X145.863 Y99.46 E4.09578
G1 X145.909 Y99.633 E4.11007
G1 X146.108 Y100.519 E4.18256
G1 X146.133 Y100.658 E4.19383
G1 X146.266 Y101.557 E4.26638
G1 X146.284 Y101.719 E4.27939
G1 X146.36 Y102.805 E4.36629
G1 X146.368 Y103.306 E4.40629
G1 X146.368 Y112.236 E5.11912
G1 X146.332 Y113.244 E5.19963
G1 X146.319 Y113.416 E5.2134
G1 X146.319 Y114.184 E5.27471
G1 X146.36 Y114.805 E5.32438
G1 X146.368 Y115.306 E5.36438
G1 X146.368 Y124.236 E6.07721
G1 X146.332 Y125.242 E6.15757
G1 X146.322 Y125.377 E6.16837
G1 X146.22 Y126.294 E6.24202
G1 X146.195 Y126.469 E6.25613
G1 X146.033 Y127.347 E6.3274
G1 X146.003 Y127.481 E6.33836
G1 X145.772 Y128.366 E6.41138
G1 X145.72 Y128.538 E6.42572
G1 X145.444 Y129.35 E6.49418
G1 X145.364 Y129.559 E6.51204
G1 X145.029 Y130.349 E6.58054
G1 X144.948 Y130.524 E6.59593
G1 X144.532 Y131.332 E6.66848
G1 X143.992 Y132.228 E6.75198
G1 X143.892 Y132.379 E6.76644
G1 X143.381 Y133.093 E6.83653
G1 X143.268 Y133.241 E6.85139
G1 X142.692 Y133.932 E6.9232
G1 X142.591 Y134.045 E6.9353
G1 X141.966 Y134.694 E7.00722
G1 X141.841 Y134.814 E7.02105
G1 X141.171 Y135.416 E7.09295
G1 X141.054 Y135.513 E7.10509
G1 X140.342 Y136.063 E7.1769
G1 X140.183 Y136.176 E7.19247
G1 X139.445 Y136.666 E7.26319
G1 X139.319 Y136.742 E7.27493
G1 X139.004 Y136.919 E7.30377
G1 X138.441 Y137.283 E7.35729
G1 X137.92 Y137.724 E7.41178
G1 X137.455 Y138.229 E7.46658
G1 X137.236 Y138.554 E7.49786
G1 X137.215 Y138.542 E7.49979
G1 X136.492 Y139.728 E7.61067
G1 X136.392 Y139.879 E7.62512
G1 X135.881 Y140.593 E7.69521
G1 X135.768 Y140.741 E7.71007
G1 X135.192 Y141.432 E7.78188
G1 X135.091 Y141.545 E7.79398
G1 X134.466 Y142.194 E7.8659
G1 X134.341 Y142.314 E7.87973
G1 X133.671 Y142.916 E7.95163
G1 X133.554 Y143.013 E7.96377
G1 X132.842 Y143.563 E8.03558
G1 X132.683 Y143.676 E8.05115
G1 X131.945 Y144.166 E8.12187
G1 X131.819 Y144.242 E8.13361
G1 X131.025 Y144.688 E8.20631
G1 X130.874 Y144.766 E8.21987
G1 X130.06 Y145.149 E8.29168
G1 X129.917 Y145.209 E8.30406
G1 X129.058 Y145.538 E8.37749
G1 X128.908 Y145.59 E8.39016
G1 X128.058 Y145.845 E8.461
G1 X127.885 Y145.891 E8.47529
G1 X126.99 Y146.092 E8.54851
G1 X126.86 Y146.115 E8.55905
G1 X125.955 Y146.249 E8.63208
G1 X125.787 Y146.267 E8.64557
G1 X124.713 Y146.342 E8.73151
G1 X124.208 Y146.35 E8.77182
G1 X114.629 Y146.349 E9.53646
G1 X113.505 Y146.304 E9.62626
G1 X112.588 Y146.202 E9.69991
G1 X112.413 Y146.177 E9.71402
G1 X111.524 Y146.013 E9.78618
G1 X111.401 Y145.985 E9.79625
G1 X110.507 Y145.751 E9.87001
G1 X110.344 Y145.702 E9.8836
G1 X109.502 Y145.415 E9.95461
G1 X109.336 Y145.352 E9.96878
G1 X108.533 Y145.011 E10.03842
G1 X108.344 Y144.923 E10.05506
G1 X107.433 Y144.449 E10.13704
G1 X106.654 Y143.974 E10.20987
G1 X106.503 Y143.874 E10.22433
G1 X105.789 Y143.363 E10.29441
G1 X105.641 Y143.25 E10.30928
G1 X104.95 Y142.674 E10.38109
G1 X104.837 Y142.573 E10.39319
G1 X104.188 Y141.948 E10.46511
G1 X104.068 Y141.823 E10.47894
G1 X103.459 Y141.144 E10.55175
G1 X103.369 Y141.036 E10.56297
G1 X102.81 Y140.312 E10.63598
G1 X102.706 Y140.165 E10.65036
G1 X102.213 Y139.422 E10.72154
G1 X102.14 Y139.301 E10.73282
G1 X101.688 Y138.496 E10.80651
G1 X101.616 Y138.357 E10.81901
G1 X101.233 Y137.541 E10.89096
G1 X101.168 Y137.387 E10.9043
G1 X100.844 Y136.54 E10.97669
G1 X100.787 Y136.375 E10.99063
G1 X100.537 Y135.54 E11.06021
G1 X100.491 Y135.367 E11.07449
G1 X100.27 Y134.361 E11.15671
G1 X100.244 Y134.184 E11.17099
G1 X100.103 Y133.528 E11.22455
G1 X99.875 Y132.878 E11.27954
G1 X99.42 Y132.03 E11.35636
G1 X99.362 Y131.942 E11.36477
G1 X99.269 Y131.789 E11.37906
G1 X98.824 Y130.996 E11.45165
G1 X98.752 Y130.857 E11.46415
G1 X98.355 Y130.011 E11.53874
G1 X98.309 Y129.899 E11.54841
G1 X97.98 Y129.04 E11.62183
G1 X97.923 Y128.875 E11.63577
G1 X97.673 Y128.04 E11.70535
G1 X97.627 Y127.867 E11.71964
G1 X97.425 Y126.966 E11.79334
G1 X97.403 Y126.842 E11.8034
G1 X97.268 Y125.928 E11.87715
G1 X97.251 Y125.768 E11.88999
G1 X97.176 Y124.695 E11.97585
G1 X97.168 Y124.194 E12.01585
G1 X97.168 Y115.264 E12.72868
G1 X97.204 Y114.256 E12.80919
G1 X97.217 Y114.084 E12.82296
G1 X97.217 Y113.316 E12.88427
G1 X97.176 Y112.695 E12.93395
G1 X97.168 Y112.194 E12.97394
G1 X97.168 Y103.264 E13.68677
G1 X97.204 Y102.258 E13.76713
G1 X97.214 Y102.123 E13.77793
G1 X97.316 Y101.206 E13.85159
G1 X97.341 Y101.031 E13.8657
G1 X97.503 Y100.153 E13.93697
G1 X97.533 Y100.019 E13.94793
G1 X97.764 Y99.134 E14.02094
G1 X97.816 Y98.962 E14.03528
G1 X98.103 Y98.12 E14.10629
G1 X98.166 Y97.954 E14.12046
G1 X98.507 Y97.151 E14.1901
G1 X98.588 Y96.976 E14.2055
G1 X99.069 Y96.051 E14.28872
G1 X99.544 Y95.272 E14.36155
G1 X99.644 Y95.121 E14.37601
G1 X100.155 Y94.407 E14.4461
G1 X100.268 Y94.259 E14.46096
G1 X100.729 Y93.707 E14.51837
G0 F1012.5 X100.844 Y93.568
G0 X100.945 Y93.455
G0 F9000 X100.8 Y93.62
G1 F1125 X100.8 Y136.412 E17.93421
G0 F9000 X102.4 Y139.703
G1 F1125 X102.4 Y92.054 E21.73776
G0 F9000 X104 Y90.894
G1 F1125 X104 Y141.747 E25.79707
G0 F9000 X105.6 Y143.215
G1 F1125 X105.6 Y90.027 E30.04276
G0 F9000 X107.2 Y89.388
G1 F1125 X107.2 Y144.306 E34.42655
G0 F9000 X108.8 Y145.124
G1 F1125 X108.8 Y88.963 E38.90957
G0 F9000 X110.4 Y88.722
G1 F1125 X110.4 Y145.718 E43.45923
G0 F9000 X112 Y146.1
G1 F1125 X112 Y88.651 E48.04506
G0 F9000 X113.6 Y88.651
G1 F1125 X113.6 Y146.307 E52.64741
G0 F9000 X115.2 Y146.349
G1 F1125 X115.2 Y88.651 E57.25312
G0 F9000 X116.8 Y88.651
G1 F1125 X116.8 Y146.349 E61.85882
G0 F9000 X118.4 Y146.349
G1 F1125 X118.4 Y88.651 E66.46453
G0 F9000 X120 Y88.66
G1 F1125 X120 Y146.349 E71.06951
G0 F9000 X121.6 Y146.349
G1 F1125 X121.6 Y88.746 E75.66763
G0 F9000 X123.2 Y88.666
G1 F1125 X123.2 Y146.349 E80.27214
G0 F9000 X124.8 Y146.336
G1 F1125 X124.8 Y88.651 E84.8768
G0 F9000 X126.4 Y88.651
G1 F1125 X126.4 Y146.184 E89.46934
G0 F9000 X128 Y145.861
G1 F1125 X128 Y88.651 E94.03609
G0 F9000 X129.6 Y88.651
G1 F1125 X129.6 Y145.331 E98.56053
G0 F9000 X131.2 Y144.59
G1 F1125 X131.2 Y88.651 E103.02582
G0 F9000 X132.8 Y88.693
G1 F1125 X132.8 Y143.593 E107.40818
G0 F9000 X134.4 Y142.258
G1 F1125 X134.4 Y88.9 E111.66744
G0 F9000 X136 Y89.282
G1 F1125 X136 Y140.427 E115.75006
G0 F9000 X137.6 Y138.072
G1 F1125 X137.6 Y89.876 E119.59727
G0 F9000 X139.2 Y90.694
G1 F1125 X139.2 Y136.809 E123.27837
G0 F9000 X140.8 Y135.71
G1 F1125 X140.8 Y91.785 E126.78465
G0 F9000 X142.4 Y93.253
G1 F1125 X142.4 Y134.244 E130.05673
G0 F9000 X144 Y132.215
G1 F1125 X144 Y95.296 E133.00377
G0 F9000 X145.6 Y98.587
G1 F1125 X145.6 Y128.892 E135.42284
G1 F1500 E129.42284
G0 F9000 X146.608 Y129.233
G0 X145.9 Y130.999
G0 X144.894 Y132.793
G0 X144.106 Y133.898
G0 X142.713 Y135.453
G0 X135.07 Y143.09
G0 X133.469 Y144.423
G0 X132.35 Y145.165
G0 X130.485 Y146.125
G0 X129.226 Y146.606
G0 X127.202 Y147.135
G0 X125.889 Y147.326
G0 X124.215 Y147.415
G0 X113.575 Y147.376
G0 X112.249 Y147.229
G0 X110.222 Y146.777
G0 X108.932 Y146.337
G0 X107.052 Y145.455
G0 X105.893 Y144.746
G0 X104.249 Y143.475
G0 X103.292 Y142.552
G0 X101.959 Y140.951
G0 X101.217 Y139.832
G0 X100.257 Y137.967
G0 X99.986 Y137.254
G0 X98.353 Y132.332
G0 X99.2 Y131.666
G1 F1500 E135.42284
G1 F1125 X99.2 Y95.836 E138.28295
G0 F9000 X97.6 Y99.762
G1 F1125 X97.6 Y127.746 E140.51675
G1 F1500 E134.51675
G0 F300 X97.6 Y127.746 Z0.42
G0 F9000 X96.647 Y128.323
G0 X97.318 Y130.288
G0 X99.077 Y133.82
G0 X100.243 Y134.183
;TIME_ELAPSED:104.514082
;LAYER:-6
M140 S60
;TYPE:SUPPORT
G1 F1500 E140.51675
G1 F1125 X100.102 Y133.527 E140.55692
G1 X99.875 Y132.877 E140.59814
G1 X99.419 Y132.028 E140.65584
G1 X99.361 Y131.941 E140.6621
G1 X99.279 Y131.806 E140.67155
G1 X113.787 Y146.314 E141.8999
G1 X114.629 Y146.348 E141.95035
G1 X115.235 Y146.348 E141.98663
G1 X98.013 Y129.126 E143.44475
G1 X97.98 Y129.039 E143.45032
G1 X97.922 Y128.874 E143.46079
G1 X97.673 Y128.039 E143.51296
G1 X97.627 Y127.866 E143.52368
G1 X97.47 Y127.168 E143.56651
G1 X116.649 Y146.348 E145.19037
G1 X118.064 Y146.348 E145.27508
G1 X97.233 Y125.517 E147.03877
G1 X97.176 Y124.694 E147.08816
G1 X97.167 Y124.193 E147.11816
G1 X97.167 Y124.037 E147.1275
G1 X119.478 Y146.348 E149.01649
G1 X120.892 Y146.348 E149.10114
G1 X97.167 Y122.623 E151.10986
G1 X97.167 Y121.209 E151.19451
G1 X122.306 Y146.348 E153.32294
G1 X123.721 Y146.348 E153.40766
G1 X97.167 Y119.795 E155.65585
G1 X97.167 Y118.38 E155.74056
G1 X125.1 Y146.313 E158.10555
G1 X125.787 Y146.266 E158.14677
G1 X125.954 Y146.248 E158.15683
G1 X126.385 Y146.184 E158.18292
G1 X97.167 Y116.966 E160.6567
G1 X97.167 Y115.552 E160.74136
G1 X127.574 Y145.959 E163.31581
G1 X127.884 Y145.89 E163.33482
G1 X128.057 Y145.844 E163.34554
G1 X128.684 Y145.655 E163.38475
G1 X97.209 Y114.18 E166.04962
G1 X97.217 Y114.083 E166.05545
G1 X97.217 Y113.315 E166.10143
G1 X97.178 Y112.734 E166.13629
G1 X129.725 Y145.281 E168.89193
G1 X129.916 Y145.208 E168.90417
G1 X130.06 Y145.148 E168.91351
G1 X130.703 Y144.845 E168.95607
G1 X97.167 Y111.309 E171.79544
G1 X97.167 Y109.895 E171.8801
G1 X131.622 Y144.35 E174.79728
G1 X131.818 Y144.241 E174.81071
G1 X131.944 Y144.164 E174.81955
G1 X132.489 Y143.802 E174.85872
G1 X97.167 Y108.481 E177.84926
G1 X97.167 Y107.067 E177.93392
G1 X133.304 Y143.203 E180.99347
G1 X133.554 Y143.012 E181.0123
G1 X133.67 Y142.915 E181.02136
G1 X134.07 Y142.555 E181.05357
G1 X97.167 Y105.653 E184.17798
G1 X97.167 Y104.238 E184.26269
G1 X134.788 Y141.859 E187.44793
G1 X135.091 Y141.544 E187.4741
G1 X135.191 Y141.431 E187.48313
G1 X135.456 Y141.113 E187.50791
G1 X97.182 Y102.839 E190.74844
G1 X97.203 Y102.256 E190.78336
G1 X97.213 Y102.122 E190.79141
G1 X97.28 Y101.522 E190.82755
G1 X136.077 Y140.319 E194.11236
G1 X136.392 Y139.878 E194.1448
G1 X136.492 Y139.727 E194.15564
G1 X136.646 Y139.475 E194.17333
G1 X97.474 Y100.303 E197.48988
G1 X97.502 Y100.151 E197.49913
G1 X97.533 Y100.018 E197.50731
G1 X97.753 Y99.168 E197.55988
G1 X137.182 Y138.596 E200.89815
G1 X137.214 Y138.541 E200.90196
G1 X137.235 Y138.552 E200.90338
G1 X137.455 Y138.228 E200.92682
G1 X137.825 Y137.825 E200.95958
G1 X98.106 Y98.106 E204.32244
G1 X98.164 Y97.954 E204.33218
G1 X98.506 Y97.151 E204.38444
G1 X98.524 Y97.11 E204.38712
G1 X138.596 Y137.182 E207.77987
G1 X139.003 Y136.919 E207.80888
G1 X139.318 Y136.741 E207.83054
G1 X139.444 Y136.665 E207.83935
G1 X139.473 Y136.645 E207.84146
G1 X99.003 Y96.175 E211.26792
G1 X99.068 Y96.05 E211.27635
G1 X99.531 Y95.289 E211.32968
G1 X140.319 Y136.077 E214.78306
G1 X140.34 Y136.062 E214.7846
G1 X141.053 Y135.512 E214.83851
G1 X141.116 Y135.459 E214.84344
G1 X100.116 Y94.459 E218.31477
G1 X100.154 Y94.407 E218.31862
G1 X100.267 Y94.258 E218.32982
G1 X100.75 Y93.679 E218.37496
G1 X141.862 Y134.791 E221.85577
G1 X141.965 Y134.693 E221.86428
G1 X142.561 Y134.075 E221.91568
G1 X101.432 Y92.947 E225.39789
G1 X101.569 Y92.805 E225.4097
G1 X101.694 Y92.686 E225.42003
G1 X102.164 Y92.264 E225.45785
G1 X143.21 Y133.31 E228.93307
G1 X143.267 Y133.24 E228.93847
G1 X143.38 Y133.093 E228.94957
G1 X143.809 Y132.495 E228.99363
G1 X102.943 Y91.629 E232.45361
G1 X103.193 Y91.436 E232.47252
G1 X103.352 Y91.324 E232.48416
G1 X103.772 Y91.044 E232.51438
G1 X144.354 Y131.626 E235.95032
G1 X144.531 Y131.332 E235.97087
G1 X144.852 Y130.71 E236.01277
G1 X104.654 Y90.512 E239.41619
G1 X105.01 Y90.312 E239.44064
G1 X105.16 Y90.234 E239.45076
G1 X105.589 Y90.033 E239.47912
G1 X145.289 Y129.732 E242.84034
G1 X145.362 Y129.558 E242.85164
G1 X145.443 Y129.349 E242.86506
G1 X145.666 Y128.695 E242.90642
G1 X106.584 Y89.613 E246.21536
G1 X106.977 Y89.462 E246.24056
G1 X107.127 Y89.41 E246.25007
G1 X107.641 Y89.256 E246.28219
G1 X145.974 Y127.589 E249.52771
G1 X146.002 Y127.48 E249.53445
G1 X146.031 Y127.347 E249.5426
G1 X146.194 Y126.468 E249.59612
G1 X146.203 Y126.404 E249.59999
G1 X108.769 Y88.97 E252.7694
G1 X109.045 Y88.908 E252.78633
G1 X109.175 Y88.885 E252.79423
G1 X109.979 Y88.766 E252.84289
G1 X146.335 Y125.122 E255.92103
G1 X146.366 Y124.235 E255.97416
G1 X146.367 Y123.74 E256.0038
G1 X111.288 Y88.66 E258.97386
G1 X111.321 Y88.657 E258.97584
G1 X111.827 Y88.649 E259.00614
G1 X112.692 Y88.65 E259.05792
G1 X146.367 Y122.325 E261.90907
G1 X146.367 Y120.911 E261.99372
G1 X114.106 Y88.65 E264.72515
G1 X115.52 Y88.65 E264.8098
G1 X146.367 Y119.497 E267.42151
G1 X146.367 Y118.083 E267.50616
G1 X116.934 Y88.65 E269.99815
G1 X118.349 Y88.65 E270.08286
G1 X146.367 Y116.669 E272.45509
G1 X146.367 Y115.305 E272.53675
G1 X146.366 Y115.254 E272.5398
G1 X119.763 Y88.65 E274.79223
G1 X119.77 Y88.65 E274.79265
G1 X120.763 Y88.686 E274.85214
G1 X120.912 Y88.698 E274.86109
G1 X121.162 Y88.724 E274.87613
G1 X121.256 Y88.729 E274.88177
G1 X146.318 Y113.791 E277.00368
G1 X146.318 Y113.416 E277.02613
G1 X146.33 Y113.243 E277.03651
G1 X146.36 Y112.419 E277.08588
G1 X122.647 Y88.706 E279.09357
G1 X123.322 Y88.658 E279.13409
G1 X123.827 Y88.649 E279.16432
G1 X124.006 Y88.65 E279.17504
G1 X146.367 Y111.012 E281.06831
G1 X146.367 Y109.598 E281.15296
G1 X125.42 Y88.65 E282.92652
G1 X126.834 Y88.65 E283.01117
G1 X146.367 Y108.183 E284.66496
G1 X146.367 Y106.769 E284.74961
G1 X128.248 Y88.65 E286.28369
G1 X129.662 Y88.65 E286.36834
G1 X146.367 Y105.355 E287.78269
G1 X146.367 Y103.941 E287.86735
G1 X131.077 Y88.65 E289.16194
G1 X131.77 Y88.65 E289.20343
G1 X132.521 Y88.681 E289.24843
G1 X146.338 Y102.497 E290.41822
G1 X146.283 Y101.718 E290.46498
G1 X146.265 Y101.556 E290.47473
G1 X146.17 Y100.916 E290.51347
G1 X134.099 Y88.844 E291.53552
