;FLAVOR:Marlin
;TIME:1737
;Filament used: 1.41401m
;Layer height: 0.28
;MINX:103.432
;MINY:103.45
;MINZ:0.285
;MAXX:131.753
;MAXY:131.55
;MAXZ:34.725
;Generated with Cura_SteamEngine 4.6.2
M140 S60
M105
M190 S60
M104 S200
M105
M109 S200
M82 ;absolute extrusion mode
; Ender 3 Custom Start G-code
G92 E0 ; Reset Extruder
G28 ; Home all axes
G1 Z2.0 F3000 ; Move Z Axis up little to prevent scratching of Heat Bed
G1 X0.1 Y20 Z0.3 F5000.0 ; Move to start position
G1 X0.1 Y200.0 Z0.3 F1500.0 E15 ; Draw the first line
G1 X0.4 Y200.0 Z0.3 F5000.0 ; Move to side a little
G1 X0.4 Y20 Z0.3 F1500.0 E30 ; Draw the second line
G92 E0 ; Reset Extruder
G1 Z2.0 F3000 ; Move Z Axis up little to prevent scratching of Heat Bed
G1 X5 Y20 Z0.3 F5000.0 ; Move over to prevent blob squish
G92 E0
G92 E0
G1 F1500 E-6
;LAYER_COUNT:124
;LAYER:0
M107
M204 S500
M205 X8 Y8
;MESH:calicat.stl
G0 F7500 X112.368 Y103.85 Z0.285
;TYPE:WALL-INNER
G1 F1500 E0
G1 F1800 X119.168 Y103.85 E0.30618
G1 X119.168 Y111.65 E0.65738
G1 X112.368 Y111.65 E0.96355
G1 X112.368 Y103.85 E1.31476
G0 F7500 X111.968 Y103.45
;TYPE:WALL-OUTER
G1 F1800 X119.568 Y103.45 E1.63984
G1 X119.568 Y112.05 E2.00771
G1 X111.968 Y112.05 E2.33279
G1 X111.968 Y103.45 E2.70065
G0 F7500 X112.368 Y103.45
G0 X112.408 Y103.89
G0 X112.758 Y104.24
;TYPE:SKIN
G1 F1800 X118.778 Y104.24 E2.97171
G1 X118.778 Y111.26 E3.28779
G1 X112.758 Y111.26 E3.55885
G1 X112.758 Y104.24 E3.87493
G0 F7500 X112.758 Y103.96
G0 X118.986 Y104.032
G0 X119.058 Y104.475
G0 X118.617 Y104.475
G1 F1800 X118.542 Y104.4 E3.87971
G0 F7500 X117.976 Y104.4
G1 F1800 X118.617 Y105.041 E3.92052
G0 F7500 X118.617 Y105.607
G1 F1800 X117.41 Y104.4 E3.99738
G0 F7500 X116.845 Y104.4
G1 F1800 X118.617 Y106.172 E4.11021
G0 F7500 X118.617 Y106.738
G1 F1800 X116.279 Y104.4 E4.25909
G0 F7500 X115.713 Y104.4
G1 F1800 X118.617 Y107.304 E4.444
G0 F7500 X118.617 Y107.869
G1 F1800 X115.148 Y104.4 E4.6649
G0 F7500 X114.582 Y104.4
G1 F1800 X118.617 Y108.435 E4.92183
G0 F7500 X118.617 Y109.001
G1 F1800 X114.016 Y104.4 E5.21481
G0 F7500 X113.451 Y104.4
G1 F1800 X118.617 Y109.566 E5.54376
G0 F7500 X118.617 Y110.132
G1 F1800 X112.917 Y104.431 E5.90674
G0 F7500 X112.917 Y104.997
G1 F1800 X118.617 Y110.698 E6.26973
G0 F7500 X118.453 Y111.099
G1 F1800 X112.917 Y105.563 E6.62224
G0 F7500 X112.917 Y106.128
G1 F1800 X117.888 Y111.099 E6.93878
G0 F7500 X117.322 Y111.099
G1 F1800 X112.917 Y106.694 E7.21927
G0 F7500 X112.917 Y107.26
G1 F1800 X116.756 Y111.099 E7.46372
G0 F7500 X116.191 Y111.099
G1 F1800 X112.917 Y107.826 E7.67217
G0 F7500 X112.917 Y108.391
G1 F1800 X115.625 Y111.099 E7.8446
G0 F7500 X115.059 Y111.099
G1 F1800 X112.917 Y108.957 E7.981
G0 F7500 X112.917 Y109.523
G1 F1800 X114.494 Y111.099 E8.08138
G0 F7500 X113.928 Y111.099
G1 F1800 X112.917 Y110.088 E8.14576
G0 F7500 X112.917 Y110.654
G1 F1800 X113.362 Y111.099 E8.1741
G0 F7500 X113.362 Y111.45
G1 F1500 E2.1741
G0 F7500 X113.362 Y111.54
G0 X112.368 Y111.83
G0 X112.368 Y112.915
G0 X112.368 Y114.585
G0 X112.368 Y115.67
G0 X112.368 Y115.85
;TYPE:WALL-INNER
G1 F1500 E8.1741
G1 F1800 X119.168 Y115.85 E8.48027
G1 X119.168 Y120.85 E8.7054
G1 X124.368 Y120.85 E8.93954
G1 X124.368 Y115.85 E9.16467
G1 X131.168 Y115.85 E9.47084
G1 X131.168 Y123.65 E9.82204
G1 X123.668 Y123.65 E10.15974
G1 X123.668 Y131.15 E10.49743
G1 X115.19 Y131.15 E10.87916
G1 X115.189 Y127.549 E11.0413
G1 X115.189 Y127.35 E11.05026
G1 X115.388 Y127.35 E11.05606
G1 X119.868 Y127.35 E11.25777
G1 X119.868 Y123.65 E11.42437
G1 X112.368 Y123.65 E11.76206
G1 X112.368 Y115.85 E12.11327
G0 F7500 X111.968 Y115.45
;TYPE:WALL-OUTER
G1 F1800 X119.568 Y115.45 E12.43835
G1 X119.568 Y120.45 E12.65223
G1 X123.968 Y120.45 E12.84043
G1 X123.968 Y115.45 E13.05431
G1 X131.568 Y115.45 E13.37939
G1 X131.568 Y124.05 E13.74726
G1 X124.068 Y124.05 E14.06807
G1 X124.068 Y131.55 E14.38888
G1 X114.79 Y131.55 E14.78574
G1 X114.789 Y127.15 E14.97395
G1 X114.789 Y126.95 E14.9825
G1 X114.989 Y126.95 E14.98804
G1 X119.468 Y126.95 E15.17963
G1 X119.468 Y124.05 E15.30367
G1 X111.968 Y124.05 E15.62448
G1 X111.968 Y115.45 E15.99235
G0 F7500 X112.368 Y115.45
G0 X112.408 Y115.89
G0 X112.758 Y116.24
;TYPE:SKIN
G1 F1800 X118.778 Y116.24 E16.2634
G1 X118.778 Y121.24 E16.48853
G1 X124.758 Y121.24 E16.75779
G1 X124.758 Y116.24 E16.98292
G1 X130.778 Y116.24 E17.25397
G1 X130.778 Y123.26 E17.57005
G1 X123.278 Y123.26 E17.90775
G1 X123.278 Y130.76 E18.24544
G1 X115.58 Y130.76 E18.59205
G1 X115.579 Y127.74 E18.72803
G1 X120.258 Y127.74 E18.93871
G1 X120.258 Y123.26 E19.14042
G1 X112.758 Y123.26 E19.47812
G1 X112.758 Y116.24 E19.7942
G0 F7500 X112.758 Y115.96
G0 X112.55 Y116.032
G0 X112.55 Y123.468
G0 X119.696 Y123.822
G0 X119.696 Y127.178
G0 X115.09 Y127.189
G0 X115.372 Y130.968
G0 X115.891 Y131.04
G0 X115.891 Y130.599
G1 F1800 X115.739 Y130.447 E19.80388
G0 F7500 X115.739 Y129.881
G1 F1800 X116.456 Y130.599 E19.84956
G0 F7500 X117.022 Y130.599
G1 F1800 X115.739 Y129.315 E19.93129
G0 F7500 X115.738 Y128.749
G1 F1800 X117.588 Y130.599 E20.04909
G0 F7500 X118.154 Y130.599
G1 F1800 X115.738 Y128.183 E20.20294
G0 F7500 X116.019 Y127.899
G1 F1800 X118.719 Y130.599 E20.37486
G0 F7500 X119.285 Y130.599
G1 F1800 X116.585 Y127.899 E20.54679
G0 F7500 X117.151 Y127.899
G1 F1800 X119.851 Y130.599 E20.71871
G0 F7500 X120.416 Y130.599
G1 F1800 X117.717 Y127.899 E20.89061
G0 F7500 X118.282 Y127.899
G1 F1800 X120.982 Y130.599 E21.06253
G0 F7500 X121.548 Y130.599
G1 F1800 X118.848 Y127.899 E21.23446
G0 F7500 X119.414 Y127.899
G1 F1800 X122.113 Y130.599 E21.40635
G0 F7500 X122.679 Y130.599
G1 F1800 X119.979 Y127.899 E21.57828
G0 F7500 X120.418 Y127.772
G1 F1800 X123.117 Y130.471 E21.75014
G0 F7500 X123.117 Y129.906
G1 F1800 X120.418 Y127.206 E21.92204
G0 F7500 X120.418 Y126.64
G1 F1800 X123.117 Y129.34 E22.09393
G0 F7500 X123.117 Y128.774
G1 F1800 X120.418 Y126.075 E22.26579
G0 F7500 X120.418 Y125.509
G1 F1800 X123.117 Y128.209 E22.43769
G0 F7500 X123.117 Y127.643
G1 F1800 X120.418 Y124.943 E22.60958
G0 F7500 X120.418 Y124.377
G1 F1800 X123.117 Y127.077 E22.78147
G0 F7500 X123.117 Y126.512
G1 F1800 X120.418 Y123.812 E22.95337
G0 F7500 X120.418 Y123.246
G1 F1800 X123.117 Y125.946 E23.12526
G0 F7500 X123.117 Y125.38
G1 F1800 X119.137 Y121.4 E23.37869
G0 F7500 X119.703 Y121.4
G1 F1800 X123.117 Y124.814 E23.59608
G0 F7500 X123.117 Y124.249
G1 F1800 X120.268 Y121.4 E23.7775
G0 F7500 X120.834 Y121.4
G1 F1800 X123.117 Y123.683 E23.92287
G0 F7500 X123.117 Y123.117
G1 F1800 X121.4 Y121.4 E24.0322
G0 F7500 X121.966 Y121.4
G1 F1800 X123.665 Y123.099 E24.14039
G0 F7500 X124.23 Y123.099
G1 F1800 X122.531 Y121.4 E24.24857
G0 F7500 X123.097 Y121.4
G1 F1800 X124.796 Y123.099 E24.35676
G0 F7500 X125.362 Y123.099
G1 F1800 X123.663 Y121.4 E24.46495
G0 F7500 X124.228 Y121.4
G1 F1800 X125.927 Y123.099 E24.57313
G0 F7500 X126.493 Y123.099
G1 F1800 X124.794 Y121.4 E24.68132
G0 F7500 X124.917 Y120.957
G1 F1800 X127.059 Y123.099 E24.81771
G0 F7500 X127.624 Y123.099
G1 F1800 X124.917 Y120.392 E24.99008
G0 F7500 X124.917 Y119.826
G1 F1800 X128.19 Y123.099 E25.1985
G0 F7500 X128.756 Y123.099
G1 F1800 X124.917 Y119.26 E25.44295
G0 F7500 X124.917 Y118.694
G1 F1800 X129.322 Y123.099 E25.72344
G0 F7500 X129.887 Y123.099
G1 F1800 X124.917 Y118.129 E26.03992
G0 F7500 X124.917 Y117.563
G1 F1800 X130.453 Y123.099 E26.39243
G0 F7500 X130.617 Y122.697
G1 F1800 X124.917 Y116.997 E26.75538
G0 F7500 X124.917 Y116.432
G1 F1800 X130.617 Y122.132 E27.11834
G0 F7500 X130.617 Y121.566
G1 F1800 X125.451 Y116.4 E27.44729
G0 F7500 X126.017 Y116.4
G1 F1800 X130.617 Y121 E27.7402
G0 F7500 X130.617 Y120.435
G1 F1800 X126.582 Y116.4 E27.99713
G0 F7500 X127.148 Y116.4
G1 F1800 X130.617 Y119.869 E28.21802
G0 F7500 X130.617 Y119.303
G1 F1800 X127.714 Y116.4 E28.40288
G0 F7500 X128.279 Y116.4
G1 F1800 X130.617 Y118.738 E28.55175
G0 F7500 X130.617 Y118.172
G1 F1800 X128.845 Y116.4 E28.66459
G0 F7500 X129.411 Y116.4
G1 F1800 X130.617 Y117.606 E28.74138
G0 F7500 X130.617 Y117.041
G1 F1800 X129.976 Y116.4 E28.7822
G0 F7500 X130.542 Y116.4
G1 F1800 X130.617 Y116.475 E28.78697
G0 F7500 X131.058 Y116.475
G0 X130.986 Y116.032
G0 X124.55 Y116.032
G0 X124.196 Y120.678
G0 X119.34 Y120.678
G0 X119.058 Y116.92
G0 X118.617 Y116.92
G1 F1800 X118.096 Y116.399 E28.82015
G0 F7500 X117.531 Y116.399
G1 F1800 X118.617 Y117.486 E28.88933
G0 F7500 X118.617 Y118.052
G1 F1800 X116.965 Y116.399 E28.99456
G0 F7500 X116.399 Y116.399
G1 F1800 X118.617 Y118.617 E29.13579
G0 F7500 X118.617 Y119.183
G1 F1800 X115.833 Y116.399 E29.31307
G0 F7500 X115.268 Y116.399
G1 F1800 X118.617 Y119.749 E29.52635
G0 F7500 X118.617 Y120.314
G1 F1800 X114.702 Y116.399 E29.77564
G0 F7500 X114.136 Y116.399
G1 F1800 X118.617 Y120.88 E30.06097
G0 F7500 X119.058 Y120.88
G0 X118.986 Y116.032
G0 X112.55 Y116.032
G0 X112.55 Y123.468
G0 X118.573 Y123.54
G0 X118.573 Y123.098
G1 F1800 X112.917 Y117.443 E30.4211
G0 F7500 X112.917 Y116.877
G1 F1800 X119.139 Y123.098 E30.81726
G0 F7500 X119.704 Y123.098
G1 F1800 X113.005 Y116.399 E31.24382
G0 F7500 X113.571 Y116.399
G1 F1800 X120.27 Y123.098 E31.67039
G0 F7500 X120.008 Y123.51
G0 X118.007 Y123.54
G0 X118.007 Y123.098
G1 F1800 X112.917 Y118.009 E31.99447
G0 F7500 X112.917 Y118.574
G1 F1800 X117.441 Y123.098 E32.28254
G0 F7500 X116.876 Y123.098
G1 F1800 X112.917 Y119.14 E32.53461
G0 F7500 X112.917 Y119.706
G1 F1800 X116.31 Y123.098 E32.75063
G0 F7500 X115.744 Y123.098
G1 F1800 X112.917 Y120.271 E32.93064
G0 F7500 X112.917 Y120.837
G1 F1800 X115.179 Y123.098 E33.07464
G0 F7500 X114.613 Y123.098
G1 F1800 X112.917 Y121.403 E33.18261
G0 F7500 X112.917 Y121.968
G1 F1800 X114.047 Y123.098 E33.25456
G0 F7500 X113.482 Y123.098
G1 F1800 X112.917 Y122.534 E33.29051
G0 F7500 X112.568 Y122.534
G1 F1500 E27.29051
G0 F7500 X112.478 Y122.534
G0 X112.55 Y116.032
G0 X119.354 Y115.664
G0 X120.433 Y115.664
G0 X124.182 Y112.915
G0 X124.182 Y111.836
G0 X124.368 Y111.65
;TYPE:WALL-INNER
G1 F1500 E33.29051
G1 F1800 X124.368 Y103.85 E33.64171
G1 X131.168 Y103.85 E33.94788
G1 X131.168 Y111.65 E34.29909
G1 X124.368 Y111.65 E34.60526
G0 F7500 X123.968 Y112.05
;TYPE:WALL-OUTER
G1 F1800 X123.968 Y103.45 E34.97312
G1 X131.568 Y103.45 E35.29821
G1 X131.568 Y112.05 E35.66607
G1 X123.968 Y112.05 E35.99116
G0 F7500 X123.968 Y111.65
G0 X124.408 Y111.61
G0 X124.758 Y111.26
;TYPE:SKIN
G1 F1800 X124.758 Y104.24 E36.30724
G1 X130.778 Y104.24 E36.5783
G1 X130.778 Y111.26 E36.89438
G1 X124.758 Y111.26 E37.16544
G0 F7500 X125.242 Y111.099
G1 F1800 X124.916 Y110.774 E37.18616
G0 F7500 X124.916 Y110.208
G1 F1800 X125.807 Y111.099 E37.2429
G0 F7500 X126.373 Y111.099
G1 F1800 X124.916 Y109.643 E37.33564
G0 F7500 X124.916 Y109.077
G1 F1800 X126.939 Y111.099 E37.46443
G0 F7500 X127.504 Y111.099
G1 F1800 X124.916 Y108.511 E37.62922
G0 F7500 X124.916 Y107.946
G1 F1800 X128.07 Y111.099 E37.83003
G0 F7500 X128.636 Y111.099
G1 F1800 X124.916 Y107.38 E38.06687
G0 F7500 X124.916 Y106.814
G1 F1800 X129.201 Y111.099 E38.33972
G0 F7500 X129.767 Y111.099
G1 F1800 X124.916 Y106.249 E38.64858
G0 F7500 X124.916 Y105.683
G1 F1800 X130.333 Y111.099 E38.99349
G0 F7500 X130.617 Y110.818
G1 F1800 X124.916 Y105.117 E39.3565
G0 F7500 X124.916 Y104.552
G1 F1800 X130.617 Y110.252 E39.71949
G0 F7500 X130.617 Y109.687
G1 F1800 X125.33 Y104.4 E40.05615
G0 F7500 X125.896 Y104.4
G1 F1800 X130.617 Y109.121 E40.35676
G0 F7500 X130.617 Y108.555
G1 F1800 X126.461 Y104.4 E40.62137
G0 F7500 X127.027 Y104.4
G1 F1800 X130.617 Y107.99 E40.84997
G0 F7500 X130.617 Y107.424
G1 F1800 X127.593 Y104.4 E41.04252
G0 F7500 X128.158 Y104.4
G1 F1800 X130.617 Y106.858 E41.19907
G0 F7500 X130.617 Y106.292
G1 F1800 X128.724 Y104.4 E41.31958
G0 F7500 X129.29 Y104.4
G1 F1800 X130.617 Y105.727 E41.40408
G0 F7500 X130.617 Y105.161
G1 F1800 X129.855 Y104.4 E41.45257
G0 F7500 X130.421 Y104.4
G1 F1800 X130.617 Y104.595 E41.46502
G0 F7500 X130.968 Y104.595
G1 F1500 E35.46502
;MESH:NONMESH
G0 F300 X130.968 Y104.595 Z0.565
G0 F7500 X131.058 Y104.595
G0 X130.986 Y104.032
G0 X124.188 Y103.85
G0 X123.103 Y103.85
G0 X120.433 Y103.85
G0 X119.348 Y103.85
G0 X112.368 Y103.85
;TIME_ELAPSED:54.998005
;LAYER:1
M140 S60
M106 S85
;TYPE:WALL-INNER
;MESH:calicat.stl
G1 F1500 E41.46502
G1 F2400 X119.168 Y103.85 E41.78165
G1 X119.168 Y111.65 E42.14485
G1 X112.368 Y111.65 E42.46149
G1 X112.368 Y103.85 E42.82469
G0 F8250 X111.968 Y103.45
;TYPE:WALL-OUTER
G1 F1800 X119.568 Y103.45 E43.16088
G1 X119.568 Y112.05 E43.54131
G1 X111.968 Y112.05 E43.87751
G1 X111.968 Y103.45 E44.25794
G0 F8250 X112.368 Y103.45
G0 X112.408 Y103.89
G0 X112.758 Y104.24
;TYPE:SKIN
G1 F1800 X118.778 Y104.24 E44.53825
G1 X118.778 Y111.26 E44.86513
G1 X112.758 Y111.26 E45.14545
G1 X112.758 Y104.24 E45.47233
G0 F8250 X113.388 Y104.4
G1 F1800 X112.917 Y104.871 E45.50335
G0 F8250 X112.917 Y105.436
G1 F1800 X113.954 Y104.4 E45.5716
G0 F8250 X114.52 Y104.4
G1 F1800 X112.917 Y106.002 E45.67713
G0 F8250 X112.917 Y106.568
G1 F1800 X115.085 Y104.4 E45.8199
G0 F8250 X115.651 Y104.4
G1 F1800 X112.917 Y107.133 E45.9999
G0 F8250 X112.917 Y107.699
G1 F1800 X116.217 Y104.4 E46.21718
G0 F8250 X116.782 Y104.4
G1 F1800 X112.917 Y108.265 E46.4717
G0 F8250 X112.917 Y108.83
G1 F1800 X117.348 Y104.4 E46.76345
G0 F8250 X117.914 Y104.4
G1 F1800 X112.917 Y109.396 E47.09248
G0 F8250 X112.917 Y109.962
G1 F1800 X118.479 Y104.4 E47.45875
G0 F8250 X118.617 Y104.828
G1 F1800 X112.917 Y110.527 E47.83407
G0 F8250 X112.917 Y111.093
G1 F1800 X118.617 Y105.394 E48.20939
G0 F8250 X118.617 Y105.959
G1 F1800 X113.477 Y111.099 E48.54787
G0 F8250 X114.042 Y111.099
G1 F1800 X118.617 Y106.525 E48.84911
G0 F8250 X118.617 Y107.091
G1 F1800 X114.608 Y111.099 E49.11307
G0 F8250 X115.174 Y111.099
G1 F1800 X118.617 Y107.657 E49.33977
G0 F8250 X118.617 Y108.222
G1 F1800 X115.739 Y111.099 E49.52926
G0 F8250 X116.305 Y111.099
G1 F1800 X118.617 Y108.788 E49.68147
G0 F8250 X118.617 Y109.354
G1 F1800 X116.871 Y111.099 E49.79642
G0 F8250 X117.437 Y111.099
G1 F1800 X118.617 Y109.919 E49.87412
G0 F8250 X118.617 Y110.485
G1 F1800 X118.002 Y111.099 E49.91459
G0 F8250 X118.002 Y111.45
G1 F1500 E43.91459
G0 F8250 X118.002 Y111.54
G0 X119.168 Y111.83
G0 X119.168 Y112.915
G0 X119.168 Y114.585
G0 X119.168 Y115.67
G0 X119.168 Y115.85
;TYPE:WALL-INNER
G1 F1500 E49.91459
G1 F2400 X119.168 Y120.85 E50.14741
G1 X124.368 Y120.85 E50.38954
G1 X124.368 Y115.85 E50.62236
G1 X131.168 Y115.85 E50.939
G1 X131.168 Y123.65 E51.3022
G1 X123.668 Y123.65 E51.65143
G1 X123.668 Y131.15 E52.00066
G1 X114.907 Y131.15 E52.40861
G1 X114.906 Y127.549 E52.57629
G1 X114.906 Y127.35 E52.58556
G1 X115.105 Y127.35 E52.59155
G1 X119.868 Y127.35 E52.81334
G1 X119.868 Y123.65 E52.98562
G1 X112.368 Y123.65 E53.33486
G1 X112.368 Y115.85 E53.69806
G1 X119.168 Y115.85 E54.01469
G0 F8250 X119.568 Y115.45
;TYPE:WALL-OUTER
G1 F1800 X119.568 Y120.45 E54.23587
G1 X123.968 Y120.45 E54.43051
G1 X123.968 Y115.45 E54.65169
G1 X131.568 Y115.45 E54.98788
G1 X131.568 Y124.05 E55.36831
G1 X124.068 Y124.05 E55.70008
G1 X124.068 Y131.55 E56.03185
G1 X114.507 Y131.55 E56.45479
G1 X114.506 Y127.15 E56.64943
G1 X114.506 Y126.95 E56.65828
G1 X114.706 Y126.95 E56.66401
G1 X119.468 Y126.95 E56.87466
G1 X119.468 Y124.05 E57.00294
G1 X111.968 Y124.05 E57.33471
G1 X111.968 Y115.45 E57.71514
G1 X119.568 Y115.45 E58.05134
G0 F8250 X119.568 Y115.85
G0 X119.128 Y115.89
G0 X118.778 Y116.24
;TYPE:SKIN
G1 F1800 X118.778 Y121.24 E58.28416
G1 X124.758 Y121.24 E58.56261
G1 X124.758 Y116.24 E58.79543
G1 X130.778 Y116.24 E59.07575
G1 X130.778 Y123.26 E59.40263
G1 X123.278 Y123.26 E59.75186
G1 X123.278 Y130.76 E60.10109
G1 X115.297 Y130.76 E60.47272
G1 X115.296 Y127.74 E60.61334
G1 X120.258 Y127.74 E60.8444
G1 X120.258 Y123.26 E61.053
G1 X112.758 Y123.26 E61.40224
G1 X112.758 Y116.24 E61.72912
G1 X118.778 Y116.24 E62.00943
G0 F8250 X118.778 Y115.96
G0 X112.55 Y116.032
G0 X112.478 Y116.75
G0 X112.917 Y116.75
G1 F1800 X113.268 Y116.399 E62.03255
G0 F8250 X113.834 Y116.399
G1 F1800 X112.917 Y117.316 E62.09293
G0 F8250 X112.917 Y117.881
G1 F1800 X114.399 Y116.399 E62.19052
G0 F8250 X114.965 Y116.399
G1 F1800 X112.917 Y118.447 E62.32539
G0 F8250 X112.917 Y119.013
G1 F1800 X115.531 Y116.399 E62.49752
G0 F8250 X116.097 Y116.399
