;FLAVOR:Marlin
;TIME:5625
;Filament used: 2.65032m
;Layer height: 0.12
;MINX:100.768
;MINY:92.25
;MINZ:0.2
;MAXX:142.768
;MAXY:142.75
;MAXZ:34.64
;Generated with Cura_SteamEngine 4.6.2
M140 S60
M105
M190 S60
M104 S200
M105
M109 S200
M82 ;absolute extrusion mode
; Ender 3 Custom Start G-code
G92 E0 ; Reset Extruder
G28 ; Home all axes
G1 Z2.0 F3000 ; Move Z Axis up little to prevent scratching of Heat Bed
G1 X0.1 Y20 Z0.3 F5000.0 ; Move to start position
G1 X0.1 Y200.0 Z0.3 F1500.0 E15 ; Draw the first line
G1 X0.4 Y200.0 Z0.3 F5000.0 ; Move to side a little
G1 X0.4 Y20 Z0.3 F1500.0 E30 ; Draw the second line
G92 E0 ; Reset Extruder
G1 Z2.0 F3000 ; Move Z Axis up little to prevent scratching of Heat Bed
G1 X5 Y20 Z0.3 F5000.0 ; Move over to prevent blob squish
G92 E0
G92 E0
G1 F1500 E-6
;LAYER_COUNT:291
;LAYER:0
M107
M204 S500
M205 X8 Y8
G0 F7500 X120.371 Y93.067 Z0.2
;TYPE:SKIRT
G1 F1500 E0
G1 X123.058 Y93.067 E0.0849
G1 X124.081 Y93.05 E0.11723
G1 X131.207 Y93.051 E0.34239
G1 X131.905 Y93.061 E0.36445
G1 X132.807 Y93.114 E0.393
G1 X133.7 Y93.246 E0.42152
G1 X134.578 Y93.457 E0.45005
G1 X135.434 Y93.745 E0.47859
G1 X136.261 Y94.107 E0.50711
G1 X137.053 Y94.542 E0.53567
G1 X137.804 Y95.044 E0.56421
G1 X138.507 Y95.611 E0.59275
G1 X139.157 Y96.238 E0.62128
G1 X139.749 Y96.92 E0.64982
G1 X140.279 Y97.651 E0.67835
G1 X140.741 Y98.427 E0.70688
G1 X141.134 Y99.24 E0.73541
G1 X141.452 Y100.085 E0.76394
G1 X141.695 Y100.955 E0.79248
G1 X141.86 Y101.843 E0.82102
G1 X141.955 Y102.973 E0.85685
G1 X141.968 Y103.58 E0.87604
G1 X141.967 Y123.666 E1.5107
G1 X141.957 Y124.383 E1.53335
G1 X141.904 Y125.285 E1.5619
G1 X141.772 Y126.178 E1.59043
G1 X141.562 Y127.056 E1.61895
G1 X141.274 Y127.913 E1.64752
G1 X140.912 Y128.74 E1.67604
G1 X140.478 Y129.532 E1.70458
G1 X139.976 Y130.283 E1.73312
G1 X139.41 Y130.986 E1.76164
G1 X138.683 Y131.73 E1.79451
G1 X138.417 Y131.976 E1.80596
G1 X136.479 Y133.784 E1.8897
G1 X134.698 Y135.542 E1.96877
G1 X132.921 Y137.398 E2.04996
G1 X132.49 Y137.872 E2.07021
G1 X131.731 Y138.688 E2.10542
G1 X131.087 Y139.321 E2.13395
G1 X130.39 Y139.895 E2.16248
G1 X129.644 Y140.405 E2.19103
G1 X128.857 Y140.847 E2.21955
G1 X128.033 Y141.218 E2.24811
G1 X127.18 Y141.515 E2.27665
G1 X126.304 Y141.734 E2.30518
G1 X125.412 Y141.876 E2.33372
G1 X124.545 Y141.937 E2.36118
G1 X123.938 Y141.95 E2.38036
G1 X115.189 Y141.949 E2.65681
G1 X114.508 Y141.939 E2.67833
G1 X113.607 Y141.886 E2.70684
G1 X112.713 Y141.753 E2.7354
G1 X111.835 Y141.542 E2.76394
G1 X110.979 Y141.254 E2.79247
G1 X110.152 Y140.891 E2.82101
G1 X109.361 Y140.456 E2.84953
G1 X108.61 Y139.954 E2.87808
G1 X107.908 Y139.387 E2.90659
G1 X107.258 Y138.76 E2.93512
G1 X106.666 Y138.077 E2.96368
G1 X106.136 Y137.346 E2.99221
G1 X105.674 Y136.57 E3.02075
G1 X105.282 Y135.756 E3.0493
G1 X105.1 Y135.3 E3.06481
G1 X104.602 Y133.952 E3.11022
G1 X104.497 Y133.641 E3.12059
G1 X103.615 Y131.256 E3.20094
G1 X102.636 Y128.821 E3.28386
G1 X102.37 Y128.186 E3.30561
G1 X102.058 Y127.339 E3.33413
G1 X101.823 Y126.467 E3.36267
G1 X101.665 Y125.577 E3.39123
G1 X101.583 Y124.559 E3.4235
G1 X101.568 Y123.92 E3.4437
G1 X101.569 Y103.771 E4.08035
G1 X101.579 Y103.106 E4.10136
G1 X101.633 Y102.204 E4.12991
G1 X101.766 Y101.311 E4.15844
G1 X101.977 Y100.433 E4.18697
G1 X102.266 Y99.577 E4.21552
G1 X102.629 Y98.75 E4.24406
G1 X103.063 Y97.959 E4.27257
G1 X103.566 Y97.208 E4.30113
G1 X104.134 Y96.506 E4.32966
G1 X104.761 Y95.856 E4.35819
G1 X105.443 Y95.264 E4.38673
G1 X106.175 Y94.735 E4.41527
G1 X106.951 Y94.273 E4.4438
G1 X107.765 Y93.882 E4.47234
G1 X108.61 Y93.563 E4.50087
G1 X109.48 Y93.321 E4.52941
G1 X110.368 Y93.157 E4.55794
G1 X111.491 Y93.063 E4.59355
G1 X112.098 Y93.05 E4.61273
G1 X119.227 Y93.051 E4.83799
G1 X119.571 Y93.056 E4.84886
G0 F1350 X120.371 Y93.067
G0 F7500 X120.376 Y92.667
G1 F1500 X123.051 Y92.667 E4.93338
G1 X124.081 Y92.65 E4.96593
G1 X131.213 Y92.651 E5.19128
G1 X131.911 Y92.661 E5.21334
G1 X132.83 Y92.714 E5.24242
G1 X133.741 Y92.847 E5.27151
G1 X134.637 Y93.058 E5.3006
G1 X135.511 Y93.346 E5.32968
G1 X136.358 Y93.709 E5.35879
G1 X137.169 Y94.144 E5.38787
G1 X137.939 Y94.648 E5.41695
G1 X138.663 Y95.217 E5.44605
G1 X139.335 Y95.847 E5.47515
G1 X139.95 Y96.532 E5.50424
G1 X140.503 Y97.268 E5.53333
G1 X140.99 Y98.049 E5.56241
G1 X141.407 Y98.87 E5.5915
G1 X141.752 Y99.724 E5.62061
G1 X142.021 Y100.604 E5.64968
G1 X142.213 Y101.505 E5.67879
G1 X142.326 Y102.418 E5.70786
G1 X142.355 Y102.962 E5.72507
G1 X142.368 Y103.58 E5.7446
G1 X142.367 Y123.672 E6.37945
G1 X142.357 Y124.389 E6.40211
G1 X142.304 Y125.308 E6.4312
G1 X142.172 Y126.219 E6.46028
G1 X141.961 Y127.115 E6.48937
G1 X141.673 Y127.99 E6.51847
G1 X141.31 Y128.836 E6.54756
G1 X140.876 Y129.647 E6.57663
G1 X140.372 Y130.418 E6.60573
G1 X139.804 Y131.142 E6.63481
G1 X138.955 Y132.023 E6.67347
G1 X138.689 Y132.269 E6.68491
G1 X136.768 Y134.06 E6.7679
G1 X134.967 Y135.838 E6.84787
G1 X133.205 Y137.678 E6.92836
G1 X132.783 Y138.144 E6.94823
G1 X132.024 Y138.96 E6.98344
G1 X131.368 Y139.607 E7.01255
G1 X130.658 Y140.194 E7.04166
G1 X129.901 Y140.717 E7.07073
G1 X129.101 Y141.172 E7.09981
G1 X128.264 Y141.556 E7.12891
G1 X127.397 Y141.867 E7.15802
G1 X126.507 Y142.101 E7.18709
G1 X125.6 Y142.256 E7.21617
G1 X124.556 Y142.337 E7.24925
G1 X123.938 Y142.35 E7.26878
G1 X115.183 Y142.349 E7.54542
G1 X114.502 Y142.339 E7.56694
G1 X113.583 Y142.285 E7.59602
G1 X112.672 Y142.152 E7.62512
G1 X111.776 Y141.941 E7.6542
G1 X110.902 Y141.652 E7.68329
G1 X110.056 Y141.289 E7.71237
G1 X109.245 Y140.854 E7.74145
G1 X108.474 Y140.35 E7.77056
G1 X107.751 Y139.78 E7.79965
G1 X107.079 Y139.151 E7.82873
G1 X106.465 Y138.465 E7.85782
G1 X105.912 Y137.729 E7.88691
G1 X105.425 Y136.947 E7.91602
G1 X105.008 Y136.127 E7.94509
G1 X104.725 Y135.44 E7.96856
G1 X104.223 Y134.079 E8.0144
G1 X104.119 Y133.77 E8.0247
G1 X103.245 Y131.407 E8.10431
G1 X102.278 Y129.001 E8.18624
G1 X102.001 Y128.341 E8.20886
G1 X101.682 Y127.477 E8.23796
G1 X101.44 Y126.589 E8.26704
G1 X101.276 Y125.683 E8.29613
G1 X101.183 Y124.571 E8.33139
G1 X101.168 Y123.92 E8.35197
G1 X101.169 Y103.765 E8.98881
G1 X101.179 Y103.1 E9.00982
G1 X101.233 Y102.181 E9.03891
G1 X101.366 Y101.27 E9.068
G1 X101.578 Y100.374 E9.09709
G1 X101.867 Y99.499 E9.12621
G1 X102.231 Y98.654 E9.15528
G1 X102.666 Y97.843 E9.18436
G1 X103.171 Y97.072 E9.21348
G1 X103.74 Y96.349 E9.24255
G1 X104.37 Y95.677 E9.27166
G1 X105.056 Y95.063 E9.30075
G1 X105.792 Y94.511 E9.32982
G1 X106.574 Y94.024 E9.35892
G1 X107.395 Y93.608 E9.38801
G1 X108.249 Y93.264 E9.4171
G1 X109.129 Y92.995 E9.44617
G1 X110.03 Y92.804 E9.47527
G1 X110.944 Y92.692 E9.50437
G1 X111.48 Y92.663 E9.52133
G1 X112.098 Y92.65 E9.54086
G1 X119.232 Y92.651 E9.76628
G1 X119.576 Y92.656 E9.77715
G0 F1350 X120.376 Y92.667
G0 F7500 X120.382 Y92.267
G1 F1500 X123.044 Y92.267 E9.86126
G1 X124.081 Y92.25 E9.89403
G1 X131.219 Y92.251 E10.11957
G1 X131.917 Y92.261 E10.14163
G1 X132.853 Y92.315 E10.17125
G1 X133.781 Y92.447 E10.20087
G1 X134.695 Y92.659 E10.23051
G1 X135.587 Y92.948 E10.26014
G1 X136.452 Y93.311 E10.28978
G1 X137.282 Y93.747 E10.3194
G1 X138.073 Y94.252 E10.34906
G1 X138.817 Y94.823 E10.37869
G1 X139.51 Y95.455 E10.40833
G1 X140.147 Y96.143 E10.43795
G1 X140.722 Y96.884 E10.46759
G1 X141.233 Y97.67 E10.49721
G1 X141.675 Y98.498 E10.52687
G1 X142.044 Y99.36 E10.55649
G1 X142.339 Y100.25 E10.58612
G1 X142.557 Y101.162 E10.61575
G1 X142.697 Y102.09 E10.6454
G1 X142.755 Y102.951 E10.67267
G1 X142.768 Y103.58 E10.69255
G1 X142.767 Y123.677 E11.32756
G1 X142.757 Y124.394 E11.35021
G1 X142.704 Y125.331 E11.37987
G1 X142.571 Y126.259 E11.40949
G1 X142.36 Y127.173 E11.43913
G1 X142.072 Y128.065 E11.46875
G1 X141.708 Y128.93 E11.4984
G1 X141.273 Y129.761 E11.52804
G1 X140.768 Y130.551 E11.55766
G1 X140.198 Y131.296 E11.5873
G1 X139.566 Y131.989 E11.61694
G1 X139.227 Y132.317 E11.63184
G1 X138.961 Y132.563 E11.64329
G1 X137.039 Y134.355 E11.72632
G1 X135.254 Y136.117 E11.80557
G1 X133.508 Y137.941 E11.88535
G1 X133.075 Y138.417 E11.90568
G1 X132.316 Y139.233 E11.9409
G1 X131.649 Y139.892 E11.97052
G1 X130.928 Y140.491 E12.00014
G1 X130.158 Y141.027 E12.02979
G1 X129.346 Y141.496 E12.05941
G1 X128.496 Y141.893 E12.08906
G1 X127.616 Y142.217 E12.11869
G1 X126.712 Y142.465 E12.14831
G1 X125.789 Y142.634 E12.17796
G1 X124.567 Y142.737 E12.2167
G1 X123.938 Y142.75 E12.23658
G1 X115.177 Y142.749 E12.51341
G1 X114.496 Y142.739 E12.53493
G1 X113.56 Y142.685 E12.56455
G1 X112.632 Y142.552 E12.59417
G1 X111.718 Y142.34 E12.62382
G1 X110.826 Y142.051 E12.65344
G1 X109.962 Y141.687 E12.68307
G1 X109.131 Y141.251 E12.71272
G1 X108.341 Y140.745 E12.74236
G1 X107.597 Y140.175 E12.77198
G1 X106.904 Y139.543 E12.80161
G1 X106.268 Y138.854 E12.83124
G1 X105.692 Y138.113 E12.8609
G1 X105.182 Y137.326 E12.89053
G1 X104.741 Y136.499 E12.92014
G1 X104.35 Y135.58 E12.9517
G1 X103.96 Y134.533 E12.987
G1 X103.74 Y133.9 E13.00818
G1 X102.886 Y131.59 E13.08599
G1 X101.866 Y129.053 E13.17239
G1 X101.632 Y128.495 E13.19151
G1 X101.307 Y127.616 E13.22112
G1 X101.058 Y126.711 E13.25078
G1 X100.887 Y125.789 E13.28041
G1 X100.783 Y124.583 E13.31866
G1 X100.773 Y124.257 E13.32896
G1 X100.768 Y123.92 E13.33961
G1 X100.769 Y103.759 E13.97664
G1 X100.779 Y103.094 E13.99766
G1 X100.833 Y102.157 E14.02731
G1 X100.967 Y101.229 E14.05694
G1 X101.179 Y100.315 E14.08658
G1 X101.468 Y99.423 E14.11621
G1 X101.833 Y98.559 E14.14585
G1 X102.269 Y97.729 E14.17547
G1 X102.775 Y96.939 E14.20511
G1 X103.346 Y96.195 E14.23475
G1 X103.978 Y95.502 E14.26438
G1 X104.667 Y94.866 E14.29401
G1 X105.408 Y94.291 E14.32365
G1 X106.195 Y93.781 E14.35328
G1 X107.023 Y93.34 E14.38292
G1 X107.885 Y92.971 E14.41255
G1 X108.776 Y92.677 E14.44219
G1 X109.688 Y92.459 E14.47182
G1 X110.615 Y92.321 E14.50143
G1 X111.469 Y92.263 E14.52848
G1 X112.098 Y92.25 E14.54836
G1 X119.238 Y92.251 E14.77396
G1 X119.582 Y92.256 E14.78483
G0 F1350 X120.382 Y92.267
G0 F7500 X121.568 Y105.25
G1 F1500 X121.968 Y105.25 E14.79747
G1 X121.968 Y106.219 E14.82809
G1 X121.768 Y106.301 E14.83492
G1 X121.568 Y106.219 E14.84175
G1 X121.568 Y105.425 E14.86684
G0 F1350 X121.568 Y105.25
G0 F7500 X121.168 Y104.85
G1 F1500 X122.368 Y104.85 E14.90475
G1 X122.368 Y106.486 E14.95645
G1 X121.768 Y106.735 E14.97697
G1 X121.168 Y106.486 E14.9975
G1 X121.168 Y105.188 E15.03851
G0 F1350 X121.168 Y104.85
G0 F7500 X120.768 Y104.45
G1 F1500 X122.768 Y104.45 E15.10171
G1 X122.768 Y106.753 E15.17448
G1 X121.768 Y107.167 E15.20867
G1 X120.768 Y106.753 E15.24287
G1 X120.768 Y104.951 E15.29981
G0 F1350 X120.768 Y104.45
G1 F1500 E9.29981
G0 F7500 X120.429 Y112.407
G0 X119.925 Y112.911
G0 X114.271 Y113.25
G1 F1500 E15.29981
G1 X114.478 Y113.75 E15.31691
G1 X114.271 Y114.25 E15.33401
G1 X111.968 Y114.25 E15.40678
G1 X111.968 Y113.25 E15.43837
G1 X113.816 Y113.25 E15.49676
G0 F1350 X114.271 Y113.25
G0 F7500 X114.004 Y113.65
G1 F1500 X114.046 Y113.75 E15.50019
G1 X114.004 Y113.85 E15.50362
G1 X112.368 Y113.85 E15.55531
G1 X112.368 Y113.65 E15.56163
G1 X113.739 Y113.65 E15.60495
G0 F1350 X114.004 Y113.65
G0 F7500 X129.265 Y113.25
G1 F1500 X131.568 Y113.25 E15.67772
G1 X131.568 Y114.25 E15.70932
G1 X129.265 Y114.25 E15.78208
G1 X129.058 Y113.75 E15.79918
G1 X129.142 Y113.549 E15.80607
G0 F1350 X129.265 Y113.25
G0 F7500 X129.532 Y113.65
G1 F1500 X131.168 Y113.65 E15.85776
G1 X131.168 Y113.85 E15.86408
G1 X129.532 Y113.85 E15.91577
G1 X129.507 Y113.79 E15.91782
G0 F1350 X129.49 Y113.75
G0 X129.532 Y113.65
G1 F1500 E9.91782
;MESH:calicat.stl
G0 F7500 X129.532 Y111.83
G0 X124.768 Y111.25
;TYPE:WALL-INNER
G1 F1500 E15.91782
G1 X124.768 Y104.25 E16.139
G1 X130.768 Y104.25 E16.32859
G1 X130.768 Y111.25 E16.54977
G1 X125.568 Y111.25 E16.71407
G0 F1350 X124.768 Y111.25
G0 F7500 X124.368 Y111.65
G1 F1500 X124.368 Y103.85 E16.96053
G1 X131.168 Y103.85 E17.17539
G1 X131.168 Y111.65 E17.42185
G1 X125.168 Y111.65 E17.61143
G0 F1350 X124.368 Y111.65
G0 F7500 X123.968 Y112.05
;TYPE:WALL-OUTER
G1 F1500 X123.968 Y103.45 E17.86958
G1 X131.568 Y103.45 E18.09771
G1 X131.568 Y112.05 E18.35586
G1 X124.768 Y112.05 E18.55998
G0 F1350 X123.968 Y112.05
G0 F7500 X123.968 Y111.65
G0 X124.408 Y111.61
G0 X124.878 Y110.86
G0 X125.158 Y110.86
;TYPE:SKIN
G1 F1500 X125.158 Y104.64 E18.75651
G1 X130.378 Y104.64 E18.92145
G1 X130.378 Y110.86 E19.11798
G1 X125.958 Y110.86 E19.25764
G0 F1350 X125.158 Y110.86
G1 F1500 E13.25764
G0 F7500 X124.878 Y110.86
G0 X124.978 Y108.5
G0 X127.518 Y108.5
G1 F1500 E19.25764
G1 X127.518 Y107 E19.30504
G1 X128.018 Y107 E19.32084
G1 X128.018 Y108.5 E19.36823
G1 X127.703 Y108.5 E19.37818
G0 F1350 X127.518 Y108.5
G0 F7500 X127.118 Y108.9
G1 F1500 X127.118 Y106.6 E19.45086
G1 X128.418 Y106.6 E19.49193
G1 X128.418 Y108.9 E19.56461
G1 X127.48 Y108.9 E19.59425
G0 F1350 X127.118 Y108.9
G0 F7500 X126.718 Y109.3
G1 F1500 X126.718 Y106.2 E19.6922
G1 X128.818 Y106.2 E19.75855
G1 X128.818 Y109.3 E19.8565
G1 X127.258 Y109.3 E19.90579
G0 F1350 X126.718 Y109.3
G0 F7500 X126.318 Y109.7
G1 F1500 X126.318 Y105.8 E20.02902
G1 X129.218 Y105.8 E20.12065
G1 X129.218 Y109.7 E20.24388
G1 X127.036 Y109.7 E20.31283
G0 F1350 X126.318 Y109.7
G0 F7500 X125.918 Y110.1
G1 F1500 X125.918 Y105.4 E20.46133
G1 X129.618 Y105.4 E20.57824
G1 X129.618 Y110.1 E20.72675
G1 X126.718 Y110.1 E20.81838
G0 F1350 X125.918 Y110.1
G0 F7500 X125.518 Y110.5
G1 F1500 X125.518 Y105 E20.99217
G1 X130.018 Y105 E21.13435
G1 X130.018 Y110.5 E21.30814
G1 X126.318 Y110.5 E21.42505
G0 F1350 X125.518 Y110.5
G1 F1500 E15.42505
G0 F7500 X124.878 Y110.5
G0 X127.84 Y111.04
G0 X127.84 Y108.324
;TYPE:SKIN
G1 F1500 E21.42505
G1 X127.692 Y108.176 E21.42835
G0 F7500 X127.842 Y108.043
G1 F1500 X127.692 Y107.893 E21.4317
G0 F7500 X127.842 Y107.76
G1 F1500 X127.692 Y107.61 E21.43506
G0 F7500 X127.842 Y107.477
G1 F1500 X127.692 Y107.327 E21.43841
G1 F1500 E15.43841
G0 F7500 X123.103 Y107.327
G0 X120.433 Y107.327
G0 X119.348 Y107.327
G0 X118.586 Y111.068
G0 X112.768 Y111.25
;TYPE:WALL-INNER
G1 F1500 E21.43841
G1 X112.768 Y104.25 E21.65959
G1 X118.768 Y104.25 E21.84917
G1 X118.768 Y111.25 E22.07035
G1 X113.568 Y111.25 E22.23465
G0 F1350 X112.768 Y111.25
G0 F7500 X112.368 Y111.65
G1 F1500 X112.368 Y103.85 E22.48111
G1 X119.168 Y103.85 E22.69597
G1 X119.168 Y111.65 E22.94243
G1 X113.168 Y111.65 E23.13201
G0 F1350 X112.368 Y111.65
G0 F7500 X111.968 Y112.05
;TYPE:WALL-OUTER
G1 F1500 X111.968 Y103.45 E23.39016
G1 X119.568 Y103.45 E23.61829
G1 X119.568 Y112.05 E23.87644
G1 X112.768 Y112.05 E24.08056
G0 F1350 X111.968 Y112.05
G0 F7500 X111.968 Y111.65
G0 X112.408 Y111.61
G0 X112.878 Y110.86
G0 X113.158 Y110.86
;TYPE:SKIN
G1 F1500 X113.158 Y104.64 E24.27709
G1 X118.378 Y104.64 E24.44203
G1 X118.378 Y110.86 E24.63856
G1 X113.958 Y110.86 E24.77822
G0 F1350 X113.158 Y110.86
G1 F1500 E18.77822
G0 F7500 X112.878 Y110.86
G0 X112.978 Y108.5
G0 X115.518 Y108.5
G1 F1500 E24.77822
G1 X115.518 Y107 E24.82562
G1 X116.018 Y107 E24.84142
G1 X116.018 Y108.5 E24.88881
G1 X115.703 Y108.5 E24.89877
G0 F1350 X115.518 Y108.5
G0 F7500 X115.118 Y108.9
G1 F1500 X115.118 Y106.6 E24.97144
G1 X116.418 Y106.6 E25.01252
G1 X116.418 Y108.9 E25.08519
G1 X115.48 Y108.9 E25.11483
G0 F1350 X115.118 Y108.9
G0 F7500 X114.718 Y109.3
G1 F1500 X114.718 Y106.2 E25.21278
G1 X116.818 Y106.2 E25.27913
G1 X116.818 Y109.3 E25.37708
G1 X115.258 Y109.3 E25.42638
G0 F1350 X114.718 Y109.3
G0 F7500 X114.318 Y109.7
G1 F1500 X114.318 Y105.8 E25.5496
G1 X117.218 Y105.8 E25.64124
G1 X117.218 Y109.7 E25.76446
G1 X115.036 Y109.7 E25.83341
G0 F1350 X114.318 Y109.7
G0 F7500 X113.918 Y110.1
G1 F1500 X113.918 Y105.4 E25.98192
G1 X117.618 Y105.4 E26.09883
G1 X117.618 Y110.1 E26.24733
G1 X114.718 Y110.1 E26.33896
G0 F1350 X113.918 Y110.1
G0 F7500 X113.518 Y110.5
G1 F1500 X113.518 Y105 E26.51275
G1 X118.018 Y105 E26.65493
G1 X118.018 Y110.5 E26.82872
G1 X114.318 Y110.5 E26.94563
G0 F1350 X113.518 Y110.5
G1 F1500 E20.94563
G0 F7500 X112.878 Y110.5
G0 X112.978 Y108.205
G0 X115.842 Y108.205
;TYPE:SKIN
G1 F1500 E26.94563
G1 X115.691 Y108.055 E26.94899
G0 F7500 X115.842 Y107.922
G1 F1500 X115.691 Y107.772 E26.95235
G0 F7500 X115.842 Y107.64
G1 F1500 X115.691 Y107.489 E26.95573
