;FLAVOR:Marlin
;TIME:5543
;Filament used: 1.67312m
;Layer height: 0.12
;MINX:88.203
;MINY:106.088
;MINZ:0.12
;MAXX:131.773
;MAXY:113.945
;MAXZ:39.96
;Generated with Cura_SteamEngine 4.7.0
M140 S60
M105
M190 S60
M104 S225
M105
M109 S225
M82 ;absolute extrusion mode
; Ender 3 Custom Start G-code
G92 E0 ; Reset Extruder
G28 ; Home all axes
G1 Z2.0 F3000 ; Move Z Axis up little to prevent scratching of Heat Bed
G1 X0.1 Y20 Z0.3 F5000.0 ; Move to start position
G1 X0.1 Y200.0 Z0.3 F1500.0 E15 ; Draw the first line
G1 X0.4 Y200.0 Z0.3 F5000.0 ; Move to side a little
G1 X0.4 Y20 Z0.3 F1500.0 E30 ; Draw the second line
G92 E0 ; Reset Extruder
G1 Z2.0 F3000 ; Move Z Axis up little to prevent scratching of Heat Bed
G1 X5 Y20 Z0.3 F5000.0 ; Move over to prevent blob squish
G92 E0
G92 E0
G1 F1500 E-6.5
;LAYER_COUNT:333
;LAYER:0
M107
G0 F6000 X88.847 Y106.727 Z0.12
;TYPE:SKIRT
G1 F1500 E0
G1 F1200 X89.142 Y106.489 E0.00756
G1 X89.48 Y106.318 E0.01512
G1 X89.846 Y106.221 E0.02268
G1 X90.12 Y106.2 E0.02816
G1 X92.08 Y106.2 E0.06728
G1 X94.952 Y106.192 E0.12459
G1 X95.07 Y106.2 E0.12695
G1 X109.126 Y106.2 E0.40745
G1 X109.503 Y106.24 E0.41502
G1 X109.59 Y106.268 E0.41684
G1 X109.769 Y106.221 E0.42054
G1 X110.043 Y106.2 E0.42602
G1 X110.517 Y106.2 E0.43548
G1 X110.894 Y106.24 E0.44305
G1 X110.983 Y106.269 E0.44491
G1 X111.434 Y106.2 E0.45402
G1 X113.16 Y106.2 E0.48846
G1 X113.238 Y106.173 E0.49011
G1 X113.607 Y106.088 E0.49767
G1 X114.09 Y106.095 E0.50731
G1 X114.378 Y106.138 E0.51312
G1 X114.756 Y106.174 E0.5207
G1 X115.211 Y106.175 E0.52978
G1 X115.968 Y106.199 E0.54489
G1 X120.638 Y106.2 E0.63808
G1 X120.981 Y106.109 E0.64517
G1 X121.444 Y106.098 E0.65441
G1 X122.067 Y106.164 E0.66691
G1 X122.727 Y106.2 E0.6801
G1 X129.692 Y106.2 E0.8191
G1 X130.069 Y106.24 E0.82666
G1 X130.429 Y106.358 E0.83422
G1 X130.756 Y106.548 E0.84177
G1 X130.965 Y106.727 E0.84726
G1 X131.245 Y107.007 E0.85516
G1 X131.483 Y107.302 E0.86273
G1 X131.654 Y107.64 E0.87029
G1 X131.751 Y108.006 E0.87784
G1 X131.772 Y108.279 E0.88331
G1 X131.773 Y111.872 E0.95501
G1 X131.733 Y112.249 E0.96257
G1 X131.615 Y112.61 E0.97015
G1 X131.425 Y112.937 E0.9777
G1 X131.231 Y113.161 E0.98361
G1 X131.103 Y113.286 E0.98718
G1 X130.805 Y113.521 E0.99476
G1 X130.465 Y113.688 E1.00232
G1 X130.098 Y113.78 E1.00987
G1 X129.85 Y113.798 E1.01483
G1 X129.178 Y113.8 E1.02824
G1 X122.993 Y113.8 E1.15167
G1 X120.886 Y113.802 E1.19372
G1 X118.161 Y113.802 E1.2481
G1 X117.199 Y113.8 E1.26729
G1 X112.321 Y113.8 E1.36464
G1 X111.797 Y113.908 E1.37532
G1 X111.42 Y113.945 E1.38288
G1 X111.043 Y113.902 E1.39045
G1 X110.699 Y113.786 E1.39769
G1 X110.517 Y113.8 E1.40134
G1 X110.043 Y113.8 E1.4108
G1 X109.666 Y113.76 E1.41836
G1 X109.577 Y113.731 E1.42023
G1 X109.126 Y113.8 E1.42933
G1 X102.858 Y113.8 E1.55442
G1 X102.76 Y113.826 E1.55644
G1 X102.467 Y113.847 E1.5623
G1 X98.888 Y113.809 E1.63373
G1 X97.429 Y113.8 E1.66285
G1 X90.12 Y113.799 E1.80871
G1 X89.743 Y113.759 E1.81627
G1 X89.383 Y113.641 E1.82383
G1 X89.055 Y113.45 E1.83141
G1 X88.847 Y113.272 E1.83687
G1 X88.73 Y113.155 E1.84017
G1 X88.492 Y112.86 E1.84774
G1 X88.321 Y112.522 E1.8553
G1 X88.224 Y112.156 E1.86285
G1 X88.203 Y111.882 E1.86834
G1 X88.203 Y108.117 E1.94347
G1 X88.243 Y107.74 E1.95104
G1 X88.361 Y107.38 E1.9586
G1 X88.551 Y107.053 E1.96614
G1 X88.73 Y106.844 E1.97163
G1 X88.847 Y106.727 E1.97494
G0 F6000 X89.13 Y107.01
G1 F1200 X89.393 Y106.804 E1.9816
G1 X89.697 Y106.665 E1.98827
G1 X90.12 Y106.6 E1.99681
G1 X92.081 Y106.6 E2.03595
G1 X94.953 Y106.592 E2.09326
G1 X95.073 Y106.6 E2.09566
G1 X109.126 Y106.6 E2.37611
G1 X109.458 Y106.64 E2.38278
G1 X109.577 Y106.685 E2.38532
G1 X109.62 Y106.665 E2.38626
G1 X110.043 Y106.6 E2.3948
G1 X110.517 Y106.6 E2.40426
G1 X110.849 Y106.64 E2.41094
G1 X110.968 Y106.685 E2.41348
G1 X111.245 Y106.613 E2.41919
G1 X111.434 Y106.6 E2.42297
G1 X113.226 Y106.6 E2.45873
G1 X113.368 Y106.551 E2.46173
G1 X113.695 Y106.481 E2.4684
G1 X114.031 Y106.49 E2.47511
G1 X114.338 Y106.536 E2.4813
G1 X114.739 Y106.574 E2.48934
G1 X115.198 Y106.575 E2.4985
G1 X115.955 Y106.599 E2.51362
G1 X120.729 Y106.6 E2.60889
G1 X120.832 Y106.553 E2.61115
G1 X121.16 Y106.491 E2.61781
G1 X121.402 Y106.496 E2.62264
G1 X122.023 Y106.562 E2.6351
G1 X122.724 Y106.6 E2.64911
G1 X129.692 Y106.6 E2.78816
G1 X130.024 Y106.64 E2.79484
G1 X130.336 Y106.757 E2.80149
G1 X130.682 Y107.01 E2.81004
G1 X130.962 Y107.29 E2.81794
G1 X131.168 Y107.553 E2.82461
G1 X131.307 Y107.857 E2.83128
G1 X131.372 Y108.28 E2.83982
G1 X131.373 Y111.873 E2.91152
G1 X131.333 Y112.204 E2.91818
G1 X131.216 Y112.517 E2.92484
G1 X130.951 Y112.875 E2.93373
G1 X130.823 Y113 E2.9373
G1 X130.558 Y113.203 E2.94397
G1 X130.252 Y113.337 E2.95063
G1 X129.849 Y113.398 E2.95877
G1 X129.177 Y113.4 E2.97218
G1 X122.992 Y113.4 E3.0956
G1 X120.885 Y113.402 E3.13765
G1 X118.162 Y113.402 E3.19199
G1 X117.2 Y113.4 E3.21119
G1 X112.279 Y113.4 E3.30939
G1 X111.716 Y113.516 E3.32087
G1 X111.384 Y113.544 E3.32751
G1 X111.053 Y113.492 E3.3342
G1 X110.747 Y113.365 E3.34081
G1 X110.517 Y113.4 E3.34546
G1 X110.043 Y113.4 E3.35491
G1 X109.711 Y113.36 E3.36159
G1 X109.592 Y113.315 E3.36413
G1 X109.315 Y113.387 E3.36984
G1 X109.126 Y113.4 E3.37362
G1 X102.788 Y113.4 E3.5001
G1 X102.471 Y113.447 E3.5065
G1 X98.892 Y113.409 E3.57792
G1 X97.431 Y113.4 E3.60708
G1 X90.12 Y113.399 E3.75298
G1 X89.788 Y113.359 E3.75965
G1 X89.475 Y113.242 E3.76632
G1 X89.13 Y112.989 E3.77486
G1 X89.013 Y112.872 E3.77816
G1 X88.807 Y112.609 E3.78483
G1 X88.668 Y112.305 E3.7915
G1 X88.603 Y111.882 E3.80004
G1 X88.603 Y108.117 E3.87517
G1 X88.643 Y107.785 E3.88185
G1 X88.76 Y107.473 E3.88849
G1 X89.013 Y107.127 E3.89705
G1 X89.13 Y107.01 E3.90035
G0 F6000 X89.413 Y107.293
G1 F1200 X89.639 Y107.124 E3.90598
G1 X89.903 Y107.024 E3.91162
G1 X90.12 Y107 E3.91597
G1 X92.082 Y107 E3.95513
G1 X94.954 Y106.992 E4.01244
G1 X95.078 Y107 E4.01492
G1 X109.126 Y107 E4.29526
G1 X109.405 Y107.04 E4.30089
G1 X109.578 Y107.118 E4.30468
G1 X109.826 Y107.024 E4.30997
G1 X110.043 Y107 E4.31432
G1 X110.517 Y107 E4.32378
G1 X110.796 Y107.04 E4.32941
G1 X110.972 Y107.119 E4.33326
G1 X111.009 Y107.095 E4.33414
G1 X111.279 Y107.012 E4.33978
G1 X111.434 Y107 E4.34288
G1 X113.292 Y107 E4.37996
G1 X113.498 Y106.929 E4.3843
G1 X113.775 Y106.876 E4.38993
G1 X113.972 Y106.886 E4.39387
G1 X114.277 Y106.932 E4.40002
G1 X114.723 Y106.974 E4.40896
G1 X115.186 Y106.975 E4.4182
G1 X115.942 Y106.999 E4.4333
G1 X120.806 Y107 E4.53036
G1 X121.038 Y106.912 E4.53532
G1 X121.36 Y106.894 E4.54175
G1 X121.999 Y106.961 E4.55457
G1 X122.702 Y107 E4.56863
G1 X129.692 Y107 E4.70812
G1 X129.971 Y107.04 E4.71374
G1 X130.228 Y107.156 E4.71937
G1 X130.399 Y107.293 E4.72374
G1 X130.679 Y107.573 E4.73164
G1 X130.848 Y107.799 E4.73728
G1 X130.948 Y108.063 E4.74291
G1 X130.972 Y108.28 E4.74727
G1 X130.973 Y111.873 E4.81897
G1 X130.933 Y112.152 E4.82459
G1 X130.817 Y112.409 E4.83022
G1 X130.672 Y112.588 E4.83482
G1 X130.544 Y112.713 E4.83839
G1 X130.316 Y112.88 E4.84403
G1 X130.051 Y112.977 E4.84966
G1 X129.848 Y112.998 E4.85373
G1 X129.176 Y113 E4.86714
G1 X122.991 Y113 E4.99057
G1 X120.884 Y113.002 E5.03262
G1 X118.163 Y113.002 E5.08692
G1 X117.201 Y113 E5.10612
G1 X112.238 Y113 E5.20516
G1 X111.636 Y113.124 E5.21742
G1 X111.354 Y113.142 E5.22306
G1 X111.079 Y113.08 E5.22869
G1 X110.832 Y112.943 E5.23433
G1 X110.829 Y112.94 E5.23441
G1 X110.734 Y112.976 E5.23644
G1 X110.517 Y113 E5.24079
G1 X110.043 Y113 E5.25025
G1 X109.764 Y112.96 E5.25588
G1 X109.588 Y112.881 E5.25973
G1 X109.551 Y112.905 E5.26061
G1 X109.281 Y112.988 E5.26625
G1 X109.126 Y113 E5.26935
G1 X102.764 Y113 E5.39631
G1 X102.703 Y113.023 E5.39761
G1 X102.475 Y113.047 E5.40218
G1 X98.896 Y113.009 E5.47361
G1 X97.434 Y113 E5.50279
G1 X90.12 Y112.999 E5.64875
G1 X89.841 Y112.959 E5.65437
G1 X89.583 Y112.843 E5.66002
G1 X89.413 Y112.706 E5.66437
G1 X89.296 Y112.589 E5.66768
G1 X89.127 Y112.363 E5.67331
G1 X89.027 Y112.099 E5.67894
G1 X89.003 Y111.882 E5.6833
G1 X89.003 Y108.117 E5.75843
G1 X89.043 Y107.838 E5.76406
G1 X89.159 Y107.581 E5.76968
G1 X89.296 Y107.41 E5.77406
G1 X89.413 Y107.293 E5.77736
G0 F6000 X89.696 Y107.576
G1 F1200 X89.875 Y107.452 E5.7817
G1 X90.12 Y107.4 E5.7867
G1 X92.083 Y107.4 E5.82588
G1 X94.955 Y107.392 E5.88319
G1 X95.053 Y107.4 E5.88515
G1 X109.126 Y107.4 E6.16599
G1 X109.341 Y107.44 E6.17036
G1 X109.527 Y107.553 E6.1747
G1 X109.577 Y107.618 E6.17634
G1 X109.619 Y107.576 E6.17752
G1 X109.798 Y107.452 E6.18187
G1 X110.043 Y107.4 E6.18687
G1 X110.517 Y107.4 E6.19633
G1 X110.732 Y107.44 E6.20069
G1 X110.941 Y107.576 E6.20567
G1 X110.978 Y107.613 E6.20671
G1 X110.987 Y107.599 E6.20704
G1 X111.16 Y107.466 E6.2114
G1 X111.434 Y107.4 E6.21702
G1 X113.362 Y107.4 E6.2555
G1 X113.629 Y107.308 E6.26113
G1 X113.913 Y107.282 E6.26682
G1 X114.236 Y107.33 E6.27334
G1 X114.695 Y107.374 E6.28254
G1 X115.173 Y107.374 E6.29208
G1 X115.961 Y107.399 E6.30782
G1 X120.923 Y107.4 E6.40684
G1 X121.01 Y107.34 E6.40895
G1 X121.318 Y107.291 E6.41517
G1 X121.975 Y107.36 E6.42835
G1 X122.698 Y107.4 E6.4428
G1 X129.692 Y107.4 E6.58238
G1 X129.907 Y107.44 E6.58674
G1 X130.116 Y107.576 E6.59172
G1 X130.396 Y107.856 E6.59962
G1 X130.52 Y108.035 E6.60396
G1 X130.572 Y108.28 E6.60896
G1 X130.573 Y111.873 E6.68066
G1 X130.533 Y112.087 E6.68501
G1 X130.392 Y112.302 E6.69014
G1 X130.264 Y112.427 E6.69371
G1 X130.083 Y112.549 E6.69807
G1 X129.847 Y112.598 E6.70288
G1 X129.175 Y112.6 E6.71629
G1 X122.991 Y112.6 E6.8397
G1 X120.884 Y112.602 E6.88174
G1 X118.164 Y112.602 E6.93602
G1 X117.202 Y112.6 E6.95522
G1 X112.201 Y112.6 E7.05502
G1 X111.555 Y112.733 E7.06818
G1 X111.337 Y112.737 E7.07253
G1 X111.132 Y112.663 E7.07688
G1 X110.966 Y112.521 E7.08124
G1 X110.921 Y112.438 E7.08313
G1 X110.762 Y112.548 E7.08699
G1 X110.517 Y112.6 E7.09198
G1 X110.043 Y112.6 E7.10144
G1 X109.828 Y112.56 E7.10581
G1 X109.619 Y112.424 E7.11078
G1 X109.582 Y112.387 E7.11183
G1 X109.573 Y112.401 E7.11216
G1 X109.4 Y112.534 E7.11651
G1 X109.126 Y112.6 E7.12214
G1 X102.707 Y112.6 E7.25024
G1 X102.48 Y112.647 E7.25486
G1 X98.901 Y112.609 E7.32629
G1 X97.436 Y112.6 E7.35553
G1 X90.12 Y112.599 E7.50153
G1 X89.905 Y112.559 E7.50589
G1 X89.696 Y112.423 E7.51087
G1 X89.579 Y112.306 E7.51417
G1 X89.455 Y112.127 E7.51851
G1 X89.403 Y111.882 E7.52351
G1 X89.403 Y108.117 E7.59865
G1 X89.443 Y107.902 E7.60301
G1 X89.579 Y107.693 E7.60799
G1 X89.696 Y107.576 E7.61129
G0 F6000 X89.979 Y107.859
G1 F1200 X90.12 Y107.8 E7.61434
G1 X92.085 Y107.8 E7.65355
G1 X94.957 Y107.792 E7.71087
G1 X95.027 Y107.8 E7.71227
G1 X109.126 Y107.8 E7.99363
G1 X109.245 Y107.839 E7.99613
G1 X109.326 Y108 E7.99973
G1 X109.326 Y112 E8.07955
G1 X109.287 Y112.119 E8.08205
G1 X109.126 Y112.2 E8.08565
G1 X102.598 Y112.2 E8.21592
G1 X102.484 Y112.247 E8.21838
G1 X98.905 Y112.209 E8.28981
G1 X97.438 Y112.2 E8.31909
G1 X90.12 Y112.199 E8.46512
G1 X89.979 Y112.14 E8.46817
G1 X89.862 Y112.023 E8.47148
G1 X89.803 Y111.882 E8.47453
G1 X89.803 Y108.117 E8.54966
G1 X89.862 Y107.976 E8.55271
G1 X89.979 Y107.859 E8.55601
G0 F6000 X90.203 Y108.2
G1 F1200 X92.085 Y108.2 E8.59357
G1 X94.944 Y108.192 E8.65063
G1 X95.013 Y108.2 E8.65201
G1 X104.131 Y108.2 E8.83397
G1 X104.008 Y108.346 E8.83778
G1 X103.953 Y108.425 E8.8397
G1 X103.938 Y108.452 E8.84032
G1 X103.828 Y108.684 E8.84544
G1 X103.803 Y108.761 E8.84706
G1 X103.788 Y108.825 E8.84837
G1 X103.778 Y108.886 E8.8496
G1 X103.758 Y109.076 E8.85342
G1 X103.758 Y110.912 E8.89006
G1 X103.778 Y111.122 E8.89426
G1 X103.782 Y111.147 E8.89477
G1 X103.804 Y111.241 E8.8967
G1 X103.822 Y111.299 E8.89791
G1 X103.899 Y111.475 E8.90174
G1 X103.952 Y111.572 E8.90395
G1 X104.002 Y111.646 E8.90573
G1 X104.128 Y111.8 E8.9097
G1 X102.533 Y111.8 E8.94153
G1 X102.422 Y111.846 E8.94393
G1 X98.909 Y111.809 E9.01404
G1 X97.441 Y111.8 E9.04333
G1 X90.203 Y111.799 E9.18778
G1 X90.203 Y108.2 E9.2596
G0 F6000 X90.603 Y108.6
G1 F1200 X92.087 Y108.6 E9.28921
G1 X94.913 Y108.592 E9.34561
G1 X94.925 Y108.594 E9.34585
G1 X95.013 Y108.6 E9.34761
G1 X103.435 Y108.599 E9.51568
G1 X103.414 Y108.67 E9.51716
G1 X103.391 Y108.775 E9.51931
G1 X103.381 Y108.841 E9.52064
G1 X103.359 Y109.041 E9.52465
G1 X103.357 Y109.094 E9.52571
G1 X103.358 Y110.912 E9.56199
G1 X103.364 Y111.005 E9.56385
G1 X103.38 Y111.159 E9.56694
G1 X103.392 Y111.236 E9.5685
G1 X103.41 Y111.315 E9.57011
G1 X103.434 Y111.4 E9.57188
G1 X102.533 Y111.4 E9.58986
G1 X102.318 Y111.44 E9.59422
G1 X102.31 Y111.445 E9.59441
G1 X98.911 Y111.409 E9.66224
G1 X97.441 Y111.4 E9.69158
G1 X90.603 Y111.399 E9.82804
G1 X90.603 Y108.6 E9.8839
G0 F6000 X91.003 Y109
G1 F1200 X92.088 Y109 E9.90555
G1 X94.908 Y108.992 E9.96182
G1 X95.013 Y109 E9.96393
G1 X102.962 Y108.999 E10.12256
G1 X102.957 Y109.095 E10.12448
G1 X102.958 Y110.913 E10.16076
G1 X102.962 Y111 E10.16249
G1 X102.533 Y111 E10.17105
G1 X102.254 Y111.04 E10.17668
G1 X102.244 Y111.044 E10.17689
G1 X98.914 Y111.009 E10.24335
G1 X97.442 Y111 E10.27273
G1 X91.003 Y110.999 E10.40122
G1 X91.003 Y109 E10.44112
G0 F6000 X91.403 Y109.4
G1 F1200 X92.089 Y109.4 E10.45481
G1 X94.906 Y109.392 E10.51102
G1 X95.013 Y109.4 E10.51316
G1 X102.557 Y109.399 E10.66371
G1 X102.558 Y110.6 E10.68768
G1 X102.533 Y110.6 E10.68818
G1 X102.201 Y110.64 E10.69485
G1 X102.191 Y110.644 E10.69507
G1 X98.916 Y110.609 E10.76043
G1 X97.443 Y110.6 E10.78982
G1 X91.403 Y110.599 E10.91036
G1 X91.403 Y109.4 E10.93429
G0 F6000 X91.803 Y109.8
G1 F1200 X94.905 Y109.792 E10.99619
G1 X95.013 Y109.8 E10.99835
G1 X102.157 Y109.799 E11.14092
G1 X102.158 Y110.24 E11.14972
G1 X102.146 Y110.243 E11.14996
G1 X98.919 Y110.209 E11.21437
G1 X97.443 Y110.2 E11.24382
G1 X91.803 Y110.199 E11.35637
G1 X91.803 Y109.8 E11.36434
G1 F1500 E4.86434
G0 F6000 X104.533 Y107.337
G0 X109.765 Y107.371
G0 X109.726 Y108.117
G1 F1500 E11.36434
G1 F1200 X109.785 Y107.976 E11.36739
G1 X109.902 Y107.859 E11.37069
G1 X110.043 Y107.8 E11.37374
G1 X110.517 Y107.8 E11.3832
G1 X110.658 Y107.859 E11.38625
G1 X110.775 Y107.976 E11.38955
G1 X110.834 Y108.117 E11.3926
G1 X110.834 Y111.883 E11.46776
G1 X110.775 Y112.024 E11.47081
G1 X110.658 Y112.141 E11.47411
G1 X110.517 Y112.2 E11.47716
G1 X110.043 Y112.2 E11.48662
G1 X109.902 Y112.141 E11.48967
G1 X109.785 Y112.024 E11.49297
G1 X109.726 Y111.883 E11.49602
G1 X109.726 Y108.117 E11.57117
G0 F6000 X111.234 Y108
G1 F1200 X111.273 Y107.881 E11.57367
G1 X111.434 Y107.8 E11.57727
G1 X113.428 Y107.8 E11.61706
G1 X113.759 Y107.686 E11.62405
G1 X113.854 Y107.677 E11.62595
G1 X114.196 Y107.728 E11.63285
G1 X114.678 Y107.774 E11.64252
G1 X115.16 Y107.774 E11.65213
G1 X115.948 Y107.799 E11.66787
G1 X121.061 Y107.8 E11.7699
G1 X121.114 Y107.747 E11.7714
G1 X121.276 Y107.689 E11.77483
G1 X121.931 Y107.758 E11.78798
G1 X122.694 Y107.8 E11.80323
G1 X129.692 Y107.8 E11.94288
G1 X129.833 Y107.859 E11.94593
G1 X130.113 Y108.139 E11.95383
G1 X130.172 Y108.28 E11.95688
G1 X130.173 Y111.873 E12.02858
G1 X130.113 Y112.016 E12.03168
G1 X129.985 Y112.141 E12.03525
G1 X129.846 Y112.198 E12.03825
G1 X129.174 Y112.2 E12.05166
G1 X122.992 Y112.2 E12.17503
G1 X120.885 Y112.202 E12.21707
G1 X118.165 Y112.202 E12.27135
G1 X117.203 Y112.2 E12.29055
G1 X112.159 Y112.2 E12.39121
G1 X111.474 Y112.341 E12.40517
G1 X111.35 Y112.327 E12.40766
G1 X111.259 Y112.242 E12.41014
G1 X111.234 Y112.145 E12.41214
G1 X111.234 Y108 E12.49486
G1 F1500 E5.99486
G0 F6000 X111.234 Y107.335
G0 X114.144 Y107.18
G0 X115.346 Y107.312
G0 X115.876 Y107.633
G0 X115.809 Y108.195
G1 F1500 E12.49486
G1 F1200 X115.941 Y108.199 E12.49749
G1 X121.142 Y108.2 E12.60129
G1 X121.284 Y108.141 E12.60435
G1 X121.328 Y108.097 E12.6056
G1 X121.908 Y108.158 E12.61723
G1 X122.672 Y108.2 E12.6325
G1 X129.61 Y108.2 E12.77096
G1 X129.772 Y108.362 E12.77553
G1 X129.773 Y111.789 E12.84392
G1 X129.763 Y111.798 E12.84419
G1 X129.172 Y111.8 E12.85598
G1 X122.99 Y111.8 E12.97935
G1 X120.883 Y111.802 E13.0214
G1 X118.165 Y111.802 E13.07564
G1 X117.203 Y111.8 E13.09484
G1 X115.813 Y111.8 E13.12258
G1 X115.844 Y111.764 E13.12352
G1 X115.955 Y111.623 E13.12711
G1 X115.993 Y111.561 E13.12856
G1 X116.004 Y111.54 E13.12903
G1 X116.102 Y111.328 E13.13369
G1 X116.111 Y111.305 E13.13418
