;FLAVOR:Marlin
;TIME:3374
;Filament used: 1.75193m
;Layer height: 0.2
;MINX:77.901
;MINY:78.5
;MINZ:0.2
;MAXX:157.094
;MAXY:156.497
;MAXZ:11
;Generated with Cura_SteamEngine 4.6.2
M140 S60
M105
M190 S60
M104 S200
M105
M109 S200
M82 ;absolute extrusion mode
; Ender 3 Custom Start G-code
G92 E0 ; Reset Extruder
G28 ; Home all axes
G1 Z2.0 F3000 ; Move Z Axis up little to prevent scratching of Heat Bed
G1 X0.1 Y20 Z0.3 F5000.0 ; Move to start position
G1 X0.1 Y200.0 Z0.3 F1500.0 E15 ; Draw the first line
G1 X0.4 Y200.0 Z0.3 F5000.0 ; Move to side a little
G1 X0.4 Y20 Z0.3 F1500.0 E30 ; Draw the second line
G92 E0 ; Reset Extruder
G1 Z2.0 F3000 ; Move Z Axis up little to prevent scratching of Heat Bed
G1 X5 Y20 Z0.3 F5000.0 ; Move over to prevent blob squish
G92 E0
G92 E0
G1 F1500 E-6
;LAYER_COUNT:55
;LAYER:0
M107
M204 S500
M205 X8 Y8
G0 F7500 X139.07 Y79.357 Z0.2
;TYPE:SKIRT
G1 F1500 E0
G1 X139.587 Y79.404 E0.0164
G1 X139.809 Y79.43 E0.02347
G1 X140.333 Y79.505 E0.04019
G1 X140.827 Y79.589 E0.05602
G1 X141.569 Y79.744 E0.07998
G1 X141.888 Y79.823 E0.09036
G1 X142.262 Y79.923 E0.10259
G1 X142.699 Y80.049 E0.11696
G1 X143.195 Y80.206 E0.1334
G1 X143.404 Y80.278 E0.14039
G1 X143.867 Y80.45 E0.15599
G1 X144.315 Y80.629 E0.17124
G1 X144.996 Y80.931 E0.19477
G1 X145.265 Y81.062 E0.20423
G1 X145.594 Y81.229 E0.21589
G1 X146.024 Y81.458 E0.23128
G1 X146.506 Y81.732 E0.2488
G1 X146.683 Y81.839 E0.25533
G1 X147.069 Y82.084 E0.26978
G1 X147.463 Y82.347 E0.28475
G1 X147.879 Y82.64 E0.30082
G1 X148.069 Y82.781 E0.3083
G1 X148.526 Y83.141 E0.32668
G1 X148.901 Y83.454 E0.34212
G1 X149.39 Y83.89 E0.36282
G1 X149.61 Y84.099 E0.37241
G1 X149.893 Y84.379 E0.38498
G1 X150.225 Y84.72 E0.40002
G1 X150.599 Y85.125 E0.41744
G1 X150.737 Y85.283 E0.42407
G1 X151.066 Y85.679 E0.44034
G1 X151.375 Y86.071 E0.45611
G1 X151.706 Y86.516 E0.47363
G1 X151.827 Y86.688 E0.48028
G1 X152.109 Y87.11 E0.49631
G1 X152.416 Y87.596 E0.51448
G1 X152.691 Y88.058 E0.53147
G1 X152.798 Y88.249 E0.53838
G1 X153.051 Y88.731 E0.55558
G1 X153.266 Y89.168 E0.57097
G1 X153.504 Y89.689 E0.58907
G1 X153.585 Y89.88 E0.59563
G1 X153.761 Y90.323 E0.61069
G1 X153.946 Y90.823 E0.62753
G1 X154.15 Y91.431 E0.6478
G1 X154.213 Y91.641 E0.65472
G1 X154.334 Y92.081 E0.66914
G1 X154.47 Y92.621 E0.68674
G1 X154.588 Y93.147 E0.70377
G1 X154.631 Y93.366 E0.71082
G1 X154.718 Y93.879 E0.72726
G1 X154.784 Y94.338 E0.74192
G1 X154.847 Y94.878 E0.75909
G1 X154.869 Y95.123 E0.76687
G1 X154.902 Y95.626 E0.78279
G1 X154.921 Y96.099 E0.79775
G1 X154.926 Y96.76 E0.81864
G1 X154.918 Y97.084 E0.82888
G1 X154.899 Y97.504 E0.84216
G1 X154.844 Y98.273 E0.86652
G1 X154.726 Y99.516 E0.90598
G1 X154.652 Y100.193 E0.92749
G1 X154.45 Y102.731 E1.00794
G1 X154.318 Y105.295 E1.08906
G1 X154.261 Y107.792 E1.16798
G1 X154.274 Y110.361 E1.24916
G1 X154.288 Y110.876 E1.26543
G1 X154.307 Y111.957 E1.2996
G1 X154.393 Y114.655 E1.38489
G1 X154.545 Y117.173 E1.4646
G1 X154.755 Y119.541 E1.53971
G1 X154.794 Y120.335 E1.56483
G1 X154.805 Y121.397 E1.59839
G1 X154.868 Y124.034 E1.68173
G1 X155.002 Y126.574 E1.7621
G1 X155.207 Y129.107 E1.8424
G1 X155.485 Y131.652 E1.92329
G1 X155.831 Y134.154 E2.0031
G1 X156.084 Y135.742 E2.05391
G1 X156.153 Y136.224 E2.06929
G1 X156.215 Y136.757 E2.08625
G1 X156.236 Y136.991 E2.09367
G1 X156.269 Y137.495 E2.10963
G1 X156.289 Y137.995 E2.12544
G1 X156.295 Y138.624 E2.14532
G1 X156.289 Y138.901 E2.15407
G1 X156.269 Y139.353 E2.16837
G1 X156.234 Y139.882 E2.18512
G1 X156.186 Y140.401 E2.20159
G1 X156.162 Y140.605 E2.20808
G1 X156.083 Y141.15 E2.22548
G1 X156.003 Y141.613 E2.24033
G1 X155.865 Y142.287 E2.26206
G1 X155.731 Y142.823 E2.27952
G1 X155.581 Y143.359 E2.29711
G1 X155.425 Y143.864 E2.31381
G1 X155.357 Y144.066 E2.32054
G1 X155.166 Y144.587 E2.33808
G1 X154.968 Y145.084 E2.35498
G1 X154.7 Y145.696 E2.37609
G1 X154.589 Y145.929 E2.38425
G1 X154.407 Y146.294 E2.39713
G1 X154.198 Y146.691 E2.41131
G1 X153.945 Y147.143 E2.42768
G1 X153.84 Y147.32 E2.43418
G1 X153.563 Y147.761 E2.45063
G1 X153.264 Y148.211 E2.4677
G1 X152.955 Y148.649 E2.48464
G1 X152.822 Y148.828 E2.49169
G1 X152.482 Y149.262 E2.50911
G1 X152.139 Y149.675 E2.52607
G1 X151.744 Y150.122 E2.54492
G1 X151.587 Y150.29 E2.55218
G1 X151.264 Y150.621 E2.5668
G1 X150.913 Y150.964 E2.5823
G1 X150.528 Y151.322 E2.59892
G1 X150.368 Y151.463 E2.60565
G1 X149.956 Y151.807 E2.62261
G1 X149.543 Y152.134 E2.63926
G1 X149.08 Y152.479 E2.6575
G1 X148.881 Y152.619 E2.66519
G1 X148.485 Y152.884 E2.68025
G1 X148.073 Y153.146 E2.69567
G1 X147.545 Y153.46 E2.71508
G1 X147.361 Y153.562 E2.72173
G1 X146.97 Y153.768 E2.7357
G1 X146.501 Y154.002 E2.75226
G1 X145.945 Y154.259 E2.77161
G1 X145.715 Y154.357 E2.77951
G1 X145.278 Y154.531 E2.79437
G1 X144.827 Y154.699 E2.80958
G1 X144.292 Y154.882 E2.82745
G1 X144.057 Y154.955 E2.83522
G1 X143.603 Y155.084 E2.85013
G1 X143.108 Y155.213 E2.8663
G1 X142.396 Y155.372 E2.88935
G1 X142.121 Y155.423 E2.89819
G1 X141.744 Y155.486 E2.91026
G1 X141.322 Y155.548 E2.92374
G1 X140.801 Y155.611 E2.94032
G1 X140.537 Y155.636 E2.9487
G1 X140 Y155.672 E2.96571
G1 X139.496 Y155.693 E2.98165
G1 X138.768 Y155.698 E3.00465
G1 X138.465 Y155.689 E3.01423
G1 X138.113 Y155.672 E3.02536
G1 X137.6 Y155.639 E3.04161
G1 X137.04 Y155.587 E3.05938
G1 X136.84 Y155.563 E3.06574
G1 X136.331 Y155.489 E3.08199
G1 X135.847 Y155.406 E3.09751
G1 X135.207 Y155.275 E3.11815
G1 X134.951 Y155.214 E3.12647
G1 X134.53 Y155.104 E3.14021
G1 X134.079 Y154.976 E3.15503
G1 X133.578 Y154.82 E3.17161
G1 X133.387 Y154.755 E3.17798
G1 X132.896 Y154.574 E3.19452
G1 X131.903 Y154.177 E3.22831
G1 X130.117 Y153.434 E3.28943
G1 X127.729 Y152.52 E3.37022
G1 X125.339 Y151.681 E3.45026
G1 X122.926 Y150.911 E3.53029
G1 X120.484 Y150.206 E3.6106
G1 X118.018 Y149.571 E3.69106
G1 X115.529 Y149.001 E3.77174
G1 X113.067 Y148.515 E3.85103
G1 X110.553 Y148.089 E3.9316
G1 X108.044 Y147.737 E4.01165
G1 X106.374 Y147.555 E4.06473
G1 X104.73 Y147.355 E4.11706
G1 X103.824 Y147.219 E4.14601
G1 X103.22 Y147.111 E4.1654
G1 X102.23 Y146.91 E4.19732
G1 X101.687 Y146.783 E4.21494
G1 X100.799 Y146.553 E4.24392
G1 X100.145 Y146.365 E4.26542
G1 X99.474 Y146.157 E4.28762
G1 X98.686 Y145.887 E4.31394
G1 X97.769 Y145.545 E4.34486
G1 X97.162 Y145.298 E4.36557
G1 X96.305 Y144.924 E4.39512
G1 X95.777 Y144.677 E4.41353
G1 X94.875 Y144.227 E4.44538
G1 X94.344 Y143.942 E4.46443
G1 X93.554 Y143.494 E4.49312
G1 X92.964 Y143.139 E4.51488
G1 X92.176 Y142.637 E4.5444
G1 X91.685 Y142.305 E4.56313
G1 X90.904 Y141.747 E4.59346
G1 X90.373 Y141.345 E4.6145
G1 X89.66 Y140.777 E4.64331
G1 X89.155 Y140.352 E4.66416
G1 X88.49 Y139.763 E4.69223
G1 X88.01 Y139.315 E4.71298
G1 X87.291 Y138.605 E4.7449
G1 X86.94 Y138.239 E4.76093
G1 X86.254 Y137.491 E4.793
G1 X85.836 Y137.007 E4.8132
G1 X85.222 Y136.262 E4.84371
G1 X84.873 Y135.812 E4.8617
G1 X84.33 Y135.078 E4.89055
G1 X83.923 Y134.495 E4.91302
G1 X83.408 Y133.717 E4.9425
G1 X83.084 Y133.195 E4.96191
G1 X82.625 Y132.415 E4.9905
G1 X82.306 Y131.837 E5.01136
G1 X81.865 Y130.992 E5.04148
G1 X81.718 Y130.695 E5.05195
G1 X81.585 Y130.414 E5.06178
G1 X81.191 Y129.546 E5.0919
G1 X80.959 Y128.992 E5.11087
G1 X80.608 Y128.104 E5.14104
G1 X80.396 Y127.519 E5.1607
G1 X80.113 Y126.671 E5.18895
G1 X79.909 Y126.001 E5.21108
G1 X79.656 Y125.088 E5.24102
G1 X79.517 Y124.524 E5.25937
G1 X79.298 Y123.535 E5.29138
G1 X79.193 Y122.989 E5.30895
G1 X79.034 Y122.034 E5.33954
G1 X78.945 Y121.397 E5.35986
G1 X78.842 Y120.486 E5.38883
G1 X78.785 Y119.812 E5.4102
G1 X78.73 Y118.9 E5.43907
G1 X78.709 Y118.261 E5.45927
G1 X78.701 Y117.298 E5.4897
G1 X78.713 Y116.682 E5.50917
G1 X78.755 Y115.727 E5.53937
G1 X78.798 Y115.132 E5.55822
G1 X78.888 Y114.19 E5.58812
G1 X78.97 Y113.542 E5.60876
G1 X79.106 Y112.628 E5.63796
G1 X79.22 Y111.996 E5.65825
G1 X79.421 Y111.012 E5.68998
G1 X79.548 Y110.467 E5.70766
G1 X79.788 Y109.542 E5.73786
G1 X79.955 Y108.968 E5.75675
G1 X80.266 Y107.983 E5.78938
G1 X80.454 Y107.444 E5.80742
G1 X80.798 Y106.525 E5.83843
G1 X81.014 Y105.996 E5.85648
G1 X81.407 Y105.092 E5.88763
G1 X81.673 Y104.527 E5.90736
G1 X82.093 Y103.686 E5.93706
G1 X82.381 Y103.147 E5.95637
G1 X82.834 Y102.346 E5.98545
G1 X83.176 Y101.779 E6.00637
G1 X83.685 Y100.98 E6.0363
G1 X84.024 Y100.479 E6.05542
G1 X84.565 Y99.721 E6.08484
G1 X84.998 Y99.147 E6.10756
G1 X85.561 Y98.442 E6.13607
G1 X85.953 Y97.977 E6.15529
G1 X86.593 Y97.254 E6.1858
G1 X87.002 Y96.818 E6.20468
G1 X87.673 Y96.136 E6.23492
G1 X88.132 Y95.694 E6.25505
G1 X88.841 Y95.046 E6.2854
G1 X89.291 Y94.657 E6.30419
G1 X90.024 Y94.053 E6.3342
G1 X90.541 Y93.65 E6.35492
G1 X91.332 Y93.066 E6.38598
G1 X91.778 Y92.755 E6.40316
G1 X92.622 Y92.196 E6.43515
G1 X93.109 Y91.894 E6.45326
G1 X93.931 Y91.41 E6.4834
G1 X94.489 Y91.104 E6.50351
G1 X95.346 Y90.657 E6.53405
G1 X95.888 Y90.394 E6.55308
G1 X96.814 Y89.973 E6.58522
G1 X97.326 Y89.759 E6.60276
G1 X98.246 Y89.396 E6.63401
G1 X98.8 Y89.196 E6.65262
G1 X99.694 Y88.897 E6.6824
G1 X100.301 Y88.713 E6.70245
G1 X101.243 Y88.452 E6.73333
G1 X101.803 Y88.313 E6.75156
G1 X102.793 Y88.094 E6.7836
G1 X103.345 Y87.989 E6.80135
G1 X104.29 Y87.83 E6.83163
G1 X104.773 Y87.762 E6.84705
G1 X107.403 Y87.419 E6.93085
G1 X109.972 Y87.011 E7.01304
G1 X112.421 Y86.549 E7.09179
G1 X114.901 Y86.01 E7.17198
G1 X117.379 Y85.396 E7.25264
G1 X119.841 Y84.712 E7.33338
G1 X122.263 Y83.965 E7.41347
G1 X124.651 Y83.153 E7.49316
G1 X127.027 Y82.271 E7.57324
G1 X129.646 Y81.208 E7.66255
G1 X131.014 Y80.629 E7.70949
G1 X131.461 Y80.453 E7.72467
G1 X131.933 Y80.279 E7.74056
G1 X132.487 Y80.092 E7.75904
G1 X132.697 Y80.028 E7.76598
G1 X133.163 Y79.898 E7.78126
G1 X133.711 Y79.759 E7.79913
G1 X134.325 Y79.623 E7.819
G1 X134.542 Y79.582 E7.82597
G1 X134.994 Y79.508 E7.84045
G1 X135.477 Y79.439 E7.85586
G1 X136.056 Y79.373 E7.87428
G1 X136.268 Y79.355 E7.881
G1 X136.726 Y79.326 E7.8955
G1 X137.254 Y79.305 E7.9122
G1 X137.899 Y79.3 E7.93258
G1 X138.154 Y79.306 E7.94064
G1 X138.271 Y79.313 E7.94434
G0 F1350 X139.07 Y79.357
G0 F7500 X139.096 Y78.958
G1 F1500 X139.634 Y79.007 E7.96141
G1 X139.856 Y79.033 E7.96847
G1 X140.4 Y79.111 E7.98584
G1 X140.894 Y79.195 E8.00167
G1 X141.665 Y79.356 E8.02656
G1 X141.984 Y79.435 E8.03694
G1 X142.373 Y79.539 E8.04966
G1 X142.81 Y79.665 E8.06403
G1 X143.326 Y79.828 E8.08113
G1 X143.535 Y79.9 E8.08812
G1 X144.015 Y80.079 E8.1043
G1 X144.463 Y80.258 E8.11955
G1 X145.171 Y80.571 E8.14401
G1 X145.44 Y80.702 E8.15346
G1 X145.782 Y80.876 E8.16558
G1 X146.212 Y81.105 E8.18098
G1 X146.713 Y81.39 E8.19919
G1 X146.89 Y81.497 E8.20573
G1 X147.291 Y81.752 E8.22074
G1 X147.685 Y82.015 E8.23571
G1 X148.117 Y82.319 E8.2524
G1 X148.307 Y82.46 E8.25988
G1 X148.782 Y82.834 E8.27898
G1 X149.157 Y83.147 E8.29441
G1 X149.666 Y83.6 E8.31594
G1 X149.886 Y83.809 E8.32553
G1 X150.18 Y84.1 E8.3386
G1 X150.512 Y84.441 E8.35364
G1 X150.901 Y84.862 E8.37175
G1 X151.039 Y85.02 E8.37838
G1 X151.38 Y85.431 E8.39525
G1 X151.689 Y85.823 E8.41102
G1 X152.034 Y86.286 E8.42927
G1 X152.155 Y86.458 E8.43591
G1 X152.447 Y86.896 E8.45255
G1 X152.754 Y87.382 E8.47071
G1 X153.04 Y87.862 E8.48836
G1 X153.147 Y88.053 E8.49528
G1 X153.41 Y88.555 E8.51319
G1 X153.625 Y88.992 E8.52858
G1 X153.873 Y89.532 E8.54735
G1 X153.954 Y89.723 E8.55391
G1 X154.136 Y90.184 E8.56957
G1 X154.321 Y90.684 E8.58641
G1 X154.533 Y91.316 E8.60748
G1 X154.596 Y91.526 E8.6144
G1 X154.722 Y91.983 E8.62938
G1 X154.858 Y92.523 E8.64698
G1 X154.98 Y93.07 E8.66469
G1 X155.023 Y93.289 E8.67174
G1 X155.114 Y93.822 E8.68882
G1 X155.18 Y94.281 E8.70348
G1 X155.246 Y94.842 E8.72132
G1 X155.268 Y95.087 E8.7291
G1 X155.301 Y95.61 E8.74565
G1 X155.32 Y96.083 E8.76061
G1 X155.326 Y96.77 E8.78232
G1 X155.318 Y97.094 E8.79256
G1 X155.298 Y97.53 E8.80635
G1 X155.242 Y98.311 E8.83109
G1 X155.124 Y99.559 E8.8707
G1 X155.047 Y100.269 E8.89327
G1 X154.849 Y102.746 E8.97178
G1 X154.718 Y105.287 E9.05218
G1 X154.661 Y107.8 E9.1316
G1 X154.674 Y110.368 E9.21274
G1 X154.688 Y110.869 E9.22858
G1 X154.707 Y111.944 E9.26255
G1 X154.792 Y114.618 E9.34709
G1 X154.945 Y117.147 E9.42714
G1 X155.154 Y119.505 E9.50194
G1 X155.194 Y120.331 E9.52807
G1 X155.204 Y121.35 E9.56027
G1 X155.269 Y124.038 E9.64523
G1 X155.401 Y126.557 E9.72493
G1 X155.605 Y129.068 E9.80453
G1 X155.88 Y131.586 E9.88457
G1 X156.23 Y134.123 E9.96549
G1 X156.48 Y135.685 E10.01547
G1 X156.549 Y136.167 E10.03085
G1 X156.614 Y136.722 E10.04851
G1 X156.635 Y136.956 E10.05593
G1 X156.669 Y137.479 E10.07249
G1 X156.689 Y137.979 E10.08831
G1 X156.695 Y138.633 E10.10897
G1 X156.689 Y138.91 E10.11773
G1 X156.668 Y139.38 E10.13259
G1 X156.633 Y139.909 E10.14934
G1 X156.583 Y140.448 E10.16645
G1 X156.559 Y140.652 E10.17294
G1 X156.477 Y141.218 E10.19101
G1 X156.397 Y141.681 E10.20585
G1 X156.3 Y142.175 E10.22176
G1 X156.256 Y142.373 E10.22817
G1 X156.116 Y142.931 E10.24635
G1 X155.966 Y143.467 E10.26393
G1 X155.804 Y143.992 E10.28129
G1 X155.736 Y144.194 E10.28803
G1 X155.537 Y144.735 E10.30624
G1 X155.339 Y145.232 E10.32315
G1 X155.062 Y145.868 E10.34507
G1 X154.951 Y146.101 E10.35322
G1 X154.761 Y146.48 E10.36662
G1 X154.552 Y146.877 E10.38079
G1 X154.289 Y147.347 E10.39781
G1 X154.184 Y147.524 E10.40431
G1 X153.896 Y147.982 E10.42141
G1 X153.597 Y148.432 E10.43848
G1 X153.276 Y148.888 E10.4561
G1 X153.143 Y149.067 E10.46315
G1 X152.789 Y149.517 E10.48124
G1 X152.446 Y149.93 E10.4982
G1 X152.037 Y150.395 E10.51777
G1 X151.88 Y150.563 E10.52503
G1 X151.543 Y150.907 E10.54025
G1 X151.192 Y151.25 E10.55576
G1 X150.792 Y151.622 E10.57301
G1 X150.632 Y151.763 E10.57975
G1 X150.204 Y152.12 E10.59736
G1 X149.791 Y152.447 E10.61401
G1 X149.31 Y152.807 E10.63299
G1 X149.111 Y152.947 E10.64068
G1 X148.7 Y153.222 E10.65631
G1 X148.288 Y153.484 E10.67173
G1 X147.739 Y153.81 E10.69191
G1 X147.555 Y153.912 E10.69855
G1 X147.148 Y154.126 E10.71308
G1 X146.679 Y154.36 E10.72965
G1 X146.102 Y154.627 E10.74973
G1 X145.872 Y154.725 E10.75763
G1 X145.417 Y154.906 E10.77311
G1 X144.966 Y155.074 E10.78831
G1 X144.411 Y155.264 E10.80685
G1 X144.176 Y155.337 E10.81462
G1 X143.704 Y155.471 E10.83013
G1 X143.209 Y155.6 E10.84629
G1 X142.469 Y155.765 E10.87025
G1 X142.194 Y155.816 E10.87908
G1 X141.802 Y155.881 E10.89164
G1 X141.38 Y155.943 E10.90512
G1 X140.838 Y156.009 E10.92237
G1 X140.574 Y156.034 E10.93075
G1 X140.016 Y156.072 E10.94842
G1 X139.512 Y156.093 E10.96436
G1 X138.756 Y156.097 E10.98825
G1 X138.453 Y156.088 E10.99782
G1 X138.088 Y156.071 E11.00937
G1 X137.575 Y156.038 E11.02561
G1 X136.992 Y155.984 E11.04411
G1 X136.792 Y155.96 E11.05048
G1 X136.263 Y155.883 E11.06737
G1 X135.779 Y155.8 E11.08288
G1 X135.114 Y155.664 E11.10433
G1 X134.858 Y155.603 E11.11265
G1 X134.421 Y155.489 E11.12692
G1 X133.97 Y155.361 E11.14173
G1 X133.449 Y155.199 E11.15897
G1 X133.258 Y155.134 E11.16534
G1 X132.748 Y154.946 E11.18252
G1 X131.75 Y154.546 E11.21649
G1 X129.97 Y153.806 E11.2774
G1 X127.622 Y152.907 E11.35684
G1 X125.191 Y152.053 E11.43826
G1 X122.809 Y151.293 E11.51726
G1 X120.378 Y150.592 E11.5972
G1 X117.934 Y149.962 E11.67695
G1 X115.46 Y149.396 E11.75714
G1 X112.965 Y148.903 E11.8375
G1 X110.497 Y148.485 E11.91659
G1 X108.011 Y148.136 E11.99591
G1 X106.326 Y147.952 E12.04947
G1 X104.672 Y147.751 E12.10212
G1 X103.756 Y147.614 E12.13138
G1 X103.141 Y147.504 E12.15112
G1 X102.142 Y147.3 E12.18334
G1 X101.588 Y147.171 E12.20131
G1 X100.691 Y146.938 E12.2306
G1 X100.026 Y146.747 E12.25246
G1 X99.355 Y146.539 E12.27465
G1 X99.014 Y146.427 E12.28599
G1 X98.548 Y146.262 E12.30161
G1 X97.62 Y145.916 E12.33291
G1 X97.004 Y145.665 E12.35393
G1 X96.137 Y145.287 E12.38381
G1 X95.6 Y145.035 E12.40255
G1 X94.687 Y144.58 E12.43479
G1 X94.148 Y144.291 E12.45411
G1 X93.349 Y143.838 E12.48313
G1 X92.75 Y143.477 E12.50523
G1 X91.954 Y142.97 E12.53505
G1 X91.454 Y142.631 E12.55414
G1 X90.665 Y142.067 E12.58478
G1 X90.124 Y141.659 E12.60619
G1 X89.403 Y141.084 E12.63533
G1 X88.891 Y140.652 E12.6565
G1 X88.219 Y140.057 E12.68486
G1 X87.964 Y139.822 E12.69582
G1 X87.731 Y139.6 E12.70598
G1 X87.004 Y138.884 E12.73823
G1 X86.646 Y138.511 E12.75456
G1 X85.952 Y137.754 E12.78701
G1 X85.528 Y137.263 E12.80751
G1 X84.907 Y136.509 E12.83837
