;FLAVOR:Marlin
;TIME:7682
;Filament used: 3.65364m
;Layer height: 0.2
;MINX:76.076
;MINY:76.076
;MINZ:0.2
;MAXX:143.924
;MAXY:143.923
;MAXZ:143.6
;Generated with Cura_SteamEngine 4.7.0
M140 S60
M105
M190 S60
M104 S200
M105
M109 S200
M82 ;absolute extrusion mode
; Ender 3 Custom Start G-code
G92 E0 ; Reset Extruder
G28 ; Home all axes
G1 Z2.0 F3000 ; Move Z Axis up little to prevent scratching of Heat Bed
G1 X0.1 Y20 Z0.3 F5000.0 ; Move to start position
G1 X0.1 Y200.0 Z0.3 F1500.0 E15 ; Draw the first line
G1 X0.4 Y200.0 Z0.3 F5000.0 ; Move to side a little
G1 X0.4 Y20 Z0.3 F1500.0 E30 ; Draw the second line
G92 E0 ; Reset Extruder
G1 Z2.0 F3000 ; Move Z Axis up little to prevent scratching of Heat Bed
G1 X5 Y20 Z0.3 F5000.0 ; Move over to prevent blob squish
G92 E0
G92 E0
G1 F1500 E-6.5
;LAYER_COUNT:718
;LAYER:0
M107
G0 F6000 X80.394 Y100.676 Z0.2
;TYPE:SKIRT
G1 F1500 E0
G1 F1200 X80.828 Y100.345 E0.01815
G1 X82.372 Y99.202 E0.08205
G1 X84.369 Y97.634 E0.1665
G1 X86.29 Y96.035 E0.24963
G1 X88.189 Y94.363 E0.33378
G1 X90.008 Y92.669 E0.41645
G1 X91.804 Y90.895 E0.50042
G1 X93.554 Y89.068 E0.58456
G1 X95.232 Y87.213 E0.66776
G1 X96.853 Y85.318 E0.7507
G1 X98.457 Y83.33 E0.83566
G1 X100.09 Y81.185 E0.92532
G1 X100.568 Y80.539 E0.95205
G1 X101.158 Y79.81 E0.98324
G1 X101.807 Y79.133 E1.01444
G1 X102.512 Y78.515 E1.04562
G1 X103.267 Y77.958 E1.07682
G1 X104.067 Y77.469 E1.10801
G1 X104.906 Y77.049 E1.13922
G1 X105.777 Y76.702 E1.1704
G1 X106.675 Y76.43 E1.20161
G1 X107.592 Y76.236 E1.23278
G1 X108.523 Y76.121 E1.26398
G1 X109.101 Y76.089 E1.28324
G1 X109.423 Y76.08 E1.29395
G1 X109.73 Y76.076 E1.30416
G1 X110.05 Y76.077 E1.3148
G1 X110.752 Y76.087 E1.33816
G1 X111.688 Y76.14 E1.36934
G1 X112.616 Y76.273 E1.40052
G1 X113.53 Y76.485 E1.43172
G1 X114.423 Y76.773 E1.46293
G1 X115.287 Y77.137 E1.49412
G1 X116.118 Y77.573 E1.52533
G1 X116.908 Y78.078 E1.55651
G1 X117.652 Y78.648 E1.58769
G1 X118.345 Y79.28 E1.61888
G1 X118.982 Y79.969 E1.65009
G1 X119.346 Y80.421 E1.66939
G1 X119.649 Y80.82 E1.68606
G1 X120.806 Y82.382 E1.75071
G1 X122.357 Y84.358 E1.83426
G1 X123.949 Y86.272 E1.91706
G1 X125.636 Y88.187 E2.00194
G1 X127.348 Y90.025 E2.08549
G1 X129.105 Y91.804 E2.16865
G1 X130.931 Y93.553 E2.25275
G1 X132.787 Y95.232 E2.33599
G1 X134.682 Y96.853 E2.41893
G1 X136.67 Y98.457 E2.50389
G1 X138.771 Y100.057 E2.59173
G1 X139.458 Y100.565 E2.62015
G1 X140.188 Y101.155 E2.65136
G1 X140.864 Y101.805 E2.68256
G1 X141.483 Y102.509 E2.71373
G1 X142.039 Y103.264 E2.74492
G1 X142.529 Y104.064 E2.77612
G1 X142.949 Y104.903 E2.80733
G1 X143.297 Y105.774 E2.83853
G1 X143.568 Y106.671 E2.86969
G1 X143.763 Y107.589 E2.90091
G1 X143.878 Y108.52 E2.93211
G1 X143.909 Y109.067 E2.95033
G1 X143.919 Y109.39 E2.96108
G1 X143.924 Y109.73 E2.97239
G1 X143.923 Y110.027 E2.98226
G1 X143.913 Y110.748 E3.00625
G1 X143.86 Y111.684 E3.03743
G1 X143.727 Y112.612 E3.06861
G1 X143.516 Y113.526 E3.09981
G1 X143.228 Y114.419 E3.13102
G1 X142.865 Y115.283 E3.16219
G1 X142.429 Y116.114 E3.1934
G1 X141.925 Y116.904 E3.22457
G1 X141.354 Y117.649 E3.25579
G1 X140.723 Y118.342 E3.28696
G1 X140.034 Y118.979 E3.31817
G1 X139.59 Y119.337 E3.33714
G1 X139.184 Y119.646 E3.35411
G1 X137.628 Y120.798 E3.4185
G1 X135.642 Y122.357 E3.50248
G1 X133.707 Y123.967 E3.5862
G1 X131.817 Y125.632 E3.66997
G1 X129.992 Y127.332 E3.75293
G1 X128.204 Y129.097 E3.83649
G1 X126.446 Y130.933 E3.92104
G1 X124.743 Y132.815 E4.00546
G1 X123.142 Y134.688 E4.08741
G1 X121.526 Y136.689 E4.17296
G1 X119.971 Y138.733 E4.25838
G1 X119.445 Y139.446 E4.28785
G1 X118.857 Y140.176 E4.31902
G1 X118.208 Y140.854 E4.35024
G1 X117.504 Y141.474 E4.38144
G1 X116.75 Y142.031 E4.41262
G1 X115.951 Y142.522 E4.44381
G1 X115.113 Y142.944 E4.47502
G1 X114.243 Y143.292 E4.50618
G1 X113.345 Y143.565 E4.5374
G1 X112.428 Y143.761 E4.56859
G1 X111.498 Y143.878 E4.59976
G1 X110.91 Y143.91 E4.61935
G1 X110.632 Y143.918 E4.6286
G1 X110.367 Y143.923 E4.63742
G1 X109.927 Y143.923 E4.65205
G1 X109.231 Y143.912 E4.6752
G1 X108.295 Y143.857 E4.70639
G1 X107.367 Y143.723 E4.73757
G1 X106.453 Y143.51 E4.76879
G1 X105.561 Y143.22 E4.79998
G1 X104.697 Y142.855 E4.83118
G1 X103.868 Y142.418 E4.86235
G1 X103.078 Y141.911 E4.89357
G1 X102.335 Y141.34 E4.92474
G1 X101.643 Y140.707 E4.95593
G1 X101.007 Y140.017 E4.98714
G1 X100.65 Y139.572 E5.00612
G1 X100.287 Y139.093 E5.02611
G1 X99.254 Y137.694 E5.08395
G1 X97.707 Y135.72 E5.16736
G1 X96.09 Y133.774 E5.25151
G1 X94.43 Y131.885 E5.33516
G1 X92.719 Y130.045 E5.41872
G1 X90.947 Y128.248 E5.50266
G1 X89.14 Y126.513 E5.58598
G1 X87.269 Y124.817 E5.66997
G1 X85.376 Y123.194 E5.75291
G1 X83.402 Y121.598 E5.83734
G1 X81.25 Y119.959 E5.92731
G1 X80.542 Y119.435 E5.95661
G1 X79.812 Y118.845 E5.98783
G1 X79.136 Y118.195 E6.01902
G1 X78.517 Y117.491 E6.0502
G1 X77.961 Y116.736 E6.08138
G1 X77.471 Y115.936 E6.11258
G1 X77.051 Y115.097 E6.14379
G1 X76.703 Y114.226 E6.17499
G1 X76.432 Y113.329 E6.20615
G1 X76.237 Y112.411 E6.23737
G1 X76.122 Y111.48 E6.26857
G1 X76.091 Y110.92 E6.28722
G1 X76.081 Y110.584 E6.2984
G1 X76.076 Y110.257 E6.30928
G1 X76.077 Y109.949 E6.31952
G1 X76.087 Y109.249 E6.34281
G1 X76.14 Y108.313 E6.37399
G1 X76.273 Y107.384 E6.4052
G1 X76.485 Y106.47 E6.43641
G1 X76.774 Y105.578 E6.4676
G1 X77.137 Y104.714 E6.49877
G1 X77.573 Y103.883 E6.52998
G1 X78.078 Y103.093 E6.56116
G1 X78.649 Y102.348 E6.59238
G1 X79.28 Y101.655 E6.62356
G1 X79.969 Y101.019 E6.65474
G1 X80.394 Y100.676 E6.67291
G0 F6000 X80.637 Y100.993
G1 F1200 X81.066 Y100.666 E6.69085
G1 X82.611 Y99.522 E6.75479
G1 X84.619 Y97.946 E6.83969
G1 X86.544 Y96.345 E6.92297
G1 X88.443 Y94.672 E7.00714
G1 X90.314 Y92.929 E7.09219
G1 X92.091 Y91.174 E7.17526
G1 X93.839 Y89.349 E7.25931
G1 X95.533 Y87.476 E7.34331
G1 X97.17 Y85.563 E7.42705
G1 X98.785 Y83.561 E7.5126
G1 X100.333 Y81.528 E7.59759
G1 X100.889 Y80.777 E7.62867
G1 X101.469 Y80.062 E7.65929
G1 X102.108 Y79.399 E7.68992
G1 X102.803 Y78.795 E7.72054
G1 X103.547 Y78.253 E7.75116
G1 X104.335 Y77.778 E7.78176
G1 X105.162 Y77.372 E7.8124
G1 X106.021 Y77.041 E7.84302
G1 X106.905 Y76.785 E7.87363
G1 X107.809 Y76.606 E7.90428
G1 X109.112 Y76.489 E7.94779
G1 X109.434 Y76.48 E7.95851
G1 X109.73 Y76.476 E7.96835
G1 X109.893 Y76.476 E7.97377
G1 X110.746 Y76.487 E8.00215
G1 X111.665 Y76.54 E8.03276
G1 X112.576 Y76.673 E8.06338
G1 X113.472 Y76.884 E8.094
G1 X114.347 Y77.172 E8.12464
G1 X115.193 Y77.535 E8.15526
G1 X116.004 Y77.97 E8.18587
G1 X116.775 Y78.474 E8.2165
G1 X117.499 Y79.042 E8.24711
G1 X118.171 Y79.672 E8.27775
G1 X119.028 Y80.664 E8.32135
G1 X119.327 Y81.058 E8.3378
G1 X120.468 Y82.599 E8.40157
G1 X122.052 Y84.616 E8.48687
G1 X123.657 Y86.546 E8.57036
G1 X125.344 Y88.461 E8.65525
G1 X127.054 Y90.296 E8.73867
G1 X128.826 Y92.091 E8.82256
G1 X130.669 Y93.856 E8.90744
G1 X132.504 Y95.516 E8.98974
G1 X134.437 Y97.17 E9.07435
G1 X136.439 Y98.785 E9.1599
G1 X138.495 Y100.35 E9.24584
G1 X139.22 Y100.887 E9.27585
G1 X139.936 Y101.466 E9.30648
G1 X140.598 Y102.105 E9.33708
G1 X141.203 Y102.8 E9.36773
G1 X141.745 Y103.544 E9.39834
G1 X142.22 Y104.332 E9.42895
G1 X142.626 Y105.159 E9.45959
G1 X142.958 Y106.018 E9.49022
G1 X143.214 Y106.902 E9.52083
G1 X143.392 Y107.805 E9.55144
G1 X143.509 Y109.079 E9.59399
G1 X143.519 Y109.402 E9.60474
G1 X143.524 Y109.73 E9.61565
G1 X143.523 Y110.021 E9.62533
G1 X143.513 Y110.742 E9.64931
G1 X143.46 Y111.661 E9.67993
G1 X143.328 Y112.572 E9.71055
G1 X143.117 Y113.468 E9.74116
G1 X142.829 Y114.343 E9.7718
G1 X142.467 Y115.189 E9.80241
G1 X142.032 Y116.001 E9.83304
G1 X141.529 Y116.772 E9.86366
G1 X140.96 Y117.496 E9.89429
G1 X140.331 Y118.168 E9.9249
G1 X139.347 Y119.02 E9.9682
G1 X139.072 Y119.23 E9.9797
G1 X137.411 Y120.46 E10.04845
G1 X135.384 Y122.052 E10.13417
G1 X133.45 Y123.661 E10.21785
G1 X131.573 Y125.314 E10.30104
G1 X129.686 Y127.072 E10.38681
G1 X127.917 Y128.818 E10.46948
G1 X126.143 Y130.67 E10.55478
G1 X124.474 Y132.515 E10.63753
G1 X122.828 Y134.44 E10.72177
G1 X121.213 Y136.441 E10.8073
G1 X119.643 Y138.504 E10.89352
G1 X119.123 Y139.209 E10.92266
G1 X118.545 Y139.925 E10.95326
G1 X117.907 Y140.588 E10.98387
G1 X117.213 Y141.194 E11.01451
G1 X116.47 Y141.737 E11.04512
G1 X115.682 Y142.214 E11.07576
G1 X114.856 Y142.62 E11.10637
G1 X113.998 Y142.954 E11.13699
G1 X113.114 Y143.211 E11.16761
G1 X112.211 Y143.391 E11.19823
G1 X110.899 Y143.511 E11.24205
G1 X110.621 Y143.519 E11.2513
G1 X110.365 Y143.523 E11.25982
G1 X109.933 Y143.523 E11.27419
G1 X109.237 Y143.512 E11.29734
G1 X108.318 Y143.457 E11.32796
G1 X107.408 Y143.323 E11.35855
G1 X106.512 Y143.111 E11.38918
G1 X105.638 Y142.821 E11.41981
G1 X104.792 Y142.457 E11.45044
G1 X103.982 Y142.021 E11.48103
G1 X103.212 Y141.516 E11.51166
G1 X102.489 Y140.946 E11.54228
G1 X101.818 Y140.315 E11.57292
G1 X100.968 Y139.33 E11.61619
G1 X100.608 Y138.855 E11.63601
G1 X99.57 Y137.45 E11.69411
G1 X98 Y135.446 E11.77879
G1 X96.415 Y133.538 E11.86129
G1 X94.722 Y131.612 E11.94658
G1 X92.997 Y129.757 E12.03083
G1 X91.227 Y127.961 E12.1147
G1 X89.422 Y126.229 E12.1979
G1 X87.521 Y124.506 E12.28323
G1 X85.641 Y122.895 E12.36558
G1 X83.629 Y121.267 E12.45166
G1 X81.49 Y119.639 E12.54107
G1 X80.78 Y119.113 E12.57046
G1 X80.064 Y118.534 E12.60108
G1 X79.402 Y117.895 E12.63169
G1 X78.797 Y117.2 E12.66233
G1 X78.255 Y116.456 E12.69295
G1 X77.78 Y115.668 E12.72355
G1 X77.374 Y114.841 E12.75419
G1 X77.042 Y113.982 E12.78482
G1 X76.786 Y113.098 E12.81543
G1 X76.608 Y112.195 E12.84604
G1 X76.491 Y110.908 E12.88903
G1 X76.481 Y110.572 E12.90021
G1 X76.476 Y110.257 E12.91069
G1 X76.477 Y109.955 E12.92073
G1 X76.487 Y109.255 E12.94401
G1 X76.54 Y108.335 E12.97466
G1 X76.673 Y107.424 E13.00529
G1 X76.884 Y106.528 E13.0359
G1 X77.172 Y105.654 E13.06651
G1 X77.535 Y104.808 E13.09713
G1 X77.97 Y103.996 E13.12777
G1 X78.474 Y103.226 E13.15838
G1 X79.043 Y102.502 E13.189
G1 X79.672 Y101.83 E13.21962
G1 X80.637 Y100.993 E13.2621
G0 F6000 X80.881 Y101.311
G1 F1200 X81.304 Y100.988 E13.27981
G1 X82.851 Y99.843 E13.34382
G1 X84.855 Y98.269 E13.42857
G1 X86.819 Y96.636 E13.51353
G1 X88.717 Y94.965 E13.59763
G1 X90.585 Y93.224 E13.68256
G1 X92.36 Y91.47 E13.76556
G1 X94.142 Y89.611 E13.85121
G1 X95.833 Y87.741 E13.93507
G1 X97.484 Y85.812 E14.01952
G1 X99.085 Y83.827 E14.10434
G1 X100.689 Y81.719 E14.19244
G1 X101.211 Y81.015 E14.22159
G1 X101.78 Y80.314 E14.25162
G1 X102.409 Y79.665 E14.28168
G1 X103.092 Y79.075 E14.3117
G1 X103.826 Y78.548 E14.34175
G1 X104.603 Y78.088 E14.37178
G1 X105.417 Y77.698 E14.4018
G1 X106.263 Y77.382 E14.43184
G1 X107.134 Y77.142 E14.46189
G1 X108.022 Y76.98 E14.49191
G1 X109.123 Y76.889 E14.52866
G1 X109.445 Y76.88 E14.53937
G1 X109.73 Y76.876 E14.54885
G1 X109.893 Y76.876 E14.55427
G1 X110.74 Y76.887 E14.58245
G1 X111.642 Y76.94 E14.6125
G1 X112.535 Y77.072 E14.64252
G1 X113.413 Y77.283 E14.67256
G1 X114.269 Y77.571 E14.70259
G1 X115.097 Y77.933 E14.73265
G1 X115.889 Y78.367 E14.76269
G1 X116.639 Y78.87 E14.79272
G1 X117.342 Y79.436 E14.82274
G1 X117.992 Y80.063 E14.85278
G1 X118.71 Y80.906 E14.88961
G1 X119.006 Y81.296 E14.90589
G1 X120.165 Y82.861 E14.97067
G1 X121.745 Y84.873 E15.05575
G1 X123.35 Y86.803 E15.13924
G1 X125.033 Y88.714 E15.22394
G1 X126.775 Y90.584 E15.30894
G1 X128.53 Y92.36 E15.39198
G1 X130.388 Y94.141 E15.47759
G1 X132.26 Y95.833 E15.56151
G1 X134.188 Y97.484 E15.64594
G1 X136.173 Y99.085 E15.73076
G1 X138.255 Y100.67 E15.81779
G1 X138.982 Y101.208 E15.84787
G1 X139.684 Y101.777 E15.87792
G1 X140.332 Y102.406 E15.90796
G1 X140.922 Y103.09 E15.93801
G1 X141.45 Y103.823 E15.96805
G1 X141.91 Y104.6 E15.99808
G1 X142.3 Y105.414 E16.0281
G1 X142.616 Y106.26 E16.05814
G1 X142.857 Y107.131 E16.0882
G1 X143.019 Y108.019 E16.11822
G1 X143.109 Y109.091 E16.154
G1 X143.119 Y109.414 E16.16475
G1 X143.124 Y109.73 E16.17526
G1 X143.123 Y110.015 E16.18474
G1 X143.113 Y110.736 E16.20872
G1 X143.061 Y111.638 E16.23877
G1 X142.928 Y112.531 E16.2688
G1 X142.718 Y113.41 E16.29886
G1 X142.431 Y114.266 E16.32889
G1 X142.069 Y115.093 E16.35892
G1 X141.635 Y115.885 E16.38895
G1 X141.133 Y116.636 E16.419
G1 X140.566 Y117.339 E16.44904
G1 X139.94 Y117.99 E16.47908
G1 X139.105 Y118.702 E16.51557
G1 X138.83 Y118.912 E16.52708
G1 X137.149 Y120.157 E16.59666
G1 X135.127 Y121.745 E16.68217
G1 X133.213 Y123.337 E16.76497
G1 X131.273 Y125.046 E16.85096
G1 X129.415 Y126.778 E16.93545
G1 X127.647 Y128.522 E17.01805
G1 X125.858 Y130.39 E17.10407
G1 X124.157 Y132.271 E17.18842
G1 X122.496 Y134.213 E17.27342
G1 X120.928 Y136.155 E17.35643
G1 X119.323 Y138.265 E17.44461
G1 X118.802 Y138.971 E17.47379
G1 X118.234 Y139.673 E17.50383
G1 X117.606 Y140.323 E17.53389
G1 X116.923 Y140.914 E17.56393
G1 X116.191 Y141.442 E17.59395
G1 X115.415 Y141.904 E17.62399
G1 X114.601 Y142.295 E17.65402
G1 X113.755 Y142.613 E17.68408
G1 X112.885 Y142.854 E17.71411
G1 X111.997 Y143.018 E17.74414
G1 X110.887 Y143.111 E17.78119
G1 X110.609 Y143.119 E17.79044
G1 X110.363 Y143.123 E17.79862
G1 X109.94 Y143.123 E17.81269
G1 X109.244 Y143.112 E17.83584
G1 X108.342 Y143.057 E17.8659
G1 X107.449 Y142.924 E17.89593
G1 X106.571 Y142.711 E17.92598
G1 X105.716 Y142.422 E17.956
G1 X104.889 Y142.059 E17.98604
G1 X104.098 Y141.624 E18.01606
G1 X103.348 Y141.12 E18.04611
G1 X102.646 Y140.552 E18.07615
G1 X101.997 Y139.924 E18.10619
G1 X101.286 Y139.088 E18.14269
G1 X100.93 Y138.618 E18.1623
G1 X99.879 Y137.195 E18.22114
G1 X98.338 Y135.228 E18.30425
G1 X96.689 Y133.244 E18.39005
G1 X95.017 Y131.341 E18.4743
G1 X93.309 Y129.504 E18.55773
G1 X91.505 Y127.675 E18.64318
G1 X89.666 Y125.91 E18.72796
G1 X87.798 Y124.216 E18.81183
G1 X85.908 Y122.596 E18.89462
G1 X83.894 Y120.967 E18.98078
G1 X81.73 Y119.319 E19.07125
G1 X81.018 Y118.792 E19.10071
G1 X80.316 Y118.223 E19.13076
G1 X79.668 Y117.594 E19.1608
G1 X79.078 Y116.91 E19.19084
G1 X78.55 Y116.177 E19.22089
G1 X78.09 Y115.4 E19.25092
G1 X77.7 Y114.586 E19.28094
G1 X77.384 Y113.74 E19.31098
G1 X77.143 Y112.869 E19.34104
G1 X76.981 Y111.981 E19.37106
G1 X76.891 Y110.896 E19.40727
G1 X76.881 Y110.56 E19.41845
G1 X76.876 Y110.257 E19.42853
G1 X76.877 Y109.96 E19.43841
G1 X76.887 Y109.26 E19.46169
G1 X76.94 Y108.359 E19.49171
G1 X77.072 Y107.465 E19.52177
G1 X77.283 Y106.587 E19.5518
G1 X77.571 Y105.731 E19.58184
G1 X77.933 Y104.904 E19.61187
G1 X78.367 Y104.112 E19.64191
G1 X78.87 Y103.362 E19.67194
G1 X79.437 Y102.659 E19.70198
G1 X80.063 Y102.008 E19.73202
G1 X80.881 Y101.311 E19.76777
G1 F1500 E13.26777
;MESH:rocket2.stl
G0 F6000 X86.423 Y111.253
G0 X107.753 Y124.588
G0 X108.626 Y125.228
G0 X108.818 Y126.299
G0 X108.934 Y126.598
G0 X109.166 Y126.841
G0 X110 Y127.598
;TYPE:WALL-INNER
G1 F1500 E19.76777
G1 F1200 X110 Y127.57 E19.7687
G1 X109.672 Y127.367 E19.78153
G1 X109.256 Y127.176 E19.79675
G1 X108.984 Y126.953 E19.80845
G1 X108.785 Y126.683 E19.81961
G1 X108.651 Y126.342 E19.83179
G1 X108.607 Y126.001 E19.84323
G1 X108.652 Y125.652 E19.85493
G1 X108.786 Y125.317 E19.86693
G1 X108.984 Y125.047 E19.87807
G1 X109.256 Y124.824 E19.88977
G1 X109.836 Y124.557 E19.911
G1 X109.922 Y124.373 E19.91776
G1 X110 Y124.207 E19.92386
G1 X110 Y124.409 E19.92499
G1 X110.314 Y124.626 E19.93769
G1 X110.745 Y124.825 E19.95347
G1 X111.016 Y125.047 E19.96513
G1 X111.215 Y125.317 E19.97628
G1 X111.349 Y125.658 E19.98847
G1 X111.393 Y125.999 E19.9999
G1 X111.348 Y126.348 E20.01161
G1 X111.214 Y126.683 E20.02361
G1 X111.016 Y126.953 E20.03474
G1 X110.744 Y127.176 E20.04644
G1 X110.311 Y127.375 E20.06229
G1 X110.014 Y127.588 E20.07115
G1 X110 Y127.598
G1 F1500 E13.57115
G0 F6000 X110.13 Y132.454
G0 X110.4 Y132.724
;TYPE:WALL-OUTER
G1 F1500 E20.07115
G1 F1200 X109.6 Y132.723 E20.09776
G1 X109.6 Y127.793 E20.26173
G1 X109.482 Y127.72 E20.26634
G1 X109.041 Y127.517 E20.28249
G1 X108.692 Y127.231 E20.2975
G1 X108.432 Y126.877 E20.31211
G1 X108.26 Y126.442 E20.32767
G1 X108.204 Y126 E20.34248
G1 X108.262 Y125.551 E20.35754
G1 X108.432 Y125.123 E20.37286
G1 X108.692 Y124.769 E20.38747
G1 X109.041 Y124.483 E20.40248
G1 X109.536 Y124.255 E20.4206
G1 X109.6 Y124.118 E20.42563
G1 X109.6 Y115.683 E20.70618
G1 X110.4 Y115.683 E20.73279
G1 X110.4 Y124.199 E21.01603
G1 X110.513 Y124.277 E21.0206
