;FLAVOR:Marlin
;TIME:6512
;Filament used: 4.86942m
;Layer height: 0.2
;MINX:83.628
;MINY:85.75
;MINZ:0.2
;MAXX:154.065
;MAXY:144.949
;MAXZ:20
;Generated with Cura_SteamEngine 4.6.2
M140 S60
M105
M190 S60
M104 S200
M105
M109 S200
M82 ;absolute extrusion mode
; Ender 3 Custom Start G-code
G92 E0 ; Reset Extruder
G28 ; Home all axes
G1 Z2.0 F3000 ; Move Z Axis up little to prevent scratching of Heat Bed
G1 X0.1 Y20 Z0.3 F5000.0 ; Move to start position
G1 X0.1 Y200.0 Z0.3 F1500.0 E15 ; Draw the first line
G1 X0.4 Y200.0 Z0.3 F5000.0 ; Move to side a little
G1 X0.4 Y20 Z0.3 F1500.0 E30 ; Draw the second line
G92 E0 ; Reset Extruder
G1 Z2.0 F3000 ; Move Z Axis up little to prevent scratching of Heat Bed
G1 X5 Y20 Z0.3 F5000.0 ; Move over to prevent blob squish
G92 E0
G92 E0
G1 F1500 E-6
;LAYER_COUNT:100
;LAYER:0
M107
M204 S500
M205 X8 Y8
G0 F7500 X138.821 Y86.561 Z0.2
;TYPE:SKIRT
G1 F1500 E0
G1 X139.723 Y86.614 E0.02855
G1 X140.616 Y86.746 E0.05707
G1 X141.494 Y86.957 E0.0856
G1 X142.35 Y87.245 E0.11414
G1 X143.178 Y87.608 E0.14271
G1 X143.969 Y88.042 E0.17122
G1 X144.72 Y88.544 E0.19976
G1 X145.423 Y89.111 E0.2283
G1 X146.073 Y89.738 E0.25683
G1 X146.665 Y90.42 E0.28537
G1 X147.195 Y91.151 E0.3139
G1 X147.657 Y91.927 E0.34243
G1 X148.05 Y92.74 E0.37097
G1 X148.368 Y93.585 E0.39949
G1 X148.611 Y94.455 E0.42803
G1 X148.776 Y95.343 E0.45657
G1 X148.871 Y96.477 E0.49253
G1 X148.884 Y97.079 E0.51156
G1 X148.884 Y99.096 E0.57529
G1 X148.877 Y99.634 E0.59229
G1 X148.879 Y102.254 E0.67507
G1 X148.952 Y104.822 E0.75625
G1 X149.095 Y107.317 E0.83521
G1 X149.314 Y109.884 E0.91662
G1 X149.596 Y112.36 E0.99536
G1 X149.96 Y114.904 E1.07656
G1 X150.395 Y117.437 E1.15776
G1 X150.888 Y119.891 E1.23685
G1 X151.453 Y122.343 E1.31636
G1 X152.107 Y124.855 E1.39838
G1 X152.697 Y126.905 E1.46578
G1 X152.89 Y127.596 E1.48845
G1 X153.094 Y128.476 E1.51699
G1 X153.22 Y129.37 E1.54552
G1 X153.266 Y130.272 E1.57406
G1 X153.232 Y131.175 E1.60261
G1 X153.118 Y132.07 E1.63112
G1 X152.926 Y132.953 E1.65967
G1 X152.656 Y133.815 E1.68821
G1 X152.311 Y134.649 E1.71673
G1 X151.894 Y135.45 E1.74526
G1 X151.407 Y136.211 E1.77381
G1 X150.855 Y136.926 E1.80235
G1 X150.242 Y137.589 E1.83088
G1 X149.573 Y138.195 E1.8594
G1 X148.852 Y138.74 E1.88796
G1 X148.087 Y139.219 E1.91648
G1 X147.282 Y139.628 E1.94501
G1 X146.511 Y139.941 E1.9713
G1 X145.417 Y140.334 E2.00803
G1 X142.298 Y141.509 E2.11335
G1 X141.516 Y141.787 E2.13957
G1 X141.213 Y141.889 E2.14967
G1 X140.022 Y142.267 E2.18915
G1 X139.047 Y142.545 E2.22119
G1 X138.046 Y142.803 E2.25385
G1 X136.993 Y143.046 E2.288
G1 X136.084 Y143.235 E2.31733
G1 X135.036 Y143.43 E2.35102
G1 X134.02 Y143.593 E2.38353
G1 X133.053 Y143.728 E2.41438
G1 X132.064 Y143.846 E2.44585
G1 X131.094 Y143.942 E2.47665
G1 X130.104 Y144.021 E2.50803
G1 X129.293 Y144.07 E2.5337
G1 X127.777 Y144.128 E2.58164
G1 X125.681 Y144.148 E2.64787
G1 X123.856 Y144.106 E2.70555
G1 X121.927 Y144.004 E2.76659
G1 X120.053 Y143.848 E2.826
G1 X118.296 Y143.655 E2.88185
G1 X116.421 Y143.394 E2.94167
G1 X114.566 Y143.08 E3.00112
G1 X112.616 Y142.686 E3.06398
G1 X111.08 Y142.331 E3.11379
G1 X110.759 Y142.251 E3.12424
G1 X109.174 Y141.83 E3.17606
G1 X108.838 Y141.735 E3.18709
G1 X107.03 Y141.183 E3.24682
G1 X105.55 Y140.686 E3.29615
G1 X104.826 Y140.424 E3.32048
G1 X103.833 Y140.046 E3.35405
G1 X102.977 Y139.701 E3.38321
G1 X102.068 Y139.315 E3.41442
G1 X101.162 Y138.91 E3.44578
G1 X100.275 Y138.494 E3.47673
G1 X99.284 Y138.002 E3.51169
G1 X98.356 Y137.515 E3.54481
G1 X97.658 Y137.131 E3.56998
G1 X96.59 Y136.511 E3.609
G1 X95.792 Y136.016 E3.63867
G1 X94.909 Y135.437 E3.67203
G1 X94.644 Y135.257 E3.68215
G1 X94.195 Y134.942 E3.69948
G1 X93.938 Y134.755 E3.70953
G1 X92.816 Y133.909 E3.75393
G1 X92.219 Y133.427 E3.77817
G1 X91.849 Y133.114 E3.79349
G1 X91.384 Y132.705 E3.81305
G1 X90.998 Y132.351 E3.8296
G1 X90.594 Y131.968 E3.84719
G1 X90.281 Y131.658 E3.86111
G1 X89.718 Y131.076 E3.8867
G1 X89.38 Y130.709 E3.90246
G1 X89.045 Y130.327 E3.91852
G1 X88.794 Y130.029 E3.93083
G1 X88.273 Y129.387 E3.95695
G1 X87.96 Y128.982 E3.97312
G1 X87.723 Y128.658 E3.98581
G1 X87.483 Y128.315 E3.99904
G1 X87.237 Y127.948 E4.013
G1 X86.981 Y127.545 E4.02808
G1 X86.816 Y127.272 E4.03816
G1 X86.589 Y126.878 E4.05253
G1 X86.408 Y126.546 E4.06448
G1 X86.218 Y126.18 E4.07751
G1 X86.02 Y125.779 E4.09164
G1 X85.862 Y125.443 E4.10337
G1 X85.729 Y125.147 E4.11362
G1 X85.47 Y124.515 E4.1352
G1 X85.296 Y124.046 E4.15101
G1 X85.051 Y123.3 E4.17582
G1 X84.961 Y122.985 E4.18617
G1 X84.802 Y122.351 E4.20682
G1 X84.725 Y121.997 E4.21827
G1 X84.587 Y121.215 E4.24336
G1 X84.542 Y120.887 E4.25382
G1 X84.467 Y120.134 E4.27773
G1 X84.443 Y119.748 E4.28995
G1 X84.427 Y118.822 E4.31922
G1 X84.435 Y118.544 E4.328
G1 X84.464 Y118.02 E4.34459
G1 X84.521 Y117.311 E4.36706
G1 X84.708 Y114.723 E4.44905
G1 X84.819 Y112.193 E4.52906
G1 X84.86 Y109.621 E4.61034
G1 X84.828 Y107.119 E4.68941
G1 X84.724 Y104.568 E4.77008
G1 X84.503 Y101.626 E4.8633
G1 X84.461 Y100.977 E4.88385
G1 X84.443 Y100.074 E4.91238
G1 X84.504 Y99.173 E4.94092
G1 X84.646 Y98.281 E4.96946
G1 X84.865 Y97.405 E4.99799
G1 X85.161 Y96.551 E5.02655
G1 X85.531 Y95.728 E5.05506
G1 X85.973 Y94.94 E5.08361
G1 X86.483 Y94.195 E5.11213
G1 X87.056 Y93.497 E5.14067
G1 X88.01 Y92.567 E5.18277
G1 X88.511 Y92.145 E5.20346
G1 X92.283 Y89.13 E5.35604
G1 X92.831 Y88.705 E5.37796
G1 X93.568 Y88.184 E5.40647
G1 X94.349 Y87.73 E5.43502
G1 X95.167 Y87.346 E5.46357
G1 X96.015 Y87.037 E5.49209
G1 X96.888 Y86.804 E5.52064
G1 X97.778 Y86.649 E5.54918
G1 X98.834 Y86.568 E5.58265
G1 X99.699 Y86.55 E5.60998
G1 X138.021 Y86.551 E6.82085
G0 F1350 X138.124 Y86.551
G0 X138.821 Y86.561
G0 F7500 X138.827 Y86.161
G1 F1500 X139.746 Y86.214 E6.84994
G1 X140.657 Y86.347 E6.87903
G1 X141.553 Y86.558 E6.90811
G1 X142.428 Y86.846 E6.93722
G1 X143.274 Y87.21 E6.96632
G1 X144.085 Y87.645 E6.9954
G1 X144.856 Y88.148 E7.02448
G1 X145.58 Y88.717 E7.05358
G1 X146.251 Y89.347 E7.08266
G1 X146.866 Y90.032 E7.11175
G1 X147.419 Y90.768 E7.14084
G1 X147.906 Y91.55 E7.16995
G1 X148.323 Y92.37 E7.19901
G1 X148.668 Y93.224 E7.22812
G1 X148.937 Y94.104 E7.25719
G1 X149.129 Y95.005 E7.2863
G1 X149.242 Y95.919 E7.3154
G1 X149.271 Y96.466 E7.33271
G1 X149.284 Y97.078 E7.35205
G1 X149.284 Y99.101 E7.41597
G1 X149.277 Y99.638 E7.43294
G1 X149.279 Y102.242 E7.51522
G1 X149.352 Y104.788 E7.5957
G1 X149.497 Y107.331 E7.67618
G1 X149.708 Y109.806 E7.75467
G1 X149.995 Y112.325 E7.83477
G1 X150.355 Y114.843 E7.91515
G1 X150.78 Y117.321 E7.99459
G1 X151.284 Y119.828 E8.07539
G1 X151.844 Y122.257 E8.15415
G1 X152.489 Y124.732 E8.23496
G1 X153.082 Y126.797 E8.30285
G1 X153.275 Y127.488 E8.32552
G1 X153.484 Y128.385 E8.35462
G1 X153.615 Y129.297 E8.38373
G1 X153.665 Y130.216 E8.41281
G1 X153.636 Y131.136 E8.4419
G1 X153.527 Y132.05 E8.47098
G1 X153.339 Y132.951 E8.50006
G1 X153.074 Y133.833 E8.52916
G1 X152.733 Y134.688 E8.55825
G1 X152.319 Y135.511 E8.58736
G1 X151.836 Y136.294 E8.61642
G1 X151.286 Y137.033 E8.64553
G1 X150.674 Y137.721 E8.67463
G1 X150.005 Y138.353 E8.70371
G1 X149.284 Y138.925 E8.73279
G1 X148.515 Y139.432 E8.76189
G1 X147.706 Y139.871 E8.79097
G1 X146.646 Y140.317 E8.82731
G1 X145.566 Y140.705 E8.86357
G1 X142.432 Y141.886 E8.96939
G1 X141.65 Y142.164 E8.99562
G1 X141.335 Y142.27 E9.00612
G1 X140.133 Y142.651 E9.04596
G1 X139.148 Y142.932 E9.07833
G1 X138.137 Y143.192 E9.11131
G1 X137.076 Y143.437 E9.14572
G1 X136.159 Y143.628 E9.17531
G1 X135.1 Y143.825 E9.20935
G1 X134.076 Y143.989 E9.24212
G1 X133.101 Y144.126 E9.27323
G1 X132.104 Y144.244 E9.30495
G1 X131.126 Y144.34 E9.336
G1 X130.13 Y144.42 E9.36757
G1 X129.309 Y144.47 E9.39356
G1 X127.782 Y144.528 E9.44184
G1 X126.015 Y144.549 E9.49768
G1 X125.673 Y144.548 E9.50849
G1 X124.155 Y144.517 E9.55646
G1 X123.835 Y144.505 E9.56658
G1 X121.894 Y144.402 E9.628
G1 X120.01 Y144.246 E9.68773
G1 X118.242 Y144.051 E9.74393
G1 X116.355 Y143.789 E9.80413
G1 X114.819 Y143.533 E9.85333
G1 X114.488 Y143.472 E9.86396
G1 X112.526 Y143.076 E9.92721
G1 X110.99 Y142.721 E9.97702
G1 X110.656 Y142.638 E9.98789
G1 X109.071 Y142.217 E10.03971
G1 X108.722 Y142.118 E10.05118
G1 X106.903 Y141.563 E10.11127
G1 X105.415 Y141.063 E10.16087
G1 X104.683 Y140.798 E10.18546
G1 X103.685 Y140.417 E10.21922
G1 X102.821 Y140.069 E10.24865
G1 X101.906 Y139.681 E10.28005
G1 X100.992 Y139.273 E10.31168
G1 X100.098 Y138.853 E10.34289
G1 X99.099 Y138.357 E10.37813
G1 X98.164 Y137.867 E10.41149
G1 X97.458 Y137.478 E10.43695
G1 X96.381 Y136.852 E10.47632
G1 X95.843 Y136.522 E10.49626
G1 X95.573 Y136.35 E10.50637
G1 X94.69 Y135.771 E10.53974
G1 X94.414 Y135.584 E10.55027
G1 X93.698 Y135.076 E10.57801
G1 X92.833 Y134.428 E10.61216
G1 X92.566 Y134.221 E10.62284
G1 X91.962 Y133.734 E10.64735
G1 X91.586 Y133.415 E10.66293
G1 X91.115 Y133.001 E10.68274
G1 X90.723 Y132.642 E10.69954
G1 X90.319 Y132.259 E10.71713
G1 X89.993 Y131.936 E10.73163
G1 X89.43 Y131.354 E10.75722
G1 X89.079 Y130.973 E10.77358
G1 X88.744 Y130.591 E10.78964
G1 X88.483 Y130.281 E10.80244
G1 X87.962 Y129.639 E10.82857
G1 X87.638 Y129.218 E10.84535
G1 X87.401 Y128.894 E10.85804
G1 X87.151 Y128.538 E10.87178
G1 X86.905 Y128.171 E10.88574
G1 X86.638 Y127.752 E10.90144
G1 X86.473 Y127.479 E10.91152
G1 X86.238 Y127.07 E10.92643
G1 X86.057 Y126.738 E10.93837
G1 X85.859 Y126.357 E10.95194
G1 X85.661 Y125.956 E10.96607
G1 X85.497 Y125.607 E10.97826
G1 X85.364 Y125.311 E10.98851
G1 X85.095 Y124.654 E11.01094
G1 X84.921 Y124.185 E11.02675
G1 X84.667 Y123.41 E11.05252
G1 X84.577 Y123.095 E11.06287
G1 X84.411 Y122.436 E11.08434
G1 X84.334 Y122.082 E11.09579
G1 X84.19 Y121.27 E11.12184
G1 X84.145 Y120.942 E11.13231
G1 X84.067 Y120.159 E11.15717
G1 X84.043 Y119.773 E11.16939
G1 X84.027 Y118.81 E11.19982
G1 X84.035 Y118.532 E11.20861
G1 X84.065 Y117.988 E11.22582
G1 X84.122 Y117.279 E11.2483
G1 X84.309 Y114.694 E11.33019
G1 X84.419 Y112.17 E11.41002
G1 X84.46 Y109.619 E11.49063
G1 X84.428 Y107.105 E11.57007
G1 X84.327 Y104.615 E11.64882
G1 X84.104 Y101.652 E11.7427
G1 X84.062 Y101.003 E11.76325
G1 X84.043 Y100.082 E11.79236
G1 X84.103 Y99.163 E11.82146
G1 X84.243 Y98.253 E11.85055
G1 X84.461 Y97.359 E11.87963
G1 X84.756 Y96.487 E11.90871
G1 X85.126 Y95.644 E11.9378
G1 X85.568 Y94.836 E11.9669
G1 X86.078 Y94.069 E11.99601
G1 X86.652 Y93.35 E12.02508
G1 X87.287 Y92.683 E12.05417
G1 X87.75 Y92.263 E12.07393
G1 X87.992 Y92.056 E12.08399
G1 X88.261 Y91.833 E12.09503
G1 X92.038 Y88.814 E12.24781
G1 X92.586 Y88.389 E12.26972
G1 X93.337 Y87.857 E12.2988
G1 X94.132 Y87.392 E12.3279
G1 X94.964 Y86.998 E12.35699
G1 X95.827 Y86.677 E12.38609
G1 X96.715 Y86.433 E12.41518
G1 X97.62 Y86.266 E12.44426
G1 X98.824 Y86.168 E12.48243
G1 X99.699 Y86.15 E12.51008
G1 X138.027 Y86.151 E13.72114
G0 F1350 X138.13 Y86.151
G0 X138.827 Y86.161
G0 F7500 X138.833 Y85.761
G1 F1500 X139.769 Y85.815 E13.75076
G1 X140.698 Y85.948 E13.78042
G1 X141.611 Y86.159 E13.81002
G1 X142.504 Y86.448 E13.83968
G1 X143.368 Y86.811 E13.86929
G1 X144.198 Y87.247 E13.89892
G1 X144.989 Y87.752 E13.92857
G1 X145.733 Y88.323 E13.9582
G1 X146.426 Y88.955 E13.98784
G1 X147.063 Y89.644 E14.01749
G1 X147.639 Y90.384 E14.04712
G1 X148.149 Y91.171 E14.07675
G1 X148.591 Y91.998 E14.10638
G1 X148.96 Y92.86 E14.136
G1 X149.255 Y93.75 E14.16563
G1 X149.473 Y94.662 E14.19526
G1 X149.613 Y95.59 E14.22491
G1 X149.671 Y96.455 E14.25231
G1 X149.684 Y97.078 E14.272
G1 X149.684 Y99.106 E14.33607
G1 X149.677 Y99.643 E14.35304
G1 X149.679 Y102.266 E14.43592
G1 X149.75 Y104.755 E14.5146
G1 X149.894 Y107.272 E14.59426
G1 X150.109 Y109.793 E14.67421
G1 X150.39 Y112.261 E14.75269
G1 X150.753 Y114.799 E14.8337
G1 X151.173 Y117.246 E14.91215
G1 X151.672 Y119.731 E14.99224
G1 X152.234 Y122.167 E15.07123
G1 X152.877 Y124.636 E15.15184
G1 X153.468 Y126.69 E15.21938
G1 X153.661 Y127.381 E15.24205
G1 X153.874 Y128.294 E15.27167
G1 X154.009 Y129.222 E15.3013
G1 X154.065 Y130.158 E15.33093
G1 X154.04 Y131.096 E15.36058
G1 X153.936 Y132.028 E15.39021
G1 X153.752 Y132.948 E15.41985
G1 X153.491 Y133.849 E15.44949
G1 X153.155 Y134.724 E15.47911
G1 X152.745 Y135.567 E15.50873
G1 X152.264 Y136.373 E15.53839
G1 X151.717 Y137.134 E15.568
G1 X151.107 Y137.847 E15.59765
G1 X150.438 Y138.504 E15.62727
G1 X149.716 Y139.103 E15.65692
G1 X148.945 Y139.637 E15.68655
G1 X148.132 Y140.104 E15.71617
G1 X147.281 Y140.5 E15.74583
G1 X146.782 Y140.694 E15.76275
G1 X145.642 Y141.103 E15.80102
G1 X142.566 Y142.263 E15.90489
G1 X141.784 Y142.541 E15.93112
G1 X141.457 Y142.651 E15.94202
G1 X140.244 Y143.035 E15.98222
G1 X139.25 Y143.319 E16.01488
G1 X138.228 Y143.582 E16.04823
G1 X137.158 Y143.829 E16.08293
G1 X136.234 Y144.021 E16.11275
G1 X135.164 Y144.22 E16.14713
G1 X134.133 Y144.385 E16.18013
G1 X133.149 Y144.523 E16.21152
G1 X132.144 Y144.642 E16.2435
G1 X131.159 Y144.739 E16.27477
G1 X130.155 Y144.82 E16.3066
G1 X129.326 Y144.87 E16.33284
G1 X128.107 Y144.92 E16.37139
G1 X127.787 Y144.928 E16.3815
G1 X126.02 Y144.949 E16.43734
G1 X125.664 Y144.948 E16.44859
G1 X124.146 Y144.917 E16.49656
G1 X123.815 Y144.905 E16.50703
G1 X122.194 Y144.823 E16.55831
G1 X121.862 Y144.801 E16.56883
G1 X119.967 Y144.644 E16.62891
G1 X118.188 Y144.448 E16.68546
G1 X116.608 Y144.232 E16.73585
G1 X116.29 Y144.183 E16.74601
G1 X114.754 Y143.927 E16.79522
G1 X114.41 Y143.864 E16.80627
G1 X112.761 Y143.535 E16.8594
G1 X112.436 Y143.465 E16.8699
G1 X110.9 Y143.11 E16.91971
G1 X110.553 Y143.024 E16.93101
G1 X108.968 Y142.603 E16.98283
G1 X108.606 Y142.5 E16.99472
G1 X106.776 Y141.942 E17.05517
G1 X105.279 Y141.439 E17.10507
G1 X104.541 Y141.172 E17.12987
G1 X103.536 Y140.788 E17.16386
G1 X102.666 Y140.438 E17.19349
G1 X101.743 Y140.046 E17.22518
G1 X100.823 Y139.636 E17.257
G1 X99.921 Y139.212 E17.2885
G1 X98.913 Y138.711 E17.32406
G1 X97.972 Y138.218 E17.35763
G1 X97.258 Y137.824 E17.3834
G1 X96.172 Y137.193 E17.42308
G1 X95.353 Y136.685 E17.45354
G1 X94.47 Y136.106 E17.4869
G1 X94.184 Y135.912 E17.49782
G1 X93.735 Y135.597 E17.51515
G1 X93.458 Y135.396 E17.52596
G1 X92.593 Y134.748 E17.56011
G1 X92.316 Y134.534 E17.57117
G1 X91.704 Y134.04 E17.59602
G1 X91.323 Y133.717 E17.61181
G1 X90.845 Y133.297 E17.63191
G1 X90.448 Y132.932 E17.64895
G1 X90.044 Y132.549 E17.66654
G1 X89.706 Y132.214 E17.68158
G1 X89.143 Y131.632 E17.70716
G1 X88.779 Y131.237 E17.72414
G1 X88.444 Y130.855 E17.74019
G1 X88.173 Y130.534 E17.75346
G1 X87.652 Y129.892 E17.77959
G1 X87.315 Y129.454 E17.79705
G1 X87.078 Y129.13 E17.80973
G1 X86.819 Y128.761 E17.82398
G1 X86.573 Y128.394 E17.83794
G1 X86.296 Y127.959 E17.85423
G1 X86.131 Y127.686 E17.86431
G1 X85.887 Y127.261 E17.8798
G1 X85.706 Y126.929 E17.89175
G1 X85.501 Y126.534 E17.90581
G1 X85.303 Y126.133 E17.91994
G1 X85.132 Y125.771 E17.93259
G1 X84.999 Y125.475 E17.94284
G1 X84.72 Y124.793 E17.96612
G1 X84.546 Y124.324 E17.98193
G1 X84.282 Y123.52 E18.00867
G1 X84.192 Y123.205 E18.01902
G1 X84.02 Y122.521 E18.04131
G1 X83.943 Y122.167 E18.05275
G1 X83.794 Y121.324 E18.0798
G1 X83.749 Y120.996 E18.09026
G1 X83.668 Y120.184 E18.11605
G1 X83.644 Y119.798 E18.12827
G1 X83.628 Y118.799 E18.15984
G1 X83.636 Y118.521 E18.16862
G1 X83.666 Y117.955 E18.18653
G1 X83.723 Y117.246 E18.20901
G1 X83.91 Y114.667 E18.29071
G1 X84.019 Y112.181 E18.36934
G1 X84.06 Y109.618 E18.45033
G1 X84.028 Y107.123 E18.52917
G1 X83.927 Y104.632 E18.60795
G1 X83.705 Y101.677 E18.70158
G1 X83.663 Y101.028 E18.72213
G1 X83.642 Y100.091 E18.75174
G1 X83.702 Y99.155 E18.78138
G1 X83.841 Y98.227 E18.81103
G1 X84.058 Y97.315 E18.84065
G1 X84.352 Y96.424 E18.87029
G1 X84.721 Y95.562 E18.89992
G1 X85.162 Y94.735 E18.92953
G1 X85.672 Y93.947 E18.95919
G1 X86.248 Y93.207 E18.98882
G1 X86.884 Y92.518 E19.01845
G1 X87.49 Y91.959 E19.0445
G1 X87.732 Y91.752 E19.05456
G1 X88.011 Y91.521 E19.06601
G1 X91.793 Y88.498 E19.21899
G1 X92.341 Y88.073 E19.2409
G1 X93.106 Y87.53 E19.27055
G1 X93.914 Y87.055 E19.30016
G1 X94.76 Y86.65 E19.3298
G1 X95.637 Y86.318 E19.35943
G1 X96.54 Y86.063 E19.38908
G1 X97.461 Y85.885 E19.41872
G1 X98.815 Y85.768 E19.46166
G1 X99.699 Y85.75 E19.4896
G1 X138.033 Y85.751 E20.70084
G0 F1350 X138.136 Y85.751
G0 X138.833 Y85.761
