;FLAVOR:Marlin
;TIME:5303
;Filament used: 4.12187m
;Layer height: 0.28
;MINX:36.429
;MINY:83.331
;MINZ:0.285
;MAXX:198.384
;MAXY:151.631
;MAXZ:12.605
;Generated with Cura_SteamEngine 4.6.2
M140 S60
M105
M190 S60
M104 S200
M105
M109 S200
M82 ;absolute extrusion mode
; Ender 3 Custom Start G-code
G92 E0 ; Reset Extruder
G28 ; Home all axes
G1 Z2.0 F3000 ; Move Z Axis up little to prevent scratching of Heat Bed
G1 X0.1 Y20 Z0.3 F5000.0 ; Move to start position
G1 X0.1 Y200.0 Z0.3 F1500.0 E15 ; Draw the first line
G1 X0.4 Y200.0 Z0.3 F5000.0 ; Move to side a little
G1 X0.4 Y20 Z0.3 F1500.0 E30 ; Draw the second line
G92 E0 ; Reset Extruder
G1 Z2.0 F3000 ; Move Z Axis up little to prevent scratching of Heat Bed
G1 X5 Y20 Z0.3 F5000.0 ; Move over to prevent blob squish
G92 E0
G92 E0
G1 F1500 E-6
;LAYER_COUNT:45
;LAYER:0
M107
M204 S500
M205 X8 Y8
;MESH:Flexi_Raptor_STRONGER_TAIL.STL
G0 F7500 X81.693 Y86.19 Z0.285
;TYPE:WALL-INNER
G1 F1500 E0
G1 F1800 X81.843 Y86.342 E0.00962
G1 X82.049 Y86.522 E0.02193
G1 X82.297 Y86.678 E0.03512
G1 X82.362 Y86.706 E0.03831
G1 X82.569 Y86.795 E0.04846
G1 X82.855 Y86.867 E0.06174
G1 X83.144 Y86.893 E0.0748
G1 X83.436 Y86.876 E0.08797
G1 X83.726 Y86.811 E0.10135
G1 X83.999 Y86.702 E0.11459
G1 X84.251 Y86.551 E0.12782
G1 X84.461 Y86.376 E0.14012
G1 X84.881 Y85.959 E0.16677
G1 X85.044 Y85.776 E0.17781
G1 X85.173 Y85.587 E0.18811
G1 X85.305 Y85.36 E0.19993
G1 X93.403 Y86.067 E0.56594
G1 X95.838 Y88.596 E0.72401
G1 X95.838 Y93.042 E0.9242
G1 X99.01 Y99.976 E1.26752
G1 X95.271 Y102.86 E1.48014
G1 X94.526 Y108.458 E1.73442
G1 X91.1 Y111.341 E1.93602
G1 X91.1 Y113.228 E2.02099
G1 X92.659 Y114.314 E2.10654
G1 X92.658 Y120.076 E2.36598
G1 X91.216 Y120.077 E2.4309
G1 X90.5 Y120.793 E2.4765
G1 X90.5 Y123.958 E2.619
G1 X91.216 Y124.674 E2.66459
G1 X92.46 Y124.674 E2.72061
G1 X92.659 Y124.674 E2.72957
G1 X92.659 Y124.873 E2.73536
G1 X92.658 Y130.654 E2.99566
G1 X92.658 Y130.846 E3.0043
G1 X92.52 Y130.874 E3.01064
G1 X92.401 Y130.865 E3.01602
G1 X92.277 Y130.719 E3.0232
G1 X85.616 Y122.91 E3.48534
G1 X85.515 Y122.81 E3.49174
G1 X85.35 Y122.683 E3.50112
G1 X85.184 Y122.598 E3.50951
G1 X84.995 Y122.534 E3.5185
G1 X84.803 Y122.502 E3.52726
G1 X84.607 Y122.502 E3.53609
G1 X84.476 Y122.524 E3.54207
G1 X84.306 Y122.568 E3.54997
G1 X84.124 Y122.648 E3.55893
G1 X83.967 Y122.75 E3.56736
G1 X83.684 Y122.99 E3.58406
G1 X83.04 Y122.235 E3.62874
G1 X83.291 Y122.021 E3.6436
G1 X83.39 Y121.92 E3.64996
G1 X83.504 Y121.772 E3.65838
G1 X83.599 Y121.596 E3.66738
G1 X83.663 Y121.407 E3.67637
G1 X83.697 Y121.211 E3.68532
G1 X83.697 Y121.016 E3.6941
G1 X83.676 Y120.887 E3.69999
G1 X83.633 Y120.712 E3.7081
G1 X83.55 Y120.527 E3.71723
G1 X83.446 Y120.37 E3.72571
G1 X80.427 Y116.822 E3.93547
G1 X78.774 Y114.887 E4.05006
G1 X78.773 Y114.886 E4.05012
G1 X78.585 Y114.665 E4.06318
G1 X78.86 Y114.57 E4.07087
G1 X82.229 Y113.399 E4.23147
G1 X82.464 Y112.919 E4.25553
G1 X82.714 Y112.469 E4.27871
G1 X82.714 Y109.272 E4.42266
G1 X83.133 Y108.853 E4.44934
G1 X94.617 Y99.998 E5.10228
G1 X94.684 Y99.474 E5.12607
G1 X94.775 Y98.978 E5.14877
G1 X92.273 Y92.3 E5.46987
G1 X88.175 Y93.721 E5.66516
G1 X88.007 Y93.761 E5.67294
G1 X87.922 Y93.768 E5.67678
G1 X87.805 Y93.756 E5.68207
G1 X87.696 Y93.727 E5.68715
G1 X87.585 Y93.674 E5.69269
G1 X87.511 Y93.623 E5.69674
G1 X87.358 Y93.496 E5.70569
G1 X87.172 Y93.341 E5.71659
G1 X87.033 Y93.225 E5.72474
G1 X87.242 Y93.256 E5.72693
G1 X87.509 Y93.256 E5.73349
G1 X87.557 Y93.255 E5.73455
G1 X87.862 Y93.195 E5.74855
G1 X88.153 Y93.088 E5.76251
G1 X88.428 Y92.934 E5.7767
G1 X88.655 Y92.747 E5.78994
G1 X89.291 Y92.117 E5.83025
G1 X89.357 Y91.725 E5.84815
G1 X88.813 Y88.488 E5.99594
G1 X84.809 Y88.488 E6.17623
G1 X82.763 Y87.903 E6.27204
G1 X82.622 Y87.849 E6.27884
G1 X82.525 Y87.792 E6.2839
G1 X82.447 Y87.726 E6.2885
G1 X82.369 Y87.632 E6.294
G1 X82.301 Y87.514 E6.30014
G1 X82.013 Y86.887 E6.3312
G1 X81.984 Y86.823 E6.33315
G1 X81.881 Y86.6 E6.34029
G1 X81.777 Y86.373 E6.34371
G1 X81.693 Y86.19 E6.3444
G1 F1500 E0.3444
G0 F7500 X81.401 Y85.442
G0 X81.506 Y84.242
;TYPE:WALL-OUTER
G1 F1500 E6.3444
G1 F1800 X81.512 Y84.243 E6.34466
G1 X81.495 Y84.432 E6.35278
G1 X81.495 Y84.726 E6.36536
G1 X81.495 Y84.796 E6.36835
G1 X81.51 Y85.037 E6.37868
G1 X81.562 Y85.253 E6.38818
G1 X81.582 Y85.305 E6.39056
G1 X81.649 Y85.477 E6.39846
G1 X81.765 Y85.665 E6.40791
G1 X81.905 Y85.835 E6.41733
G1 X82.117 Y86.05 E6.43025
G1 X82.289 Y86.2 E6.44001
G1 X82.484 Y86.323 E6.44987
G1 X82.697 Y86.415 E6.45979
G1 X82.922 Y86.471 E6.46971
G1 X83.151 Y86.492 E6.47955
G1 X83.38 Y86.479 E6.48936
G1 X83.607 Y86.428 E6.49931
G1 X83.821 Y86.342 E6.50918
G1 X84.019 Y86.224 E6.51904
G1 X84.191 Y86.08 E6.52863
G1 X84.591 Y85.684 E6.55271
G1 X84.728 Y85.53 E6.56152
G1 X84.834 Y85.374 E6.56959
G1 X85.086 Y84.94 E6.59106
G1 X93.589 Y85.682 E6.95615
G1 X95.054 Y87.212 E7.04676
G1 X96.238 Y88.435 E7.11957
G1 X96.238 Y92.955 E7.31292
G1 X99.478 Y100.037 E7.64604
G1 X99.435 Y100.153 E7.65133
G1 X95.646 Y103.076 E7.85603
G1 X94.901 Y108.665 E8.09721
G1 X91.5 Y111.527 E8.28734
G1 X91.5 Y113.019 E8.35116
G1 X93.059 Y114.105 E8.43243
G1 X93.058 Y120.476 E8.70495
G1 X91.382 Y120.477 E8.77664
G1 X90.9 Y120.959 E8.8058
G1 X90.9 Y123.792 E8.92698
G1 X91.382 Y124.274 E8.95614
G1 X92.859 Y124.274 E9.01931
G1 X93.059 Y124.274 E9.02787
G1 X93.059 Y124.474 E9.03341
G1 X93.058 Y131.173 E9.31996
G1 X92.543 Y131.278 E9.34244
G1 X92.204 Y131.25 E9.35699
G1 X85.322 Y123.182 E9.81059
G1 X85.251 Y123.111 E9.81488
G1 X85.135 Y123.022 E9.82114
G1 X85.028 Y122.967 E9.82628
G1 X84.898 Y122.923 E9.83215
G1 X84.77 Y122.902 E9.8377
G1 X84.641 Y122.902 E9.84322
G1 X84.559 Y122.916 E9.84678
G1 X84.437 Y122.947 E9.85216
G1 X84.315 Y123.001 E9.85787
G1 X84.206 Y123.072 E9.86343
G1 X83.687 Y123.511 E9.89251
G1 X83.608 Y123.518 E9.8959
G1 X82.506 Y122.226 E9.96854
G1 X82.525 Y122.149 E9.97193
G1 X83.018 Y121.728 E9.99966
G1 X83.088 Y121.657 E10.00393
G1 X83.167 Y121.554 E10.00948
G1 X83.231 Y121.436 E10.01522
G1 X83.274 Y121.308 E10.021
G1 X83.297 Y121.176 E10.02673
G1 X83.297 Y121.048 E10.03221
G1 X83.284 Y120.967 E10.03572
G1 X83.253 Y120.843 E10.04118
G1 X83.198 Y120.72 E10.04695
G1 X83.126 Y120.611 E10.05253
G1 X80.122 Y117.081 E10.2508
G1 X78.089 Y114.701 E10.38469
G1 X78.088 Y114.7 E10.38475
G1 X77.9 Y114.479 E10.39716
G1 X78.175 Y114.384 E10.40447
G1 X81.942 Y113.075 E10.57505
G1 X82.114 Y112.725 E10.59173
G1 X82.314 Y112.365 E10.60935
G1 X82.314 Y109.106 E10.74875
G1 X82.867 Y108.553 E10.7822
G1 X94.241 Y99.783 E11.39655
G1 X94.287 Y99.423 E11.41208
G1 X94.362 Y99.015 E11.42982
G1 X92.035 Y92.806 E11.71345
G1 X88.286 Y94.106 E11.88318
G1 X88.07 Y94.158 E11.89268
G1 X87.918 Y94.169 E11.8992
G1 X87.732 Y94.151 E11.90719
G1 X87.555 Y94.103 E11.91504
G1 X87.388 Y94.024 E11.92294
G1 X87.269 Y93.942 E11.92912
G1 X85.871 Y92.778 E12.00693
G1 X85.494 Y92.464 E12.02792
G1 X85.475 Y92.448 E12.02898
G1 X85.654 Y92.27 E12.03603
G1 X86.107 Y92.458 E12.05314
G1 X86.812 Y92.751 E12.0858
G1 X87.029 Y92.82 E12.09554
G1 X87.271 Y92.856 E12.10601
G1 X87.518 Y92.855 E12.11657
G1 X87.754 Y92.809 E12.12686
G1 X87.985 Y92.724 E12.13739
G1 X88.201 Y92.603 E12.14798
G1 X88.386 Y92.45 E12.15824
G1 X88.918 Y91.924 E12.19025
G1 X88.951 Y91.725 E12.19887
G1 X88.475 Y88.888 E12.32192
G1 X84.751 Y88.888 E12.48121
G1 X82.636 Y88.283 E12.57531
G1 X82.448 Y88.211 E12.58392
G1 X82.297 Y88.122 E12.59142
G1 X82.159 Y88.006 E12.59913
G1 X82.041 Y87.864 E12.60703
G1 X81.943 Y87.695 E12.61538
G1 X81.28 Y86.249 E12.68343
G1 X81.232 Y86.121 E12.68928
G1 X81.199 Y85.973 E12.69576
G1 X81.183 Y85.69 E12.70789
G1 X81.183 Y85.309 E12.72418
G1 X81.183 Y85.253 E12.7264
G1 X81.183 Y85.037 E12.73455
G1 X81.183 Y84.796 E12.74278
G1 X81.183 Y84.726 E12.74512
G1 X81.246 Y84.631 E12.74819
G1 X81.414 Y84.379 E12.75444
G1 X81.506 Y84.242 E12.75509
G0 F7500 X81.512 Y84.243
G0 X81.495 Y84.432
G0 X81.495 Y84.637
G0 X81.401 Y85.442
G0 X81.537 Y85.735
G0 X82.655 Y86.931
G0 X82.587 Y87.202
;TYPE:SKIN
G1 F1800 X82.789 Y87.253 E12.76447
G1 X83.138 Y87.285 E12.78025
G1 X83.491 Y87.264 E12.79618
G1 X83.841 Y87.185 E12.81233
G1 X84.173 Y87.053 E12.82842
G1 X84.477 Y86.87 E12.8444
G1 X84.724 Y86.665 E12.85885
G1 X85.164 Y86.228 E12.88677
G1 X85.352 Y86.016 E12.89953
G1 X85.518 Y85.77 E12.91289
G1 X93.222 Y86.442 E13.26109
G1 X95.448 Y88.754 E13.40559
G1 X95.448 Y93.127 E13.60249
G1 X98.526 Y99.857 E13.93571
G1 X94.906 Y102.649 E14.14155
G1 X94.16 Y108.256 E14.39623
G1 X90.71 Y111.16 E14.59928
G1 X90.71 Y113.431 E14.70153
G1 X92.269 Y114.518 E14.7871
G1 X92.268 Y119.686 E15.0198
G1 X91.054 Y119.687 E15.07446
G1 X90.11 Y120.631 E15.13457
G1 X90.11 Y124.12 E15.29167
G1 X91.054 Y125.064 E15.35178
G1 X92.269 Y125.064 E15.40648
G1 X92.268 Y130.108 E15.63359
G1 X85.902 Y122.645 E16.07527
G1 X85.772 Y122.516 E16.08351
G1 X85.559 Y122.352 E16.09562
G1 X85.336 Y122.238 E16.10689
G1 X85.09 Y122.154 E16.1186
G1 X84.836 Y122.112 E16.13019
G1 X84.574 Y122.112 E16.14199
G1 X84.395 Y122.142 E16.15016
G1 X84.178 Y122.198 E16.16025
G1 X83.938 Y122.303 E16.17204
G1 X83.733 Y122.436 E16.18305
G1 X83.728 Y122.44 E16.18333
G1 X83.588 Y122.276 E16.19304
G1 X83.685 Y122.176 E16.19932
G1 X83.832 Y121.985 E16.21017
G1 X83.958 Y121.752 E16.2221
G1 X84.042 Y121.503 E16.23393
G1 X84.087 Y121.245 E16.24572
G1 X84.087 Y120.985 E16.25743
G1 X84.058 Y120.809 E16.26546
G1 X84.003 Y120.585 E16.27584
G1 X83.893 Y120.338 E16.28802
G1 X83.758 Y120.135 E16.29899
G1 X79.252 Y114.846 E16.61184
G1 X82.508 Y113.715 E16.76704
G1 X82.815 Y113.091 E16.79835
G1 X83.104 Y112.57 E16.82518
G1 X83.104 Y109.432 E16.96647
G1 X83.389 Y109.147 E16.98462
G1 X94.983 Y100.208 E17.64379
G1 X95.068 Y99.544 E17.67393
G1 X95.178 Y98.943 E17.70144
G1 X92.505 Y91.807 E18.04455
G1 X88.888 Y93.061 E18.21692
G1 X88.916 Y93.037 E18.21858
G1 X89.655 Y92.306 E18.26538
G1 X89.753 Y91.725 E18.29191
G1 X89.143 Y88.098 E18.45751
G1 X84.864 Y88.098 E18.65018
G1 X82.893 Y87.534 E18.74249
G1 X82.785 Y87.493 E18.74769
G1 X82.755 Y87.476 E18.74924
G1 X82.724 Y87.449 E18.75109
G1 X82.69 Y87.408 E18.75349
G1 X82.651 Y87.34 E18.75702
G1 X82.587 Y87.202 E18.76387
G0 F7500 X82.655 Y86.931
G0 X84.576 Y86.502
G0 X85.402 Y85.546
G0 X92.824 Y86.128
G0 X92.786 Y86.564
G1 F1800 X95.287 Y89.065 E18.92312
G0 F7500 X95.287 Y89.63
G1 F1800 X92.167 Y86.51 E19.12179
G0 F7500 X91.546 Y86.455
G1 F1800 X95.287 Y90.196 E19.36001
G0 F7500 X95.287 Y90.762
G1 F1800 X90.927 Y86.402 E19.63764
G0 F7500 X90.307 Y86.347
G1 F1800 X95.287 Y91.327 E19.95474
G0 F7500 X95.287 Y91.893
G1 F1800 X89.687 Y86.293 E20.31133
G0 F7500 X89.067 Y86.239
G1 F1800 X95.287 Y92.459 E20.7074
G0 F7500 X95.287 Y93.024
G1 F1800 X88.447 Y86.185 E21.14291
G0 F7500 X87.828 Y86.131
G1 F1800 X95.647 Y93.95 E21.64079
G0 F7500 X96.048 Y93.767
G0 X96.525 Y94.81
G0 X96.124 Y94.993
G1 F1800 X89.32 Y88.188 E22.07408
G0 F7500 X89.068 Y87.937
G1 F1800 X87.208 Y86.076 E22.19255
G0 F7500 X86.588 Y86.023
G1 F1800 X88.502 Y87.937 E22.31443
G0 F7500 X87.937 Y87.937
G1 F1800 X85.968 Y85.968 E22.4398
G0 F7500 X85.506 Y86.071
G1 F1800 X87.371 Y87.937 E22.55859
G0 F7500 X86.805 Y87.937
G1 F1800 X85.243 Y86.374 E22.65809
G0 F7500 X84.959 Y86.656
G1 F1800 X86.24 Y87.937 E22.73966
G0 F7500 X85.674 Y87.937
G1 F1800 X84.661 Y86.924 E22.80416
G0 F7500 X84.321 Y87.15
G1 F1800 X85.108 Y87.937 E22.85427
G0 F7500 X84.405 Y87.799
G1 F1800 X83.928 Y87.322 E22.88465
G0 F7500 X83.612 Y87.572
G1 F1800 X83.466 Y87.425 E22.89398
G0 F7500 X83.442 Y86.986
G0 X82.215 Y86.856
G0 X82.57 Y87.607
G0 X82.814 Y87.74
G0 X84.834 Y88.317
G0 X88.669 Y88.658
G0 X89.001 Y88.941
G0 X89.434 Y88.869
G1 F1800 X92.28 Y91.715 E23.0752
G0 F7500 X91.86 Y91.86
G1 F1800 X89.549 Y89.549 E23.22235
G0 F7500 X89.663 Y90.229
G1 F1800 X91.44 Y92.005 E23.33547
G0 F7500 X91.02 Y92.151
G1 F1800 X89.778 Y90.909 E23.41456
G0 F7500 X89.893 Y91.59
G1 F1800 X90.6 Y92.297 E23.45958
G0 F7500 X90.179 Y92.442
G1 F1800 X89.849 Y92.111 E23.48062
G0 F7500 X89.678 Y92.507
G1 F1800 X89.759 Y92.587 E23.48575
G0 F7500 X89.903 Y93.005
G0 X92.446 Y92.446
G0 X92.857 Y92.292
G1 F1800 X96.602 Y96.037 E23.72422
G0 F7500 X97.003 Y95.855
G0 X97.48 Y96.898
G0 X97.08 Y97.08
G1 F1800 X93.196 Y93.196 E23.97154
G0 F7500 X93.535 Y94.101
G1 F1800 X97.557 Y98.123 E24.22764
G0 F7500 X97.957 Y97.941
G0 X98.434 Y98.984
G0 X98.034 Y99.166
G1 F1800 X93.874 Y95.006 E24.49254
G0 F7500 X94.213 Y95.91
G1 F1800 X98.205 Y99.902 E24.74673
G0 F7500 X97.885 Y100.148
G1 F1800 X94.552 Y96.814 E24.959
G0 F7500 X94.891 Y97.72
G1 F1800 X97.565 Y100.394 E25.12927
G0 F7500 X97.246 Y100.64
G1 F1800 X95.23 Y98.624 E25.25764
G0 F7500 X95.284 Y99.244
G1 F1800 X96.927 Y100.887 E25.36226
G0 F7500 X96.607 Y101.133
G1 F1800 X95.204 Y99.729 E25.45163
G0 F7500 X95.14 Y100.231
G1 F1800 X96.288 Y101.379 E25.52473
G0 F7500 X95.969 Y101.626
G1 F1800 X94.853 Y100.51 E25.59579
G0 F7500 X94.533 Y100.756
G1 F1800 X95.649 Y101.872 E25.66685
G0 F7500 X95.33 Y102.118
G1 F1800 X94.214 Y101.003 E25.73788
G0 F7500 X93.895 Y101.249
G1 F1800 X95.011 Y102.365 E25.80895
G0 F7500 X94.743 Y102.663
G1 F1800 X93.575 Y101.495 E25.88332
G0 F7500 X93.256 Y101.742
G1 F1800 X94.677 Y103.162 E25.97377
G0 F7500 X94.61 Y103.661
G1 F1800 X92.937 Y101.988 E26.0803
G0 F7500 X92.617 Y102.234
G1 F1800 X94.544 Y104.161 E26.20301
G0 F7500 X94.477 Y104.66
G1 F1800 X92.297 Y102.48 E26.34182
G0 F7500 X91.979 Y102.727
G1 F1800 X94.411 Y105.159 E26.49668
G0 F7500 X94.345 Y105.658
G1 F1800 X91.659 Y102.973 E26.66768
G0 F7500 X91.339 Y103.219
G1 F1800 X94.278 Y106.157 E26.8548
G0 F7500 X94.212 Y106.657
G1 F1800 X91.02 Y103.465 E27.05805
G0 F7500 X90.701 Y103.712
G1 F1800 X94.145 Y107.156 E27.27735
G0 F7500 X94.079 Y107.655
G1 F1800 X90.381 Y103.958 E27.5128
G0 F7500 X90.062 Y104.204
G1 F1800 X94.012 Y108.154 E27.76432
G0 F7500 X93.712 Y108.42
G1 F1800 X89.742 Y104.45 E28.01711
G0 F7500 X89.423 Y104.697
G1 F1800 X93.405 Y108.679 E28.27067
G0 F7500 X93.099 Y108.938
G1 F1800 X89.103 Y104.943 E28.52509
G0 F7500 X88.784 Y105.189
G1 F1800 X92.792 Y109.197 E28.7803
G0 F7500 X92.484 Y109.455
G1 F1800 X88.465 Y105.435 E29.03625
G0 F7500 X88.145 Y105.682
G1 F1800 X92.177 Y109.713 E29.29296
G0 F7500 X91.87 Y109.972
G1 F1800 X87.826 Y105.928 E29.55047
G0 F7500 X87.506 Y106.174
G1 F1800 X91.563 Y110.231 E29.8088
G0 F7500 X91.256 Y110.489
G1 F1800 X87.187 Y106.42 E30.0679
G0 F7500 X86.868 Y106.667
G1 F1800 X90.949 Y110.748 E30.32776
G0 F7500 X90.642 Y111.007
G1 F1800 X86.548 Y106.913 E30.58845
G0 F7500 X86.228 Y107.159
G1 F1800 X90.549 Y111.48 E30.8636
G0 F7500 X90.549 Y112.046
G1 F1800 X85.909 Y107.405 E31.15909
G0 F7500 X85.59 Y107.652
G1 F1800 X90.549 Y112.611 E31.47486
G0 F7500 X90.549 Y113.177
G1 F1800 X85.27 Y107.898 E31.81101
G0 F7500 X84.951 Y108.144
G1 F1800 X92.109 Y115.302 E32.2668
G0 F7500 X92.109 Y115.867
G1 F1800 X84.632 Y108.39 E32.74291
G0 F7500 X84.312 Y108.637
G1 F1800 X92.109 Y116.433 E33.23936
G0 F7500 X92.109 Y116.999
G1 F1800 X83.992 Y108.883 E33.75619
G0 F7500 X83.673 Y109.129
G1 F1800 X92.108 Y117.564 E34.2933
G0 F7500 X92.108 Y118.129
G1 F1800 X83.37 Y109.391 E34.8497
G0 F7500 X83.263 Y109.851
G1 F1800 X92.108 Y118.695 E35.41289
G0 F7500 X92.108 Y119.261
G1 F1800 X83.263 Y110.416 E35.9761
G0 F7500 X83.263 Y110.982
G1 F1800 X91.806 Y119.525 E36.52009
G0 F7500 X91.24 Y119.525
G1 F1800 X83.263 Y111.548 E37.02803
G0 F7500 X83.263 Y112.113
G1 F1800 X90.831 Y119.681 E37.50994
G0 F7500 X90.548 Y119.964
G1 F1800 X83.239 Y112.654 E37.97538
G0 F7500 X83.037 Y113.018
G1 F1800 X90.265 Y120.247 E38.43566
G0 F7500 X89.982 Y120.529
G1 F1800 X82.844 Y113.391 E38.89018
G0 F7500 X82.657 Y113.77
G1 F1800 X89.949 Y121.062 E39.35451
G0 F7500 X89.949 Y121.628
G1 F1800 X82.283 Y113.962 E39.84265
G0 F7500 X81.863 Y114.107
G1 F1800 X89.949 Y122.193 E40.35754
G0 F7500 X89.949 Y122.759
G1 F1800 X81.444 Y114.254 E40.8991
G0 F7500 X81.024 Y114.399
G1 F1800 X89.949 Y123.325 E41.46745
G0 F7500 X89.949 Y123.89
G1 F1800 X80.604 Y114.545 E42.0625
G0 F7500 X80.184 Y114.691
G1 F1800 X92.109 Y126.615 E42.82181
G0 F7500 X92.109 Y126.05
G1 F1800 X91.282 Y125.223 E42.87447
G0 F7500 X91.848 Y125.223
G1 F1800 X92.109 Y125.484 E42.89109
