;FLAVOR:Marlin
;TIME:812
;Filament used: 0.288638m
;Layer height: 0.2
;MINX:90.549
;MINY:98.816
;MINZ:0.2
;MAXX:145.118
;MAXY:136.205
;MAXZ:4.2
;Generated with Cura_SteamEngine 4.6.2
M140 S60
M105
M190 S60
M104 S200
M105
M109 S200
M82 ;absolute extrusion mode
; Ender 3 Custom Start G-code
G92 E0 ; Reset Extruder
G28 ; Home all axes
G1 Z2.0 F3000 ; Move Z Axis up little to prevent scratching of Heat Bed
G1 X0.1 Y20 Z0.3 F5000.0 ; Move to start position
G1 X0.1 Y200.0 Z0.3 F1500.0 E15 ; Draw the first line
G1 X0.4 Y200.0 Z0.3 F5000.0 ; Move to side a little
G1 X0.4 Y20 Z0.3 F1500.0 E30 ; Draw the second line
G92 E0 ; Reset Extruder
G1 Z2.0 F3000 ; Move Z Axis up little to prevent scratching of Heat Bed
G1 X5 Y20 Z0.3 F5000.0 ; Move over to prevent blob squish
G92 E0
G92 E0
G1 F1500 E-6
;LAYER_COUNT:21
;LAYER:0
M107
M204 S500
M205 X8 Y8
G0 F7500 X111.507 Y99.774 Z0.2
;TYPE:SKIRT
G1 F1500 E0
G1 X112.41 Y99.925 E0.02893
G1 X114.525 Y100.379 E0.09728
G1 X116.141 Y100.762 E0.14975
G1 X117.333 Y101.022 E0.1883
G1 X118.206 Y101.253 E0.21684
G1 X118.812 Y101.464 E0.23711
G1 X119.156 Y101.596 E0.24875
G1 X119.984 Y101.957 E0.2773
G1 X120.587 Y102.277 E0.29887
G1 X120.933 Y102.476 E0.31148
G1 X121.696 Y102.961 E0.34004
G1 X122.199 Y103.336 E0.35987
G1 X122.615 Y103.667 E0.37667
G1 X122.888 Y103.893 E0.38786
G1 X123.558 Y104.465 E0.4157
G1 X125.561 Y106.129 E0.49798
G1 X127.559 Y107.692 E0.57813
G1 X129.608 Y109.206 E0.65863
G1 X131.706 Y110.665 E0.73938
G1 X133.802 Y112.038 E0.81855
G1 X137.079 Y114.021 E0.93957
G1 X138.186 Y114.661 E0.97998
G1 X138.729 Y114.998 E1.00017
G1 X139.006 Y115.182 E1.01068
G1 X139.735 Y115.714 E1.03919
G1 X140.356 Y116.253 E1.06517
G1 X140.58 Y116.464 E1.0749
G1 X141.209 Y117.112 E1.10343
G1 X141.647 Y117.639 E1.12508
G1 X141.861 Y117.915 E1.13612
G1 X142.382 Y118.652 E1.16464
G1 X142.815 Y119.394 E1.19178
G1 X142.96 Y119.668 E1.20158
G1 X143.347 Y120.484 E1.23011
G1 X143.543 Y120.987 E1.24717
G1 X143.634 Y121.24 E1.25567
G1 X143.99 Y122.465 E1.29597
G1 X144.041 Y122.693 E1.30336
G1 X144.211 Y123.678 E1.33494
G1 X144.238 Y123.898 E1.34194
G1 X144.286 Y124.377 E1.35715
G1 X144.318 Y125.279 E1.38567
G1 X144.27 Y126.181 E1.41421
G1 X144.142 Y127.075 E1.44275
G1 X143.936 Y127.954 E1.47128
G1 X143.653 Y128.812 E1.49982
G1 X143.296 Y129.641 E1.52834
G1 X142.866 Y130.436 E1.5569
G1 X142.368 Y131.189 E1.58543
G1 X141.805 Y131.895 E1.61396
G1 X141.181 Y132.549 E1.64252
G1 X140.503 Y133.144 E1.67102
G1 X139.774 Y133.678 E1.69958
G1 X139.001 Y134.145 E1.72811
G1 X138.19 Y134.542 E1.75664
G1 X137.347 Y134.865 E1.78517
G1 X136.478 Y135.113 E1.81372
G1 X135.591 Y135.283 E1.84226
G1 X134.298 Y135.388 E1.88325
G1 X133.267 Y135.405 E1.91583
G1 X110.405 Y135.398 E2.6382
G1 X108.559 Y135.361 E2.69654
G1 X107.911 Y135.327 E2.71705
G1 X106.647 Y135.221 E2.75712
G1 X105.672 Y135.092 E2.7882
G1 X104.733 Y134.921 E2.81836
G1 X104.305 Y134.834 E2.83216
G1 X104.08 Y134.783 E2.83945
G1 X103.267 Y134.563 E2.86606
G1 X102.37 Y134.269 E2.89589
G1 X101.491 Y133.917 E2.9258
G1 X100.876 Y133.637 E2.94716
G1 X99.832 Y133.087 E2.98444
G1 X99.358 Y132.801 E3.00193
G1 X98.798 Y132.438 E3.02302
G1 X98.541 Y132.259 E3.03292
G1 X97.783 Y131.676 E3.06313
G1 X97.374 Y131.33 E3.08006
G1 X96.735 Y130.741 E3.10752
G1 X96.281 Y130.279 E3.12798
G1 X96.007 Y129.987 E3.14064
G1 X95.64 Y129.574 E3.15809
G1 X95.502 Y129.41 E3.16487
G1 X95.212 Y129.049 E3.1795
G1 X94.946 Y128.702 E3.19331
G1 X94.603 Y128.226 E3.21185
G1 X94.239 Y127.69 E3.23232
G1 X93.934 Y127.214 E3.25019
G1 X93.812 Y127.011 E3.25767
G1 X93.567 Y126.579 E3.27336
G1 X93.266 Y126.018 E3.29348
G1 X92.995 Y125.476 E3.31263
G1 X92.891 Y125.251 E3.32046
G1 X92.712 Y124.84 E3.33462
G1 X92.498 Y124.318 E3.35245
G1 X92.283 Y123.744 E3.37181
G1 X92.212 Y123.536 E3.37876
G1 X92.069 Y123.083 E3.39377
G1 X91.917 Y122.559 E3.41101
G1 X91.717 Y121.746 E3.43746
G1 X91.635 Y121.342 E3.45049
G1 X91.524 Y120.712 E3.4707
G1 X91.418 Y119.839 E3.49849
G1 X91.372 Y119.248 E3.51722
G1 X91.349 Y118.063 E3.55467
G1 X91.379 Y117.284 E3.5793
G1 X91.457 Y116.353 E3.60882
G1 X91.501 Y116.017 E3.61953
G1 X91.648 Y115.172 E3.64663
G1 X91.754 Y114.685 E3.66238
G1 X91.942 Y113.955 E3.6862
G1 X92.001 Y113.756 E3.69275
G1 X92.194 Y113.169 E3.71228
G1 X92.378 Y112.663 E3.72929
G1 X92.723 Y111.832 E3.75772
G1 X92.908 Y111.436 E3.77153
G1 X93.235 Y110.796 E3.79424
G1 X93.349 Y110.591 E3.80165
G1 X93.585 Y110.188 E3.81641
G1 X93.795 Y109.848 E3.82903
G1 X94.331 Y109.064 E3.85904
G1 X94.817 Y108.42 E3.88454
G1 X95.566 Y107.536 E3.92115
G1 X96.086 Y106.989 E3.94499
G1 X96.513 Y106.563 E3.96405
G1 X97.197 Y105.955 E3.99297
G1 X97.547 Y105.671 E4.00721
G1 X97.992 Y105.327 E4.02498
G1 X98.466 Y104.987 E4.04341
G1 X99.592 Y104.229 E4.0863
G1 X100.738 Y103.489 E4.1294
G1 X103.559 Y101.533 E4.23787
G1 X104.324 Y101.052 E4.26642
G1 X105.106 Y100.65 E4.29421
G1 X105.321 Y100.551 E4.30169
G1 X106.157 Y100.21 E4.33021
G1 X107.02 Y99.944 E4.35875
G1 X107.903 Y99.756 E4.38727
G1 X108.8 Y99.646 E4.41583
G1 X109.702 Y99.617 E4.44434
G1 X110.713 Y99.684 E4.47636
G0 F1350 X110.813 Y99.69
G0 X111.507 Y99.774
G0 F7500 X111.555 Y99.377
G1 F1500 X112.493 Y99.533 E4.5064
G1 X114.618 Y99.99 E4.57508
G1 X116.22 Y100.37 E4.62711
G1 X117.418 Y100.631 E4.66585
G1 X118.308 Y100.866 E4.69493
G1 X118.955 Y101.091 E4.71658
G1 X119.299 Y101.223 E4.72822
G1 X120.144 Y101.589 E4.75732
G1 X120.787 Y101.93 E4.78031
G1 X121.133 Y102.129 E4.79292
G1 X121.91 Y102.623 E4.82202
G1 X122.448 Y103.023 E4.8432
G1 X122.864 Y103.354 E4.86
G1 X123.148 Y103.588 E4.87162
G1 X123.832 Y104.172 E4.90004
G1 X125.835 Y105.835 E4.9823
G1 X127.797 Y107.371 E5.06103
G1 X129.851 Y108.888 E5.14172
G1 X131.931 Y110.336 E5.2218
G1 X133.986 Y111.681 E5.2994
G1 X137.302 Y113.688 E5.42187
G1 X138.387 Y114.315 E5.46147
G1 X138.95 Y114.664 E5.4824
G1 X139.227 Y114.848 E5.4929
G1 X139.971 Y115.391 E5.52201
G1 X140.63 Y115.962 E5.54956
G1 X140.854 Y116.173 E5.55928
G1 X141.496 Y116.833 E5.58838
G1 X141.963 Y117.394 E5.61144
G1 X142.177 Y117.67 E5.62247
G1 X142.709 Y118.421 E5.65155
G1 X143.169 Y119.207 E5.68033
G1 X143.314 Y119.481 E5.69013
G1 X143.709 Y120.313 E5.71923
G1 X143.919 Y120.851 E5.73747
G1 X144.01 Y121.104 E5.74597
G1 X144.38 Y122.378 E5.78789
G1 X144.431 Y122.606 E5.79527
G1 X144.608 Y123.629 E5.82807
G1 X144.635 Y123.849 E5.83508
G1 X144.684 Y124.345 E5.85083
G1 X144.718 Y125.265 E5.87992
G1 X144.671 Y126.184 E5.90899
G1 X144.545 Y127.096 E5.93808
G1 X144.34 Y127.994 E5.96719
G1 X144.059 Y128.87 E5.99625
G1 X143.702 Y129.719 E6.02536
G1 X143.273 Y130.533 E6.05443
G1 X142.774 Y131.308 E6.08355
G1 X142.211 Y132.036 E6.11263
G1 X141.586 Y132.712 E6.14172
G1 X140.906 Y133.332 E6.1708
G1 X140.173 Y133.89 E6.19991
G1 X139.396 Y134.383 E6.22898
G1 X138.578 Y134.806 E6.25808
G1 X137.727 Y135.157 E6.28717
G1 X136.848 Y135.432 E6.31627
G1 X135.949 Y135.631 E6.34536
G1 X135.037 Y135.75 E6.37442
G1 X134.305 Y135.788 E6.39758
G1 X133.267 Y135.805 E6.43038
G1 X110.397 Y135.798 E7.15301
G1 X108.551 Y135.761 E7.21135
G1 X107.877 Y135.726 E7.23268
G1 X106.613 Y135.62 E7.27276
G1 X105.6 Y135.485 E7.30505
G1 X104.661 Y135.314 E7.3352
G1 X104.217 Y135.224 E7.34952
G1 X103.992 Y135.173 E7.35681
G1 X103.146 Y134.944 E7.3845
G1 X102.239 Y134.647 E7.41466
G1 X101.325 Y134.281 E7.44577
G1 X100.71 Y134.001 E7.46712
G1 X99.626 Y133.43 E7.50583
G1 X99.152 Y133.144 E7.52332
G1 X98.57 Y132.766 E7.54525
G1 X98.313 Y132.587 E7.55515
G1 X97.525 Y131.982 E7.58654
G1 X97.116 Y131.636 E7.60346
G1 X96.451 Y131.023 E7.63204
G1 X96.208 Y130.779 E7.64292
G1 X95.989 Y130.552 E7.65289
G1 X95.715 Y130.26 E7.66554
G1 X95.334 Y129.832 E7.68365
G1 X95.196 Y129.668 E7.69042
G1 X94.894 Y129.292 E7.70566
G1 X94.628 Y128.945 E7.71947
G1 X94.272 Y128.451 E7.73871
G1 X93.908 Y127.915 E7.75918
G1 X93.592 Y127.42 E7.77774
G1 X93.47 Y127.217 E7.78522
G1 X93.215 Y126.769 E7.80151
G1 X92.914 Y126.208 E7.82163
G1 X92.632 Y125.643 E7.84158
G1 X92.528 Y125.418 E7.84941
G1 X92.342 Y124.992 E7.8641
G1 X92.128 Y124.47 E7.88193
G1 X91.904 Y123.873 E7.90207
G1 X91.833 Y123.665 E7.90902
G1 X91.685 Y123.194 E7.92462
G1 X91.533 Y122.67 E7.94186
G1 X91.325 Y121.825 E7.96935
G1 X91.243 Y121.421 E7.98238
G1 X91.173 Y121.043 E7.99453
G1 X91.129 Y120.777 E8.00305
G1 X91.019 Y119.87 E8.03191
G1 X90.973 Y119.279 E8.05064
G1 X90.949 Y118.048 E8.08955
G1 X90.979 Y117.269 E8.11418
G1 X91.061 Y116.301 E8.14488
G1 X91.105 Y115.965 E8.15558
G1 X91.258 Y115.087 E8.18374
G1 X91.364 Y114.6 E8.19949
G1 X91.558 Y113.841 E8.22424
G1 X91.617 Y113.642 E8.2308
G1 X91.818 Y113.033 E8.25107
G1 X92.002 Y112.527 E8.26808
G1 X92.36 Y111.662 E8.29766
G1 X92.545 Y111.266 E8.31147
G1 X92.885 Y110.601 E8.33507
G1 X92.999 Y110.396 E8.34248
G1 X93.245 Y109.978 E8.35781
G1 X93.455 Y109.638 E8.37043
G1 X94.012 Y108.823 E8.40162
G1 X94.498 Y108.179 E8.42712
G1 X95.276 Y107.261 E8.46514
G1 X95.796 Y106.714 E8.48898
G1 X96.234 Y106.277 E8.50853
G1 X96.945 Y105.645 E8.53859
G1 X97.553 Y105.158 E8.56321
G1 X97.75 Y105.008 E8.57103
G1 X98.242 Y104.655 E8.59016
G1 X99.376 Y103.893 E8.63333
G1 X100.515 Y103.158 E8.67616
G1 X103.331 Y101.205 E8.78445
G1 X104.11 Y100.713 E8.81356
G1 X104.939 Y100.287 E8.84301
G1 X105.154 Y100.188 E8.85049
G1 X106.006 Y99.839 E8.87958
G1 X106.885 Y99.566 E8.90866
G1 X107.784 Y99.37 E8.93774
G1 X108.698 Y99.253 E8.96685
G1 X109.618 Y99.216 E8.99594
G1 X110.761 Y99.287 E9.03213
G0 F1350 X110.861 Y99.293
G0 X111.555 Y99.377
G0 F7500 X111.603 Y98.98
G1 F1500 X112.577 Y99.142 E9.06333
G1 X114.71 Y99.6 E9.13226
G1 X116.341 Y99.986 E9.18522
G1 X117.503 Y100.24 E9.2228
G1 X118.41 Y100.479 E9.25244
G1 X119.099 Y100.717 E9.27547
G1 X119.443 Y100.849 E9.28711
G1 X120.303 Y101.222 E9.31673
G1 X120.986 Y101.584 E9.34116
G1 X121.332 Y101.783 E9.35377
G1 X122.125 Y102.284 E9.38341
G1 X122.697 Y102.71 E9.40594
G1 X123.113 Y103.041 E9.42274
G1 X123.408 Y103.284 E9.43482
G1 X124.098 Y103.874 E9.4635
G1 X126.074 Y105.514 E9.54464
G1 X128.058 Y107.067 E9.62425
G1 X130.072 Y108.554 E9.70335
G1 X132.149 Y110 E9.78332
G1 X134.21 Y111.349 E9.86115
G1 X137.511 Y113.347 E9.98307
G1 X138.587 Y113.969 E10.02234
G1 X139.171 Y114.331 E10.04405
G1 X139.448 Y114.515 E10.05456
G1 X140.207 Y115.067 E10.08421
G1 X140.904 Y115.671 E10.11335
G1 X141.128 Y115.882 E10.12308
G1 X141.783 Y116.554 E10.15273
G1 X142.279 Y117.149 E10.1772
G1 X142.493 Y117.425 E10.18824
G1 X143.036 Y118.19 E10.21788
G1 X143.523 Y119.02 E10.24829
G1 X143.668 Y119.294 E10.25808
G1 X144.07 Y120.141 E10.28771
G1 X144.296 Y120.716 E10.30723
G1 X144.387 Y120.969 E10.31572
G1 X144.771 Y122.291 E10.35922
G1 X144.822 Y122.519 E10.3666
G1 X145.005 Y123.58 E10.40062
G1 X145.032 Y123.8 E10.40763
G1 X145.083 Y124.313 E10.42392
G1 X145.118 Y125.25 E10.45354
G1 X145.073 Y126.187 E10.48318
G1 X144.948 Y127.116 E10.5128
G1 X144.745 Y128.032 E10.54245
G1 X144.464 Y128.927 E10.57209
G1 X144.108 Y129.794 E10.6017
G1 X143.679 Y130.629 E10.63136
G1 X143.181 Y131.423 E10.66098
G1 X142.617 Y132.173 E10.69063
G1 X141.992 Y132.871 E10.72023
G1 X141.309 Y133.514 E10.74987
G1 X140.574 Y134.097 E10.77952
G1 X139.791 Y134.614 E10.80916
G1 X138.968 Y135.063 E10.83879
G1 X138.109 Y135.44 E10.86843
G1 X137.222 Y135.743 E10.89804
G1 X136.311 Y135.969 E10.9277
G1 X135.385 Y136.117 E10.95733
G1 X134.312 Y136.188 E10.99131
G1 X133.267 Y136.205 E11.02433
G1 X110.389 Y136.198 E11.74721
G1 X108.543 Y136.161 E11.80555
G1 X107.844 Y136.125 E11.82767
G1 X106.58 Y136.019 E11.86775
G1 X105.528 Y135.879 E11.90128
G1 X104.589 Y135.708 E11.93144
G1 X104.128 Y135.614 E11.9463
G1 X103.903 Y135.563 E11.95359
G1 X103.026 Y135.326 E11.9823
G1 X102.598 Y135.191 E11.99648
G1 X102.108 Y135.025 E12.01282
G1 X101.159 Y134.645 E12.04512
G1 X100.544 Y134.365 E12.06648
G1 X99.419 Y133.772 E12.10666
G1 X98.945 Y133.486 E12.12415
G1 X98.341 Y133.094 E12.1469
G1 X98.084 Y132.915 E12.1568
G1 X97.267 Y132.287 E12.18936
G1 X96.858 Y131.941 E12.20629
G1 X96.168 Y131.305 E12.23594
G1 X95.698 Y130.826 E12.25714
G1 X95.424 Y130.534 E12.26979
G1 X95.028 Y130.089 E12.28861
G1 X94.89 Y129.925 E12.29539
G1 X94.577 Y129.535 E12.31119
G1 X94.311 Y129.188 E12.325
G1 X93.941 Y128.676 E12.34496
G1 X93.577 Y128.14 E12.36543
G1 X93.249 Y127.626 E12.3847
G1 X93.127 Y127.423 E12.39218
G1 X92.862 Y126.958 E12.4091
G1 X92.561 Y126.397 E12.42921
G1 X92.269 Y125.811 E12.4499
G1 X92.165 Y125.586 E12.45773
G1 X91.972 Y125.144 E12.47297
G1 X91.758 Y124.622 E12.4908
G1 X91.526 Y124.002 E12.51171
G1 X91.455 Y123.794 E12.51866
G1 X91.3 Y123.306 E12.53484
G1 X91.148 Y122.782 E12.55208
G1 X90.933 Y121.905 E12.58061
G1 X90.851 Y121.501 E12.59363
G1 X90.778 Y121.108 E12.60626
G1 X90.734 Y120.842 E12.61478
G1 X90.62 Y119.901 E12.64473
G1 X90.574 Y119.31 E12.66346
G1 X90.549 Y118.033 E12.70382
G1 X90.579 Y117.254 E12.72845
G1 X90.664 Y116.249 E12.76032
G1 X90.708 Y115.913 E12.77103
G1 X90.867 Y115.002 E12.80025
G1 X90.973 Y114.515 E12.816
G1 X91.175 Y113.727 E12.8417
G1 X91.234 Y113.528 E12.84826
G1 X91.442 Y112.896 E12.86928
G1 X91.626 Y112.39 E12.88629
G1 X91.998 Y111.493 E12.91698
G1 X92.183 Y111.097 E12.93079
G1 X92.535 Y110.407 E12.95526
G1 X92.649 Y110.202 E12.96267
G1 X92.904 Y109.768 E12.97858
G1 X93.114 Y109.428 E12.99121
G1 X93.693 Y108.582 E13.0236
G1 X94.179 Y107.938 E13.04909
G1 X94.987 Y106.985 E13.08857
G1 X95.507 Y106.438 E13.11242
G1 X95.955 Y105.99 E13.13244
G1 X96.693 Y105.334 E13.16363
G1 X97.043 Y105.05 E13.17788
G1 X97.507 Y104.69 E13.19643
G1 X98.019 Y104.323 E13.21634
G1 X99.159 Y103.557 E13.25973
G1 X100.3 Y102.821 E13.30264
G1 X103.104 Y100.876 E13.41046
G1 X103.896 Y100.375 E13.44007
G1 X104.771 Y99.923 E13.47119
G1 X104.986 Y99.824 E13.47867
G1 X105.854 Y99.469 E13.5083
G1 X106.749 Y99.188 E13.53794
G1 X107.665 Y98.985 E13.56759
G1 X108.594 Y98.861 E13.5972
G1 X109.531 Y98.816 E13.62684
G1 X110.809 Y98.891 E13.66729
G0 F1350 X110.909 Y98.896
G0 X111.603 Y98.98
G1 F1500 E7.66729
;MESH:UniversalDualFilamentDragonClip.stl
G0 F7500 X110.154 Y109.204
G0 X110.018 Y110.179
G0 X110.45 Y110.523
;TYPE:WALL-INNER
G1 F1500 E13.66729
G1 X110.485 Y110.528 E13.66841
G1 X110.818 Y110.608 E13.67923
G1 X111.282 Y110.72 E13.69431
G1 X111.453 Y110.761 E13.69987
G1 X111.723 Y110.85 E13.70885
G1 X111.892 Y110.907 E13.71449
G1 X112.382 Y111.071 E13.73082
G1 X112.447 Y111.091 E13.73296
G1 X112.784 Y111.199 E13.74415
G1 X112.929 Y111.246 E13.74896
G1 X113.016 Y111.274 E13.75185
G1 X113.206 Y111.31 E13.75796
G1 X113.414 Y111.35 E13.76465
G1 X113.179 Y111.452 E13.76696
G1 X113.146 Y111.473
G1 X112.908 Y111.628 E13.7747
G1 X112.875 Y111.615 E13.77571
G1 X112.819 Y111.591 E13.77743
G1 X112.681 Y111.524 E13.7818
G1 X112.354 Y111.384 E13.79102
G1 X112.279 Y111.357 E13.79298
G1 X111.8 Y111.184 E13.80493
G1 X111.631 Y111.129 E13.80903
G1 X111.368 Y111.052 E13.81546
G1 X111.214 Y111.006 E13.81919
G1 X110.75 Y110.892 E13.83026
G1 X110.467 Y110.544 E13.83727
G1 X110.45 Y110.523
G1 F1500 E7.83727
G0 F7500 X110.589 Y111.14
G0 X110.353 Y112.512
G0 X109.496 Y112.65
G1 F1500 E13.83727
G1 X110.306 Y112.789 E13.86324
G1 X111.19 Y113.036 E13.89224
G1 X111.92 Y113.324 E13.91704
G1 X111.9 Y113.654 E13.92748
G1 X111.948 Y114.076 E13.9409
G1 X112.046 Y114.415 E13.95205
G1 X112.064 Y114.476 E13.95406
G1 X112.247 Y114.842 E13.96699
G1 X112.346 Y114.984 E13.97246
G1 X112.379 Y115.029 E13.97422
G1 X112.488 Y115.176 E13.98001
G1 X112.608 Y115.3 E13.98546
G1 X112.641 Y115.331 E13.98689
G1 X112.783 Y115.465 E13.99306
G1 X112.921 Y115.567 E13.99848
G1 X112.951 Y115.587 E13.99962
G1 X113.125 Y115.703 E14.00623
G1 X113.278 Y115.778 E14.01161
G1 X113.301 Y115.788 E14.0124
G1 X113.497 Y115.874 E14.01917
G1 X113.66 Y115.924 E14.02455
G1 X113.704 Y115.935 E14.02599
G1 X113.892 Y115.983 E14.03212
G1 X114.065 Y116.005 E14.03763
G1 X114.275 Y116.019 E14.04428
G1 X114.302 Y116.021 E14.04513
G1 X114.476 Y116.016 E14.05063
G1 X114.711 Y115.991 E14.0581
G1 X114.88 Y115.96 E14.06353
G1 X115.048 Y115.912 E14.06905
G1 X115.124 Y115.89 E14.07155
G1 X115.107 Y115.997 E14.07263
G1 X115.097 Y116.054
G1 X115.094 Y116.072
G1 X115.094 Y116.413 E14.0834
G1 X115.134 Y116.645 E14.09084
G1 X115.153 Y116.753 E14.09431
