;FLAVOR:Marlin
;TIME:4693
;Filament used: 0.862041m
;Layer height: 0.12
;MINX:86.503
;MINY:105.342
;MINZ:0.2
;MAXX:148.471
;MAXY:129.664
;MAXZ:39.92
;Generated with Cura_SteamEngine 4.6.2
M140 S60
M105
M190 S60
M104 S200
M105
M109 S200
M82 ;absolute extrusion mode
; Ender 3 Custom Start G-code
G92 E0 ; Reset Extruder
G28 ; Home all axes
G1 Z2.0 F3000 ; Move Z Axis up little to prevent scratching of Heat Bed
G1 X0.1 Y20 Z0.3 F5000.0 ; Move to start position
G1 X0.1 Y200.0 Z0.3 F1500.0 E15 ; Draw the first line
G1 X0.4 Y200.0 Z0.3 F5000.0 ; Move to side a little
G1 X0.4 Y20 Z0.3 F1500.0 E30 ; Draw the second line
G92 E0 ; Reset Extruder
G1 Z2.0 F3000 ; Move Z Axis up little to prevent scratching of Heat Bed
G1 X5 Y20 Z0.3 F5000.0 ; Move over to prevent blob squish
G92 E0
G92 E0
G1 F1500 E-6
;LAYER_COUNT:332
;LAYER:0
M107
M204 S500
M205 X8 Y8
G0 F7500 X97.484 Y128.682 Z0.2
;TYPE:SKIRT
G1 F1500 E0
G1 X96.582 Y128.629 E0.02855
G1 X95.689 Y128.497 E0.05707
G1 X94.811 Y128.286 E0.0856
G1 X93.955 Y127.998 E0.11414
G1 X93.128 Y127.636 E0.14267
G1 X92.336 Y127.201 E0.17122
G1 X91.585 Y126.699 E0.19976
G1 X90.882 Y126.132 E0.2283
G1 X90.427 Y125.707 E0.24797
G1 X89.806 Y125.051 E0.27651
G1 X89.245 Y124.343 E0.30505
G1 X88.749 Y123.589 E0.33357
G1 X88.322 Y122.793 E0.36211
G1 X87.967 Y121.963 E0.39064
G1 X87.686 Y121.104 E0.41919
G1 X87.483 Y120.224 E0.44773
G1 X87.358 Y119.33 E0.47625
G1 X87.314 Y118.54 E0.50125
G1 X87.303 Y117.771 E0.52555
G1 X87.304 Y117.248 E0.54208
G1 X87.314 Y116.574 E0.56338
G1 X87.367 Y115.672 E0.59193
G1 X87.5 Y114.779 E0.62045
G1 X87.712 Y113.901 E0.64899
G1 X88 Y113.045 E0.67753
G1 X88.363 Y112.218 E0.70607
G1 X88.797 Y111.426 E0.7346
G1 X89.3 Y110.676 E0.76314
G1 X89.867 Y109.973 E0.79168
G1 X90.283 Y109.53 E0.81088
G1 X90.488 Y109.324 E0.82006
G1 X91.153 Y108.713 E0.84859
G1 X91.869 Y108.163 E0.87712
G1 X92.631 Y107.678 E0.90566
G1 X93.433 Y107.263 E0.9342
G1 X94.269 Y106.92 E0.96275
G1 X95.131 Y106.652 E0.99127
G1 X96.014 Y106.462 E1.01981
G1 X96.91 Y106.351 E1.04834
G1 X97.488 Y106.322 E1.06662
G1 X98.251 Y106.307 E1.09074
G1 X98.648 Y106.307 E1.10328
G1 X101.278 Y106.27 E1.18639
G1 X103.339 Y106.188 E1.25156
G1 X104.125 Y106.149 E1.27643
G1 X104.973 Y106.142 E1.30322
G1 X105.525 Y106.161 E1.32067
G1 X107.366 Y106.251 E1.37891
G1 X109.893 Y106.303 E1.45878
G1 X110.925 Y106.295 E1.49139
G1 X111.983 Y106.299 E1.52482
G1 X113.005 Y106.32 E1.55712
G1 X115.611 Y106.337 E1.63946
G1 X116.181 Y106.324 E1.65747
G1 X117.783 Y106.31 E1.7081
G1 X120.352 Y106.308 E1.78927
G1 X121.699 Y106.278 E1.83184
G1 X122.809 Y106.246 E1.86693
G1 X123.378 Y106.246 E1.88491
G1 X124.124 Y106.266 E1.90849
G1 X127.034 Y106.3 E2.00044
G1 X128.085 Y106.298 E2.03365
G1 X130.135 Y106.306 E2.09842
G1 X132.349 Y106.3 E2.16838
G1 X134.48 Y106.285 E2.23571
G1 X136.014 Y106.298 E2.28419
G1 X136.413 Y106.308 E2.2968
G1 X137.498 Y106.323 E2.33108
G1 X138.399 Y106.376 E2.3596
G1 X139.293 Y106.508 E2.38816
G1 X140.171 Y106.719 E2.41669
G1 X141.027 Y107.007 E2.44523
G1 X141.854 Y107.369 E2.47375
G1 X142.646 Y107.803 E2.50229
G1 X143.397 Y108.305 E2.53083
G1 X144.1 Y108.872 E2.55937
G1 X145.041 Y109.818 E2.60153
G1 X145.15 Y109.943 E2.60677
G1 X145.713 Y110.65 E2.63532
G1 X146.211 Y111.403 E2.66385
G1 X146.64 Y112.197 E2.69236
G1 X146.998 Y113.027 E2.72093
G1 X147.281 Y113.884 E2.74944
G1 X147.487 Y114.764 E2.778
G1 X147.614 Y115.658 E2.80653
G1 X147.66 Y116.466 E2.8321
G1 X147.671 Y117.153 E2.85381
G1 X147.67 Y117.624 E2.8687
G1 X147.661 Y118.324 E2.89082
G1 X147.61 Y119.226 E2.91936
G1 X147.478 Y120.119 E2.94788
G1 X147.269 Y120.998 E2.97643
G1 X146.982 Y121.854 E3.00496
G1 X146.621 Y122.682 E3.0335
G1 X146.188 Y123.474 E3.06202
G1 X145.687 Y124.226 E3.09057
G1 X145.081 Y124.975 E3.12101
G1 X144.83 Y125.257 E3.13294
G1 X144.2 Y125.904 E3.16148
G1 X143.516 Y126.493 E3.19
G1 X142.782 Y127.019 E3.21853
G1 X142.004 Y127.479 E3.24709
G1 X141.189 Y127.867 E3.27561
G1 X140.343 Y128.182 E3.30413
G1 X139.472 Y128.421 E3.33267
G1 X138.583 Y128.582 E3.36122
G1 X137.528 Y128.67 E3.39467
G1 X136.637 Y128.693 E3.42283
G1 X131.526 Y128.695 E3.58433
G1 X128.923 Y128.733 E3.66658
G1 X127.259 Y128.812 E3.71922
G1 X125.849 Y128.864 E3.7638
G1 X125.026 Y128.861 E3.78981
G1 X123.998 Y128.815 E3.82232
G1 X122.994 Y128.757 E3.8541
G1 X120.449 Y128.684 E3.93454
G1 X117.873 Y128.69 E4.01594
G1 X116.396 Y128.669 E4.06261
G1 X113.772 Y128.669 E4.14552
G1 X112.143 Y128.7 E4.197
G1 X111.201 Y128.693 E4.22677
G1 X98.284 Y128.692 E4.63491
G0 F1350 X98.182 Y128.692
G0 X97.484 Y128.682
G0 F7500 X97.478 Y129.082
G1 F1500 X96.559 Y129.029 E4.664
G1 X95.648 Y128.896 E4.69309
G1 X94.752 Y128.685 E4.72217
G1 X93.878 Y128.397 E4.75125
G1 X93.031 Y128.034 E4.78036
G1 X92.22 Y127.599 E4.80944
G1 X91.45 Y127.095 E4.83852
G1 X90.726 Y126.526 E4.86762
G1 X90.149 Y125.995 E4.89239
G1 X89.515 Y125.327 E4.92149
G1 X88.942 Y124.607 E4.95057
G1 X88.433 Y123.839 E4.97968
G1 X87.993 Y123.031 E5.00875
G1 X87.624 Y122.187 E5.03786
G1 X87.33 Y121.315 E5.06693
G1 X87.113 Y120.42 E5.09603
G1 X86.974 Y119.51 E5.12512
G1 X86.914 Y118.547 E5.15561
G1 X86.903 Y117.771 E5.18013
G1 X86.904 Y117.242 E5.19684
G1 X86.914 Y116.568 E5.21814
G1 X86.968 Y115.649 E5.24723
G1 X87.101 Y114.738 E5.27632
G1 X87.313 Y113.842 E5.30541
G1 X87.601 Y112.967 E5.33452
G1 X87.965 Y112.122 E5.36359
G1 X88.4 Y111.31 E5.3927
G1 X88.904 Y110.54 E5.42178
G1 X89.474 Y109.816 E5.45089
G1 X89.999 Y109.248 E5.47533
G1 X90.204 Y109.042 E5.48451
G1 X90.882 Y108.418 E5.51363
G1 X91.61 Y107.856 E5.54269
G1 X92.385 Y107.358 E5.57179
G1 X93.2 Y106.93 E5.60088
G1 X94.049 Y106.574 E5.62997
G1 X94.926 Y106.293 E5.65907
G1 X95.824 Y106.09 E5.68816
G1 X96.736 Y105.965 E5.71724
G1 X97.479 Y105.922 E5.74076
G1 X98.251 Y105.907 E5.76516
G1 X98.642 Y105.907 E5.77751
G1 X101.256 Y105.87 E5.86012
G1 X103.304 Y105.789 E5.92488
G1 X104.105 Y105.749 E5.95022
G1 X104.986 Y105.742 E5.97806
G1 X105.544 Y105.762 E5.9957
G1 X107.358 Y105.851 E6.05308
G1 X109.898 Y105.903 E6.13336
G1 X110.925 Y105.895 E6.16581
G1 X111.992 Y105.899 E6.19952
G1 X113.017 Y105.921 E6.23192
G1 X115.603 Y105.937 E6.31363
G1 X116.177 Y105.924 E6.33177
G1 X117.783 Y105.91 E6.38252
G1 X120.39 Y105.908 E6.46489
G1 X121.682 Y105.88 E6.50573
G1 X122.798 Y105.847 E6.541
G1 X123.388 Y105.846 E6.55965
G1 X124.139 Y105.866 E6.58338
G1 X127.037 Y105.9 E6.67496
G1 X128.087 Y105.898 E6.70814
G1 X130.136 Y105.906 E6.77288
G1 X132.346 Y105.9 E6.84271
G1 X134.483 Y105.885 E6.91023
G1 X136.024 Y105.898 E6.95893
G1 X136.429 Y105.908 E6.97173
G1 X137.504 Y105.923 E7.0057
G1 X138.423 Y105.976 E7.03478
G1 X139.334 Y106.109 E7.06387
G1 X140.23 Y106.32 E7.09296
G1 X141.104 Y106.608 E7.12203
G1 X141.95 Y106.971 E7.15112
G1 X142.762 Y107.406 E7.18023
G1 X143.532 Y107.91 E7.20931
G1 X144.256 Y108.478 E7.23838
G1 X144.928 Y109.108 E7.26749
G1 X145.451 Y109.68 E7.29198
G1 X146.026 Y110.4 E7.32109
G1 X146.535 Y111.167 E7.35018
G1 X146.977 Y111.975 E7.37928
G1 X147.346 Y112.818 E7.40836
G1 X147.641 Y113.69 E7.43744
G1 X147.859 Y114.584 E7.46652
G1 X147.999 Y115.494 E7.49561
G1 X148.06 Y116.458 E7.52613
G1 X148.071 Y117.153 E7.54809
G1 X148.07 Y117.629 E7.56313
G1 X148.061 Y118.329 E7.58525
G1 X148.009 Y119.248 E7.61434
G1 X147.878 Y120.16 E7.64345
G1 X147.668 Y121.056 E7.67253
G1 X147.381 Y121.931 E7.70162
G1 X147.019 Y122.777 E7.7307
G1 X146.585 Y123.59 E7.75982
G1 X146.083 Y124.361 E7.78889
G1 X145.38 Y125.24 E7.82445
G1 X145.129 Y125.522 E7.83638
G1 X144.488 Y126.183 E7.86548
G1 X143.791 Y126.785 E7.89458
G1 X143.045 Y127.325 E7.92368
G1 X142.255 Y127.798 E7.95277
G1 X141.427 Y128.2 E7.98185
G1 X140.568 Y128.53 E8.01093
G1 X139.682 Y128.783 E8.04004
G1 X138.779 Y128.958 E8.06911
G1 X137.541 Y129.07 E8.10838
G1 X136.963 Y129.088 E8.12665
G1 X136.637 Y129.093 E8.13696
G1 X131.532 Y129.095 E8.29826
G1 X128.948 Y129.132 E8.37991
G1 X127.274 Y129.212 E8.43287
G1 X125.864 Y129.264 E8.47745
G1 X125.009 Y129.261 E8.50447
G1 X123.975 Y129.215 E8.53717
G1 X122.958 Y129.157 E8.56936
G1 X120.439 Y129.084 E8.64898
G1 X117.867 Y129.09 E8.73025
G1 X116.39 Y129.069 E8.77693
G1 X113.735 Y129.069 E8.86082
G1 X112.14 Y129.1 E8.91122
G1 X111.198 Y129.093 E8.94099
G1 X98.278 Y129.092 E9.34922
G0 F1350 X98.176 Y129.092
G0 X97.478 Y129.082
G0 F7500 X97.472 Y129.482
G1 F1500 X96.536 Y129.428 E9.37885
G1 X95.608 Y129.296 E9.40846
G1 X94.694 Y129.084 E9.43811
G1 X93.802 Y128.795 E9.46774
G1 X92.937 Y128.432 E9.49738
G1 X92.107 Y127.996 E9.527
G1 X91.316 Y127.491 E9.55665
G1 X90.572 Y126.92 E9.58629
G1 X89.988 Y126.395 E9.6111
G1 X89.871 Y126.282 E9.61624
G1 X89.225 Y125.603 E9.64585
G1 X88.639 Y124.87 E9.67551
G1 X88.118 Y124.091 E9.70512
G1 X87.664 Y123.27 E9.73476
G1 X87.283 Y122.413 E9.7644
G1 X86.976 Y121.527 E9.79402
G1 X86.745 Y120.618 E9.82366
G1 X86.593 Y119.692 E9.85331
G1 X86.515 Y118.554 E9.88935
G1 X86.503 Y117.771 E9.91409
G1 X86.504 Y117.236 E9.931
G1 X86.514 Y116.562 E9.9523
G1 X86.568 Y115.625 E9.98195
G1 X86.702 Y114.697 E10.01158
G1 X86.914 Y113.784 E10.04119
G1 X87.203 Y112.891 E10.07085
G1 X87.567 Y112.027 E10.10048
G1 X88.003 Y111.197 E10.1301
G1 X88.509 Y110.407 E10.15974
G1 X89.079 Y109.663 E10.18936
G1 X89.716 Y108.966 E10.21919
G1 X89.921 Y108.76 E10.22837
G1 X90.61 Y108.124 E10.258
G1 X91.351 Y107.549 E10.28764
G1 X92.138 Y107.039 E10.31727
G1 X92.966 Y106.598 E10.34691
G1 X93.829 Y106.23 E10.37656
G1 X94.719 Y105.936 E10.40617
G1 X95.632 Y105.719 E10.43582
G1 X96.559 Y105.58 E10.46544
G1 X97.47 Y105.522 E10.49428
G1 X98.251 Y105.507 E10.51897
G1 X98.636 Y105.507 E10.53113
G1 X101.275 Y105.47 E10.61452
G1 X103.265 Y105.391 E10.67745
G1 X104.085 Y105.35 E10.70339
G1 X105 Y105.342 E10.73231
G1 X105.564 Y105.362 E10.75014
G1 X107.386 Y105.451 E10.80778
G1 X109.904 Y105.503 E10.88736
G1 X110.926 Y105.495 E10.91965
G1 X112 Y105.499 E10.95358
G1 X113.027 Y105.521 E10.98604
G1 X115.596 Y105.537 E11.06722
G1 X116.173 Y105.524 E11.08545
G1 X117.783 Y105.51 E11.13633
G1 X120.381 Y105.508 E11.21842
G1 X121.66 Y105.48 E11.25884
G1 X122.786 Y105.447 E11.29443
G1 X123.399 Y105.446 E11.3138
G1 X124.154 Y105.466 E11.33767
G1 X127.042 Y105.5 E11.42892
G1 X128.088 Y105.498 E11.46197
G1 X130.136 Y105.506 E11.52669
G1 X132.343 Y105.5 E11.59642
G1 X134.486 Y105.485 E11.66414
G1 X136.033 Y105.498 E11.71302
G1 X136.444 Y105.508 E11.72601
G1 X137.509 Y105.523 E11.75966
G1 X138.446 Y105.576 E11.78932
G1 X139.374 Y105.709 E11.81894
G1 X140.288 Y105.921 E11.84858
G1 X141.18 Y106.209 E11.8782
G1 X142.045 Y106.573 E11.90785
G1 X142.875 Y107.009 E11.93748
G1 X143.665 Y107.514 E11.9671
G1 X144.41 Y108.084 E11.99674
G1 X145.103 Y108.716 E12.02638
G1 X145.644 Y109.293 E12.05137
G1 X145.753 Y109.418 E12.05661
G1 X146.338 Y110.15 E12.08622
G1 X146.86 Y110.93 E12.11588
G1 X147.312 Y111.751 E12.14549
G1 X147.694 Y112.608 E12.17514
G1 X148 Y113.494 E12.20475
G1 X148.231 Y114.403 E12.23439
G1 X148.383 Y115.329 E12.26404
G1 X148.46 Y116.451 E12.29957
G1 X148.471 Y117.153 E12.32176
G1 X148.47 Y117.634 E12.33696
G1 X148.461 Y118.334 E12.35908
G1 X148.409 Y119.271 E12.38873
G1 X148.277 Y120.199 E12.41834
G1 X148.067 Y121.113 E12.44798
G1 X147.78 Y122.006 E12.47761
G1 X147.418 Y122.871 E12.50724
G1 X146.983 Y123.702 E12.53688
G1 X146.479 Y124.493 E12.56652
G1 X145.679 Y125.506 E12.6073
G1 X145.428 Y125.788 E12.61923
G1 X144.775 Y126.462 E12.64888
G1 X144.067 Y127.077 E12.67851
G1 X143.309 Y127.63 E12.70816
G1 X142.507 Y128.116 E12.73779
G1 X141.667 Y128.532 E12.76741
G1 X140.794 Y128.875 E12.79705
G1 X139.895 Y129.143 E12.82669
G1 X138.977 Y129.332 E12.8563
G1 X138.045 Y129.443 E12.88596
G1 X137.553 Y129.47 E12.90153
G1 X136.975 Y129.488 E12.9198
G1 X136.637 Y129.493 E12.93048
G1 X131.537 Y129.495 E13.09163
G1 X128.943 Y129.533 E13.1736
G1 X127.288 Y129.612 E13.22595
G1 X125.878 Y129.664 E13.27053
G1 X124.991 Y129.66 E13.29856
G1 X123.953 Y129.614 E13.33139
G1 X122.926 Y129.555 E13.36389
G1 X120.46 Y129.484 E13.44185
G1 X117.862 Y129.49 E13.52393
G1 X116.385 Y129.469 E13.57061
G1 X113.744 Y129.469 E13.65406
G1 X112.137 Y129.5 E13.70484
G1 X111.195 Y129.493 E13.73461
G1 X98.272 Y129.492 E14.14294
G0 F1350 X98.17 Y129.492
G0 X97.472 Y129.482
G0 F7500 X104.53 Y117.495
G1 F1500 X104.723 Y117.467 E14.1491
G1 X104.803 Y117.431 E14.15187
G1 X104.894 Y117.46 E14.15489
G1 X105.117 Y117.494 E14.16202
G1 X104.603 Y117.495 E14.17826
G0 F1350 X104.53 Y117.495
G0 F7500 X104.443 Y117.107
G1 F1500 X104.658 Y117.068 E14.18516
G1 X104.765 Y116.999 E14.18919
G1 X105.016 Y117.079 E14.19751
G1 X105.198 Y117.107 E14.20333
G1 X106.799 Y117.107 E14.25391
G1 X111.547 Y117.104 E14.40394
G1 X111.642 Y117.095 E14.40695
G1 X111.817 Y117.096 E14.41248
G1 X111.817 Y117.893 E14.43767
G1 X98.103 Y117.893 E14.87099
G1 X98.103 Y117.106 E14.89586
G1 X98.577 Y117.107 E14.91083
G1 X103.643 Y117.107 E15.0709
G0 F1350 X104.443 Y117.107
G0 F7500 X104.444 Y116.707
G1 F1500 X104.583 Y116.65 E15.07565
G1 X104.683 Y116.553 E15.08005
G1 X105.137 Y116.698 E15.09511
G1 X105.198 Y116.707 E15.09706
G1 X106.799 Y116.707 E15.14765
G1 X111.491 Y116.707 E15.2959
G1 X111.628 Y116.695 E15.30025
G1 X112.217 Y116.699 E15.31886
G1 X112.217 Y118.303 E15.36954
G1 X112.002 Y118.303 E15.37633
G1 X111.933 Y118.293 E15.37853
G1 X97.703 Y118.293 E15.82816
G1 X97.703 Y116.802 E15.87527
G1 X97.799 Y116.706 E15.87956
G1 X98.578 Y116.707 E15.90418
G1 X103.644 Y116.707 E16.06425
G0 F1350 X104.444 Y116.707
G0 F7500 X114.391 Y117.5
G1 F1500 X115.395 Y117.056 E16.09894
G1 X115.563 Y117.015 E16.1044
G1 X115.749 Y116.98 E16.11038
G1 X116.209 Y116.925 E16.12502
G1 X116.417 Y116.925 E16.13159
G1 X116.417 Y118.09 E16.1684
G1 X116.224 Y118.08 E16.17451
G1 X115.671 Y118.006 E16.19214
G1 X115.561 Y117.986 E16.19567
G1 X115.402 Y117.945 E16.20086
G1 X114.684 Y117.628 E16.22566
G0 F1350 X114.391 Y117.5
G0 F7500 X115.382 Y117.5
G1 F1500 X115.524 Y117.437 E16.23057
G1 X115.654 Y117.405 E16.2348
G1 X115.81 Y117.375 E16.23982
G1 X116.017 Y117.351 E16.2464
G1 X116.017 Y117.648 E16.25578
G1 X115.657 Y117.597 E16.26727
G1 X115.529 Y117.564 E16.27145
G1 X115.48 Y117.542 E16.27315
G0 F1350 X115.382 Y117.5
G1 F1500 E10.27315
G0 F7500 X117.26 Y115.846
G0 X118.102 Y115.846
G0 X123.344 Y116.701
G1 F1500 E16.27315
G1 X125.556 Y116.705 E16.34304
G1 X127.87 Y116.697 E16.41616
G1 X129.774 Y116.706 E16.47632
G1 X132.082 Y116.703 E16.54924
G1 X135.149 Y116.68 E16.64615
G1 X135.443 Y116.711 E16.6555
G1 X137.271 Y116.712 E16.71325
G1 X137.271 Y118.147 E16.7586
G1 X137.125 Y118.293 E16.76512
G1 X126.044 Y118.296 E17.11525
G1 X125.983 Y118.306 E17.1172
G1 X125.448 Y118.477 E17.13495
G1 X124.099 Y118.317 E17.17787
G1 X123.623 Y118.293 E17.19293
G1 X123.344 Y118.293 E17.20175
G1 X123.344 Y117.501 E17.22677
G0 F1350 X123.344 Y116.701
G0 F7500 X123.744 Y117.107
G1 F1500 X124.576 Y117.102 E17.25306
G1 X125.555 Y117.105 E17.28399
G1 X127.869 Y117.097 E17.35711
G1 X129.772 Y117.106 E17.41724
G1 X132.084 Y117.103 E17.49029
G1 X135.128 Y117.08 E17.58648
G1 X135.401 Y117.109 E17.59515
G1 X136.871 Y117.112 E17.6416
G1 X136.871 Y117.893 E17.66628
G1 X126.044 Y117.896 E18.00838
G1 X125.861 Y117.925 E18.01423
G1 X125.409 Y118.07 E18.02923
G1 X124.146 Y117.92 E18.06942
G1 X123.752 Y117.899 E18.08189
G0 F1350 X123.744 Y117.899
G0 X123.744 Y117.107
G0 F7500 X124.144 Y117.507
G1 F1500 X124.56 Y117.502 E18.09503
G1 X125.554 Y117.505 E18.12644
G1 X125.996 Y117.503 E18.14041
G1 X125.739 Y117.544 E18.14863
G1 X125.369 Y117.662 E18.1609
G1 X124.385 Y117.545 E18.19221
G0 F1350 X124.193 Y117.523
G0 X124.144 Y117.507
G0 F7500 X133.377 Y117.495
G1 F1500 X135.107 Y117.481 E18.24688
G1 X135.227 Y117.493 E18.25069
G1 X134.499 Y117.495 E18.27369
G1 X133.522 Y117.495 E18.30456
G0 F1350 X133.377 Y117.495
G1 F1500 E12.30456
;MESH:Curse_of_the_Black_Pearl_double_sided.stl
G0 F7500 X118.809 Y117.495
G0 X117.824 Y117.495
G0 X117.744 Y118.123
G0 X117.617 Y118.293
;TYPE:WALL-OUTER
G1 F1500 E18.30456
G1 X117.617 Y116.707 E18.35217
G1 X117.944 Y116.707 E18.36198
G1 X117.944 Y118.293 E18.4009
G1 X117.617 Y118.293 E18.41072
G0 F7500 X117.617 Y117.893
G1 F1500 E12.41072
;MESH:NONMESH
G0 F300 X117.617 Y117.893 Z0.32
G0 F7500 X117.744 Y117.893
G0 X117.731 Y116.821
