;FLAVOR:Marlin
;TIME:8104
;Filament used: 3.42015m
;Layer height: 0.12
;MINX:96.064
;MINY:88.281
;MINZ:0.2
;MAXX:143.624
;MAXY:140.865
;MAXZ:58.88
;Generated with Cura_SteamEngine 4.6.2
M140 S60
M105
M190 S60
M104 S200
M105
M109 S200
M82 ;absolute extrusion mode
; Ender 3 Custom Start G-code
G92 E0 ; Reset Extruder
G28 ; Home all axes
G1 Z2.0 F3000 ; Move Z Axis up little to prevent scratching of Heat Bed
G1 X0.1 Y20 Z0.3 F5000.0 ; Move to start position
G1 X0.1 Y200.0 Z0.3 F1500.0 E15 ; Draw the first line
G1 X0.4 Y200.0 Z0.3 F5000.0 ; Move to side a little
G1 X0.4 Y20 Z0.3 F1500.0 E30 ; Draw the second line
G92 E0 ; Reset Extruder
G1 Z2.0 F3000 ; Move Z Axis up little to prevent scratching of Heat Bed
G1 X5 Y20 Z0.3 F5000.0 ; Move over to prevent blob squish
G92 E0
G92 E0
G1 F1500 E-6
;LAYER_COUNT:490
;LAYER:0
M107
M204 S500
M205 X8 Y8
G0 F7500 X131.775 Y89.241 Z0.2
;TYPE:SKIRT
G1 F1500 E0
G1 X132.656 Y89.44 E0.02854
G1 X133.516 Y89.716 E0.05708
G1 X134.348 Y90.067 E0.08561
G1 X135.146 Y90.49 E0.11415
G1 X136.076 Y91.108 E0.14943
G1 X138.662 Y93.039 E0.25141
G1 X139.361 Y93.611 E0.27994
G1 X140.006 Y94.242 E0.30846
G1 X140.405 Y94.694 E0.32751
G1 X140.958 Y95.408 E0.35604
G1 X141.446 Y96.168 E0.38458
G1 X141.865 Y96.968 E0.41311
G1 X142.211 Y97.802 E0.44164
G1 X142.482 Y98.663 E0.47017
G1 X142.676 Y99.545 E0.4987
G1 X142.791 Y100.441 E0.52724
G1 X142.826 Y101.344 E0.5558
G1 X142.781 Y102.246 E0.58433
G1 X142.657 Y103.14 E0.61285
G1 X142.454 Y104.02 E0.64139
G1 X142.174 Y104.879 E0.66993
G1 X141.819 Y105.709 E0.69846
G1 X141.552 Y106.227 E0.71687
G1 X141.222 Y106.821 E0.73834
G1 X140.297 Y108.42 E0.79671
G1 X138.786 Y111.141 E0.89505
G1 X137.613 Y113.416 E0.97593
G1 X136.498 Y115.739 E1.05735
G1 X135.488 Y118.008 E1.13582
G1 X134.495 Y120.411 E1.21798
G1 X133.612 Y122.747 E1.29689
G1 X132.78 Y125.138 E1.37688
G1 X132.012 Y127.57 E1.45746
G1 X131.299 Y130.068 E1.53954
G1 X130.916 Y131.539 E1.58757
G1 X130.742 Y132.232 E1.61015
G1 X130.483 Y133.097 E1.63868
G1 X130.149 Y133.936 E1.66721
G1 X129.743 Y134.743 E1.69576
G1 X129.266 Y135.51 E1.7243
G1 X128.723 Y136.232 E1.75284
G1 X128.119 Y136.903 E1.78137
G1 X127.458 Y137.518 E1.8099
G1 X126.744 Y138.072 E1.83845
G1 X125.985 Y138.561 E1.86698
G1 X125.185 Y138.98 E1.89551
G1 X124.352 Y139.328 E1.92404
G1 X123.491 Y139.6 E1.95257
G1 X122.609 Y139.795 E1.98111
G1 X121.713 Y139.911 E2.00966
G1 X120.962 Y139.947 E2.03342
G1 X119.515 Y139.963 E2.07914
G1 X119.141 Y139.961 E2.09096
G1 X118.79 Y139.952 E2.10205
G1 X117.889 Y139.889 E2.13059
G1 X116.997 Y139.746 E2.15913
G1 X116.121 Y139.525 E2.18768
G1 X115.268 Y139.228 E2.21622
G1 X114.445 Y138.856 E2.24476
G1 X113.658 Y138.413 E2.27329
G1 X112.914 Y137.902 E2.30181
G1 X112.217 Y137.327 E2.33036
G1 X111.574 Y136.693 E2.35889
G1 X110.99 Y136.005 E2.38741
G1 X110.469 Y135.267 E2.41595
G1 X110.015 Y134.486 E2.4445
G1 X109.632 Y133.668 E2.47304
G1 X109.24 Y132.544 E2.51065
G1 X109.103 Y132.057 E2.52663
G1 X108.587 Y130.094 E2.59077
G1 X107.871 Y127.652 E2.67117
G1 X107.083 Y125.227 E2.75174
G1 X106.237 Y122.848 E2.83152
G1 X105.319 Y120.483 E2.91168
G1 X104.331 Y118.14 E2.99203
G1 X103.273 Y115.811 E3.07285
G1 X102.175 Y113.568 E3.15176
G1 X100.975 Y111.28 E3.2334
G1 X99.834 Y109.242 E3.3072
G1 X99.311 Y108.34 E3.34014
G1 X98.537 Y107.02 E3.38849
G1 X98.199 Y106.426 E3.41009
G1 X97.787 Y105.622 E3.43863
G1 X97.449 Y104.784 E3.46718
G1 X97.185 Y103.921 E3.4957
G1 X96.999 Y103.037 E3.52424
G1 X96.892 Y102.14 E3.55278
G1 X96.865 Y101.237 E3.58133
G1 X96.918 Y100.336 E3.60985
G1 X97.05 Y99.442 E3.6384
G1 X97.261 Y98.564 E3.66693
G1 X97.548 Y97.708 E3.69546
G1 X97.91 Y96.881 E3.72399
G1 X98.344 Y96.089 E3.75252
G1 X98.847 Y95.338 E3.78108
G1 X99.413 Y94.635 E3.8096
G1 X100.04 Y93.985 E3.83814
G1 X100.699 Y93.41 E3.86577
G1 X101.384 Y92.863 E3.89347
G1 X103.492 Y91.267 E3.97701
G1 X104.262 Y90.73 E4.00667
G1 X105.046 Y90.283 E4.03519
G1 X105.867 Y89.906 E4.06373
G1 X106.718 Y89.604 E4.09227
G1 X107.592 Y89.377 E4.1208
G1 X108.483 Y89.23 E4.14933
G1 X109.384 Y89.161 E4.17789
G1 X110.497 Y89.187 E4.21306
G1 X111.43 Y89.26 E4.24263
G1 X112.498 Y89.358 E4.27652
G1 X115.049 Y89.519 E4.35728
G1 X117.582 Y89.608 E4.43737
G1 X120.115 Y89.625 E4.51741
G1 X122.684 Y89.57 E4.5986
G1 X125.19 Y89.445 E4.67788
G1 X127.716 Y89.247 E4.75794
G1 X128.204 Y89.198 E4.77344
G1 X129.076 Y89.121 E4.8011
G1 X129.978 Y89.081 E4.82962
G1 X130.88 Y89.121 E4.85815
G1 X130.983 Y89.135 E4.86144
G0 F1350 X131.775 Y89.241
G0 F7500 X104.832 Y89.943
G1 F1500 X105.667 Y89.556 E4.89052
G1 X106.532 Y89.242 E4.91959
G1 X107.422 Y89.005 E4.94869
G1 X108.329 Y88.846 E4.97779
G1 X109.246 Y88.766 E5.00687
G1 X110.528 Y88.788 E5.04739
G1 X111.467 Y88.862 E5.07715
G1 X112.524 Y88.959 E5.11069
G1 X115.055 Y89.119 E5.19082
G1 X117.599 Y89.208 E5.27125
G1 X120.109 Y89.225 E5.35056
G1 X122.656 Y89.17 E5.43106
G1 X125.175 Y89.044 E5.51075
G1 X127.714 Y88.846 E5.59122
G1 X128.169 Y88.799 E5.60567
G1 X129.041 Y88.722 E5.63333
G1 X129.96 Y88.681 E5.6624
G1 X130.88 Y88.72 E5.6915
G1 X131.793 Y88.838 E5.72058
G1 X132.692 Y89.036 E5.74967
G1 X133.571 Y89.31 E5.77876
G1 X134.423 Y89.66 E5.80787
G1 X135.241 Y90.083 E5.83696
G1 X136.315 Y90.788 E5.87756
G1 X138.901 Y92.719 E5.97954
G1 X139.614 Y93.301 E6.00862
G1 X140.274 Y93.943 E6.03771
G1 X140.71 Y94.435 E6.05848
G1 X141.275 Y95.162 E6.08757
G1 X141.774 Y95.936 E6.11667
G1 X142.204 Y96.75 E6.14576
G1 X142.562 Y97.598 E6.17484
G1 X142.845 Y98.474 E6.20393
G1 X143.051 Y99.371 E6.23301
G1 X143.178 Y100.283 E6.26211
G1 X143.226 Y101.203 E6.29122
G1 X143.193 Y102.123 E6.3203
G1 X143.081 Y103.036 E6.34937
G1 X142.89 Y103.937 E6.37847
G1 X142.622 Y104.818 E6.40757
G1 X142.278 Y105.672 E6.43666
G1 X141.902 Y106.42 E6.46311
G1 X141.568 Y107.021 E6.48484
G1 X140.662 Y108.588 E6.54203
G1 X139.127 Y111.352 E6.64193
G1 X137.971 Y113.594 E6.72163
G1 X136.885 Y115.856 E6.80091
G1 X135.856 Y118.165 E6.88079
G1 X134.863 Y120.569 E6.96297
G1 X133.988 Y122.883 E7.04114
G1 X133.153 Y125.284 E7.12146
G1 X132.394 Y127.686 E7.20106
G1 X131.691 Y130.151 E7.28205
G1 X131.304 Y131.636 E7.33054
G1 X131.13 Y132.329 E7.35311
G1 X130.867 Y133.212 E7.38223
G1 X130.529 Y134.068 E7.41131
G1 X130.117 Y134.892 E7.44041
G1 X129.636 Y135.676 E7.46948
G1 X129.089 Y136.417 E7.49858
G1 X128.479 Y137.106 E7.52766
G1 X127.812 Y137.741 E7.55675
G1 X127.092 Y138.315 E7.58585
G1 X126.325 Y138.824 E7.61494
G1 X125.517 Y139.265 E7.64402
G1 X124.673 Y139.634 E7.67313
G1 X123.801 Y139.929 E7.70221
G1 X122.906 Y140.146 E7.73131
G1 X121.996 Y140.286 E7.7604
G1 X120.966 Y140.347 E7.79301
G1 X119.519 Y140.363 E7.83873
G1 X119.13 Y140.361 E7.85102
G1 X118.779 Y140.352 E7.86212
G1 X117.861 Y140.288 E7.89119
G1 X116.951 Y140.145 E7.9203
G1 X116.058 Y139.924 E7.94937
G1 X115.187 Y139.626 E7.97845
G1 X114.345 Y139.253 E8.00755
G1 X113.538 Y138.809 E8.03665
G1 X112.774 Y138.296 E8.06573
G1 X112.056 Y137.719 E8.09484
G1 X111.391 Y137.082 E8.12393
G1 X110.784 Y136.39 E8.15302
G1 X110.24 Y135.648 E8.18209
G1 X109.762 Y134.861 E8.21118
G1 X109.354 Y134.036 E8.24026
G1 X109.019 Y133.178 E8.26937
G1 X108.855 Y132.653 E8.28675
G1 X108.717 Y132.159 E8.30295
G1 X108.209 Y130.227 E8.36607
G1 X107.483 Y127.75 E8.44763
G1 X106.713 Y125.379 E8.5264
G1 X105.863 Y122.99 E8.60652
G1 X104.953 Y120.647 E8.68594
G1 X103.95 Y118.268 E8.76752
G1 X102.925 Y116.011 E8.84584
G1 X101.804 Y113.722 E8.92638
G1 X100.624 Y111.473 E9.00663
G1 X99.483 Y109.433 E9.08048
G1 X98.965 Y108.541 E9.11307
G1 X98.189 Y107.217 E9.16157
G1 X97.851 Y106.623 E9.18316
G1 X97.431 Y105.804 E9.21224
G1 X97.083 Y104.952 E9.24132
G1 X96.811 Y104.072 E9.27043
G1 X96.616 Y103.172 E9.29952
G1 X96.5 Y102.259 E9.3286
G1 X96.464 Y101.339 E9.35769
G1 X96.508 Y100.419 E9.3868
G1 X96.631 Y99.507 E9.41587
G1 X96.833 Y98.609 E9.44496
G1 X97.112 Y97.732 E9.47404
G1 X97.466 Y96.882 E9.50313
G1 X97.893 Y96.066 E9.53223
G1 X98.389 Y95.29 E9.56133
G1 X98.95 Y94.56 E9.59042
G1 X99.572 Y93.882 E9.61949
G1 X100.45 Y93.098 E9.65669
G1 X101.135 Y92.551 E9.68438
G1 X103.251 Y90.948 E9.76826
G1 X104.033 Y90.402 E9.7984
G1 X104.138 Y90.341 E9.80224
G0 F1350 X104.832 Y89.943
G0 F7500 X131.81 Y88.435
G1 F1500 X132.727 Y88.631 E9.83186
G1 X133.624 Y88.905 E9.8615
G1 X134.495 Y89.253 E9.89114
G1 X135.333 Y89.675 E9.92078
G1 X136.131 Y90.167 E9.9504
G1 X136.554 Y90.467 E9.96679
G1 X139.14 Y92.398 E10.06877
G1 X139.867 Y92.991 E10.09841
G1 X140.541 Y93.643 E10.12804
G1 X141.015 Y94.176 E10.15058
G1 X141.591 Y94.917 E10.18023
G1 X142.101 Y95.703 E10.20984
G1 X142.543 Y96.531 E10.2395
G1 X142.912 Y97.393 E10.26912
G1 X143.207 Y98.283 E10.29875
G1 X143.425 Y99.196 E10.32841
G1 X143.564 Y100.123 E10.35803
G1 X143.624 Y101.059 E10.38766
G1 X143.603 Y101.997 E10.41731
G1 X143.503 Y102.929 E10.44692
G1 X143.324 Y103.85 E10.47657
G1 X143.067 Y104.752 E10.5062
G1 X142.735 Y105.629 E10.53583
G1 X142.252 Y106.614 E10.5705
G1 X141.914 Y107.221 E10.59245
G1 X141.023 Y108.762 E10.64869
G1 X139.482 Y111.538 E10.74902
G1 X138.33 Y113.771 E10.82841
G1 X137.234 Y116.054 E10.90843
G1 X136.215 Y118.342 E10.98757
G1 X135.238 Y120.709 E11.06848
G1 X134.368 Y123.007 E11.14612
G1 X133.54 Y125.389 E11.2258
G1 X132.775 Y127.811 E11.30605
G1 X132.083 Y130.235 E11.38571
G1 X131.668 Y131.829 E11.43775
G1 X131.518 Y132.427 E11.45723
G1 X131.251 Y133.326 E11.48686
G1 X130.908 Y134.199 E11.5165
G1 X130.493 Y135.04 E11.54613
G1 X130.007 Y135.842 E11.57576
G1 X129.454 Y136.6 E11.60541
G1 X128.839 Y137.308 E11.63504
G1 X128.166 Y137.961 E11.66467
G1 X127.44 Y138.555 E11.69431
G1 X126.666 Y139.084 E11.72393
G1 X125.85 Y139.546 E11.75356
G1 X124.997 Y139.936 E11.7832
G1 X124.114 Y140.252 E11.81283
G1 X123.207 Y140.492 E11.84248
G1 X122.284 Y140.654 E11.87209
G1 X120.971 Y140.747 E11.91368
G1 X119.524 Y140.763 E11.9594
G1 X119.12 Y140.76 E11.97217
G1 X118.769 Y140.751 E11.98326
G1 X117.833 Y140.687 E12.01291
G1 X116.907 Y140.544 E12.04251
G1 X115.995 Y140.322 E12.07217
G1 X115.106 Y140.023 E12.10181
G1 X114.246 Y139.65 E12.13142
G1 X113.42 Y139.205 E12.16107
G1 X112.636 Y138.691 E12.19069
G1 X111.898 Y138.112 E12.22033
G1 X111.212 Y137.472 E12.24997
G1 X110.583 Y136.776 E12.27962
G1 X110.016 Y136.03 E12.30922
G1 X109.514 Y135.237 E12.33888
G1 X109.082 Y134.405 E12.3685
G1 X108.722 Y133.539 E12.39813
G1 X108.47 Y132.763 E12.42391
G1 X108.33 Y132.26 E12.44041
G1 X107.818 Y130.312 E12.50405
G1 X107.114 Y127.914 E12.58302
G1 X106.327 Y125.489 E12.66358
G1 X105.489 Y123.133 E12.74259
G1 X104.571 Y120.769 E12.82272
G1 X103.595 Y118.453 E12.90213
G1 X102.562 Y116.178 E12.98108
G1 X101.449 Y113.905 E13.06104
G1 X100.276 Y111.67 E13.1408
G1 X99.147 Y109.652 E13.21386
G1 X98.619 Y108.742 E13.24711
G1 X97.841 Y107.415 E13.29571
G1 X97.503 Y106.821 E13.31731
G1 X97.075 Y105.987 E13.34692
G1 X96.719 Y105.119 E13.37657
G1 X96.438 Y104.225 E13.40618
G1 X96.234 Y103.309 E13.43583
G1 X96.109 Y102.379 E13.46548
G1 X96.064 Y101.443 E13.49509
G1 X96.099 Y100.505 E13.52475
G1 X96.213 Y99.575 E13.55435
G1 X96.407 Y98.657 E13.584
G1 X96.677 Y97.759 E13.61363
G1 X97.024 Y96.887 E13.64328
G1 X97.443 Y96.048 E13.67291
G1 X97.932 Y95.248 E13.70254
G1 X98.488 Y94.493 E13.73217
G1 X99.106 Y93.787 E13.76181
G1 X99.782 Y93.137 E13.79145
G1 X100.2 Y92.785 E13.80871
G1 X100.885 Y92.238 E13.83641
G1 X101.332 Y91.898 E13.85416
G1 X103.009 Y90.629 E13.92061
G1 X103.804 Y90.073 E13.95126
G1 X104.617 Y89.604 E13.98092
G1 X105.466 Y89.206 E14.01054
G1 X106.346 Y88.882 E14.04017
G1 X107.25 Y88.634 E14.06979
G1 X108.172 Y88.463 E14.09942
G1 X109.106 Y88.372 E14.12907
G1 X110.044 Y88.361 E14.15871
G1 X110.559 Y88.389 E14.17501
G1 X111.503 Y88.464 E14.20493
G1 X112.55 Y88.56 E14.23815
G1 X115.093 Y88.721 E14.31867
G1 X117.581 Y88.808 E14.39733
G1 X120.139 Y88.825 E14.47815
G1 X122.626 Y88.771 E14.55675
G1 X125.122 Y88.647 E14.63572
G1 X127.676 Y88.448 E14.71666
G1 X128.133 Y88.401 E14.73118
G1 X129.005 Y88.324 E14.75884
G1 X129.942 Y88.281 E14.78848
G1 X130.879 Y88.318 E14.81811
G1 X131.016 Y88.336 E14.82247
G0 F1350 X131.81 Y88.435
G1 F1500 E8.82247
;MESH:pikachu_1gen_flowalistik (1).STL
G0 F7500 X112.01 Y100.386
G0 X111.383 Y101.274
G0 X110.37 Y101.191
;TYPE:WALL-INNER
G1 F1500 E14.82247
G1 X110.423 Y101.235 E14.82465
G1 X111.047 Y101.749 E14.85019
G1 X111.157 Y101.816 E14.85426
G1 X114.969 Y105.051 E15.01224
G1 X115.508 Y104.957 E15.02952
G1 X119.861 Y105.589 E15.16851
G1 X124.211 Y104.927 E15.30754
G1 X124.754 Y105.015 E15.32492
G1 X128.549 Y101.745 E15.48321
G1 X128.649 Y101.684 E15.48691
G1 X129.265 Y101.17 E15.51226
G1 X129.319 Y101.124 E15.5145
G1 X129.342 Y101.261 E15.51638
G1 X130.44 Y101.236 E15.55109
G1 X130.602 Y102.165 E15.58088
G1 X130.972 Y102.175 E15.59258
G1 X130.884 Y102.327 E15.59363
G1 X130.404 Y103.156 E15.62389
G1 X130.324 Y103.317 E15.62957
G1 X126.216 Y110.383 E15.88783
G1 X120.792 Y113.484 E16.08524
G1 X120.564 Y113.614 E16.09354
G1 X120.751 Y113.798 E16.09852
G1 X121.257 Y114.293 E16.12089
G1 X120.136 Y126.633 E16.5124
G1 X119.946 Y128.736 E16.57912
G1 X119.74 Y126.635 E16.61261
G1 X118.53 Y114.308 E17.00398
G1 X119.045 Y113.806 E17.02671
G1 X119.237 Y113.618 E17.0352
G1 X119.002 Y113.489 E17.04026
G1 X118.019 Y112.95 E17.07569
G1 X113.542 Y110.428 E17.23805
G1 X109.39 Y103.41 E17.4957
G1 X109.302 Y103.233 E17.50194
G1 X108.818 Y102.408 E17.53217
G1 X108.728 Y102.256 E17.53775
G1 X109.098 Y102.243 E17.54495
G1 X109.253 Y101.313 E17.57474
G1 X110.347 Y101.328 E17.60931
G1 X110.37 Y101.191 E17.61123
G0 F7500 X110.009 Y100.923
G1 F1500 X110.033 Y100.782 E17.61575
G1 X110.089 Y100.441 E17.62666
G1 X110.356 Y100.661 E17.63285
G1 X111.279 Y101.422 E17.67065
G1 X111.392 Y101.49 E17.67482
G1 X115.085 Y104.625 E17.82788
G1 X115.502 Y104.552 E17.84126
G1 X119.86 Y105.185 E17.9804
G1 X124.215 Y104.522 E18.11959
G1 X124.634 Y104.59 E18.13301
G1 X128.312 Y101.421 E18.28641
G1 X128.416 Y101.358 E18.29025
G1 X129.33 Y100.593 E18.32791
G1 X129.596 Y100.371 E18.33886
G1 X129.654 Y100.713 E18.34506
G1 X129.678 Y100.853 E18.34955
G1 X130.775 Y100.828 E18.38422
G1 X130.94 Y101.774 E18.41456
G1 X131.32 Y101.785 E18.42657
G1 X131.321 Y101.786 E18.42662
G1 X131.654 Y101.794 E18.43714
G1 X131.487 Y102.083 E18.44315
G1 X130.757 Y103.345 E18.48922
G1 X130.678 Y103.505 E18.49485
G1 X126.554 Y110.598 E18.7541
G1 X126.543 Y110.657 E18.756
G1 X121.45 Y113.569 E18.94137
G1 X121.222 Y113.699 E18.94966
G1 X121.409 Y113.883 E18.95465
G1 X121.672 Y114.14 E18.96626
G1 X120.308 Y129.17 E19.44312
G1 X119.996 Y129.177 E19.45298
G1 X119.587 Y129.172 E19.46591
G1 X118.113 Y114.156 E19.94265
G1 X118.379 Y113.897 E19.95438
G1 X118.571 Y113.709 E19.96287
G1 X118.335 Y113.58 E19.96794
G1 X117.827 Y113.301 E19.98626
G1 X113.216 Y110.704 E20.15347
G1 X113.204 Y110.643 E20.15543
G1 X109.04 Y103.603 E20.41388
G1 X109.034 Y103.59 E20.41433
G1 X108.95 Y103.424 E20.42021
G1 X108.212 Y102.168 E20.46624
G1 X108.043 Y101.88 E20.47679
G1 X108.376 Y101.87 E20.48279
G1 X108.377 Y101.869 E20.48283
G1 X108.757 Y101.855 E20.49485
G1 X108.914 Y100.908 E20.52518
G1 X109.829 Y100.921 E20.55409
G0 F1350 X110.009 Y100.923
G0 F7500 X109.983 Y100.158
G0 X109.808 Y99.69
;TYPE:WALL-OUTER
G1 F1500 X110.075 Y99.91 E20.56448
G1 X111.51 Y101.094 E20.62032
G1 X111.624 Y101.162 E20.6243
G1 X115.201 Y104.199 E20.76516
G1 X115.497 Y104.147 E20.77418
G1 X119.859 Y104.781 E20.90649
G1 X124.219 Y104.117 E21.03887
G1 X124.514 Y104.165 E21.04784
G1 X128.076 Y101.097 E21.18896
G1 X128.182 Y101.032 E21.19269
G1 X129.606 Y99.84 E21.24843
G1 X129.873 Y99.617 E21.25888
G1 X129.931 Y99.96 E21.26478
G1 X130.014 Y100.445 E21.27955
G1 X131.11 Y100.42 E21.31246
G1 X131.278 Y101.383 E21.3418
G1 X132.001 Y101.403 E21.36351
G1 X132.002 Y101.404 E21.36356
G1 X132.336 Y101.412 E21.37359
G1 X132.169 Y101.702 E21.37931
G1 X131.11 Y103.534 E21.44283
G1 X131.028 Y103.699 E21.44836
G1 X126.935 Y110.738 E21.69278
G1 X126.904 Y110.912 E21.69808
G1 X121.949 Y113.744 E21.8694
G1 X121.88 Y113.784 E21.87179
G1 X122.087 Y113.987 E21.87736
G1 X120.674 Y129.562 E22.3468
G1 X120 Y129.577 E22.36703
G1 X119.224 Y129.567 E22.39033
G1 X117.696 Y114.004 E22.85973
G1 X117.84 Y113.863 E22.86578
G1 X117.905 Y113.8 E22.8685
