;FLAVOR:Marlin
;TIME:2541
;Filament used: 1.7823m
;Layer height: 0.28
;MINX:102.522
;MINY:94.13
;MINZ:0.285
;MAXX:132.318
;MAXY:140.823
;MAXZ:58.805
;Generated with Cura_SteamEngine 4.6.2
M140 S60
M105
M190 S60
M104 S200
M105
M109 S200
M82 ;absolute extrusion mode
; Ender 3 Custom Start G-code
G92 E0 ; Reset Extruder
G28 ; Home all axes
G1 Z2.0 F3000 ; Move Z Axis up little to prevent scratching of Heat Bed
G1 X0.1 Y20 Z0.3 F5000.0 ; Move to start position
G1 X0.1 Y200.0 Z0.3 F1500.0 E15 ; Draw the first line
G1 X0.4 Y200.0 Z0.3 F5000.0 ; Move to side a little
G1 X0.4 Y20 Z0.3 F1500.0 E30 ; Draw the second line
G92 E0 ; Reset Extruder
G1 Z2.0 F3000 ; Move Z Axis up little to prevent scratching of Heat Bed
G1 X5 Y20 Z0.3 F5000.0 ; Move over to prevent blob squish
G92 E0
G92 E0
G1 F1500 E-6
;LAYER_COUNT:210
;LAYER:0
M107
M204 S500
M205 X8 Y8
;MESH:pikachu_1gen_flowalistik (1).STL
G0 F7500 X108.061 Y101.891 Z0.285
;TYPE:WALL-INNER
G1 F1500 E0
G1 F1800 X108.394 Y101.88 E0.015
G1 X108.395 Y101.879 E0.01507
G1 X108.776 Y101.865 E0.03223
G1 X108.93 Y100.924 E0.07516
G1 X110.012 Y100.939 E0.12389
G1 X110.036 Y100.794 E0.13051
G1 X110.092 Y100.453 E0.14606
G1 X110.358 Y100.673 E0.15486
G1 X111.239 Y101.4 E0.20629
G1 X111.394 Y101.493 E0.21443
G1 X115.049 Y104.594 E0.43025
G1 X115.564 Y104.504 E0.45379
G1 X119.859 Y105.128 E0.64921
G1 X124.151 Y104.474 E0.84469
G1 X124.669 Y104.559 E0.86832
G1 X128.304 Y101.429 E1.08431
G1 X128.454 Y101.336 E1.09225
G1 X129.328 Y100.604 E1.14359
G1 X129.594 Y100.382 E1.15919
G1 X129.652 Y100.724 E1.16802
G1 X129.677 Y100.869 E1.17465
G1 X130.759 Y100.845 E1.22338
G1 X130.923 Y101.784 E1.2663
G1 X131.302 Y101.795 E1.28337
G1 X131.303 Y101.796 E1.28343
G1 X131.636 Y101.804 E1.29843
G1 X131.469 Y102.093 E1.30699
G1 X130.778 Y103.288 E1.36915
G1 X130.663 Y103.52 E1.38081
G1 X126.592 Y110.523 E1.74553
G1 X126.563 Y110.678 E1.75263
G1 X122.144 Y113.21 E1.98195
G1 X121.419 Y113.617 E2.01938
G1 X121.187 Y113.747 E2.03136
G1 X121.377 Y113.932 E2.03851
G1 X121.378 Y113.933 E2.03857
G1 X121.679 Y114.225 E2.05746
G1 X120.32 Y129.196 E2.73431
G1 X120.016 Y129.203 E2.748
G1 X119.575 Y129.197 E2.76786
G1 X118.107 Y114.238 E3.44464
G1 X118.402 Y113.948 E3.46326
G1 X118.403 Y113.947 E3.46333
G1 X118.591 Y113.762 E3.4752
G1 X118.361 Y113.632 E3.48236
G1 X113.198 Y110.726 E3.74912
G1 X113.168 Y110.569 E3.75632
G1 X109.043 Y103.597 E4.12107
G1 X108.929 Y103.367 E4.13263
G1 X108.23 Y102.178 E4.19473
G1 X108.061 Y101.891 E4.20328
G0 F7500 X107.376 Y101.515
;TYPE:WALL-OUTER
G1 F1800 X107.709 Y101.504 E4.21754
G1 X107.711 Y101.503 E4.21763
G1 X108.434 Y101.477 E4.24858
G1 X108.591 Y100.519 E4.2901
G1 X109.673 Y100.534 E4.33639
G1 X109.754 Y100.044 E4.35763
G1 X109.755 Y100.043 E4.35769
G1 X109.81 Y99.702 E4.37247
G1 X110.077 Y99.922 E4.38084
G1 X111.471 Y101.073 E4.45817
G1 X111.63 Y101.169 E4.46611
G1 X115.165 Y104.168 E4.66441
G1 X115.559 Y104.099 E4.68152
G1 X119.858 Y104.724 E4.86734
G1 X124.156 Y104.069 E5.05331
G1 X124.55 Y104.134 E5.07039
G1 X128.067 Y101.105 E5.26893
G1 X128.22 Y101.011 E5.27661
G1 X129.605 Y99.851 E5.35389
G1 X129.871 Y99.628 E5.36873
G1 X129.929 Y99.971 E5.37715
G1 X130.013 Y100.461 E5.39841
G1 X131.094 Y100.437 E5.44466
G1 X131.261 Y101.393 E5.48618
G1 X131.983 Y101.413 E5.51707
G1 X131.984 Y101.414 E5.51713
G1 X132.318 Y101.422 E5.53142
G1 X132.151 Y101.712 E5.53959
G1 X131.131 Y103.477 E5.62678
G1 X131.013 Y103.714 E5.63811
G1 X126.973 Y110.664 E5.98197
G1 X126.923 Y110.933 E5.99367
G1 X122.34 Y113.559 E6.21961
G1 X121.935 Y113.786 E6.23947
G1 X121.85 Y113.834 E6.24365
G1 X122.094 Y114.071 E6.25339
G1 X120.686 Y129.588 E6.91985
G1 X120.02 Y129.603 E6.94835
G1 X119.212 Y129.593 E6.98291
G1 X117.69 Y114.087 E7.64936
G1 X117.931 Y113.85 E7.66382
G1 X117.85 Y113.805
G1 X112.84 Y110.984 E7.90976
G1 X112.788 Y110.713 E7.92156
G1 X108.696 Y103.795 E8.26537
G1 X108.577 Y103.558 E8.27671
G1 X107.545 Y101.803 E8.3638
G1 X107.376 Y101.515 E8.37194
G0 F7500 X107.709 Y101.504
G0 X107.711 Y101.503
G0 X107.776 Y101.501
G0 X107.786 Y101.801
G0 X108.487 Y102.398
G0 X108.728 Y102.257
;TYPE:SKIN
G1 F1800 X109.11 Y102.243 E8.38915
G1 X109.261 Y101.318 E8.43135
G1 X110.342 Y101.333 E8.48002
G1 X110.366 Y101.185 E8.48678
G1 X111.013 Y101.72 E8.52458
G1 X111.162 Y101.808 E8.53237
G1 X114.936 Y105.009 E8.75519
G1 X115.569 Y104.899 E8.78412
G1 X119.861 Y105.522 E8.97939
G1 X124.153 Y104.868 E9.17487
G1 X124.786 Y104.973 E9.20377
G1 X128.538 Y101.742 E9.42671
G1 X128.682 Y101.652 E9.43435
G1 X129.323 Y101.116 E9.47198
G1 X129.349 Y101.267 E9.47888
G1 X130.433 Y101.243 E9.5277
G1 X130.593 Y102.165 E9.56983
G1 X130.971 Y102.175 E9.58686
G1 X130.434 Y103.103 E9.63513
G1 X130.322 Y103.331 E9.64657
G1 X126.222 Y110.384 E10.0139
G1 X126.213 Y110.428 E10.01592
G1 X121.952 Y112.87 E10.23705
G1 X120.54 Y113.663 E10.30996
G1 X121.274 Y114.375 E10.35601
G1 X119.964 Y128.812 E11.00872
G1 X119.929 Y128.812 E11.01029
G1 X118.513 Y114.385 E11.663
G1 X119.234 Y113.676 E11.70853
G1 X113.548 Y110.476 E12.00231
G1 X113.539 Y110.429 E12.00446
G1 X109.382 Y103.404 E12.372
G1 X109.272 Y103.182 E12.38316
G1 X108.728 Y102.257 E12.43148
G0 F7500 X108.487 Y102.398
G0 X108.385 Y102.069
G0 X109.083 Y101.106
G0 X110.226 Y100.811
G0 X115.097 Y104.419
G0 X119.859 Y104.966
G0 X124.62 Y104.385
G0 X129.461 Y100.741
G0 X129.694 Y100.978
G0 X129.703 Y101.419
G1 F1800 X130.425 Y102.14 E12.47742
G0 F7500 X130.458 Y102.739
G1 F1800 X129.17 Y101.451 E12.55943
G0 F7500 X128.861 Y101.708
G1 F1800 X130.255 Y103.102 E12.6482
G0 F7500 X130.056 Y103.469
G1 F1800 X128.539 Y101.952 E12.74479
G0 F7500 X128.235 Y102.213
G1 F1800 X129.848 Y103.826 E12.8475
G0 F7500 X129.64 Y104.184
G1 F1800 X127.931 Y102.476 E12.95629
G0 F7500 X127.627 Y102.737
G1 F1800 X129.432 Y104.542 E13.07123
G0 F7500 X129.224 Y104.899
G1 F1800 X127.323 Y102.999 E13.19225
G0 F7500 X127.019 Y103.26
G1 F1800 X129.016 Y105.257 E13.31941
G0 F7500 X128.808 Y105.615
G1 F1800 X126.716 Y103.523 E13.45262
G0 F7500 X126.412 Y103.784
G1 F1800 X128.6 Y105.973 E13.59197
G0 F7500 X128.392 Y106.331
G1 F1800 X126.108 Y104.046 E13.73744
G0 F7500 X125.804 Y104.308
G1 F1800 X128.185 Y106.688 E13.88902
G0 F7500 X127.977 Y107.046
G1 F1800 X125.5 Y104.57 E14.04672
G0 F7500 X125.196 Y104.832
G1 F1800 X127.769 Y107.404 E14.21053
G0 F7500 X127.561 Y107.762
G1 F1800 X124.892 Y105.093 E14.38048
G0 F7500 X124.285 Y105.052
G1 F1800 X127.353 Y108.12 E14.57584
G0 F7500 X127.145 Y108.477
G1 F1800 X123.757 Y105.09 E14.79154
G0 F7500 X123.266 Y105.164
G1 F1800 X126.937 Y108.835 E15.0253
G0 F7500 X126.729 Y109.192
G1 F1800 X122.775 Y105.239 E15.27704
G0 F7500 X122.284 Y105.314
G1 F1800 X126.521 Y109.55 E15.5468
G0 F7500 X126.313 Y109.908
G1 F1800 X121.793 Y105.388 E15.83462
G0 F7500 X121.302 Y105.463
G1 F1800 X126.105 Y110.266 E16.14046
G0 F7500 X125.77 Y110.496
G1 F1800 X120.812 Y105.538 E16.45616
G0 F7500 X120.321 Y105.613
G1 F1800 X125.41 Y110.702 E16.78021
G0 F7500 X125.051 Y110.908
G1 F1800 X119.819 Y105.677 E17.11334
G0 F7500 X119.157 Y105.58
G1 F1800 X124.691 Y111.114 E17.46572
G0 F7500 X124.331 Y111.321
G1 F1800 X118.496 Y105.485 E17.8373
G0 F7500 X117.835 Y105.39
G1 F1800 X123.972 Y111.527 E18.22808
G0 F7500 X123.612 Y111.733
G1 F1800 X117.173 Y105.294 E18.63809
G0 F7500 X116.512 Y105.198
G1 F1800 X123.252 Y111.939 E19.0673
G0 F7500 X122.893 Y112.145
G1 F1800 X115.85 Y105.102 E19.51578
G0 F7500 X115.293 Y105.11
G1 F1800 X122.533 Y112.351 E19.97682
G0 F7500 X122.174 Y112.557
G1 F1800 X114.276 Y104.659 E20.47974
G0 F7500 X114.56 Y104.325
G0 X110.226 Y100.811
G0 X109.083 Y101.106
G0 X108.385 Y102.069
G0 X110.742 Y106.251
G0 X111.12 Y106.029
G1 F1800 X117.747 Y112.656 E20.90172
G0 F7500 X117.531 Y113.039
G0 X116.238 Y112.311
G0 X116.454 Y111.928
G1 F1800 X111.94 Y107.415 E21.18912
G0 F7500 X111.561 Y107.637
G0 X112.382 Y109.024
G0 X112.761 Y108.801
G1 F1800 X115.16 Y111.201 E21.34192
G0 F7500 X114.944 Y111.583
G0 X113.65 Y110.854
G0 X113.866 Y110.472
G1 F1800 X113.581 Y110.187 E21.36006
G0 F7500 X113.201 Y110.41
G0 X113.324 Y110.574
G0 X118.825 Y113.767
G0 X119.041 Y113.384
G1 F1800 X110.3 Y104.643 E21.91666
G0 F7500 X109.922 Y104.865
G0 X109.1 Y103.463
G0 X109.492 Y103.27
G1 F1800 X121.07 Y114.848 E22.6539
G0 F7500 X121.023 Y115.366
G1 F1800 X119.397 Y113.74 E22.75744
G0 F7500 X119.112 Y114.02
G1 F1800 X120.976 Y115.885 E22.87616
G0 F7500 X120.929 Y116.403
G1 F1800 X118.826 Y114.3 E23.01007
G0 F7500 X118.708 Y114.748
G1 F1800 X120.882 Y116.922 E23.14851
G0 F7500 X120.835 Y117.441
G1 F1800 X118.769 Y115.375 E23.28006
G0 F7500 X118.831 Y116.002
G1 F1800 X120.788 Y117.96 E23.40471
G0 F7500 X120.741 Y118.478
G1 F1800 X118.892 Y116.63 E23.52241
G0 F7500 X118.954 Y117.257
G1 F1800 X120.694 Y118.997 E23.63321
G0 F7500 X120.647 Y119.515
G1 F1800 X119.015 Y117.884 E23.7371
G0 F7500 X119.077 Y118.511
G1 F1800 X120.599 Y120.034 E23.83404
G0 F7500 X120.553 Y120.553
G1 F1800 X119.139 Y119.139 E23.92408
G0 F7500 X119.2 Y119.766
G1 F1800 X120.505 Y121.071 E24.00718
G0 F7500 X120.459 Y121.59
G1 F1800 X119.262 Y120.394 E24.08337
G0 F7500 X119.324 Y121.021
G1 F1800 X120.411 Y122.108 E24.15259
G0 F7500 X120.365 Y122.627
G1 F1800 X119.385 Y121.648 E24.21496
G0 F7500 X119.447 Y122.275
G1 F1800 X120.317 Y123.146 E24.27039
G0 F7500 X120.271 Y123.665
G1 F1800 X119.508 Y122.902 E24.31897
G0 F7500 X119.57 Y123.53
G1 F1800 X120.223 Y124.183 E24.36055
G0 F7500 X120.177 Y124.702
G1 F1800 X119.631 Y124.157 E24.39529
G0 F7500 X119.693 Y124.784
G1 F1800 X120.129 Y125.22 E24.42305
G0 F7500 X119.755 Y125.412
G1 F1800 X120.082 Y125.739 E24.44387
G0 F7500 X119.817 Y126.039
G1 F1800 X120.035 Y126.258 E24.45779
G0 F7500 X119.878 Y126.666
G1 F1800 X119.988 Y126.777 E24.46482
G0 F7500 X120.425 Y126.817
G0 X121.498 Y114.293
G0 X120.938 Y113.714
G0 X120.365 Y113.577
G1 F1800 X109.189 Y102.401 E25.17647
G0 F7500 X109.316 Y101.962
G1 F1800 X120.727 Y113.373 E25.90308
G0 F7500 X121.089 Y113.17
G1 F1800 X109.4 Y101.48 E26.64742
G0 F7500 X109.973 Y101.488
G1 F1800 X121.451 Y112.966 E27.3783
G0 F7500 X121.814 Y112.763
G1 F1800 X110.816 Y101.765 E28.07861
G0 F7500 X111.04 Y101.494
;MESH:NONMESH
G0 F300 X111.04 Y101.494 Z0.565
G0 F7500 X111.096 Y101.426
G0 X110.226 Y100.811
G0 X109.083 Y101.106
G0 X109.013 Y101.508
G0 X108.186 Y101.958
;TIME_ELAPSED:36.432489
;LAYER:1
M140 S60
M106 S85
;TYPE:WALL-INNER
;MESH:pikachu_1gen_flowalistik (1).STL
G1 F2400 X108.519 Y101.947 E28.09412
G1 X108.52 Y101.946 E28.09419
G1 X108.893 Y101.932 E28.11157
G1 X109.039 Y101.037 E28.1538
G1 X110.021 Y101.051 E28.19953
G1 X110.05 Y100.878 E28.20769
G1 X110.051 Y100.877 E28.20776
G1 X110.106 Y100.536 E28.22384
G1 X110.373 Y100.756 E28.23296
G1 X110.981 Y101.257 E28.26964
G1 X111.452 Y101.541 E28.29525
G1 X114.805 Y104.386 E28.50001
G1 X115.983 Y104.181 E28.55569
G1 X119.858 Y104.744 E28.73802
G1 X123.729 Y104.155 E28.92035
G1 X124.911 Y104.35 E28.97613
G1 X128.243 Y101.48 E29.1809
G1 X128.711 Y101.191 E29.20651
G1 X129.314 Y100.686 E29.24314
G1 X129.58 Y100.464 E29.25927
G1 X129.638 Y100.806 E29.26841
G1 X129.668 Y100.981 E29.27668
G1 X130.65 Y100.959 E29.32241
G1 X130.806 Y101.852 E29.36462
G1 X131.178 Y101.863 E29.38195
G1 X131.179 Y101.864 E29.38202
G1 X131.512 Y101.872 E29.39753
G1 X131.345 Y102.161 E29.40639
G1 X130.914 Y102.905 E29.44642
G1 X130.56 Y103.62 E29.48357
G1 X126.838 Y110.022 E29.8284
G1 X126.688 Y110.83 E29.86666
G1 X122.463 Y113.251 E30.09341
G1 X121.225 Y113.94 E30.15938
G1 X120.991 Y114.07 E30.17185
G1 X121.183 Y114.256 E30.17929
G1 X121.726 Y114.782 E30.2145
G1 X120.4 Y129.372 E30.89667
G1 X119.948 Y129.382 E30.91772
G1 X119.496 Y129.376 E30.93877
G1 X118.065 Y114.796 E31.62094
G1 X118.603 Y114.267 E31.65607
G1 X118.794 Y114.08 E31.66852
G1 X118.559 Y113.952 E31.67596
G1 X117.31 Y113.268 E31.74227
G1 X113.074 Y110.879 E31.96872
G1 X112.918 Y110.072 E32.00699
G1 X109.155 Y103.711 E32.35114
G1 X108.789 Y102.984 E32.38904
G1 X108.355 Y102.245 E32.42894
G1 X108.186 Y101.958 E32.43779
G0 F8250 X107.646 Y101.577
;TYPE:WALL-OUTER
G1 F1800 X107.868 Y101.569 E32.44762
G1 X108.551 Y101.544 E32.47785
G1 X108.676 Y100.774 E32.51236
G1 X108.803 Y100.634 E32.52072
G1 X109.682 Y100.646 E32.55961
G1 X109.766 Y100.141 E32.58225
G1 X109.815 Y99.84 E32.59574
G1 X109.849 Y99.805 E32.5979
G1 X110.084 Y99.999 E32.60623
G1 X111.213 Y100.93 E32.67096
G1 X111.688 Y101.217 E32.69551
G1 X114.921 Y103.96 E32.88307
G1 X115.978 Y103.776 E32.93053
G1 X119.857 Y104.34 E33.10392
G1 X123.734 Y103.75 E33.2774
G1 X124.792 Y103.925 E33.32484
G1 X128.009 Y101.154 E33.51266
G1 X128.477 Y100.866 E33.53697
G1 X129.599 Y99.926 E33.60172
G1 X129.832 Y99.731 E33.61516
G1 X129.867 Y99.768 E33.61741
G1 X129.918 Y100.067 E33.62573
G1 X130.004 Y100.573 E33.64844
G1 X130.882 Y100.553 E33.68729
G1 X131.01 Y100.695 E33.69574
G1 X131.144 Y101.461 E33.73014
G1 X131.827 Y101.48 E33.76037
G1 X132.047 Y101.486 E33.7701
G1 X132.135 Y101.592 E33.7762
G1 X132.025 Y101.782 E33.78316
G1 X131.267 Y103.094 E33.85019
G1 X130.91 Y103.814 E33.88574
G1 X127.219 Y110.163 E34.2106
G1 X127.047 Y111.085 E34.25209
G1 X122.662 Y113.598 E34.47566
G1 X121.891 Y114.028 E34.51472
G1 X121.656 Y114.158 E34.5266
G1 X121.849 Y114.345 E34.5337
G1 X122.141 Y114.628 E34.55169
G1 X120.766 Y129.765 E35.22405
G1 X119.951 Y129.782 E35.26011
G1 X119.133 Y129.771 E35.2963
G1 X117.648 Y114.645 E35.96863
G1 X117.938 Y114.36 E35.98661
G1 X118.129 Y114.172 E35.99847
G1 X117.893 Y114.043 E36.00558
G1 X117.118 Y113.619 E36.04466
G1 X112.716 Y111.136 E36.26823
G1 X112.538 Y110.216 E36.30968
G1 X108.805 Y103.905 E36.63404
G1 X108.438 Y103.176 E36.67014
G1 X107.671 Y101.872 E36.73706
G1 X107.559 Y101.681 E36.74407
G1 X107.646 Y101.577 E36.75007
G0 F8250 X107.868 Y101.569
G0 X108.046 Y101.563
G0 X108.056 Y101.863
G0 X108.612 Y102.464
G0 X108.853 Y102.324
;TYPE:SKIN
G1 F1800 X109.227 Y102.31 E36.76749
G1 X109.37 Y101.431 E36.80896
G1 X110.351 Y101.445 E36.85465
G1 X110.38 Y101.268 E36.863
G1 X110.755 Y101.577 E36.88562
G1 X111.222 Y101.857 E36.91098
G1 X114.692 Y104.801 E37.12287
G1 X115.988 Y104.576 E37.18412
G1 X119.86 Y105.138 E37.36631
G1 X123.73 Y104.55 E37.54858
G1 X125.028 Y104.765 E37.60985
G1 X128.477 Y101.794 E37.82181
G1 X128.94 Y101.508 E37.84716
G1 X129.309 Y101.199 E37.86957
G1 X129.34 Y101.379 E37.87807
G1 X130.324 Y101.357 E37.9239
G1 X130.476 Y102.233 E37.9653
G1 X130.847 Y102.243 E37.98258
G1 X130.57 Y102.72 E38.00827
G1 X130.219 Y103.43 E38.04515
G1 X126.467 Y109.884 E38.39277
G1 X126.337 Y110.581 E38.42578
G1 X122.274 Y112.91 E38.64385
G1 X120.342 Y113.984 E38.74678
G1 X121.321 Y114.932 E38.81023
G1 X120.043 Y128.99 E39.46753
G1 X119.85 Y128.991 E39.47652
G1 X118.471 Y114.944 E40.13375
G1 X119.442 Y113.99 E40.19714
G1 X117.497 Y112.926 E40.30037
G1 X113.423 Y110.629 E40.51815
G1 X113.288 Y109.932 E40.55121
G1 X109.497 Y103.523 E40.89793
G1 X109.132 Y102.797 E40.93577
G1 X108.853 Y102.324 E40.96134
G0 F8250 X108.612 Y102.464
G0 X108.511 Y102.136
G0 X109.192 Y101.22
G0 X109.973 Y101.161
G0 X109.967 Y101.599
G1 F1800 X109.414 Y102.152 E40.99776
G0 F8250 X109.318 Y102.813
G1 F1800 X110.532 Y101.599 E41.0777
G0 F8250 X110.867 Y101.83
G1 F1800 X109.508 Y103.189 E41.1672
G0 F8250 X109.703 Y103.56
G1 F1800 X111.208 Y102.055 E41.2663
G0 F8250 X111.514 Y102.314
G1 F1800 X109.914 Y103.914 E41.37167
G0 F8250 X110.124 Y104.27
G1 F1800 X111.82 Y102.574 E41.48335
G0 F8250 X112.126 Y102.833
G1 F1800 X110.334 Y104.625 E41.60136
G0 F8250 X110.544 Y104.981
G1 F1800 X112.432 Y103.093 E41.72568
G0 F8250 X112.738 Y103.353
G1 F1800 X110.755 Y105.336 E41.85627
G0 F8250 X110.965 Y105.691
G1 F1800 X113.044 Y103.613 E41.99314
G0 F8250 X113.35 Y103.872
G1 F1800 X111.176 Y106.046 E42.1363
G0 F8250 X111.386 Y106.402
G1 F1800 X113.656 Y104.132 E42.28579
G0 F8250 X113.962 Y104.391
G1 F1800 X111.596 Y106.758 E42.44162
G0 F8250 X111.807 Y107.113
G1 F1800 X114.269 Y104.651 E42.60375
G0 F8250 X114.575 Y104.91
G1 F1800 X112.017 Y107.468 E42.7722
G0 F8250 X112.227 Y107.823
G1 F1800 X115.17 Y104.88 E42.966
G0 F8250 X115.855 Y104.762
G1 F1800 X112.437 Y108.179 E43.19105
G0 F8250 X112.648 Y108.534
G1 F1800 X116.386 Y104.796 E43.4372
G0 F8250 X116.88 Y104.868
