;FLAVOR:Marlin
;TIME:7079
;Filament used: 6.03865m
;Layer height: 0.2
;MINX:58.692
;MINY:58.713
;MINZ:0.2
;MAXX:176.307
;MAXY:176.317
;MAXZ:4.4
;Generated with Cura_SteamEngine 4.6.2
M140 S60
M105
M190 S60
M104 S200
M105
M109 S200
M82 ;absolute extrusion mode
; Ender 3 Custom Start G-code
G92 E0 ; Reset Extruder
G28 ; Home all axes
G1 Z2.0 F3000 ; Move Z Axis up little to prevent scratching of Heat Bed
G1 X0.1 Y20 Z0.3 F5000.0 ; Move to start position
G1 X0.1 Y200.0 Z0.3 F1500.0 E15 ; Draw the first line
G1 X0.4 Y200.0 Z0.3 F5000.0 ; Move to side a little
G1 X0.4 Y20 Z0.3 F1500.0 E30 ; Draw the second line
G92 E0 ; Reset Extruder
G1 Z2.0 F3000 ; Move Z Axis up little to prevent scratching of Heat Bed
G1 X5 Y20 Z0.3 F5000.0 ; Move over to prevent blob squish
G92 E0
G92 E0
G1 F1500 E-6
;LAYER_COUNT:22
;LAYER:0
M107
M204 S500
M205 X8 Y8
G0 F7500 X120.367 Y59.578 Z0.2
;TYPE:SKIRT
G1 F1500 E0
G1 X120.727 Y59.597 E0.01139
G1 X122.372 Y59.713 E0.0635
G1 X122.711 Y59.743 E0.07425
G1 X124.325 Y59.911 E0.12552
G1 X124.677 Y59.954 E0.13673
G1 X126.327 Y60.184 E0.18937
G1 X126.673 Y60.238 E0.20043
G1 X128.311 Y60.524 E0.25297
G1 X128.662 Y60.592 E0.26427
G1 X130.26 Y60.929 E0.31587
G1 X130.6 Y61.006 E0.32689
G1 X132.204 Y61.402 E0.37909
G1 X132.548 Y61.494 E0.39034
G1 X134.131 Y61.944 E0.44234
G1 X134.468 Y62.046 E0.45347
G1 X136.046 Y62.554 E0.50585
G1 X136.37 Y62.664 E0.51666
G1 X137.903 Y63.215 E0.56813
G1 X138.231 Y63.339 E0.57921
G1 X139.776 Y63.955 E0.63177
G1 X140.109 Y64.095 E0.64318
G1 X141.644 Y64.771 E0.69618
G1 X141.955 Y64.914 E0.70699
G1 X143.381 Y65.6 E0.75699
G1 X143.704 Y65.763 E0.76842
G1 X145.215 Y66.557 E0.82236
G1 X145.521 Y66.724 E0.83337
G1 X146.937 Y67.531 E0.88487
G1 X147.236 Y67.709 E0.89586
G1 X148.627 Y68.566 E0.94749
G1 X148.931 Y68.76 E0.95888
G1 X150.311 Y69.679 E1.01127
G1 X150.599 Y69.878 E1.02233
G1 X151.979 Y70.867 E1.07598
G1 X152.257 Y71.074 E1.08693
G1 X153.497 Y72.028 E1.13636
G1 X153.77 Y72.245 E1.14738
G1 X155.07 Y73.318 E1.20064
G1 X155.34 Y73.549 E1.21187
G1 X156.564 Y74.633 E1.26353
G1 X156.819 Y74.867 E1.27447
G1 X158.055 Y76.039 E1.32829
G1 X158.317 Y76.296 E1.33988
G1 X159.426 Y77.426 E1.38991
G1 X159.659 Y77.673 E1.40064
G1 X160.803 Y78.919 E1.45409
G1 X161.042 Y79.188 E1.46546
G1 X162.104 Y80.43 E1.51709
G1 X162.324 Y80.695 E1.52797
G1 X163.345 Y81.974 E1.57968
G1 X163.558 Y82.252 E1.59075
G1 X164.547 Y83.582 E1.64312
G1 X164.759 Y83.878 E1.65462
G1 X165.685 Y85.221 E1.70617
G1 X165.877 Y85.509 E1.7171
G1 X166.818 Y86.978 E1.77223
G1 X167.013 Y87.296 E1.78401
G1 X167.844 Y88.704 E1.83567
G1 X168.012 Y88.999 E1.8464
G1 X168.811 Y90.462 E1.89907
G1 X168.975 Y90.774 E1.91021
G1 X169.706 Y92.23 E1.96169
G1 X169.859 Y92.55 E1.97289
G1 X170.559 Y94.074 E2.02588
G1 X170.7 Y94.396 E2.03699
G1 X171.336 Y95.917 E2.08908
G1 X171.468 Y96.247 E2.10031
G1 X172.046 Y97.777 E2.15199
G1 X172.163 Y98.105 E2.163
G1 X172.681 Y99.632 E2.21394
G1 X172.789 Y99.969 E2.22513
G1 X173.285 Y101.617 E2.27951
G1 X173.382 Y101.962 E2.29083
G1 X173.79 Y103.513 E2.3415
G1 X173.872 Y103.846 E2.35234
G1 X174.242 Y105.473 E2.40506
G1 X174.314 Y105.817 E2.41617
G1 X174.623 Y107.431 E2.46809
G1 X174.684 Y107.785 E2.47944
G1 X174.937 Y109.416 E2.53159
G1 X174.984 Y109.752 E2.54231
G1 X175.183 Y111.393 E2.59454
G1 X175.22 Y111.753 E2.60598
G1 X175.359 Y113.381 E2.6576
G1 X175.383 Y113.729 E2.66863
G1 X175.469 Y115.415 E2.72197
G1 X175.481 Y115.769 E2.73316
G1 X175.507 Y117.37 E2.78375
G1 X175.506 Y117.717 E2.79472
G1 X175.476 Y119.403 E2.848
G1 X175.464 Y119.755 E2.85913
G1 X175.379 Y121.38 E2.91054
G1 X175.354 Y121.74 E2.92195
G1 X175.21 Y123.378 E2.9739
G1 X175.174 Y123.72 E2.98477
G1 X174.972 Y125.376 E3.03748
G1 X174.922 Y125.732 E3.04884
G1 X174.664 Y127.366 E3.10111
G1 X174.604 Y127.708 E3.11208
G1 X174.296 Y129.304 E3.16344
G1 X174.225 Y129.644 E3.17441
G1 X173.852 Y131.276 E3.22731
G1 X173.766 Y131.621 E3.23854
G1 X173.348 Y133.195 E3.29
G1 X173.253 Y133.532 E3.30107
G1 X172.766 Y135.141 E3.35418
G1 X172.655 Y135.484 E3.36557
G1 X172.137 Y137 E3.41619
G1 X172.02 Y137.324 E3.42708
G1 X171.419 Y138.906 E3.48055
G1 X171.288 Y139.234 E3.49171
G1 X170.663 Y140.722 E3.54271
G1 X170.523 Y141.04 E3.55369
G1 X169.826 Y142.553 E3.60632
G1 X169.669 Y142.878 E3.61772
G1 X168.918 Y144.367 E3.67042
G1 X168.755 Y144.678 E3.68151
G1 X167.961 Y146.126 E3.73369
G1 X167.793 Y146.421 E3.74442
G1 X166.979 Y147.795 E3.79488
G1 X166.79 Y148.101 E3.80625
G1 X165.872 Y149.533 E3.85999
G1 X165.675 Y149.829 E3.87123
G1 X164.745 Y151.174 E3.92289
G1 X164.542 Y151.456 E3.93387
G1 X163.559 Y152.779 E3.98595
G1 X163.341 Y153.063 E3.99726
G1 X162.323 Y154.337 E4.04879
G1 X162.097 Y154.61 E4.05999
G1 X160.996 Y155.894 E4.11343
G1 X160.766 Y156.153 E4.12438
G1 X159.666 Y157.351 E4.17577
G1 X159.422 Y157.608 E4.18697
G1 X158.277 Y158.771 E4.23853
G1 X158.039 Y159.004 E4.24906
G1 X156.842 Y160.143 E4.30127
G1 X156.567 Y160.395 E4.31305
G1 X155.289 Y161.525 E4.36695
G1 X155.026 Y161.75 E4.37789
G1 X153.806 Y162.757 E4.42787
G1 X153.532 Y162.976 E4.43896
G1 X152.193 Y164.006 E4.49234
G1 X151.907 Y164.218 E4.50358
G1 X150.601 Y165.152 E4.55432
G1 X150.32 Y165.346 E4.56511
G1 X148.911 Y166.284 E4.61859
G1 X148.599 Y166.484 E4.6303
G1 X147.183 Y167.354 E4.68281
G1 X146.89 Y167.527 E4.69356
G1 X145.522 Y168.306 E4.7433
G1 X145.219 Y168.471 E4.75421
G1 X143.685 Y169.277 E4.80896
G1 X143.361 Y169.44 E4.82042
G1 X141.924 Y170.131 E4.8708
G1 X141.604 Y170.279 E4.88194
G1 X140.08 Y170.948 E4.93453
G1 X139.764 Y171.08 E4.94535
G1 X138.212 Y171.7 E4.99816
G1 X137.875 Y171.828 E5.00955
G1 X136.346 Y172.377 E5.06088
G1 X136.014 Y172.49 E5.07196
G1 X134.427 Y172.999 E5.12462
G1 X134.089 Y173.101 E5.13578
G1 X132.495 Y173.552 E5.18812
G1 X132.164 Y173.639 E5.19893
G1 X130.601 Y174.025 E5.2498
G1 X130.251 Y174.105 E5.26115
G1 X128.613 Y174.449 E5.31403
G1 X128.267 Y174.516 E5.32517
G1 X126.648 Y174.798 E5.3771
G1 X126.304 Y174.852 E5.3881
G1 X124.673 Y175.079 E5.44013
G1 X124.32 Y175.121 E5.45136
G1 X122.663 Y175.293 E5.504
G1 X122.313 Y175.324 E5.5151
G1 X120.678 Y175.437 E5.56689
G1 X120.324 Y175.455 E5.57809
G1 X118.688 Y175.511 E5.62981
G1 X118.327 Y175.517 E5.64122
G1 X116.613 Y175.515 E5.69538
G1 X116.253 Y175.508 E5.70675
G1 X114.526 Y175.445 E5.76136
G1 X114.177 Y175.426 E5.7724
G1 X112.555 Y175.311 E5.82378
G1 X112.2 Y175.28 E5.83504
G1 X110.541 Y175.104 E5.88775
G1 X110.193 Y175.061 E5.89883
G1 X108.604 Y174.837 E5.94954
G1 X108.258 Y174.782 E5.96061
G1 X106.618 Y174.493 E6.01322
G1 X106.261 Y174.424 E6.02471
G1 X104.624 Y174.075 E6.0776
G1 X104.284 Y173.996 E6.08863
G1 X102.687 Y173.598 E6.14063
G1 X102.356 Y173.51 E6.15146
G1 X100.81 Y173.069 E6.20225
G1 X100.48 Y172.968 E6.21316
G1 X98.888 Y172.455 E6.26601
G1 X98.544 Y172.338 E6.27749
G1 X96.964 Y171.766 E6.33058
G1 X96.633 Y171.639 E6.34179
G1 X95.14 Y171.039 E6.39263
G1 X94.824 Y170.906 E6.40346
G1 X93.297 Y170.232 E6.4562
G1 X92.968 Y170.08 E6.46765
G1 X91.505 Y169.371 E6.51902
G1 X91.197 Y169.215 E6.52993
G1 X89.7 Y168.426 E6.5834
G1 X89.391 Y168.256 E6.59454
G1 X87.991 Y167.455 E6.64551
G1 X87.696 Y167.28 E6.65634
G1 X86.289 Y166.411 E6.7086
G1 X85.98 Y166.212 E6.72021
G1 X84.589 Y165.282 E6.77308
G1 X84.303 Y165.084 E6.78407
G1 X83.018 Y164.16 E6.83408
G1 X82.74 Y163.953 E6.84503
G1 X81.367 Y162.893 E6.89984
G1 X81.09 Y162.671 E6.91106
G1 X79.85 Y161.643 E6.96195
G1 X79.585 Y161.416 E6.97297
G1 X78.337 Y160.307 E7.02573
G1 X78.076 Y160.067 E7.03693
G1 X76.91 Y158.956 E7.08782
G1 X76.66 Y158.71 E7.0989
G1 X75.493 Y157.519 E7.15159
G1 X75.25 Y157.261 E7.16279
G1 X74.134 Y156.04 E7.21505
G1 X73.904 Y155.78 E7.22602
G1 X72.828 Y154.519 E7.2784
G1 X72.605 Y154.249 E7.28946
G1 X71.616 Y153.006 E7.33966
G1 X71.399 Y152.723 E7.35092
G1 X70.374 Y151.338 E7.40537
G1 X70.171 Y151.053 E7.41642
G1 X69.255 Y149.722 E7.46748
G1 X69.066 Y149.437 E7.47828
G1 X68.163 Y148.026 E7.53121
G1 X67.966 Y147.706 E7.54309
G1 X67.147 Y146.316 E7.59406
G1 X66.985 Y146.031 E7.60442
G1 X66.196 Y144.588 E7.65639
G1 X66.024 Y144.259 E7.66812
G1 X65.268 Y142.748 E7.7215
G1 X65.116 Y142.43 E7.73264
G1 X64.431 Y140.934 E7.78463
G1 X64.296 Y140.627 E7.79522
G1 X63.684 Y139.165 E7.8453
G1 X63.555 Y138.84 E7.85635
G1 X62.945 Y137.23 E7.91075
G1 X62.82 Y136.882 E7.92244
G1 X62.308 Y135.367 E7.97297
G1 X62.204 Y135.041 E7.98378
G1 X61.716 Y133.42 E8.03727
G1 X61.619 Y133.078 E8.0485
G1 X61.207 Y131.514 E8.0996
G1 X61.126 Y131.182 E8.1104
G1 X60.753 Y129.545 E8.16345
G1 X60.677 Y129.183 E8.17514
G1 X60.379 Y127.615 E8.22557
G1 X60.322 Y127.281 E8.23628
G1 X60.059 Y125.593 E8.29026
G1 X60.011 Y125.247 E8.30129
G1 X59.819 Y123.658 E8.35187
G1 X59.782 Y123.303 E8.36314
G1 X59.638 Y121.618 E8.41658
G1 X59.614 Y121.269 E8.42763
G1 X59.53 Y119.625 E8.47965
G1 X59.518 Y119.27 E8.49087
G1 X59.492 Y117.661 E8.54172
G1 X59.493 Y117.315 E8.55265
G1 X59.523 Y115.629 E8.60593
G1 X59.535 Y115.273 E8.61718
G1 X59.62 Y113.66 E8.66822
G1 X59.645 Y113.311 E8.67928
G1 X59.79 Y111.648 E8.73202
G1 X59.827 Y111.295 E8.74324
G1 X60.028 Y109.653 E8.79551
G1 X60.076 Y109.305 E8.80661
G1 X60.331 Y107.686 E8.85839
G1 X60.391 Y107.345 E8.86933
G1 X60.702 Y105.729 E8.92133
G1 X60.776 Y105.378 E8.93267
G1 X61.148 Y103.755 E8.98528
G1 X61.232 Y103.416 E8.99631
G1 X61.646 Y101.857 E9.04728
G1 X61.741 Y101.52 E9.05834
G1 X62.235 Y99.888 E9.11222
G1 X62.343 Y99.554 E9.12331
G1 X62.867 Y98.016 E9.17465
G1 X62.987 Y97.683 E9.18584
G1 X63.559 Y96.177 E9.23674
G1 X63.692 Y95.845 E9.24804
G1 X64.343 Y94.297 E9.3011
G1 X64.481 Y93.983 E9.31194
G1 X65.168 Y92.492 E9.36381
G1 X65.321 Y92.174 E9.37496
G1 X66.061 Y90.704 E9.42696
G1 X66.229 Y90.384 E9.43838
G1 X67.058 Y88.873 E9.49284
G1 X67.237 Y88.561 E9.5042
G1 X68.086 Y87.135 E9.55664
G1 X68.269 Y86.839 E9.56764
G1 X69.159 Y85.454 E9.61966
G1 X69.359 Y85.154 E9.63105
G1 X70.301 Y83.796 E9.68327
G1 X70.5 Y83.519 E9.69405
G1 X71.473 Y82.212 E9.74553
G1 X71.693 Y81.928 E9.75688
G1 X72.741 Y80.619 E9.80987
G1 X72.961 Y80.353 E9.82077
G1 X74.005 Y79.136 E9.87144
G1 X74.237 Y78.875 E9.88247
G1 X75.396 Y77.614 E9.93659
G1 X75.643 Y77.355 E9.9479
G1 X76.768 Y76.214 E9.99853
G1 X77.019 Y75.967 E10.00965
G1 X78.217 Y74.833 E10.06178
G1 X78.481 Y74.592 E10.07307
G1 X79.737 Y73.484 E10.12599
G1 X80.001 Y73.259 E10.13695
G1 X81.259 Y72.223 E10.18844
G1 X81.534 Y72.004 E10.19955
G1 X82.814 Y71.022 E10.25053
G1 X83.095 Y70.815 E10.26156
G1 X84.47 Y69.833 E10.31494
G1 X84.754 Y69.637 E10.32585
G1 X86.139 Y68.717 E10.37838
G1 X86.449 Y68.519 E10.39001
G1 X87.841 Y67.665 E10.44161
G1 X88.134 Y67.492 E10.45236
G1 X89.543 Y66.691 E10.50357
G1 X89.854 Y66.521 E10.51477
G1 X91.369 Y65.728 E10.5688
G1 X91.682 Y65.571 E10.57987
G1 X93.114 Y64.883 E10.63006
G1 X93.438 Y64.734 E10.64133
G1 X94.965 Y64.065 E10.69401
G1 X95.284 Y63.932 E10.70493
G1 X96.846 Y63.31 E10.75805
G1 X97.184 Y63.182 E10.76947
G1 X98.682 Y62.646 E10.81974
G1 X99.006 Y62.536 E10.83055
G1 X100.62 Y62.019 E10.88411
G1 X100.955 Y61.918 E10.89516
G1 X102.51 Y61.478 E10.94622
G1 X102.855 Y61.387 E10.9575
G1 X104.472 Y60.99 E11.01011
G1 X104.807 Y60.914 E11.02096
G1 X106.416 Y60.576 E11.07291
G1 X106.775 Y60.507 E11.08446
G1 X108.429 Y60.221 E11.1375
G1 X108.772 Y60.168 E11.14847
G1 X110.366 Y59.948 E11.19931
G1 X110.718 Y59.905 E11.21051
G1 X112.381 Y59.734 E11.26334
G1 X112.726 Y59.705 E11.27428
G1 X114.345 Y59.594 E11.32555
G1 X114.698 Y59.576 E11.33672
G1 X116.382 Y59.519 E11.38996
G1 X116.727 Y59.513 E11.40086
G1 X118.323 Y59.513 E11.45129
G1 X118.68 Y59.519 E11.46257
G1 X119.568 Y59.551 E11.49065
G0 F1350 X120.367 Y59.578
G0 F7500 X120.38 Y59.178
G1 F1500 X120.756 Y59.198 E11.50255
G1 X122.401 Y59.314 E11.55465
G1 X122.752 Y59.345 E11.56579
G1 X124.366 Y59.513 E11.61706
G1 X124.732 Y59.558 E11.62871
G1 X126.382 Y59.788 E11.68135
G1 X126.742 Y59.844 E11.69286
G1 X128.38 Y60.13 E11.7454
G1 X128.744 Y60.2 E11.75711
G1 X130.342 Y60.537 E11.80872
G1 X130.696 Y60.618 E11.82019
G1 X132.3 Y61.014 E11.8724
G1 X132.657 Y61.109 E11.88407
G1 X134.24 Y61.559 E11.93607
G1 X134.59 Y61.665 E11.94762
G1 X136.168 Y62.173 E12
G1 X136.505 Y62.288 E12.01125
G1 X138.038 Y62.839 E12.06273
G1 X138.379 Y62.968 E12.07425
G1 X139.924 Y63.584 E12.1268
G1 X140.27 Y63.729 E12.13866
G1 X141.805 Y64.405 E12.19165
G1 X142.128 Y64.554 E12.20289
G1 X143.554 Y65.24 E12.25289
G1 X143.89 Y65.409 E12.26478
G1 X145.401 Y66.203 E12.31871
G1 X145.719 Y66.377 E12.33016
G1 X147.135 Y67.184 E12.38166
G1 X147.446 Y67.368 E12.39308
G1 X148.837 Y68.225 E12.4447
G1 X149.152 Y68.427 E12.45653
G1 X150.532 Y69.346 E12.50891
G1 X150.832 Y69.553 E12.52043
G1 X152.212 Y70.542 E12.57408
G1 X152.501 Y70.757 E12.58546
G1 X153.741 Y71.711 E12.63489
G1 X154.025 Y71.937 E12.64636
G1 X155.325 Y73.01 E12.69962
G1 X155.605 Y73.25 E12.71127
G1 X156.829 Y74.334 E12.76293
G1 X157.095 Y74.577 E12.77432
G1 X158.331 Y75.749 E12.82814
G1 X158.602 Y76.016 E12.84016
G1 X159.711 Y77.146 E12.89019
G1 X159.954 Y77.402 E12.90134
G1 X161.098 Y78.648 E12.95479
G1 X161.346 Y78.928 E12.9666
G1 X162.408 Y80.17 E13.01824
G1 X162.636 Y80.446 E13.02955
G1 X163.657 Y81.725 E13.08126
G1 X163.879 Y82.013 E13.09275
G1 X164.868 Y83.343 E13.14512
G1 X165.089 Y83.651 E13.1571
G1 X166.015 Y84.994 E13.20864
G1 X166.214 Y85.293 E13.21999
G1 X167.155 Y86.762 E13.27511
G1 X167.358 Y87.092 E13.28735
G1 X168.189 Y88.5 E13.33901
G1 X168.363 Y88.807 E13.35016
G1 X169.162 Y90.27 E13.40284
G1 X169.332 Y90.595 E13.41442
G1 X170.063 Y92.051 E13.4659
G1 X170.222 Y92.383 E13.47753
G1 X170.922 Y93.907 E13.53052
G1 X171.069 Y94.242 E13.54208
G1 X171.705 Y95.763 E13.59418
G1 X171.842 Y96.106 E13.60585
G1 X172.42 Y97.636 E13.65752
G1 X172.542 Y97.977 E13.66897
G1 X173.06 Y99.504 E13.71992
G1 X173.172 Y99.854 E13.73153
G1 X173.668 Y101.502 E13.78591
G1 X173.769 Y101.86 E13.79766
G1 X174.177 Y103.411 E13.84834
G1 X174.262 Y103.757 E13.85959
G1 X174.632 Y105.384 E13.91231
G1 X174.707 Y105.742 E13.92387
G1 X175.016 Y107.356 E13.9758
G1 X175.08 Y107.724 E13.9876
G1 X175.333 Y109.355 E14.03975
G1 X175.381 Y109.704 E14.05088
G1 X175.58 Y111.345 E14.10311
G1 X175.619 Y111.719 E14.11499
G1 X175.758 Y113.347 E14.16662
G1 X175.782 Y113.709 E14.17808
G1 X175.868 Y115.395 E14.23142
G1 X175.881 Y115.763 E14.24306
G1 X175.907 Y117.364 E14.29365
G1 X175.906 Y117.725 E14.30506
G1 X175.876 Y119.411 E14.35834
G1 X175.864 Y119.776 E14.36988
G1 X175.779 Y121.401 E14.4213
G1 X175.752 Y121.775 E14.43314
G1 X175.608 Y123.413 E14.4851
G1 X175.571 Y123.768 E14.49638
G1 X175.369 Y125.424 E14.54909
G1 X175.317 Y125.794 E14.5609
G1 X175.059 Y127.428 E14.61317
G1 X174.997 Y127.784 E14.62458
G1 X174.689 Y129.38 E14.67594
G1 X174.615 Y129.733 E14.68734
G1 X174.242 Y131.365 E14.74024
G1 X174.153 Y131.724 E14.75192
G1 X173.735 Y133.298 E14.80338
G1 X173.635 Y133.648 E14.81488
G1 X173.148 Y135.257 E14.868
G1 X173.034 Y135.613 E14.87981
G1 X172.516 Y137.129 E14.93043
G1 X172.394 Y137.466 E14.94175
G1 X171.793 Y139.048 E14.99523
G1 X171.657 Y139.389 E15.00683
G1 X171.032 Y140.877 E15.05782
G1 X170.887 Y141.207 E15.06921
G1 X170.19 Y142.72 E15.12185
G1 X170.026 Y143.058 E15.13372
G1 X169.275 Y144.547 E15.18641
G1 X169.105 Y144.871 E15.19797
G1 X168.311 Y146.319 E15.25015
G1 X168.137 Y146.625 E15.26127
G1 X167.323 Y147.999 E15.31174
G1 X167.127 Y148.317 E15.32354
G1 X166.209 Y149.749 E15.37728
G1 X166.004 Y150.057 E15.38898
G1 X165.074 Y151.402 E15.44064
G1 X164.863 Y151.695 E15.45205
G1 X163.88 Y153.018 E15.50413
G1 X163.653 Y153.313 E15.51589
G1 X162.635 Y154.587 E15.56742
G1 X162.401 Y154.87 E15.57902
G1 X161.3 Y156.154 E15.63247
G1 X161.061 Y156.423 E15.64384
G1 X159.961 Y157.621 E15.69523
G1 X159.707 Y157.889 E15.70689
G1 X158.562 Y159.052 E15.75846
G1 X158.315 Y159.294 E15.76939
G1 X157.118 Y160.433 E15.8216
G1 X156.832 Y160.695 E15.83385
G1 X155.554 Y161.825 E15.88775
G1 X155.281 Y162.059 E15.89911
G1 X154.061 Y163.066 E15.9491
G1 X153.776 Y163.293 E15.96061
G1 X152.437 Y164.323 E16.01399
G1 X152.14 Y164.543 E16.02567
G1 X150.834 Y165.477 E16.0764
G1 X150.542 Y165.679 E16.08762
G1 X149.133 Y166.617 E16.1411
G1 X148.808 Y166.825 E16.15329
G1 X147.392 Y167.695 E16.20581
