;FLAVOR:Marlin
;TIME:15310
;Filament used: 10.8474m
;Layer height: 0.2
;MINX:60.768
;MINY:92.25
;MINZ:0.2
;MAXX:182.768
;MAXY:182.75
;MAXZ:34.6
;Generated with Cura_SteamEngine 4.6.2
M140 S60
M105
M190 S60
M104 S200
M105
M109 S200
M82 ;absolute extrusion mode
; Ender 3 Custom Start G-code
G92 E0 ; Reset Extruder
G28 ; Home all axes
G1 Z2.0 F3000 ; Move Z Axis up little to prevent scratching of Heat Bed
G1 X0.1 Y20 Z0.3 F5000.0 ; Move to start position
G1 X0.1 Y200.0 Z0.3 F1500.0 E15 ; Draw the first line
G1 X0.4 Y200.0 Z0.3 F5000.0 ; Move to side a little
G1 X0.4 Y20 Z0.3 F1500.0 E30 ; Draw the second line
G92 E0 ; Reset Extruder
G1 Z2.0 F3000 ; Move Z Axis up little to prevent scratching of Heat Bed
G1 X5 Y20 Z0.3 F5000.0 ; Move over to prevent blob squish
G92 E0
G92 E0
G1 F1500 E-6
;LAYER_COUNT:175
;LAYER:0
M107
M204 S500
M205 X8 Y8
G0 F7500 X80.371 Y93.067 Z0.2
;TYPE:SKIRT
G1 F1500 E0
G1 X83.058 Y93.067 E0.0849
G1 X84.081 Y93.05 E0.11723
G1 X91.207 Y93.051 E0.34239
G1 X91.905 Y93.061 E0.36445
G1 X92.626 Y93.097 E0.38726
G1 X95.379 Y93.332 E0.47456
G1 X97.921 Y93.475 E0.55501
G1 X100.464 Y93.547 E0.63539
G1 X102.996 Y93.547 E0.7154
G1 X105.53 Y93.475 E0.7955
G1 X108.093 Y93.33 E0.87661
G1 X110.92 Y93.095 E0.96624
G1 X111.459 Y93.065 E0.9833
G1 X112.098 Y93.05 E1.00349
G1 X119.227 Y93.051 E1.22875
G1 X120.371 Y93.067 E1.2649
G1 X123.058 Y93.067 E1.3498
G1 X124.081 Y93.05 E1.38213
G1 X131.207 Y93.051 E1.60729
G1 X131.904 Y93.061 E1.62932
G1 X132.625 Y93.097 E1.65213
G1 X135.379 Y93.332 E1.73946
G1 X137.921 Y93.475 E1.81991
G1 X140.464 Y93.547 E1.90029
G1 X142.996 Y93.547 E1.9803
G1 X145.53 Y93.475 E2.0604
G1 X148.093 Y93.33 E2.14151
G1 X150.92 Y93.095 E2.23114
G1 X151.459 Y93.065 E2.2482
G1 X152.098 Y93.05 E2.2684
G1 X159.227 Y93.051 E2.49365
G1 X160.371 Y93.067 E2.5298
G1 X163.058 Y93.067 E2.6147
G1 X164.081 Y93.05 E2.64703
G1 X171.193 Y93.051 E2.87175
G1 X171.891 Y93.06 E2.89381
G1 X172.792 Y93.111 E2.92232
G1 X173.686 Y93.243 E2.95088
G1 X174.564 Y93.452 E2.97939
G1 X175.421 Y93.739 E3.00795
G1 X176.248 Y94.1 E3.03646
G1 X177.041 Y94.533 E3.06501
G1 X177.792 Y95.034 E3.09354
G1 X178.496 Y95.6 E3.12208
G1 X179.147 Y96.226 E3.15061
G1 X179.74 Y96.907 E3.17915
G1 X180.27 Y97.638 E3.20768
G1 X180.734 Y98.413 E3.23622
G1 X181.128 Y99.226 E3.26476
G1 X181.448 Y100.07 E3.29328
G1 X181.692 Y100.94 E3.32183
G1 X181.858 Y101.828 E3.35038
G1 X181.955 Y102.973 E3.38669
G1 X181.968 Y103.58 E3.40587
G1 X181.967 Y111.659 E3.66114
G1 X181.96 Y112.134 E3.67615
G1 X181.968 Y115.54 E3.78377
G1 X181.967 Y123.666 E4.04053
G1 X181.957 Y124.382 E4.06316
G1 X181.933 Y124.954 E4.08125
G1 X181.892 Y125.516 E4.09905
G1 X181.735 Y127.361 E4.15756
G1 X181.59 Y129.933 E4.23896
G1 X181.518 Y132.467 E4.31906
G1 X181.518 Y135.001 E4.39912
G1 X181.59 Y137.534 E4.47919
G1 X181.736 Y140.119 E4.561
G1 X181.846 Y141.522 E4.60547
G1 X181.921 Y142.388 E4.63293
G1 X181.955 Y142.973 E4.65145
G1 X181.968 Y143.579 E4.6706
G1 X181.967 Y151.659 E4.92591
G1 X181.96 Y152.134 E4.94092
G1 X181.968 Y155.54 E5.04854
G1 X181.967 Y163.666 E5.30529
G1 X181.957 Y164.383 E5.32795
G1 X181.904 Y165.285 E5.3565
G1 X181.772 Y166.178 E5.38502
G1 X181.562 Y167.056 E5.41355
G1 X181.274 Y167.913 E5.44212
G1 X180.912 Y168.74 E5.47064
G1 X180.478 Y169.532 E5.49918
G1 X179.976 Y170.283 E5.52772
G1 X179.41 Y170.986 E5.55624
G1 X178.683 Y171.73 E5.5891
G1 X178.417 Y171.976 E5.60055
G1 X176.479 Y173.784 E5.6843
G1 X174.698 Y175.542 E5.76337
G1 X172.921 Y177.398 E5.84456
G1 X172.49 Y177.872 E5.8648
G1 X171.731 Y178.688 E5.90001
G1 X171.087 Y179.321 E5.92855
G1 X170.39 Y179.895 E5.95708
G1 X169.644 Y180.405 E5.98563
G1 X168.857 Y180.847 E6.01415
G1 X168.033 Y181.218 E6.0427
G1 X167.18 Y181.515 E6.07124
G1 X166.304 Y181.734 E6.09977
G1 X165.412 Y181.876 E6.12831
G1 X164.545 Y181.937 E6.15578
G1 X163.938 Y181.95 E6.17496
G1 X155.193 Y181.949 E6.45128
G1 X154.496 Y181.939 E6.4733
G1 X153.392 Y181.863 E6.50827
G1 X152.863 Y181.796 E6.52512
G1 X150.854 Y181.51 E6.58924
G1 X148.347 Y181.225 E6.66896
G1 X145.789 Y181.008 E6.75008
G1 X143.261 Y180.866 E6.83008
G1 X140.72 Y180.794 E6.9104
G1 X138.187 Y180.794 E6.99043
G1 X135.629 Y180.866 E7.07129
G1 X133.119 Y181.01 E7.15073
G1 X130.592 Y181.225 E7.23087
G1 X127.994 Y181.52 E7.31348
G1 X126.73 Y181.691 E7.35379
G1 X125.709 Y181.837 E7.38637
G1 X124.577 Y181.935 E7.42228
G1 X123.938 Y181.95 E7.44247
G1 X115.193 Y181.949 E7.71879
G1 X114.496 Y181.939 E7.74081
G1 X113.392 Y181.863 E7.77578
G1 X112.863 Y181.796 E7.79263
G1 X110.854 Y181.51 E7.85675
G1 X108.347 Y181.225 E7.93647
G1 X105.789 Y181.008 E8.01759
G1 X103.261 Y180.866 E8.09759
G1 X100.72 Y180.794 E8.17791
G1 X98.187 Y180.794 E8.25795
G1 X95.629 Y180.866 E8.3388
G1 X93.119 Y181.01 E8.41824
G1 X90.592 Y181.225 E8.49838
G1 X87.994 Y181.52 E8.58099
G1 X86.73 Y181.691 E8.6213
G1 X85.709 Y181.837 E8.65389
G1 X84.577 Y181.935 E8.68979
G1 X83.938 Y181.95 E8.70998
G1 X75.193 Y181.949 E8.9863
G1 X74.494 Y181.939 E9.00839
G1 X73.593 Y181.886 E9.03691
G1 X72.699 Y181.754 E9.06546
G1 X71.821 Y181.543 E9.09399
G1 X70.965 Y181.255 E9.12253
G1 X70.138 Y180.893 E9.15106
G1 X69.346 Y180.459 E9.17959
G1 X68.595 Y179.956 E9.20815
G1 X67.892 Y179.389 E9.23669
G1 X67.242 Y178.762 E9.26522
G1 X66.65 Y178.08 E9.29376
G1 X66.121 Y177.349 E9.32227
G1 X65.658 Y176.573 E9.35082
G1 X65.266 Y175.76 E9.37934
G1 X65.027 Y175.149 E9.40007
G1 X64.502 Y173.654 E9.45014
G1 X63.615 Y171.256 E9.53093
G1 X62.636 Y168.821 E9.61385
G1 X62.37 Y168.186 E9.6356
G1 X62.058 Y167.339 E9.66412
G1 X61.823 Y166.467 E9.69266
G1 X61.665 Y165.577 E9.72122
G1 X61.583 Y164.559 E9.75349
G1 X61.568 Y163.92 E9.77369
G1 X61.569 Y155.827 E10.0294
G1 X61.576 Y155.362 E10.0441
G1 X61.568 Y151.96 E10.15159
G1 X61.569 Y143.811 E10.40908
G1 X61.579 Y143.114 E10.4311
G1 X61.603 Y142.546 E10.44906
G1 X61.644 Y141.984 E10.46687
G1 X61.801 Y140.139 E10.52538
G1 X61.946 Y137.567 E10.60677
G1 X62.018 Y135.033 E10.68687
G1 X62.018 Y132.499 E10.76694
G1 X61.946 Y129.966 E10.84701
G1 X61.8 Y127.381 E10.92882
G1 X61.689 Y125.966 E10.97366
G1 X61.615 Y125.112 E11.00075
G1 X61.581 Y124.527 E11.01926
G1 X61.568 Y123.921 E11.03842
G1 X61.569 Y115.827 E11.29416
G1 X61.576 Y115.362 E11.30886
G1 X61.568 Y111.96 E11.41635
G1 X61.569 Y103.771 E11.6751
G1 X61.579 Y103.106 E11.69612
G1 X61.633 Y102.204 E11.72467
G1 X61.766 Y101.311 E11.75319
G1 X61.977 Y100.433 E11.78173
G1 X62.266 Y99.577 E11.81027
G1 X62.629 Y98.75 E11.83881
G1 X63.063 Y97.959 E11.86732
G1 X63.566 Y97.208 E11.89588
G1 X64.134 Y96.506 E11.92441
G1 X64.761 Y95.856 E11.95295
G1 X65.443 Y95.264 E11.98148
G1 X66.175 Y94.735 E12.01002
G1 X66.951 Y94.273 E12.03856
G1 X67.765 Y93.882 E12.06709
G1 X68.61 Y93.563 E12.09563
G1 X69.48 Y93.321 E12.12416
G1 X70.368 Y93.157 E12.15269
G1 X71.491 Y93.063 E12.1883
G1 X72.098 Y93.05 E12.20749
G1 X79.227 Y93.051 E12.43274
G1 X79.571 Y93.056 E12.44361
G0 F1350 X80.371 Y93.067
G1 F1500 E6.44361
G0 F7500 X83.115 Y112.903
G0 X92.421 Y114.597
G0 X111.115 Y164.903
G0 X113.979 Y172.403
G0 X123.938 Y182.35
G1 F1500 E12.44361
G1 X115.187 Y182.349 E12.72012
G1 X114.49 Y182.339 E12.74214
G1 X113.342 Y182.26 E12.7785
G1 X112.806 Y182.192 E12.79557
G1 X110.784 Y181.904 E12.86011
G1 X108.301 Y181.622 E12.93907
G1 X105.769 Y181.407 E13.01936
G1 X103.264 Y181.266 E13.09864
G1 X100.709 Y181.194 E13.1794
G1 X98.199 Y181.194 E13.25871
G1 X95.663 Y181.266 E13.33887
G1 X93.139 Y181.41 E13.41875
G1 X90.6 Y181.626 E13.49927
G1 X88.088 Y181.911 E13.57915
G1 X86.724 Y182.096 E13.62264
G1 X85.765 Y182.233 E13.65325
G1 X84.589 Y182.335 E13.69055
G1 X83.938 Y182.35 E13.71112
G1 X75.187 Y182.349 E13.98763
G1 X74.488 Y182.339 E14.00972
G1 X73.569 Y182.286 E14.0388
G1 X72.658 Y182.153 E14.06789
G1 X71.762 Y181.942 E14.09698
G1 X70.888 Y181.654 E14.12606
G1 X70.042 Y181.291 E14.15514
G1 X69.23 Y180.856 E14.18425
G1 X68.46 Y180.352 E14.21333
G1 X67.736 Y179.783 E14.24243
G1 X67.064 Y179.154 E14.27151
G1 X66.449 Y178.468 E14.30062
G1 X65.896 Y177.732 E14.32971
G1 X65.409 Y176.951 E14.35879
G1 X64.992 Y176.13 E14.38789
G1 X64.65 Y175.283 E14.41675
G1 X64.12 Y173.772 E14.46734
G1 X63.239 Y171.391 E14.54756
G1 X62.278 Y169.001 E14.62895
G1 X62.001 Y168.341 E14.65157
G1 X61.682 Y167.477 E14.68067
G1 X61.44 Y166.589 E14.70975
G1 X61.276 Y165.683 E14.73884
G1 X61.183 Y164.571 E14.7741
G1 X61.168 Y163.92 E14.79468
G1 X61.169 Y155.821 E15.05058
G1 X61.176 Y155.357 E15.06525
G1 X61.168 Y151.961 E15.17255
G1 X61.169 Y143.805 E15.43026
G1 X61.179 Y143.108 E15.45228
G1 X61.204 Y142.518 E15.47094
G1 X61.245 Y141.951 E15.4889
G1 X61.403 Y140.086 E15.54804
G1 X61.546 Y137.567 E15.62776
G1 X61.618 Y135.022 E15.70821
G1 X61.618 Y132.511 E15.78755
G1 X61.546 Y129.965 E15.86803
G1 X61.402 Y127.433 E15.94816
G1 X61.29 Y125.997 E15.99368
G1 X61.216 Y125.147 E16.02063
G1 X61.181 Y124.539 E16.03988
G1 X61.168 Y123.921 E16.05941
G1 X61.169 Y115.821 E16.31535
G1 X61.176 Y115.357 E16.33001
G1 X61.168 Y111.961 E16.43731
G1 X61.169 Y103.765 E16.69628
G1 X61.179 Y103.1 E16.7173
G1 X61.233 Y102.181 E16.74638
G1 X61.366 Y101.27 E16.77547
G1 X61.578 Y100.374 E16.80457
G1 X61.867 Y99.499 E16.83368
G1 X62.231 Y98.654 E16.86276
G1 X62.666 Y97.843 E16.89183
G1 X63.171 Y97.072 E16.92096
G1 X63.74 Y96.349 E16.95003
G1 X64.37 Y95.677 E16.97913
G1 X65.056 Y95.063 E17.00822
G1 X65.792 Y94.511 E17.03729
G1 X66.574 Y94.024 E17.0664
G1 X67.395 Y93.608 E17.09548
G1 X68.249 Y93.264 E17.12457
G1 X69.129 Y92.995 E17.15365
G1 X70.03 Y92.804 E17.18275
G1 X70.944 Y92.692 E17.21184
G1 X71.48 Y92.663 E17.22881
G1 X72.098 Y92.65 E17.24834
G1 X79.232 Y92.651 E17.47375
G1 X80.376 Y92.667 E17.5099
G1 X83.051 Y92.667 E17.59442
G1 X84.081 Y92.65 E17.62697
G1 X91.213 Y92.651 E17.85232
G1 X91.911 Y92.661 E17.87438
G1 X92.66 Y92.698 E17.89808
G1 X95.434 Y92.935 E17.98605
G1 X97.921 Y93.075 E18.06475
G1 X100.475 Y93.147 E18.14548
G1 X102.984 Y93.147 E18.22476
G1 X105.531 Y93.075 E18.30527
G1 X108.038 Y92.933 E18.38461
G1 X110.887 Y92.696 E18.47494
G1 X111.447 Y92.665 E18.49266
G1 X112.098 Y92.65 E18.51324
G1 X119.232 Y92.651 E18.73865
G1 X120.376 Y92.667 E18.7748
G1 X123.051 Y92.667 E18.85933
G1 X124.081 Y92.65 E18.89188
G1 X131.213 Y92.651 E19.11723
G1 X131.91 Y92.661 E19.13925
G1 X132.659 Y92.698 E19.16295
G1 X135.434 Y92.935 E19.25095
G1 X137.921 Y93.075 E19.32966
G1 X140.475 Y93.147 E19.41039
G1 X142.984 Y93.147 E19.48966
G1 X145.531 Y93.075 E19.57017
G1 X148.038 Y92.933 E19.64951
G1 X150.887 Y92.696 E19.73985
G1 X151.447 Y92.665 E19.75757
G1 X152.098 Y92.65 E19.77814
G1 X159.232 Y92.651 E20.00356
G1 X160.376 Y92.667 E20.03971
G1 X163.051 Y92.667 E20.12423
G1 X164.081 Y92.65 E20.15678
G1 X171.198 Y92.651 E20.38166
G1 X171.896 Y92.66 E20.40371
G1 X172.815 Y92.712 E20.4328
G1 X173.726 Y92.843 E20.46188
G1 X174.622 Y93.053 E20.49096
G1 X175.497 Y93.34 E20.52005
G1 X176.344 Y93.702 E20.54916
G1 X177.156 Y94.136 E20.57825
G1 X177.927 Y94.638 E20.60732
G1 X178.652 Y95.206 E20.63642
G1 X179.325 Y95.835 E20.66553
G1 X179.94 Y96.519 E20.69459
G1 X180.494 Y97.254 E20.72367
G1 X180.982 Y98.035 E20.75277
G1 X181.401 Y98.855 E20.78187
G1 X181.747 Y99.708 E20.81095
G1 X182.017 Y100.588 E20.84004
G1 X182.21 Y101.489 E20.86915
G1 X182.324 Y102.402 E20.89822
G1 X182.355 Y102.962 E20.91595
G1 X182.368 Y103.58 E20.93548
G1 X182.367 Y111.665 E21.19094
G1 X182.36 Y112.139 E21.20592
G1 X182.368 Y115.539 E21.31335
G1 X182.367 Y123.672 E21.57033
G1 X182.357 Y124.388 E21.59295
G1 X182.332 Y124.982 E21.61174
G1 X182.291 Y125.549 E21.6297
G1 X182.133 Y127.414 E21.68884
G1 X181.99 Y129.933 E21.76856
G1 X181.918 Y132.478 E21.84901
G1 X181.918 Y134.989 E21.92835
G1 X181.99 Y137.535 E22.00883
G1 X182.134 Y140.067 E22.08896
G1 X182.239 Y141.417 E22.13175
G1 X182.32 Y142.353 E22.16143
G1 X182.355 Y142.961 E22.18067
G1 X182.368 Y143.579 E22.20021
G1 X182.367 Y151.665 E22.4557
G1 X182.36 Y152.139 E22.47068
G1 X182.368 Y155.539 E22.57811
G1 X182.367 Y163.672 E22.83509
G1 X182.357 Y164.389 E22.85775
G1 X182.304 Y165.308 E22.88683
G1 X182.172 Y166.219 E22.91592
G1 X181.961 Y167.115 E22.945
G1 X181.673 Y167.99 E22.97411
G1 X181.31 Y168.836 E23.0032
G1 X180.876 Y169.647 E23.03226
G1 X180.372 Y170.418 E23.06137
G1 X179.804 Y171.142 E23.09044
G1 X178.955 Y172.023 E23.1291
G1 X178.689 Y172.269 E23.14055
G1 X176.768 Y174.06 E23.22354
G1 X174.967 Y175.838 E23.3035
G1 X173.205 Y177.678 E23.384
G1 X172.783 Y178.144 E23.40386
G1 X172.024 Y178.96 E23.43908
G1 X171.368 Y179.607 E23.46819
G1 X170.658 Y180.194 E23.4973
G1 X169.901 Y180.717 E23.52637
G1 X169.101 Y181.172 E23.55545
G1 X168.264 Y181.556 E23.58455
G1 X167.397 Y181.867 E23.61365
G1 X166.507 Y182.101 E23.64273
G1 X165.6 Y182.256 E23.6718
G1 X164.556 Y182.337 E23.70489
G1 X163.938 Y182.35 E23.72442
G1 X155.187 Y182.349 E24.00093
G1 X154.49 Y182.339 E24.02295
G1 X153.342 Y182.26 E24.05931
G1 X152.806 Y182.192 E24.07638
G1 X150.784 Y181.904 E24.14092
G1 X148.301 Y181.622 E24.21988
G1 X145.769 Y181.407 E24.30017
G1 X143.264 Y181.266 E24.37945
G1 X140.709 Y181.194 E24.46021
G1 X138.199 Y181.194 E24.53952
G1 X135.663 Y181.266 E24.61968
G1 X133.139 Y181.41 E24.69956
G1 X130.6 Y181.626 E24.78008
G1 X128.088 Y181.911 E24.85996
G1 X126.724 Y182.096 E24.90345
G1 X125.765 Y182.233 E24.93406
G1 X124.737 Y182.323 E24.96666
G0 F1350 X124.589 Y182.335
G0 X123.938 Y182.35
G1 F1500 E18.96666
G0 F7500 X113.979 Y172.403
G0 X92.409 Y117.143
G0 X92.421 Y102.597
G0 X80.382 Y92.267
G1 F1500 E24.96666
G1 X83.044 Y92.267 E25.05078
G1 X84.081 Y92.25 E25.08355
G1 X91.219 Y92.251 E25.30909
G1 X91.917 Y92.261 E25.33114
G1 X92.694 Y92.3 E25.35573
G1 X95.422 Y92.533 E25.44224
G1 X97.954 Y92.675 E25.52237
G1 X100.486 Y92.747 E25.6024
G1 X102.973 Y92.747 E25.68099
G1 X105.531 Y92.675 E25.76184
G1 X108.022 Y92.533 E25.84068
G1 X110.854 Y92.298 E25.93047
G1 X111.435 Y92.265 E25.94886
G1 X112.098 Y92.25 E25.96981
G1 X119.238 Y92.251 E26.19541
G1 X120.382 Y92.267 E26.23157
G1 X123.044 Y92.267 E26.31568
G1 X124.081 Y92.25 E26.34845
G1 X131.219 Y92.251 E26.57399
G1 X131.916 Y92.261 E26.59601
G1 X132.693 Y92.3 E26.6206
G1 X135.422 Y92.533 E26.70714
G1 X137.954 Y92.675 E26.78727
G1 X140.486 Y92.747 E26.8673
G1 X142.973 Y92.747 E26.94589
G1 X145.531 Y92.675 E27.02674
G1 X148.022 Y92.533 E27.10558
G1 X150.854 Y92.298 E27.19537
G1 X151.435 Y92.265 E27.21376
G1 X152.098 Y92.25 E27.23471
G1 X159.238 Y92.251 E27.46031
G1 X160.382 Y92.267 E27.49647
G1 X163.044 Y92.267 E27.58058
G1 X164.081 Y92.25 E27.61335
G1 X171.203 Y92.251 E27.83838
G1 X171.901 Y92.26 E27.86044
G1 X172.837 Y92.312 E27.89006
G1 X173.766 Y92.444 E27.91971
G1 X174.68 Y92.654 E27.94934
G1 X175.573 Y92.941 E27.97898
G1 X176.438 Y93.304 E28.00862
G1 X177.269 Y93.738 E28.03824
G1 X178.06 Y94.242 E28.06788
G1 X178.805 Y94.812 E28.09752
G1 X179.499 Y95.443 E28.12715
G1 X180.136 Y96.13 E28.15676
G1 X180.713 Y96.87 E28.18641
G1 X181.225 Y97.656 E28.21605
G1 X181.668 Y98.483 E28.24569
G1 X182.039 Y99.344 E28.27531
G1 X182.335 Y100.234 E28.30495
G1 X182.554 Y101.146 E28.33458
G1 X182.695 Y102.073 E28.36421
G1 X182.755 Y102.951 E28.39202
G1 X182.768 Y103.58 E28.4119
G1 X182.767 Y111.671 E28.66755
G1 X182.76 Y112.144 E28.6825
G1 X182.768 Y115.538 E28.78974
G1 X182.767 Y123.678 E29.04694
G1 X182.757 Y124.394 E29.06956
G1 X182.731 Y125.01 E29.08905
G1 X182.69 Y125.583 E29.1072
G1 X182.53 Y127.472 E29.1671
G1 X182.39 Y129.931 E29.24492
G1 X182.318 Y132.489 E29.32578
G1 X182.318 Y134.978 E29.40442
G1 X182.39 Y137.537 E29.48531
G1 X182.533 Y140.059 E29.56513
G1 X182.637 Y141.383 E29.60709
G1 X182.718 Y142.319 E29.63678
G1 X182.754 Y142.95 E29.65675
G1 X182.768 Y143.579 E29.67663
G1 X182.767 Y151.671 E29.93231
G1 X182.76 Y152.144 E29.94726
G1 X182.768 Y155.538 E30.0545
G1 X182.767 Y163.677 E30.31167
G1 X182.757 Y164.394 E30.33433
G1 X182.704 Y165.331 E30.36398
G1 X182.571 Y166.259 E30.3936
G1 X182.36 Y167.173 E30.42324
G1 X182.072 Y168.065 E30.45286
G1 X181.708 Y168.93 E30.48251
G1 X181.273 Y169.761 E30.51215
G1 X180.768 Y170.551 E30.54177
G1 X180.198 Y171.296 E30.57141
G1 X179.566 Y171.989 E30.60105
G1 X179.227 Y172.317 E30.61595
G1 X178.961 Y172.563 E30.6274
G1 X177.045 Y174.35 E30.71019
G1 X175.254 Y176.117 E30.78968
