;FLAVOR:Marlin
;TIME:5762
;Filament used: 3.83547m
;Layer height: 0.16
;MINX:88
;MINY:88
;MINZ:0.28
;MAXX:147
;MAXY:147
;MAXZ:56.12
;Generated with Cura_SteamEngine 4.6.2
M140 S60
M105
M190 S60
M104 S210
M105
M109 S210
M82 ;absolute extrusion mode
; Ender 3 Custom Start G-code
G92 E0 ; Reset Extruder
G28 ; Home all axes
G1 Z2.0 F3000 ; Move Z Axis up little to prevent scratching of Heat Bed
G1 X0.1 Y20 Z0.3 F5000.0 ; Move to start position
G1 X0.1 Y200.0 Z0.3 F1500.0 E15 ; Draw the first line
G1 X0.4 Y200.0 Z0.3 F5000.0 ; Move to side a little
G1 X0.4 Y20 Z0.3 F1500.0 E30 ; Draw the second line
G92 E0 ; Reset Extruder
G1 Z2.0 F3000 ; Move Z Axis up little to prevent scratching of Heat Bed
G1 X5 Y20 Z0.3 F5000.0 ; Move over to prevent blob squish
G92 E0
G92 E0
G1 F1500 E-4
;LAYER_COUNT:350
;LAYER:0
M106 S255
M204 S500
M205 X10 Y10
G1 F300 Z0.32
G0 F5400 X142.75 Y90.456 Z0.32
M204 S100
M205 X3 Y3
;TYPE:SKIRT
G1 F300 Z0.28
G1 F1500 E0
G1 F1800 X143.16 Y90.58 E0.02992
G1 X143.54 Y90.779 E0.05988
G1 X143.877 Y91.044 E0.08982
G1 X144.158 Y91.367 E0.11973
G1 X144.375 Y91.736 E0.14963
G1 X144.519 Y92.14 E0.17958
G1 X144.59 Y92.645 E0.2152
G1 X144.6 Y93.03 E0.2421
G1 X144.6 Y141.592 E3.63398
G1 X144.591 Y142.319 E3.68476
G1 X144.546 Y142.746 E3.71475
G1 X144.422 Y143.156 E3.74467
G1 X144.225 Y143.536 E3.77456
G1 X143.96 Y143.873 E3.80451
G1 X143.638 Y144.155 E3.8344
G1 X143.269 Y144.373 E3.86434
G1 X142.865 Y144.518 E3.89432
G1 X142.355 Y144.59 E3.93029
G1 X141.97 Y144.6 E3.95719
G1 X93.377 Y144.6 E7.35123
G1 X92.679 Y144.591 E7.39999
G1 X92.253 Y144.545 E7.42992
G1 X91.843 Y144.422 E7.45982
G1 X91.463 Y144.224 E7.48974
G1 X91.126 Y143.959 E7.51969
G1 X90.844 Y143.637 E7.54958
G1 X90.627 Y143.268 E7.57948
G1 X90.482 Y142.864 E7.60946
G1 X90.41 Y142.353 E7.64551
G1 X90.4 Y141.958 E7.67311
G1 X90.4 Y93.343 E11.06868
G1 X90.409 Y92.678 E11.11513
G1 X90.455 Y92.252 E11.14506
G1 X90.579 Y91.842 E11.17498
G1 X90.777 Y91.462 E11.20491
G1 X91.042 Y91.125 E11.23485
G1 X91.364 Y90.843 E11.26475
G1 X91.734 Y90.626 E11.29471
G1 X92.137 Y90.481 E11.32462
G1 X92.645 Y90.41 E11.36045
G1 X93.03 Y90.4 E11.38735
G1 X141.626 Y90.4 E14.7816
G1 X142.324 Y90.41 E14.83036
G1 X142.75 Y90.456 E14.86029
M204 S500
M205 X10 Y10
G0 F5400 X142.812 Y89.857
M204 S100
M205 X3 Y3
G1 F1800 X143.276 Y89.982 E14.89385
G1 X143.714 Y90.183 E14.92751
G1 X144.112 Y90.453 E14.9611
G1 X144.46 Y90.785 E14.9947
G1 X144.749 Y91.17 E15.02832
G1 X144.969 Y91.598 E15.06193
G1 X145.116 Y92.056 E15.09553
G1 X145.19 Y92.628 E15.13581
G1 X145.2 Y93.03 E15.1639
G1 X145.2 Y141.6 E18.55633
G1 X145.191 Y142.327 E18.60712
G1 X145.145 Y142.806 E18.64073
G1 X145.02 Y143.271 E18.67436
G1 X144.821 Y143.709 E18.70796
G1 X144.552 Y144.108 E18.74157
G1 X144.22 Y144.456 E18.77516
G1 X143.835 Y144.746 E18.80883
G1 X143.408 Y144.967 E18.84241
G1 X142.95 Y145.115 E18.87603
G1 X142.372 Y145.19 E18.91674
G1 X141.97 Y145.2 E18.94483
G1 X93.37 Y145.2 E22.33936
G1 X92.672 Y145.191 E22.38811
G1 X92.193 Y145.145 E22.42172
G1 X91.728 Y145.02 E22.45536
G1 X91.29 Y144.82 E22.48899
G1 X90.891 Y144.551 E22.5226
G1 X90.543 Y144.219 E22.55619
G1 X90.254 Y143.834 E22.58982
G1 X90.032 Y143.407 E22.62343
G1 X89.885 Y142.949 E22.65703
G1 X89.81 Y142.369 E22.69787
G1 X89.8 Y141.958 E22.72659
G1 X89.8 Y93.335 E26.12273
G1 X89.809 Y92.67 E26.16918
G1 X89.856 Y92.191 E26.20279
G1 X89.981 Y91.726 E26.23643
G1 X90.181 Y91.288 E26.27006
G1 X90.451 Y90.89 E26.30365
G1 X90.783 Y90.541 E26.33729
G1 X91.168 Y90.253 E26.37088
G1 X91.595 Y90.032 E26.40446
G1 X92.053 Y89.884 E26.43808
G1 X92.628 Y89.81 E26.47857
G1 X93.03 Y89.8 E26.50666
G1 X141.635 Y89.8 E29.90153
G1 X142.333 Y89.81 E29.95029
G1 X142.812 Y89.857 E29.98391
M204 S500
M205 X10 Y10
G0 F5400 X142.868 Y89.258
M204 S100
M205 X3 Y3
G1 F1800 X143.381 Y89.384 E30.02081
G1 X143.87 Y89.586 E30.05776
G1 X144.322 Y89.86 E30.09468
G1 X144.729 Y90.198 E30.13163
G1 X145.079 Y90.594 E30.16854
G1 X145.366 Y91.038 E30.20547
G1 X145.583 Y91.521 E30.24245
G1 X145.724 Y92.03 E30.27935
G1 X145.79 Y92.612 E30.32026
G1 X145.8 Y93.03 E30.34946
G1 X145.8 Y141.607 E33.74238
G1 X145.791 Y142.334 E33.79317
G1 X145.744 Y142.861 E33.83012
G1 X145.619 Y143.375 E33.86707
G1 X145.418 Y143.864 E33.904
G1 X145.145 Y144.317 E33.94094
G1 X144.807 Y144.724 E33.97789
G1 X144.412 Y145.075 E34.0148
G1 X143.969 Y145.363 E34.0517
G1 X143.487 Y145.58 E34.08862
G1 X142.977 Y145.723 E34.12562
G1 X142.389 Y145.79 E34.16695
G1 X141.97 Y145.8 E34.19623
G1 X93.362 Y145.8 E37.59132
G1 X92.664 Y145.791 E37.64007
G1 X92.137 Y145.744 E37.67703
G1 X91.624 Y145.618 E37.71392
G1 X91.135 Y145.417 E37.75085
G1 X90.682 Y145.144 E37.78779
G1 X90.275 Y144.806 E37.82475
G1 X89.924 Y144.411 E37.86165
G1 X89.636 Y143.967 E37.89862
G1 X89.419 Y143.485 E37.93554
G1 X89.277 Y142.976 E37.97245
G1 X89.21 Y142.386 E38.01392
G1 X89.2 Y141.958 E38.04383
G1 X89.2 Y93.327 E41.44052
G1 X89.209 Y92.662 E41.48697
G1 X89.256 Y92.135 E41.52393
G1 X89.382 Y91.621 E41.56089
G1 X89.584 Y91.133 E41.59778
G1 X89.857 Y90.68 E41.63472
G1 X90.195 Y90.273 E41.67167
G1 X90.591 Y89.923 E41.70859
G1 X91.035 Y89.635 E41.74555
G1 X91.517 Y89.418 E41.78247
G1 X92.026 Y89.276 E41.81938
G1 X92.611 Y89.21 E41.8605
G1 X93.03 Y89.2 E41.88978
G1 X141.643 Y89.2 E45.28521
G1 X142.341 Y89.21 E45.33397
G1 X142.868 Y89.258 E45.37093
M204 S500
M205 X10 Y10
G0 F5400 X142.92 Y88.659
M204 S100
M205 X3 Y3
G1 F1800 X143.478 Y88.786 E45.4109
G1 X144.013 Y88.989 E45.45087
G1 X144.514 Y89.265 E45.49082
G1 X144.973 Y89.608 E45.53084
G1 X145.378 Y90.012 E45.5708
G1 X145.724 Y90.468 E45.61078
G1 X146.003 Y90.968 E45.65077
G1 X146.209 Y91.502 E45.69075
G1 X146.339 Y92.06 E45.73077
G1 X146.389 Y92.595 E45.7683
G1 X146.4 Y93.03 E45.79869
G1 X146.4 Y141.615 E49.19217
G1 X146.391 Y142.342 E49.24295
G1 X146.344 Y142.912 E49.2829
G1 X146.218 Y143.471 E49.32293
G1 X146.015 Y144.006 E49.36289
G1 X145.74 Y144.508 E49.40287
G1 X145.398 Y144.966 E49.4428
G1 X144.995 Y145.373 E49.4828
G1 X144.539 Y145.72 E49.52283
G1 X144.04 Y145.999 E49.56276
G1 X143.506 Y146.207 E49.60278
G1 X142.949 Y146.338 E49.64275
G1 X142.406 Y146.389 E49.68084
G1 X141.97 Y146.4 E49.71131
G1 X93.354 Y146.4 E53.10695
G1 X92.656 Y146.391 E53.15571
G1 X92.086 Y146.343 E53.19566
G1 X91.527 Y146.217 E53.23569
G1 X90.992 Y146.014 E53.27565
G1 X90.49 Y145.739 E53.31563
G1 X90.032 Y145.396 E53.3556
G1 X89.626 Y144.993 E53.39555
G1 X89.279 Y144.538 E53.43552
G1 X89 Y144.038 E53.47551
G1 X88.793 Y143.504 E53.51552
G1 X88.662 Y142.947 E53.55548
G1 X88.61 Y142.402 E53.59372
G1 X88.6 Y141.958 E53.62474
G1 X88.6 Y93.319 E57.02199
G1 X88.609 Y92.654 E57.06845
G1 X88.657 Y92.083 E57.10847
G1 X88.784 Y91.525 E57.14844
G1 X88.987 Y90.99 E57.18841
G1 X89.263 Y90.488 E57.22842
G1 X89.605 Y90.03 E57.26834
G1 X90.009 Y89.624 E57.30835
G1 X90.465 Y89.278 E57.34833
G1 X90.964 Y88.999 E57.38826
G1 X91.498 Y88.792 E57.42826
G1 X92.055 Y88.661 E57.46823
G1 X92.594 Y88.611 E57.50604
G1 X93.03 Y88.6 E57.5365
G1 X141.652 Y88.6 E60.93257
G1 X142.35 Y88.61 E60.98132
G1 X142.92 Y88.659 E61.02128
M204 S500
M205 X10 Y10
G0 F5400 X142.969 Y88.059
M204 S100
M205 X3 Y3
G1 F1800 X143.569 Y88.187 E61.06413
G1 X144.146 Y88.392 E61.1069
G1 X144.692 Y88.67 E61.1497
G1 X145.198 Y89.017 E61.19255
G1 X145.654 Y89.426 E61.23534
G1 X146.052 Y89.892 E61.27814
G1 X146.387 Y90.405 E61.32094
G1 X146.652 Y90.958 E61.36377
G1 X146.843 Y91.54 E61.40655
G1 X146.957 Y92.142 E61.44934
G1 X146.989 Y92.578 E61.47988
G1 X147 Y93.03 E61.51146
G1 X147 Y141.622 E64.90543
G1 X146.991 Y142.349 E64.95621
G1 X146.943 Y142.96 E64.99902
G1 X146.816 Y143.56 E65.04186
G1 X146.613 Y144.138 E65.08464
G1 X146.336 Y144.685 E65.12747
G1 X145.99 Y145.191 E65.17029
G1 X145.581 Y145.647 E65.21307
G1 X145.117 Y146.047 E65.25586
G1 X144.604 Y146.383 E65.29869
G1 X144.052 Y146.649 E65.34149
G1 X143.47 Y146.841 E65.38429
G1 X142.868 Y146.955 E65.42709
G1 X142.423 Y146.989 E65.45826
G1 X141.97 Y147 E65.48991
G1 X93.346 Y147 E68.88612
G1 X92.648 Y146.991 E68.93487
G1 X92.037 Y146.943 E68.97768
G1 X91.438 Y146.816 E69.02045
G1 X90.86 Y146.612 E69.06326
G1 X90.313 Y146.335 E69.10609
G1 X89.808 Y145.989 E69.14884
G1 X89.351 Y145.58 E69.19168
G1 X88.952 Y145.115 E69.23448
G1 X88.616 Y144.602 E69.27731
G1 X88.35 Y144.05 E69.32011
G1 X88.159 Y143.468 E69.36289
G1 X88.044 Y142.865 E69.40577
G1 X88.011 Y142.418 E69.43707
G1 X88 Y141.958 E69.46921
G1 X88 Y93.31 E72.86709
G1 X88.009 Y92.645 E72.91355
G1 X88.058 Y92.034 E72.95636
G1 X88.185 Y91.435 E72.99913
G1 X88.389 Y90.857 E73.04194
G1 X88.667 Y90.311 E73.08473
G1 X89.013 Y89.805 E73.12755
G1 X89.423 Y89.349 E73.17038
G1 X89.888 Y88.95 E73.21318
G1 X90.401 Y88.615 E73.25597
G1 X90.953 Y88.349 E73.29877
G1 X91.535 Y88.158 E73.34155
G1 X92.138 Y88.044 E73.38441
G1 X92.577 Y88.011 E73.41516
G1 X93.03 Y88 E73.44681
G1 X141.66 Y88 E76.84344
G1 X142.358 Y88.01 E76.8922
G1 X142.969 Y88.059 E76.93501
M204 S500
M205 X10 Y10
G1 F1500 E72.93501
G1 F300 Z0.32
;MESH:AIl_In_One_3D_printer_test_micro.stl
G0 F5400 X140.8 Y140.8 Z0.32
M204 S100
M205 X3 Y3
;TYPE:WALL-INNER
G1 F300 Z0.28
G1 F1500 E76.93501
G1 F1800 X94.2 Y140.8 E80.18985
G1 X94.2 Y94.2 E83.44468
G1 X140.8 Y94.2 E86.69952
G1 X140.8 Y140.8 E89.95436
M204 S500
M205 X10 Y10
G0 F5400 X141.4 Y141.4
M204 S100
M205 X3 Y3
G1 F1800 X93.6 Y141.4 E93.29301
G1 X93.6 Y93.6 E96.63166
G1 X141.4 Y93.6 E99.97031
G1 X141.4 Y141.4 E103.30897
M204 S500
M205 X10 Y10
G0 F5400 X142 Y142
M204 S100
M205 X3 Y3
;TYPE:WALL-OUTER
G1 F1800 X93 Y142 E106.73143
G1 X93 Y93 E110.1539
G1 X142 Y93 E113.57637
G1 X142 Y142 E116.99884
M204 S500
M205 X10 Y10
G0 F5400 X141.2 Y142
G0 X141.2 Y141.34
G1 F1500 E112.99884
G1 F300 Z0.32
G0 F5400 X140.21 Y140.21 Z0.32
M204 S100
M205 X3 Y3
;TYPE:SKIN
G1 F300 Z0.28
G1 F1500 E116.99884
G1 F1800 X94.79 Y140.21 E120.17126
G1 X94.79 Y94.79 E123.34367
G1 X140.21 Y94.79 E126.51609
G1 X140.21 Y140.21 E129.68851
M204 S500
M205 X10 Y10
G1 F1500 E125.68851
G1 F300 Z0.32
G0 F5400 X95.369 Y95.369 Z0.32
M204 S100
M205 X3 Y3
G1 F300 Z0.28
G1 F1500 E129.68851
G1 F1800 X96.218 Y95.37 E129.74781
G1 X139.629 Y138.781 E134.03584
G1 X139.629 Y137.932 E134.09514
G1 X97.067 Y95.37 E138.29931
G1 X97.915 Y95.37 E138.35854
G1 X139.629 Y137.083 E142.4789
G1 X139.629 Y136.235 E142.53813
G1 X98.764 Y95.37 E146.57467
G1 X99.612 Y95.37 E146.6339
G1 X139.629 Y135.386 E150.58664
G1 X139.629 Y134.538 E150.64587
G1 X100.461 Y95.37 E154.51479
G1 X101.31 Y95.37 E154.57409
G1 X139.629 Y133.689 E158.35914
G1 X139.629 Y132.841 E158.41837
G1 X102.158 Y95.37 E162.11967
G1 X103.007 Y95.37 E162.17897
G1 X139.629 Y131.992 E165.7964
G1 X139.629 Y131.144 E165.85563
G1 X103.855 Y95.37 E169.3893
G1 X104.704 Y95.37 E169.4486
G1 X139.629 Y130.295 E172.8984
G1 X139.629 Y129.447 E172.95763
G1 X105.552 Y95.37 E176.32367
G1 X106.401 Y95.37 E176.38297
G1 X139.629 Y128.598 E179.66515
G1 X139.629 Y127.75 E179.72438
G1 X107.249 Y95.37 E182.9228
G1 X108.098 Y95.37 E182.9821
G1 X139.629 Y126.901 E186.09666
G1 X139.629 Y126.053 E186.15589
G1 X108.946 Y95.37 E189.18668
G1 X109.795 Y95.37 E189.24598
G1 X139.629 Y125.204 E192.19291
G1 X139.629 Y124.356 E192.25214
G1 X110.643 Y95.37 E195.1153
G1 X111.492 Y95.37 E195.1746
G1 X139.629 Y123.507 E197.95391
G1 X139.629 Y122.658 E198.01321
G1 X112.34 Y95.37 E200.7087
G1 X113.189 Y95.37 E200.768
G1 X139.629 Y121.81 E203.37968
G1 X139.629 Y120.961 E203.43898
G1 X114.037 Y95.37 E205.96684
G1 X114.886 Y95.37 E206.02614
G1 X139.629 Y120.113 E208.47019
G1 X139.629 Y119.264 E208.52949
G1 X115.734 Y95.37 E210.88973
G1 X116.583 Y95.37 E210.94903
G1 X139.629 Y118.416 E213.22546
G1 X139.629 Y117.567 E213.28476
G1 X117.432 Y95.37 E215.47733
G1 X118.28 Y95.37 E215.53656
G1 X139.629 Y116.719 E217.64536
G1 X139.629 Y115.87 E217.70466
G1 X119.129 Y95.37 E219.7296
G1 X119.977 Y95.37 E219.78883
G1 X139.629 Y115.022 E221.73
G1 X139.629 Y114.173 E221.7893
G1 X120.826 Y95.37 E223.64662
G1 X121.674 Y95.37 E223.70585
G1 X139.629 Y113.325 E225.4794
G1 X139.629 Y112.476 E225.5387
G1 X122.523 Y95.37 E227.22839
G1 X123.371 Y95.37 E227.28762
G1 X139.629 Y111.628 E228.89354
G1 X139.629 Y110.779 E228.95284
G1 X124.22 Y95.37 E230.47491
G1 X125.068 Y95.37 E230.53414
G1 X139.629 Y109.931 E231.97244
G1 X139.629 Y109.082 E232.03173
G1 X125.917 Y95.37 E233.38617
G1 X126.765 Y95.37 E233.4454
G1 X139.629 Y108.234 E234.71608
G1 X139.629 Y107.385 E234.77538
G1 X127.614 Y95.37 E235.96219
G1 X128.462 Y95.37 E236.02142
G1 X139.629 Y106.536 E237.12442
G1 X139.629 Y105.688 E237.18365
G1 X129.311 Y95.37 E238.20283
G1 X130.159 Y95.37 E238.26206
G1 X139.629 Y104.839 E239.19744
G1 X139.629 Y103.991 E239.25667
G1 X131.008 Y95.37 E240.10823
G1 X131.857 Y95.37 E240.16753
G1 X139.629 Y103.142 E240.93523
G1 X139.629 Y102.294 E240.99446
G1 X132.705 Y95.37 E241.67839
G1 X133.554 Y95.37 E241.73769
G1 X139.629 Y101.445 E242.33777
G1 X139.629 Y100.597 E242.397
G1 X134.402 Y95.37 E242.91331
G1 X135.251 Y95.37 E242.97261
G1 X139.629 Y99.748 E243.40505
G1 X139.629 Y98.9 E243.46428
G1 X136.099 Y95.37 E243.81297
G1 X136.948 Y95.37 E243.87227
G1 X139.629 Y98.051 E244.13709
G1 X139.629 Y97.203 E244.19632
G1 X137.796 Y95.37 E244.37738
G1 X138.645 Y95.37 E244.43668
G1 X139.629 Y96.354 E244.53388
G1 X139.629 Y95.506 E244.59311
G1 X139.493 Y95.37 E244.60654
G1 X139.629 Y95.37 E244.61604
M204 S500
M205 X10 Y10
G1 F1500 E240.61604
G1 F300 Z0.32
G0 F5400 X95.369 Y95.369 Z0.32
M204 S100
M205 X3 Y3
G1 F300 Z0.28
G1 F1500 E244.61604
G1 F1800 X139.629 Y139.629 E248.98793
G1 X138.781 Y139.629 E249.04716
G1 X95.369 Y96.218 E253.33525
G1 X95.369 Y97.066 E253.39448
G1 X137.932 Y139.629 E257.59874
G1 X137.083 Y139.629 E257.65804
G1 X95.369 Y97.915 E261.77845
G1 X95.369 Y98.763 E261.83768
G1 X136.235 Y139.629 E265.87432
G1 X135.386 Y139.629 E265.93362
G1 X95.369 Y99.612 E269.88641
G1 X95.369 Y100.46 E269.94564
G1 X134.538 Y139.629 E273.81465
G1 X133.689 Y139.629 E273.87395
G1 X95.369 Y101.309 E277.65911
G1 X95.369 Y102.157 E277.71834
G1 X132.841 Y139.629 E281.41973
G1 X131.992 Y139.629 E281.47903
G1 X95.369 Y103.006 E285.09656
G1 X95.369 Y103.854 E285.15579
G1 X131.144 Y139.629 E288.68956
G1 X130.295 Y139.629 E288.74886
G1 X95.369 Y104.703 E292.19876
G1 X95.369 Y105.551 E292.25799
G1 X129.447 Y139.629 E295.62414
G1 X128.598 Y139.629 E295.68343
G1 X95.369 Y106.4 E298.96571
G1 X95.369 Y107.249 E299.02501
G1 X127.75 Y139.629 E302.22348
G1 X126.901 Y139.629 E302.28278
G1 X95.369 Y108.097 E305.39743
G1 X95.369 Y108.946 E305.45673
G1 X126.053 Y139.629 E308.48757
G1 X125.204 Y139.629 E308.54687
G1 X95.369 Y109.794 E311.4939
G1 X95.369 Y110.643 E311.5532
G1 X124.356 Y139.629 E314.41642
G1 X123.507 Y139.629 E314.47572
G1 X95.369 Y111.491 E317.25512
G1 X95.369 Y112.34 E317.31442
G1 X122.658 Y139.629 E320.00996
G1 X121.81 Y139.629 E320.06919
G1 X95.369 Y113.188 E322.68097
G1 X95.369 Y114.037 E322.74027
G1 X120.961 Y139.629 E325.26818
G1 X120.113 Y139.629 E325.32741
G1 X95.369 Y114.885 E327.77156
G1 X95.369 Y115.734 E327.83086
G1 X119.264 Y139.629 E330.19115
G1 X118.416 Y139.629 E330.25038
G1 X95.369 Y116.582 E332.52691
G1 X95.369 Y117.431 E332.58621
G1 X117.567 Y139.629 E334.77887
G1 X116.719 Y139.629 E334.8381
G1 X95.369 Y118.279 E336.947
G1 X95.369 Y119.128 E337.0063
G1 X115.87 Y139.629 E339.03134
G1 X115.022 Y139.629 E339.09057
G1 X95.369 Y119.976 E341.03185
G1 X95.369 Y120.825 E341.09115
G1 X114.173 Y139.629 E342.94856
G1 X113.325 Y139.629 E343.00779
G1 X95.369 Y121.673 E344.78144
G1 X95.369 Y122.522 E344.84074
G1 X112.476 Y139.629 E346.53053
G1 X111.628 Y139.629 E346.58976
G1 X95.369 Y123.371 E348.19573
G1 X95.369 Y124.219 E348.25496
G1 X110.779 Y139.629 E349.77712
G1 X109.931 Y139.629 E349.83635
G1 X95.369 Y125.068 E351.2747
G1 X95.369 Y125.916 E351.33393
G1 X109.082 Y139.629 E352.68847
G1 X108.234 Y139.629 E352.7477
G1 X95.369 Y126.765 E354.01842
G1 X95.369 Y127.613 E354.07765
G1 X107.385 Y139.629 E355.26456
G1 X106.536 Y139.629 E355.32386
G1 X95.369 Y128.462 E356.42691
G1 X95.369 Y129.31 E356.48614
G1 X105.688 Y139.629 E357.50543
G1 X104.839 Y139.629 E357.56473
G1 X95.369 Y130.159 E358.50015
G1 X95.369 Y131.007 E358.55938
G1 X103.991 Y139.629 E359.41104
G1 X103.142 Y139.629 E359.47034
