;FLAVOR:Marlin
;TIME:10670
;Filament used: 4.51833m
;Layer height: 0.2
;MINX:81.5
;MINY:81.5
;MINZ:0.2
;MAXX:153.5
;MAXY:153.5
;MAXZ:56.2
;Generated with Cura_SteamEngine 4.6.2
M140 S60
M105
M190 S60
M104 S200
M105
M109 S200
M82 ;absolute extrusion mode
; Ender 3 Custom Start G-code
G92 E0 ; Reset Extruder
G28 ; Home all axes
G1 Z2.0 F3000 ; Move Z Axis up little to prevent scratching of Heat Bed
G1 X0.1 Y20 Z0.3 F5000.0 ; Move to start position
G1 X0.1 Y200.0 Z0.3 F1500.0 E15 ; Draw the first line
G1 X0.4 Y200.0 Z0.3 F5000.0 ; Move to side a little
G1 X0.4 Y20 Z0.3 F1500.0 E30 ; Draw the second line
G92 E0 ; Reset Extruder
G1 Z2.0 F3000 ; Move Z Axis up little to prevent scratching of Heat Bed
G1 X5 Y20 Z0.3 F5000.0 ; Move over to prevent blob squish
G92 E0
G92 E0
G1 F1500 E-6.5
;LAYER_COUNT:281
;LAYER:0
M107
G0 F6000 X142.637 Y82.311 Z0.2
;TYPE:SKIRT
G1 F1500 E0
G1 F1200 X143.539 Y82.364 E0.03005
G1 X144.432 Y82.496 E0.06008
G1 X145.31 Y82.707 E0.09011
G1 X146.166 Y82.995 E0.12015
G1 X146.993 Y83.357 E0.15018
G1 X147.785 Y83.792 E0.18023
G1 X148.536 Y84.294 E0.21027
G1 X149.239 Y84.861 E0.24031
G1 X149.889 Y85.488 E0.27035
G1 X150.481 Y86.17 E0.30039
G1 X151.011 Y86.901 E0.33042
G1 X151.473 Y87.677 E0.36046
G1 X151.866 Y88.49 E0.39049
G1 X152.184 Y89.335 E0.42052
G1 X152.427 Y90.205 E0.45056
G1 X152.592 Y91.093 E0.4806
G1 X152.687 Y92.223 E0.51832
G1 X152.7 Y92.83 E0.53851
G1 X152.699 Y141.89 E2.17026
G1 X152.69 Y142.617 E2.19444
G1 X152.639 Y143.519 E2.22449
G1 X152.508 Y144.413 E2.25454
G1 X152.299 Y145.291 E2.28456
G1 X152.013 Y146.148 E2.31461
G1 X151.652 Y146.976 E2.34465
G1 X151.22 Y147.768 E2.37466
G1 X150.719 Y148.52 E2.40471
G1 X150.153 Y149.224 E2.43475
G1 X149.528 Y149.875 E2.46477
G1 X148.847 Y150.469 E2.49483
G1 X148.116 Y151 E2.52488
G1 X147.342 Y151.464 E2.55489
G1 X146.529 Y151.858 E2.58494
G1 X145.685 Y152.178 E2.61496
G1 X144.815 Y152.423 E2.64502
G1 X143.928 Y152.589 E2.67504
G1 X142.777 Y152.687 E2.71346
G1 X142.17 Y152.7 E2.73365
G1 X93.075 Y152.699 E4.36656
G1 X92.377 Y152.69 E4.38978
G1 X91.476 Y152.639 E4.41979
G1 X90.582 Y152.507 E4.44985
G1 X89.704 Y152.298 E4.47987
G1 X88.847 Y152.011 E4.50993
G1 X88.02 Y151.65 E4.53994
G1 X87.227 Y151.217 E4.56999
G1 X86.476 Y150.716 E4.60002
G1 X85.772 Y150.15 E4.63006
G1 X85.121 Y149.524 E4.6601
G1 X84.528 Y148.843 E4.69013
G1 X83.998 Y148.112 E4.72016
G1 X83.534 Y147.337 E4.75021
G1 X83.14 Y146.524 E4.78026
G1 X82.82 Y145.68 E4.81028
G1 X82.576 Y144.81 E4.84033
G1 X82.41 Y143.922 E4.87038
G1 X82.313 Y142.767 E4.90893
G1 X82.3 Y142.158 E4.92919
G1 X82.301 Y93.036 E6.56299
G1 X82.31 Y92.371 E6.58511
G1 X82.362 Y91.469 E6.61516
G1 X82.494 Y90.576 E6.64519
G1 X82.704 Y89.698 E6.67521
G1 X82.991 Y88.841 E6.70527
G1 X83.353 Y88.014 E6.7353
G1 X83.786 Y87.222 E6.76532
G1 X84.288 Y86.471 E6.79537
G1 X84.855 Y85.767 E6.82543
G1 X85.481 Y85.117 E6.85545
G1 X86.162 Y84.524 E6.88548
G1 X86.894 Y83.994 E6.91554
G1 X87.669 Y83.531 E6.94556
G1 X88.482 Y83.138 E6.9756
G1 X89.327 Y82.818 E7.00565
G1 X90.196 Y82.575 E7.03566
G1 X91.084 Y82.409 E7.06571
G1 X92.223 Y82.313 E7.10373
G1 X92.83 Y82.3 E7.12392
G1 X141.939 Y82.301 E8.75729
G1 X142.637 Y82.311 E8.78051
G0 F6000 X142.643 Y81.911
G1 F1200 X143.562 Y81.964 E8.81113
G1 X144.473 Y82.097 E8.84175
G1 X145.369 Y82.308 E8.87236
G1 X146.243 Y82.596 E8.90297
G1 X147.09 Y82.959 E8.93362
G1 X147.901 Y83.394 E8.96423
G1 X148.671 Y83.898 E8.99484
G1 X149.395 Y84.467 E9.02547
G1 X150.067 Y85.097 E9.0561
G1 X150.682 Y85.782 E9.08672
G1 X151.235 Y86.518 E9.11734
G1 X151.722 Y87.299 E9.14795
G1 X152.139 Y88.12 E9.17858
G1 X152.484 Y88.974 E9.20921
G1 X152.753 Y89.854 E9.23982
G1 X152.945 Y90.755 E9.27046
G1 X153.058 Y91.668 E9.30106
G1 X153.087 Y92.212 E9.31918
G1 X153.1 Y92.83 E9.33974
G1 X153.099 Y141.895 E10.97164
G1 X153.09 Y142.622 E10.99583
G1 X153.039 Y143.541 E11.02644
G1 X152.908 Y144.453 E11.05708
G1 X152.698 Y145.349 E11.08769
G1 X152.412 Y146.224 E11.11831
G1 X152.051 Y147.071 E11.14893
G1 X151.617 Y147.883 E11.17956
G1 X151.115 Y148.655 E11.21019
G1 X150.547 Y149.38 E11.24082
G1 X149.919 Y150.053 E11.27143
G1 X149.235 Y150.669 E11.30205
G1 X148.5 Y151.223 E11.33266
G1 X147.72 Y151.712 E11.36328
G1 X146.9 Y152.131 E11.39391
G1 X146.047 Y152.477 E11.42453
G1 X145.167 Y152.748 E11.45515
G1 X144.267 Y152.941 E11.48577
G1 X143.353 Y153.056 E11.5164
G1 X142.788 Y153.087 E11.53523
G1 X142.17 Y153.1 E11.55578
G1 X93.07 Y153.099 E13.18886
G1 X92.372 Y153.09 E13.21207
G1 X91.453 Y153.038 E13.24269
G1 X90.542 Y152.907 E13.2733
G1 X89.646 Y152.697 E13.30391
G1 X88.771 Y152.41 E13.33454
G1 X87.924 Y152.048 E13.36517
G1 X87.112 Y151.614 E13.3958
G1 X86.341 Y151.112 E13.4264
G1 X85.616 Y150.544 E13.45703
G1 X84.943 Y149.915 E13.48767
G1 X84.328 Y149.231 E13.51826
G1 X83.774 Y148.496 E13.54887
G1 X83.286 Y147.715 E13.57951
G1 X82.867 Y146.895 E13.61013
G1 X82.521 Y146.042 E13.64075
G1 X82.251 Y145.162 E13.67136
G1 X82.058 Y144.261 E13.70201
G1 X81.944 Y143.348 E13.73261
G1 X81.913 Y142.777 E13.75163
G1 X81.9 Y142.158 E13.77223
G1 X81.901 Y93.031 E15.4062
G1 X81.91 Y92.366 E15.42832
G1 X81.962 Y91.446 E15.45896
G1 X82.094 Y90.535 E15.48958
G1 X82.305 Y89.639 E15.5202
G1 X82.592 Y88.764 E15.55083
G1 X82.955 Y87.918 E15.58144
G1 X83.389 Y87.106 E15.61207
G1 X83.892 Y86.335 E15.64269
G1 X84.461 Y85.611 E15.67331
G1 X85.089 Y84.939 E15.7039
G1 X85.774 Y84.323 E15.73454
G1 X86.51 Y83.77 E15.76516
G1 X87.291 Y83.282 E15.79579
G1 X88.111 Y82.864 E15.82641
G1 X88.965 Y82.519 E15.85704
G1 X89.845 Y82.249 E15.88766
G1 X90.745 Y82.057 E15.91826
G1 X91.659 Y81.943 E15.9489
G1 X92.212 Y81.913 E15.96732
G1 X92.83 Y81.9 E15.98788
G1 X141.945 Y81.901 E17.62145
G1 X142.643 Y81.911 E17.64467
G0 F6000 X142.649 Y81.511
G1 F1200 X143.585 Y81.565 E17.67585
G1 X144.513 Y81.697 E17.70703
G1 X145.427 Y81.909 E17.73823
G1 X146.319 Y82.198 E17.76942
G1 X147.184 Y82.561 E17.80062
G1 X148.014 Y82.997 E17.8318
G1 X148.805 Y83.502 E17.86302
G1 X149.549 Y84.073 E17.89421
G1 X150.242 Y84.705 E17.92541
G1 X150.879 Y85.393 E17.95659
G1 X151.454 Y86.134 E17.98779
G1 X151.965 Y86.92 E18.01897
G1 X152.407 Y87.748 E18.05019
G1 X152.776 Y88.61 E18.08137
G1 X153.071 Y89.5 E18.11256
G1 X153.289 Y90.412 E18.14375
G1 X153.429 Y91.34 E18.17496
G1 X153.487 Y92.201 E18.20366
G1 X153.5 Y92.83 E18.22459
G1 X153.499 Y141.9 E19.85666
G1 X153.49 Y142.627 E19.88084
G1 X153.439 Y143.564 E19.91205
G1 X153.307 Y144.492 E19.94323
G1 X153.098 Y145.406 E19.97441
G1 X152.811 Y146.299 E20.00561
G1 X152.449 Y147.165 E20.03683
G1 X152.015 Y147.996 E20.06801
G1 X151.511 Y148.787 E20.09921
G1 X150.942 Y149.532 E20.13039
G1 X150.311 Y150.227 E20.16161
G1 X149.624 Y150.865 E20.19279
G1 X148.885 Y151.442 E20.22398
G1 X148.099 Y151.954 E20.25518
G1 X147.273 Y152.397 E20.28635
G1 X146.411 Y152.769 E20.31758
G1 X145.522 Y153.065 E20.34874
G1 X144.61 Y153.285 E20.37994
G1 X143.683 Y153.426 E20.41113
G1 X142.799 Y153.487 E20.4406
G1 X142.17 Y153.5 E20.46153
G1 X93.065 Y153.499 E22.09477
G1 X92.367 Y153.49 E22.11798
G1 X91.431 Y153.438 E22.14916
G1 X90.502 Y153.306 E22.18037
G1 X89.588 Y153.096 E22.21156
G1 X88.695 Y152.809 E22.24276
G1 X87.83 Y152.446 E22.27396
G1 X86.999 Y152.012 E22.30514
G1 X86.208 Y151.508 E22.33634
G1 X85.463 Y150.938 E22.36754
G1 X84.769 Y150.307 E22.39874
G1 X84.132 Y149.62 E22.4299
G1 X83.555 Y148.88 E22.46111
G1 X83.043 Y148.094 E22.49231
G1 X82.6 Y147.267 E22.52351
G1 X82.229 Y146.406 E22.55469
G1 X81.933 Y145.516 E22.58589
G1 X81.714 Y144.604 E22.61708
G1 X81.573 Y143.677 E22.64827
G1 X81.513 Y142.788 E22.67791
G1 X81.5 Y142.158 E22.69887
G1 X81.501 Y93.025 E24.33304
G1 X81.51 Y92.36 E24.35516
G1 X81.563 Y91.424 E24.38634
G1 X81.695 Y90.495 E24.41755
G1 X81.906 Y89.581 E24.44875
G1 X82.194 Y88.689 E24.47992
G1 X82.557 Y87.824 E24.51112
G1 X82.992 Y86.993 E24.54232
G1 X83.496 Y86.203 E24.57349
G1 X84.066 Y85.458 E24.60469
G1 X84.698 Y84.764 E24.63591
G1 X85.386 Y84.127 E24.66709
G1 X86.126 Y83.551 E24.69828
G1 X86.912 Y83.039 E24.72948
G1 X87.739 Y82.597 E24.76067
G1 X88.601 Y82.227 E24.79187
G1 X89.491 Y81.931 E24.82306
G1 X90.403 Y81.713 E24.85425
G1 X91.33 Y81.572 E24.88544
G1 X92.201 Y81.513 E24.91447
G1 X92.83 Y81.5 E24.9354
G1 X141.951 Y81.501 E26.56917
G1 X142.649 Y81.511 E26.59239
G1 F1500 E20.09239
;MESH:AIl_In_One_3D_printer_test_micro.stl
G0 F6000 X142.08 Y91.835
G0 X142.08 Y92.92
G0 X141.718 Y141.718
G0 X93.1 Y141.9
;TYPE:WALL-INNER
G1 F1500 E26.59239
G1 F1200 X93.1 Y93.1 E28.21548
G1 X141.9 Y93.1 E29.83858
G1 X141.9 Y141.9 E31.46167
G1 X93.1 Y141.9 E33.08477
G0 F6000 X92.7 Y142.3
;TYPE:WALL-OUTER
G1 F1200 X92.7 Y92.7 E34.73447
G1 X142.3 Y92.7 E36.38417
G1 X142.3 Y142.3 E38.03387
G1 X92.7 Y142.3 E39.68358
G0 F6000 X92.97 Y142.03
G0 X93.21 Y141.51
G0 X93.49 Y141.51
;TYPE:SKIN
G1 F1200 X93.49 Y93.49 E41.28073
G1 X141.51 Y93.49 E42.87788
G1 X141.51 Y141.51 E44.47503
G1 X93.49 Y141.51 E46.07218
G0 F6000 X93.831 Y141.349
G1 F1200 X93.649 Y141.167 E46.08074
G0 F6000 X93.649 Y140.601
G1 F1200 X94.397 Y141.349 E46.11593
G0 F6000 X94.963 Y141.349
G1 F1200 X93.649 Y140.036 E46.17771
G0 F6000 X93.649 Y139.47
G1 F1200 X95.528 Y141.349 E46.26609
G0 F6000 X96.094 Y141.349
G1 F1200 X93.649 Y138.904 E46.3811
G0 F6000 X93.649 Y138.339
G1 F1200 X96.66 Y141.349 E46.5227
G0 F6000 X97.225 Y141.349
G1 F1200 X93.649 Y137.773 E46.69091
G0 F6000 X93.649 Y137.207
G1 F1200 X97.791 Y141.349 E46.88573
G0 F6000 X98.357 Y141.349
G1 F1200 X93.649 Y136.642 E47.10716
G0 F6000 X93.649 Y136.076
G1 F1200 X98.922 Y141.349 E47.35519
G0 F6000 X99.488 Y141.349
G1 F1200 X93.649 Y135.51 E47.62984
G0 F6000 X93.649 Y134.944
G1 F1200 X100.054 Y141.349 E47.93111
G0 F6000 X100.619 Y141.349
G1 F1200 X93.649 Y134.379 E48.25895
G0 F6000 X93.649 Y133.813
G1 F1200 X101.185 Y141.349 E48.61342
G0 F6000 X101.751 Y141.349
G1 F1200 X93.649 Y133.247 E48.99452
G0 F6000 X93.649 Y132.682
G1 F1200 X102.316 Y141.349 E49.40219
G0 F6000 X102.882 Y141.349
G1 F1200 X93.649 Y132.116 E49.83648
G0 F6000 X93.649 Y131.55
G1 F1200 X103.448 Y141.349 E50.29739
G0 F6000 X104.013 Y141.349
G1 F1200 X93.649 Y130.985 E50.78488
G0 F6000 X93.649 Y130.419
G1 F1200 X104.579 Y141.349 E51.299
G0 F6000 X105.145 Y141.349
G1 F1200 X93.649 Y129.853 E51.83974
G0 F6000 X93.649 Y129.288
G1 F1200 X105.711 Y141.349 E52.40707
G0 F6000 X106.276 Y141.349
G1 F1200 X93.649 Y128.722 E53.00101
G0 F6000 X93.649 Y128.156
G1 F1200 X106.842 Y141.349 E53.62156
G0 F6000 X107.408 Y141.349
G1 F1200 X93.649 Y127.591 E54.26872
G0 F6000 X93.649 Y127.025
G1 F1200 X107.973 Y141.349 E54.94248
G0 F6000 X108.539 Y141.349
G1 F1200 X93.649 Y126.459 E55.64286
G0 F6000 X93.649 Y125.893
G1 F1200 X109.105 Y141.349 E56.36986
G0 F6000 X109.67 Y141.349
G1 F1200 X93.649 Y125.328 E57.12344
G0 F6000 X93.649 Y124.762
G1 F1200 X110.236 Y141.349 E57.90364
G0 F6000 X110.802 Y141.349
G1 F1200 X93.649 Y124.196 E58.71047
G0 F6000 X93.649 Y123.631
G1 F1200 X111.367 Y141.349 E59.54387
G0 F6000 X111.933 Y141.349
G1 F1200 X93.649 Y123.065 E60.40389
G0 F6000 X93.649 Y122.499
G1 F1200 X112.499 Y141.349 E61.29054
G0 F6000 X113.064 Y141.349
G1 F1200 X93.649 Y121.934 E62.20376
G0 F6000 X93.649 Y121.368
G1 F1200 X113.63 Y141.349 E63.1436
G0 F6000 X114.196 Y141.349
G1 F1200 X93.649 Y120.802 E64.11007
G0 F6000 X93.649 Y120.237
G1 F1200 X114.762 Y141.349 E65.10314
G0 F6000 X115.327 Y141.349
G1 F1200 X93.649 Y119.671 E66.12281
G0 F6000 X93.649 Y119.105
G1 F1200 X115.893 Y141.349 E67.1691
G0 F6000 X116.459 Y141.349
G1 F1200 X93.649 Y118.54 E68.24198
G0 F6000 X93.649 Y117.974
G1 F1200 X117.024 Y141.349 E69.34147
G0 F6000 X117.59 Y141.349
G1 F1200 X93.649 Y117.408 E70.46758
G0 F6000 X93.649 Y116.843
G1 F1200 X118.156 Y141.349 E71.62029
G0 F6000 X118.721 Y141.349
G1 F1200 X93.649 Y116.277 E72.7996
G0 F6000 X93.649 Y115.711
G1 F1200 X119.287 Y141.349 E74.00554
G0 F6000 X119.853 Y141.349
G1 F1200 X93.649 Y115.145 E75.23809
G0 F6000 X93.649 Y114.58
G1 F1200 X120.418 Y141.349 E76.49723
G0 F6000 X120.984 Y141.349
G1 F1200 X93.649 Y114.014 E77.78298
G0 F6000 X93.649 Y113.448
G1 F1200 X121.55 Y141.349 E79.09536
G0 F6000 X122.115 Y141.349
G1 F1200 X93.649 Y112.883 E80.43431
G0 F6000 X93.649 Y112.317
G1 F1200 X122.681 Y141.349 E81.79989
G0 F6000 X123.247 Y141.349
G1 F1200 X93.649 Y111.751 E83.19209
G0 F6000 X93.649 Y111.186
G1 F1200 X123.812 Y141.349 E84.61086
G0 F6000 X124.378 Y141.349
G1 F1200 X93.649 Y110.62 E86.05626
G0 F6000 X93.649 Y110.054
G1 F1200 X124.944 Y141.349 E87.52828
G0 F6000 X125.51 Y141.349
G1 F1200 X93.649 Y109.489 E89.0269
G0 F6000 X93.649 Y108.923
G1 F1200 X126.075 Y141.349 E90.55212
G0 F6000 X126.641 Y141.349
G1 F1200 X93.649 Y108.357 E92.10396
G0 F6000 X93.649 Y107.792
G1 F1200 X127.207 Y141.349 E93.6824
G0 F6000 X127.772 Y141.349
G1 F1200 X93.649 Y107.226 E95.28745
G0 F6000 X93.649 Y106.66
G1 F1200 X128.338 Y141.349 E96.91911
G0 F6000 X128.904 Y141.349
G1 F1200 X93.649 Y106.095 E98.57737
G0 F6000 X93.649 Y105.529
G1 F1200 X129.469 Y141.349 E100.26224
G0 F6000 X130.035 Y141.349
G1 F1200 X93.649 Y104.963 E101.97372
G0 F6000 X93.649 Y104.397
G1 F1200 X130.601 Y141.349 E103.71183
G0 F6000 X131.166 Y141.349
G1 F1200 X93.649 Y103.832 E105.47652
G0 F6000 X93.649 Y103.266
G1 F1200 X131.732 Y141.349 E107.26782
G0 F6000 X132.298 Y141.349
G1 F1200 X93.649 Y102.7 E109.08575
G0 F6000 X93.649 Y102.135
G1 F1200 X132.863 Y141.349 E110.93026
G0 F6000 X133.429 Y141.349
G1 F1200 X93.649 Y101.569 E112.80139
G0 F6000 X93.649 Y101.003
G1 F1200 X133.995 Y141.349 E114.69914
G0 F6000 X134.561 Y141.349
G1 F1200 X93.649 Y100.438 E116.62349
G0 F6000 X93.649 Y99.872
G1 F1200 X135.126 Y141.349 E118.57444
G0 F6000 X135.692 Y141.349
G1 F1200 X93.649 Y99.306 E120.55202
G0 F6000 X93.649 Y98.741
G1 F1200 X136.258 Y141.349 E122.55619
G0 F6000 X136.823 Y141.349
G1 F1200 X93.649 Y98.175 E124.58696
G0 F6000 X93.649 Y97.609
G1 F1200 X137.389 Y141.349 E126.64436
G0 F6000 X137.955 Y141.349
G1 F1200 X93.649 Y97.044 E128.72835
G0 F6000 X93.649 Y96.478
G1 F1200 X138.52 Y141.349 E130.83895
G0 F6000 X139.086 Y141.349
G1 F1200 X93.649 Y95.912 E132.97617
G0 F6000 X93.649 Y95.346
G1 F1200 X139.652 Y141.349 E135.14001
G0 F6000 X140.217 Y141.349
G1 F1200 X93.649 Y94.781 E137.33042
G0 F6000 X93.649 Y94.215
G1 F1200 X140.783 Y141.349 E139.54746
G0 F6000 X141.349 Y141.349
G1 F1200 X93.649 Y93.649 E141.79112
G0 F6000 X94.216 Y93.65
G1 F1200 X141.349 Y140.784 E144.00814
G0 F6000 X141.349 Y140.218
G1 F1200 X94.782 Y93.65 E146.19853
G0 F6000 X95.347 Y93.65
G1 F1200 X141.349 Y139.652 E148.36232
G0 F6000 X141.349 Y139.087
G1 F1200 X95.913 Y93.65 E150.49952
G0 F6000 X96.479 Y93.65
G1 F1200 X141.349 Y138.521 E152.61009
G0 F6000 X141.349 Y137.955
G1 F1200 X97.044 Y93.65 E154.69406
G0 F6000 X97.61 Y93.65
G1 F1200 X141.349 Y137.39 E156.75143
G0 F6000 X141.349 Y136.824
G1 F1200 X98.176 Y93.65 E158.78218
G0 F6000 X98.741 Y93.65
G1 F1200 X141.349 Y136.258 E160.78633
G0 F6000 X141.349 Y135.693
G1 F1200 X99.307 Y93.65 E162.76388
G0 F6000 X99.873 Y93.65
G1 F1200 X141.349 Y135.127 E164.71481
G0 F6000 X141.349 Y134.561
G1 F1200 X100.438 Y93.65 E166.63913
G0 F6000 X101.004 Y93.65
G1 F1200 X141.349 Y133.996 E168.53686
G0 F6000 X141.349 Y133.43
G1 F1200 X101.57 Y93.65 E170.40797
G0 F6000 X102.135 Y93.65
G1 F1200 X141.349 Y132.864 E172.25248
G0 F6000 X141.349 Y132.298
G1 F1200 X102.701 Y93.65 E174.07036
G0 F6000 X103.267 Y93.65
G1 F1200 X141.349 Y131.733 E175.86164
G0 F6000 X141.349 Y131.167
G1 F1200 X103.832 Y93.65 E177.62633
G0 F6000 X104.398 Y93.65
G1 F1200 X141.349 Y130.601 E179.36439
G0 F6000 X141.349 Y130.036
G1 F1200 X104.964 Y93.65 E181.07585
G0 F6000 X105.53 Y93.65
G1 F1200 X141.349 Y129.47 E182.76069
G0 F6000 X141.349 Y128.904
G1 F1200 X106.095 Y93.65 E184.41893
G0 F6000 X106.661 Y93.65
G1 F1200 X141.349 Y128.339 E186.05057
G0 F6000 X141.349 Y127.773
G1 F1200 X107.227 Y93.65 E187.65559
G0 F6000 X107.792 Y93.65
G1 F1200 X141.349 Y127.207 E189.23401
G0 F6000 X141.349 Y126.642
G1 F1200 X108.358 Y93.65 E190.78583
G0 F6000 X108.924 Y93.65
G1 F1200 X141.349 Y126.076 E192.31102
G0 F6000 X141.349 Y125.51
G1 F1200 X109.489 Y93.65 E193.80962
G0 F6000 X110.055 Y93.65
G1 F1200 X141.349 Y124.945 E195.28162
G0 F6000 X141.349 Y124.379
