;FLAVOR:Marlin
;TIME:8423
;Filament used: 5.7989m
;Layer height: 0.2
;MINX:49.149
;MINY:49.149
;MINZ:0.2
;MAXX:170.851
;MAXY:170.851
;MAXZ:3
;POSTPROCESSED
;Generated with Cura_SteamEngine 4.7.0
M140 S60
M105
M190 S60
M104 S200
M105
M109 S200
M82 ;absolute extrusion mode
; Ender 3 Custom Start G-code
G92 E0 ; Reset Extruder
G28 ; Home all axes
G1 Z2.0 F3000 ; Move Z Axis up little to prevent scratching of Heat Bed
G1 X0.1 Y20 Z0.3 F5000.0 ; Move to start position
G1 X0.1 Y200.0 Z0.3 F1500.0 E15 ; Draw the first line
G1 X0.4 Y200.0 Z0.3 F5000.0 ; Move to side a little
G1 X0.4 Y20 Z0.3 F1500.0 E30 ; Draw the second line
G92 E0 ; Reset Extruder
G1 Z2.0 F3000 ; Move Z Axis up little to prevent scratching of Heat Bed
G1 X5 Y20 Z0.3 F5000.0 ; Move over to prevent blob squish
G92 E0
G92 E0
G1 F1500 E-6.5
;LAYER_COUNT:15
;LAYER:0
M107
M204 S500
M205 X8 Y8
G0 F6000 X55.151 Y55.384 Z0.2
;TYPE:SKIRT
G1 F1500 E0
G1 F1200 X55.414 Y55.122 E0.01235
G1 X55.646 Y54.897 E0.0231
G1 X55.86 Y54.696 E0.03286
G1 X56.168 Y54.418 E0.04666
G1 X56.454 Y54.169 E0.05927
G1 X56.71 Y53.952 E0.07044
G1 X57.079 Y53.65 E0.0863
G1 X57.402 Y53.396 E0.09996
G1 X57.625 Y53.227 E0.10927
G1 X57.968 Y52.977 E0.12339
G1 X58.217 Y52.803 E0.13349
G1 X58.515 Y52.603 E0.14543
G1 X58.888 Y52.362 E0.1602
G1 X59.069 Y52.249 E0.16729
G1 X59.337 Y52.087 E0.17771
G1 X59.542 Y51.967 E0.18561
G1 X59.733 Y51.858 E0.19292
G1 X59.971 Y51.725 E0.20199
G1 X60.518 Y51.439 E0.22252
G1 X61.148 Y51.132 E0.24583
G1 X61.601 Y50.924 E0.26241
G1 X61.971 Y50.764 E0.27582
G1 X62.395 Y50.591 E0.29105
G1 X62.705 Y50.472 E0.30209
G1 X63.154 Y50.31 E0.31797
G1 X63.584 Y50.166 E0.33305
G1 X63.963 Y50.047 E0.34626
G1 X64.374 Y49.927 E0.3605
G1 X64.526 Y49.885 E0.36575
G1 X64.839 Y49.804 E0.3765
G1 X65.231 Y49.708 E0.38993
G1 X65.987 Y49.551 E0.41561
G1 X66.756 Y49.419 E0.44156
G1 X67.14 Y49.36 E0.45448
G1 X67.521 Y49.313 E0.46725
G1 X68.155 Y49.247 E0.48845
G1 X68.571 Y49.212 E0.50233
G1 X68.905 Y49.19 E0.51347
G1 X69.2 Y49.174 E0.52329
G1 X69.354 Y49.168 E0.52842
G1 X69.646 Y49.161 E0.53813
G1 X70.51 Y49.151 E0.56687
G1 X149.513 Y49.149 E3.19452
G1 X150.18 Y49.156 E3.21671
G1 X150.426 Y49.161 E3.22489
G1 X150.875 Y49.176 E3.23983
G1 X151.236 Y49.194 E3.25186
G1 X151.417 Y49.206 E3.25789
G1 X151.787 Y49.237 E3.27024
G1 X152.485 Y49.307 E3.29357
G1 X152.904 Y49.357 E3.30761
G1 X152.983 Y49.368 E3.31026
G1 X153.351 Y49.426 E3.32265
G1 X153.696 Y49.486 E3.3343
G1 X154.062 Y49.556 E3.34669
G1 X154.172 Y49.579 E3.35043
G1 X154.533 Y49.661 E3.36274
G1 X155.204 Y49.825 E3.38572
G1 X155.585 Y49.925 E3.39882
G1 X155.875 Y50.007 E3.40884
G1 X156.182 Y50.099 E3.4195
G1 X156.465 Y50.188 E3.42937
G1 X156.838 Y50.312 E3.44244
G1 X157.013 Y50.374 E3.44862
G1 X157.384 Y50.513 E3.46179
G1 X157.723 Y50.647 E3.47392
G1 X158.069 Y50.791 E3.48638
G1 X158.726 Y51.077 E3.51021
G1 X159.399 Y51.398 E3.53501
G1 X159.615 Y51.51 E3.54311
G1 X159.955 Y51.693 E3.55595
G1 X160.409 Y51.949 E3.57328
G1 X160.72 Y52.132 E3.58529
G1 X160.896 Y52.239 E3.59214
G1 X161.199 Y52.43 E3.60405
G1 X161.577 Y52.677 E3.61907
G1 X161.935 Y52.92 E3.63346
G1 X162.205 Y53.112 E3.64448
G1 X162.495 Y53.326 E3.65647
G1 X162.73 Y53.505 E3.66629
G1 X162.973 Y53.696 E3.67657
G1 X163.232 Y53.905 E3.68764
G1 X163.576 Y54.194 E3.70258
G1 X163.86 Y54.443 E3.71515
G1 X164.1 Y54.66 E3.72591
G1 X164.315 Y54.86 E3.73567
G1 X164.616 Y55.151 E3.7496
G1 X164.878 Y55.414 E3.76195
G1 X165.103 Y55.646 E3.7727
G1 X165.304 Y55.86 E3.78246
G1 X165.581 Y56.166 E3.79619
G1 X165.824 Y56.445 E3.80849
G1 X166.038 Y56.699 E3.81954
G1 X166.346 Y57.075 E3.83571
G1 X166.604 Y57.402 E3.84956
G1 X166.773 Y57.625 E3.85887
G1 X167.008 Y57.947 E3.87213
G1 X167.159 Y58.162 E3.88086
G1 X167.343 Y58.433 E3.89176
G1 X167.482 Y58.644 E3.90016
G1 X167.621 Y58.861 E3.90873
G1 X167.738 Y59.048 E3.91607
G1 X167.907 Y59.326 E3.92689
G1 X168.034 Y59.543 E3.93525
G1 X168.259 Y59.94 E3.95043
G1 X168.566 Y60.527 E3.97246
G1 X168.867 Y61.146 E3.99536
G1 X169.071 Y61.59 E4.01161
G1 X169.231 Y61.96 E4.02502
G1 X169.369 Y62.294 E4.03704
G1 X169.526 Y62.697 E4.05142
G1 X169.585 Y62.856 E4.05706
G1 X169.71 Y63.212 E4.06961
G1 X169.841 Y63.606 E4.08342
G1 X169.945 Y63.935 E4.0949
G1 X170.007 Y64.143 E4.10212
G1 X170.072 Y64.37 E4.10997
G1 X170.119 Y64.541 E4.11587
G1 X170.193 Y64.827 E4.12569
G1 X170.289 Y65.217 E4.13905
G1 X170.452 Y66.001 E4.16569
G1 X170.59 Y66.812 E4.19305
G1 X170.687 Y67.523 E4.21692
G1 X170.753 Y68.16 E4.23822
G1 X170.788 Y68.569 E4.25187
G1 X170.81 Y68.902 E4.26297
G1 X170.826 Y69.202 E4.27296
G1 X170.832 Y69.357 E4.27812
G1 X170.839 Y69.646 E4.28773
G1 X170.849 Y70.51 E4.31647
G1 X170.851 Y149.513 E6.94412
G1 X170.844 Y150.179 E6.96628
G1 X170.839 Y150.424 E6.97443
G1 X170.824 Y150.874 E6.9894
G1 X170.805 Y151.249 E7.00189
G1 X170.794 Y151.412 E7.00732
G1 X170.765 Y151.755 E7.01877
G1 X170.694 Y152.472 E7.04274
G1 X170.64 Y152.924 E7.05788
G1 X170.629 Y153.002 E7.0605
G1 X170.575 Y153.345 E7.07205
G1 X170.515 Y153.691 E7.08373
G1 X170.444 Y154.063 E7.09632
G1 X170.421 Y154.173 E7.10006
G1 X170.338 Y154.541 E7.11261
G1 X170.174 Y155.21 E7.13552
G1 X170.075 Y155.584 E7.14838
G1 X169.993 Y155.874 E7.15841
G1 X169.908 Y156.16 E7.16833
G1 X169.819 Y156.445 E7.17826
G1 X169.678 Y156.866 E7.19303
G1 X169.618 Y157.034 E7.19896
G1 X169.493 Y157.367 E7.21079
G1 X169.359 Y157.707 E7.22295
G1 X169.209 Y158.068 E7.23595
G1 X168.921 Y158.729 E7.25993
G1 X168.616 Y159.371 E7.28357
G1 X168.513 Y159.571 E7.29105
G1 X168.325 Y159.922 E7.3043
G1 X168.061 Y160.392 E7.32223
G1 X167.86 Y160.735 E7.33545
G1 X167.752 Y160.912 E7.34235
G1 X167.57 Y161.199 E7.35365
G1 X167.323 Y161.577 E7.36867
G1 X167.08 Y161.935 E7.38306
G1 X166.888 Y162.205 E7.39408
G1 X166.674 Y162.495 E7.40607
G1 X166.495 Y162.73 E7.41589
G1 X166.298 Y162.981 E7.4265
G1 X166.091 Y163.237 E7.43745
G1 X165.817 Y163.563 E7.45162
G1 X165.566 Y163.85 E7.4643
G1 X165.34 Y164.1 E7.47551
G1 X165.14 Y164.315 E7.48527
G1 X164.849 Y164.616 E7.4992
G1 X164.593 Y164.871 E7.51122
G1 X164.369 Y165.088 E7.52159
G1 X164.148 Y165.296 E7.53168
G1 X163.832 Y165.582 E7.54586
G1 X163.546 Y165.831 E7.55847
G1 X163.29 Y166.048 E7.56963
G1 X162.921 Y166.35 E7.58549
G1 X162.592 Y166.608 E7.5994
G1 X162.37 Y166.776 E7.60866
G1 X162.038 Y167.018 E7.62232
G1 X161.795 Y167.188 E7.63219
G1 X161.533 Y167.366 E7.64272
G1 X161.349 Y167.487 E7.65005
G1 X161.135 Y167.624 E7.6585
G1 X160.943 Y167.744 E7.66603
G1 X160.667 Y167.911 E7.67676
G1 X160.277 Y168.137 E7.69175
G1 X160.036 Y168.272 E7.70094
G1 X159.477 Y168.564 E7.72191
G1 X158.859 Y168.865 E7.74478
G1 X158.418 Y169.068 E7.76092
G1 X158.049 Y169.228 E7.7743
G1 X157.646 Y169.394 E7.7888
G1 X157.331 Y169.516 E7.80003
G1 X156.829 Y169.696 E7.81777
G1 X156.393 Y169.841 E7.83305
G1 X156.049 Y169.949 E7.84504
G1 X155.626 Y170.073 E7.85971
G1 X155.474 Y170.115 E7.86495
G1 X155.167 Y170.195 E7.8755
G1 X154.776 Y170.291 E7.88889
G1 X154.012 Y170.45 E7.91485
G1 X153.242 Y170.582 E7.94083
G1 X152.86 Y170.64 E7.95368
G1 X152.479 Y170.687 E7.96645
G1 X151.845 Y170.753 E7.98765
G1 X151.429 Y170.788 E8.00154
G1 X151.095 Y170.81 E8.01267
G1 X150.8 Y170.826 E8.0225
G1 X150.646 Y170.832 E8.02762
G1 X150.354 Y170.839 E8.03734
G1 X149.49 Y170.849 E8.06608
G1 X70.487 Y170.851 E10.69373
G1 X69.821 Y170.844 E10.71588
G1 X69.576 Y170.839 E10.72403
G1 X69.126 Y170.824 E10.73901
G1 X68.76 Y170.806 E10.75119
G1 X68.58 Y170.794 E10.75719
G1 X68.217 Y170.763 E10.76931
G1 X67.517 Y170.693 E10.79271
G1 X67.076 Y170.64 E10.80748
G1 X66.998 Y170.629 E10.8101
G1 X66.655 Y170.575 E10.82165
G1 X66.309 Y170.515 E10.83333
G1 X65.937 Y170.444 E10.84593
G1 X65.827 Y170.421 E10.84966
G1 X65.459 Y170.338 E10.86221
G1 X64.79 Y170.174 E10.88512
G1 X64.42 Y170.076 E10.89785
G1 X64.126 Y169.993 E10.90801
G1 X63.828 Y169.904 E10.91836
G1 X63.547 Y169.816 E10.92815
G1 X63.142 Y169.681 E10.94235
G1 X62.968 Y169.619 E10.94849
G1 X62.616 Y169.487 E10.961
G1 X62.277 Y169.353 E10.97312
G1 X61.927 Y169.207 E10.98573
G1 X61.266 Y168.919 E11.00972
G1 X60.594 Y168.599 E11.03447
G1 X60.382 Y168.489 E11.04241
G1 X60.045 Y168.307 E11.05515
G1 X59.591 Y168.051 E11.07249
G1 X59.28 Y167.868 E11.08449
G1 X59.104 Y167.761 E11.09134
G1 X58.801 Y167.57 E11.10325
G1 X58.423 Y167.323 E11.11827
G1 X58.065 Y167.08 E11.13266
G1 X57.795 Y166.888 E11.14368
G1 X57.506 Y166.674 E11.15564
G1 X57.267 Y166.492 E11.16564
G1 X57.019 Y166.298 E11.17611
G1 X56.764 Y166.092 E11.18701
G1 X56.422 Y165.804 E11.20188
G1 X56.137 Y165.554 E11.21449
G1 X55.891 Y165.331 E11.22553
G1 X55.67 Y165.125 E11.23558
G1 X55.377 Y164.842 E11.24913
G1 X55.121 Y164.585 E11.2612
G1 X54.895 Y164.352 E11.27199
G1 X54.695 Y164.139 E11.28171
G1 X54.409 Y163.822 E11.29591
G1 X54.158 Y163.533 E11.30864
G1 X53.95 Y163.287 E11.31936
G1 X53.648 Y162.918 E11.33522
G1 X53.394 Y162.594 E11.34891
G1 X53.222 Y162.367 E11.35838
G1 X52.97 Y162.022 E11.37259
G1 X52.801 Y161.78 E11.38241
G1 X52.616 Y161.506 E11.39341
G1 X52.491 Y161.315 E11.401
G1 X52.353 Y161.098 E11.40955
G1 X52.238 Y160.913 E11.4168
G1 X52.08 Y160.651 E11.42697
G1 X51.864 Y160.278 E11.44131
G1 X51.738 Y160.054 E11.44986
G1 X51.433 Y159.472 E11.47171
G1 X51.129 Y158.847 E11.49483
G1 X50.925 Y158.403 E11.51108
G1 X50.768 Y158.04 E11.52423
G1 X50.606 Y157.646 E11.5384
G1 X50.484 Y157.331 E11.54964
G1 X50.304 Y156.829 E11.56737
G1 X50.159 Y156.393 E11.58266
G1 X50.051 Y156.049 E11.59465
G1 X49.927 Y155.626 E11.60931
G1 X49.885 Y155.474 E11.61456
G1 X49.797 Y155.131 E11.62633
G1 X49.699 Y154.726 E11.64019
G1 X49.55 Y154.009 E11.66455
G1 X49.418 Y153.244 E11.69037
G1 X49.318 Y152.52 E11.71468
G1 X49.248 Y151.852 E11.73702
G1 X49.212 Y151.429 E11.75114
G1 X49.19 Y151.095 E11.76227
G1 X49.174 Y150.8 E11.7721
G1 X49.168 Y150.646 E11.77722
G1 X49.161 Y150.354 E11.78694
G1 X49.151 Y149.489 E11.81571
G1 X49.149 Y70.486 E14.44336
G1 X49.156 Y69.821 E14.46548
G1 X49.161 Y69.576 E14.47363
G1 X49.176 Y69.126 E14.4886
G1 X49.194 Y68.76 E14.50079
G1 X49.206 Y68.58 E14.50679
G1 X49.237 Y68.217 E14.51891
G1 X49.307 Y67.517 E14.54231
G1 X49.36 Y67.076 E14.55708
G1 X49.371 Y66.998 E14.5597
G1 X49.425 Y66.655 E14.57125
G1 X49.485 Y66.309 E14.58293
G1 X49.556 Y65.937 E14.59553
G1 X49.579 Y65.827 E14.59926
G1 X49.664 Y65.45 E14.61212
G1 X49.833 Y64.763 E14.63565
G1 X49.93 Y64.399 E14.64818
G1 X50.01 Y64.116 E14.65796
G1 X50.104 Y63.801 E14.66889
G1 X50.191 Y63.525 E14.67852
G1 X50.315 Y63.155 E14.6915
G1 X50.376 Y62.983 E14.69757
G1 X50.513 Y62.616 E14.7106
G1 X50.647 Y62.277 E14.72272
G1 X50.791 Y61.931 E14.73518
G1 X51.077 Y61.274 E14.75902
G1 X51.398 Y60.601 E14.78382
G1 X51.51 Y60.385 E14.79191
G1 X51.689 Y60.052 E14.80448
G1 X51.944 Y59.599 E14.82177
G1 X52.14 Y59.265 E14.83465
G1 X52.248 Y59.088 E14.84155
G1 X52.43 Y58.801 E14.85285
G1 X52.677 Y58.423 E14.86787
G1 X52.92 Y58.065 E14.88226
G1 X53.112 Y57.795 E14.89328
G1 X53.326 Y57.505 E14.90527
G1 X53.505 Y57.27 E14.9151
G1 X53.701 Y57.02 E14.92566
G1 X53.916 Y56.754 E14.93704
G1 X54.202 Y56.415 E14.95179
G1 X54.445 Y56.138 E14.96404
G1 X54.66 Y55.9 E14.97471
G1 X54.86 Y55.685 E14.98448
G1 X55.151 Y55.384 E14.9984
G0 F6000 X55.433 Y55.667
G1 F1200 X55.696 Y55.405 E15.01075
G1 X55.92 Y55.189 E15.0211
G1 X56.134 Y54.988 E15.03087
G1 X56.431 Y54.719 E15.04419
G1 X56.717 Y54.47 E15.05681
G1 X56.963 Y54.262 E15.06752
G1 X57.332 Y53.96 E15.08338
G1 X57.644 Y53.715 E15.09657
G1 X57.867 Y53.546 E15.10588
G1 X58.197 Y53.305 E15.11947
G1 X58.446 Y53.131 E15.12957
G1 X58.733 Y52.938 E15.14108
G1 X59.099 Y52.701 E15.15558
G1 X59.28 Y52.588 E15.16268
G1 X59.539 Y52.432 E15.17273
G1 X59.744 Y52.312 E15.18063
G1 X59.928 Y52.207 E15.18768
G1 X60.166 Y52.074 E15.19675
G1 X60.694 Y51.798 E15.21656
G1 X61.324 Y51.491 E15.23987
G1 X61.76 Y51.291 E15.25583
G1 X62.13 Y51.131 E15.26924
G1 X62.538 Y50.964 E15.2839
G1 X62.848 Y50.845 E15.29494
G1 X63.281 Y50.69 E15.31024
G1 X63.711 Y50.546 E15.32532
G1 X64.076 Y50.431 E15.33805
G1 X64.481 Y50.313 E15.35208
G1 X64.633 Y50.271 E15.35733
G1 X64.935 Y50.192 E15.36771
G1 X65.327 Y50.096 E15.38113
G1 X66.055 Y49.945 E15.40586
G1 X66.824 Y49.813 E15.43181
G1 X67.195 Y49.756 E15.4443
G1 X67.562 Y49.711 E15.45659
G1 X68.196 Y49.645 E15.47779
G1 X68.597 Y49.611 E15.49118
G1 X68.931 Y49.589 E15.50231
G1 X69.215 Y49.574 E15.51177
G1 X69.369 Y49.568 E15.5169
G1 X69.651 Y49.561 E15.52628
G1 X70.51 Y49.551 E15.55485
G1 X149.513 Y49.549 E18.1825
G1 X150.175 Y49.556 E18.20452
G1 X150.413 Y49.561 E18.21244
G1 X150.862 Y49.576 E18.22738
G1 X151.209 Y49.593 E18.23894
G1 X151.39 Y49.605 E18.24497
G1 X151.747 Y49.635 E18.25689
G1 X152.445 Y49.705 E18.28022
G1 X152.849 Y49.753 E18.29375
G1 X152.928 Y49.764 E18.2964
G1 X153.282 Y49.82 E18.30832
G1 X153.627 Y49.88 E18.31997
G1 X153.98 Y49.947 E18.33192
G1 X154.09 Y49.97 E18.33566
G1 X154.438 Y50.049 E18.34753
G1 X155.109 Y50.213 E18.3705
G1 X155.476 Y50.31 E18.38313
G1 X155.766 Y50.392 E18.39315
G1 X156.062 Y50.48 E18.40342
G1 X156.345 Y50.569 E18.41329
G1 X156.705 Y50.69 E18.42592
G1 X156.88 Y50.752 E18.4321
G1 X157.237 Y50.885 E18.44477
G1 X157.576 Y51.019 E18.45689
G1 X157.91 Y51.158 E18.46892
G1 X158.567 Y51.444 E18.49276
G1 X159.215 Y51.753 E18.51663
G1 X159.431 Y51.865 E18.52473
G1 X159.758 Y52.042 E18.53709
G1 X160.212 Y52.298 E18.55443
G1 X160.513 Y52.474 E18.56603
G1 X160.689 Y52.581 E18.57288
G1 X160.98 Y52.764 E18.58431
G1 X161.358 Y53.011 E18.59933
G1 X161.703 Y53.246 E18.61321
G1 X161.973 Y53.438 E18.62423
G1 X162.253 Y53.645 E18.63581
G1 X162.488 Y53.824 E18.64564
G1 X162.722 Y54.007 E18.65552
G1 X162.981 Y54.216 E18.66659
G1 X163.312 Y54.495 E18.68099
G1 X163.596 Y54.744 E18.69355
G1 X163.828 Y54.953 E18.70393
G1 X164.043 Y55.153 E18.7137
G1 X164.333 Y55.433 E18.72711
G1 X164.595 Y55.696 E18.73946
G1 X164.811 Y55.92 E18.74981
G1 X165.012 Y56.134 E18.75957
G1 X165.279 Y56.429 E18.7728
G1 X165.522 Y56.708 E18.78511
G1 X165.729 Y56.953 E18.79578
G1 X166.037 Y57.329 E18.81194
G1 X166.285 Y57.644 E18.82528
G1 X166.454 Y57.867 E18.83458
G1 X166.68 Y58.177 E18.84734
G1 X166.831 Y58.392 E18.85608
G1 X167.009 Y58.653 E18.86659
G1 X167.148 Y58.864 E18.87499
G1 X167.282 Y59.073 E18.88325
G1 X167.399 Y59.26 E18.89059
G1 X167.561 Y59.528 E18.901
G1 X167.777 Y59.899 E18.91528
G1 X167.911 Y60.137 E18.92437
G1 X168.207 Y60.702 E18.94558
G1 X168.508 Y61.321 E18.96847
G1 X168.704 Y61.749 E18.98413
G1 X168.864 Y62.119 E18.99754
G1 X168.997 Y62.441 E19.00913
G1 X169.151 Y62.836 E19.02323
G1 X169.21 Y62.995 E19.02887
G1 X169.331 Y63.339 E19.041
G1 X169.462 Y63.733 E19.05481
G1 X169.561 Y64.049 E19.06582
G1 X169.623 Y64.257 E19.07304
G1 X169.686 Y64.476 E19.08062
G1 X169.733 Y64.647 E19.08652
G1 X169.805 Y64.922 E19.09597
G1 X169.901 Y65.312 E19.10933
G1 X170.058 Y66.068 E19.13501
G1 X170.196 Y66.879 E19.16237
G1 X170.29 Y67.565 E19.1854
G1 X170.356 Y68.202 E19.2067
G1 X170.389 Y68.595 E19.21982
G1 X170.411 Y68.928 E19.23092
G1 X170.426 Y69.217 E19.24055
G1 X170.432 Y69.372 E19.2457
G1 X170.439 Y69.651 E19.25499
G1 X170.449 Y70.51 E19.28356
G1 X170.451 Y149.513 E21.91121
G1 X170.444 Y150.175 E21.93323
G1 X170.439 Y150.411 E21.94108
G1 X170.424 Y150.861 E21.95606
G1 X170.406 Y151.222 E21.96808
G1 X170.395 Y151.385 E21.97351
G1 X170.367 Y151.716 E21.98456
G1 X170.296 Y152.433 E22.00852
G1 X170.244 Y152.868 E22.0231
G1 X170.233 Y152.946 E22.02572
G1 X170.181 Y153.277 E22.03686
G1 X170.121 Y153.623 E22.04854
G1 X170.053 Y153.981 E22.06066
G1 X170.03 Y154.091 E22.0644
G1 X169.949 Y154.446 E22.07651
G1 X169.785 Y155.115 E22.09942
G1 X169.69 Y155.475 E22.1118
G1 X169.608 Y155.765 E22.12182
G1 X169.526 Y156.041 E22.1314
G1 X169.437 Y156.326 E22.14133
G1 X169.301 Y156.731 E22.15554
G1 X169.241 Y156.899 E22.16147
G1 X169.121 Y157.221 E22.1729
G1 X168.987 Y157.561 E22.18506
G1 X168.843 Y157.908 E22.19755
G1 X168.555 Y158.569 E22.22154
G1 X168.261 Y159.188 E22.24433
G1 X168.158 Y159.388 E22.25181
G1 X167.976 Y159.726 E22.26458
G1 X167.712 Y160.196 E22.28251
G1 X167.519 Y160.526 E22.29522
G1 X167.411 Y160.703 E22.30212
G1 X167.236 Y160.98 E22.31302
G1 X166.989 Y161.358 E22.32804
G1 X166.754 Y161.703 E22.34192
G1 X166.562 Y161.973 E22.35294
