;FLAVOR:Marlin
;TIME:2147
;Filament used: 2.30472m
;Layer height: 0.28
;MINX:100.768
;MINY:92.25
;MINZ:0.285
;MAXX:142.768
;MAXY:142.75
;MAXZ:34.725
;Generated with Cura_SteamEngine 4.6.2
M140 S60
M105
M190 S60
M104 S200
M105
M109 S200
M82 ;absolute extrusion mode
; Ender 3 Custom Start G-code
G92 E0 ; Reset Extruder
G28 ; Home all axes
G1 Z2.0 F3000 ; Move Z Axis up little to prevent scratching of Heat Bed
G1 X0.1 Y20 Z0.3 F5000.0 ; Move to start position
G1 X0.1 Y200.0 Z0.3 F1500.0 E15 ; Draw the first line
G1 X0.4 Y200.0 Z0.3 F5000.0 ; Move to side a little
G1 X0.4 Y20 Z0.3 F1500.0 E30 ; Draw the second line
G92 E0 ; Reset Extruder
G1 Z2.0 F3000 ; Move Z Axis up little to prevent scratching of Heat Bed
G1 X5 Y20 Z0.3 F5000.0 ; Move over to prevent blob squish
G92 E0
G92 E0
G1 F1500 E-6
;LAYER_COUNT:124
;LAYER:0
M107
M204 S500
M205 X8 Y8
G0 F7500 X120.371 Y93.067 Z0.285
;TYPE:SKIRT
G1 F1500 E0
G1 X123.058 Y93.067 E0.12098
G1 X124.081 Y93.05 E0.16705
G1 X131.207 Y93.051 E0.48791
G1 X131.905 Y93.061 E0.51934
G1 X132.807 Y93.114 E0.56002
G1 X133.7 Y93.246 E0.60067
G1 X134.578 Y93.457 E0.64133
G1 X135.434 Y93.745 E0.68199
G1 X136.261 Y94.107 E0.72264
G1 X137.053 Y94.542 E0.76332
G1 X137.804 Y95.044 E0.804
G1 X138.507 Y95.611 E0.84466
G1 X139.157 Y96.238 E0.88533
G1 X139.749 Y96.92 E0.92599
G1 X140.279 Y97.651 E0.96664
G1 X140.741 Y98.427 E1.00731
G1 X141.134 Y99.24 E1.04797
G1 X141.452 Y100.085 E1.08862
G1 X141.695 Y100.955 E1.12929
G1 X141.86 Y101.843 E1.16996
G1 X141.955 Y102.973 E1.22102
G1 X141.968 Y103.58 E1.24835
G1 X141.967 Y111.659 E1.61212
G1 X141.96 Y112.134 E1.63351
G1 X141.968 Y115.54 E1.78687
G1 X141.967 Y123.666 E2.15275
G1 X141.957 Y124.383 E2.18503
G1 X141.904 Y125.285 E2.22572
G1 X141.772 Y126.178 E2.26636
G1 X141.562 Y127.056 E2.30701
G1 X141.274 Y127.913 E2.34772
G1 X140.912 Y128.74 E2.38836
G1 X140.478 Y129.532 E2.42903
G1 X139.976 Y130.283 E2.4697
G1 X139.41 Y130.986 E2.51034
G1 X138.683 Y131.73 E2.55718
G1 X138.417 Y131.976 E2.57349
G1 X136.479 Y133.784 E2.69283
G1 X134.698 Y135.542 E2.8055
G1 X132.921 Y137.398 E2.9212
G1 X132.49 Y137.872 E2.95005
G1 X131.731 Y138.688 E3.00022
G1 X131.087 Y139.321 E3.04088
G1 X130.39 Y139.895 E3.08154
G1 X129.644 Y140.405 E3.12223
G1 X128.857 Y140.847 E3.16287
G1 X128.033 Y141.218 E3.20356
G1 X127.18 Y141.515 E3.24422
G1 X126.304 Y141.734 E3.28488
G1 X125.412 Y141.876 E3.32555
G1 X124.545 Y141.937 E3.36468
G1 X123.938 Y141.95 E3.39202
G1 X115.151 Y141.949 E3.78766
G1 X114.453 Y141.939 E3.81909
G1 X113.551 Y141.886 E3.85978
G1 X112.658 Y141.754 E3.90042
G1 X111.78 Y141.543 E3.94108
G1 X110.924 Y141.255 E3.98175
G1 X110.097 Y140.893 E4.02239
G1 X109.305 Y140.458 E4.06308
G1 X108.554 Y139.956 E4.10375
G1 X107.851 Y139.389 E4.14442
G1 X107.201 Y138.762 E4.18508
G1 X106.609 Y138.08 E4.22574
G1 X106.079 Y137.349 E4.2664
G1 X105.617 Y136.573 E4.30706
G1 X105.224 Y135.76 E4.34772
G1 X104.993 Y135.169 E4.37629
G1 X104.699 Y134.342 E4.41581
G1 X104.313 Y133.201 E4.47005
G1 X103.429 Y130.813 E4.5847
G1 X102.321 Y128.069 E4.71794
G1 X102.021 Y127.218 E4.75857
G1 X101.796 Y126.343 E4.79925
G1 X101.65 Y125.452 E4.8399
G1 X101.585 Y124.59 E4.87883
G1 X101.574 Y124.261 E4.89365
G1 X101.568 Y123.92 E4.909
G1 X101.569 Y115.827 E5.2734
G1 X101.576 Y115.362 E5.29434
G1 X101.568 Y111.96 E5.44752
G1 X101.569 Y103.786 E5.81556
G1 X101.578 Y103.121 E5.8455
G1 X101.63 Y102.219 E5.88618
G1 X101.762 Y101.326 E5.92683
G1 X101.972 Y100.448 E5.96748
G1 X102.259 Y99.591 E6.00817
G1 X102.621 Y98.764 E6.04882
G1 X103.054 Y97.972 E6.08946
G1 X103.556 Y97.221 E6.13013
G1 X104.123 Y96.517 E6.17083
G1 X104.749 Y95.867 E6.21147
G1 X105.43 Y95.274 E6.25212
G1 X106.162 Y94.744 E6.29282
G1 X106.937 Y94.281 E6.33346
G1 X107.75 Y93.888 E6.37412
G1 X108.595 Y93.568 E6.41481
G1 X109.464 Y93.325 E6.45543
G1 X110.352 Y93.159 E6.49611
G1 X111.491 Y93.063 E6.54758
G1 X112.098 Y93.05 E6.57491
G1 X119.227 Y93.051 E6.8959
G1 X120.371 Y93.067 E6.94742
G0 F7500 X120.376 Y92.667
G1 F1500 X123.051 Y92.667 E7.06786
G1 X124.081 Y92.65 E7.11425
G1 X131.213 Y92.651 E7.43537
G1 X131.911 Y92.661 E7.4668
G1 X132.83 Y92.714 E7.50825
G1 X133.741 Y92.847 E7.5497
G1 X134.637 Y93.058 E7.59115
G1 X135.511 Y93.346 E7.63258
G1 X136.358 Y93.709 E7.67408
G1 X137.169 Y94.144 E7.71551
G1 X137.939 Y94.648 E7.75695
G1 X138.663 Y95.217 E7.79841
G1 X139.335 Y95.847 E7.83989
G1 X139.95 Y96.532 E7.88133
G1 X140.503 Y97.268 E7.92279
G1 X140.99 Y98.049 E7.96423
G1 X141.407 Y98.87 E8.00569
G1 X141.752 Y99.724 E8.04716
G1 X142.021 Y100.604 E8.08859
G1 X142.213 Y101.505 E8.13007
G1 X142.326 Y102.418 E8.17149
G1 X142.355 Y102.962 E8.19602
G1 X142.368 Y103.58 E8.22386
G1 X142.367 Y111.665 E8.58789
G1 X142.36 Y112.139 E8.60923
G1 X142.368 Y115.539 E8.76232
G1 X142.367 Y123.672 E9.12852
G1 X142.357 Y124.389 E9.16081
G1 X142.304 Y125.308 E9.20225
G1 X142.172 Y126.219 E9.2437
G1 X141.961 Y127.115 E9.28515
G1 X141.673 Y127.99 E9.32662
G1 X141.31 Y128.836 E9.36807
G1 X140.876 Y129.647 E9.40949
G1 X140.372 Y130.418 E9.45096
G1 X139.804 Y131.142 E9.4924
G1 X138.955 Y132.023 E9.54749
G1 X138.689 Y132.269 E9.5638
G1 X136.768 Y134.06 E9.68206
G1 X134.967 Y135.838 E9.79601
G1 X133.205 Y137.678 E9.91071
G1 X132.783 Y138.144 E9.93902
G1 X132.024 Y138.96 E9.9892
G1 X131.368 Y139.607 E10.03069
G1 X130.658 Y140.194 E10.07216
G1 X129.901 Y140.717 E10.11359
G1 X129.101 Y141.172 E10.15503
G1 X128.264 Y141.556 E10.1965
G1 X127.397 Y141.867 E10.23797
G1 X126.507 Y142.101 E10.2794
G1 X125.6 Y142.256 E10.32083
G1 X124.556 Y142.337 E10.36798
G1 X123.938 Y142.35 E10.39581
G1 X115.145 Y142.349 E10.79173
G1 X114.447 Y142.339 E10.82316
G1 X113.528 Y142.286 E10.86461
G1 X112.617 Y142.153 E10.90606
G1 X111.721 Y141.942 E10.94751
G1 X110.847 Y141.654 E10.98894
G1 X110 Y141.291 E11.03043
G1 X109.189 Y140.856 E11.07187
G1 X108.419 Y140.352 E11.11331
G1 X107.695 Y139.783 E11.15477
G1 X107.023 Y139.153 E11.19624
G1 X106.408 Y138.468 E11.23769
G1 X105.855 Y137.732 E11.27914
G1 X105.368 Y136.951 E11.32058
G1 X104.951 Y136.13 E11.36205
G1 X104.616 Y135.303 E11.40222
G1 X104.32 Y134.47 E11.44203
G1 X103.935 Y133.331 E11.49616
G1 X103.048 Y130.936 E11.61116
G1 X101.951 Y128.219 E11.74309
G1 X101.643 Y127.351 E11.78456
G1 X101.412 Y126.46 E11.826
G1 X101.259 Y125.552 E11.86746
G1 X101.185 Y124.603 E11.91032
G1 X101.174 Y124.274 E11.92514
G1 X101.168 Y123.92 E11.94108
G1 X101.169 Y115.821 E12.30575
G1 X101.176 Y115.357 E12.32664
G1 X101.168 Y111.961 E12.47955
G1 X101.169 Y103.781 E12.84786
G1 X101.178 Y103.116 E12.87781
G1 X101.23 Y102.196 E12.9193
G1 X101.362 Y101.285 E12.96074
G1 X101.573 Y100.389 E13.00219
G1 X101.86 Y99.514 E13.04365
G1 X102.223 Y98.668 E13.0851
G1 X102.657 Y97.856 E13.12656
G1 X103.16 Y97.085 E13.16801
G1 X103.729 Y96.361 E13.20947
G1 X104.357 Y95.689 E13.25088
G1 X105.042 Y95.073 E13.29236
G1 X105.778 Y94.52 E13.33381
G1 X106.559 Y94.032 E13.37528
G1 X107.379 Y93.614 E13.41672
G1 X108.233 Y93.269 E13.45819
G1 X109.113 Y92.999 E13.49964
G1 X110.013 Y92.807 E13.54107
G1 X110.927 Y92.693 E13.58255
G1 X111.48 Y92.663 E13.60748
G1 X112.098 Y92.65 E13.63531
G1 X119.232 Y92.651 E13.95653
G1 X120.376 Y92.667 E14.00804
G0 F7500 X120.382 Y92.267
G1 F1500 X123.044 Y92.267 E14.1279
G1 X124.081 Y92.25 E14.1746
G1 X131.219 Y92.251 E14.496
G1 X131.917 Y92.261 E14.52743
G1 X132.853 Y92.315 E14.56964
G1 X133.781 Y92.447 E14.61185
G1 X134.695 Y92.659 E14.65409
G1 X135.587 Y92.948 E14.69631
G1 X136.452 Y93.311 E14.73855
G1 X137.282 Y93.747 E14.78076
G1 X138.073 Y94.252 E14.82302
G1 X138.817 Y94.823 E14.86525
G1 X139.51 Y95.455 E14.90748
G1 X140.147 Y96.143 E14.94969
G1 X140.722 Y96.884 E14.99192
G1 X141.233 Y97.67 E15.03414
G1 X141.675 Y98.498 E15.0764
G1 X142.044 Y99.36 E15.11862
G1 X142.339 Y100.25 E15.16083
G1 X142.557 Y101.162 E15.20305
G1 X142.697 Y102.09 E15.24531
G1 X142.755 Y102.951 E15.28417
G1 X142.768 Y103.58 E15.31249
G1 X142.767 Y111.671 E15.6768
G1 X142.76 Y112.144 E15.6981
G1 X142.768 Y115.538 E15.85092
G1 X142.767 Y123.677 E16.21738
G1 X142.757 Y124.394 E16.24967
G1 X142.704 Y125.331 E16.29192
G1 X142.571 Y126.259 E16.33414
G1 X142.36 Y127.173 E16.37637
G1 X142.072 Y128.065 E16.41858
G1 X141.708 Y128.93 E16.46083
G1 X141.273 Y129.761 E16.50306
G1 X140.768 Y130.551 E16.54528
G1 X140.198 Y131.296 E16.58752
G1 X139.566 Y131.989 E16.62975
G1 X139.227 Y132.317 E16.65099
G1 X138.961 Y132.563 E16.6673
G1 X137.039 Y134.355 E16.78562
G1 X135.254 Y136.117 E16.89855
G1 X133.508 Y137.941 E17.01224
G1 X133.075 Y138.417 E17.04121
G1 X132.316 Y139.233 E17.09139
G1 X131.649 Y139.892 E17.13361
G1 X130.928 Y140.491 E17.17582
G1 X130.158 Y141.027 E17.21806
G1 X129.346 Y141.496 E17.26028
G1 X128.496 Y141.893 E17.30252
G1 X127.616 Y142.217 E17.34474
G1 X126.712 Y142.465 E17.38695
G1 X125.789 Y142.634 E17.4292
G1 X124.567 Y142.737 E17.48442
G1 X123.938 Y142.75 E17.51274
G1 X115.139 Y142.749 E17.90893
G1 X114.441 Y142.739 E17.94036
G1 X113.505 Y142.685 E17.98257
G1 X112.577 Y142.553 E18.02478
G1 X111.663 Y142.341 E18.06702
G1 X110.771 Y142.052 E18.10924
G1 X109.906 Y141.689 E18.15148
G1 X109.076 Y141.253 E18.19369
G1 X108.285 Y140.748 E18.23595
G1 X107.541 Y140.177 E18.27818
G1 X106.848 Y139.545 E18.32041
G1 X106.211 Y138.857 E18.36262
G1 X105.636 Y138.116 E18.40486
G1 X105.125 Y137.33 E18.44707
G1 X104.683 Y136.502 E18.48933
G1 X104.239 Y135.438 E18.54124
G1 X103.941 Y134.598 E18.58137
G1 X103.553 Y133.45 E18.63593
G1 X102.683 Y131.099 E18.7488
G1 X101.58 Y128.369 E18.88138
G1 X101.266 Y127.485 E18.92362
G1 X101.028 Y126.578 E18.96584
G1 X100.869 Y125.654 E19.00805
G1 X100.785 Y124.617 E19.0549
G1 X100.774 Y124.288 E19.06972
G1 X100.768 Y123.92 E19.08629
G1 X100.769 Y115.815 E19.45123
G1 X100.776 Y115.352 E19.47208
G1 X100.768 Y111.962 E19.62472
G1 X100.769 Y103.775 E19.99334
G1 X100.778 Y103.11 E20.02329
G1 X100.831 Y102.174 E20.0655
G1 X100.963 Y101.245 E20.10775
G1 X101.174 Y100.331 E20.14998
G1 X101.462 Y99.439 E20.19219
G1 X101.825 Y98.574 E20.23443
G1 X102.26 Y97.743 E20.27666
G1 X102.764 Y96.953 E20.31885
G1 X103.334 Y96.208 E20.36109
G1 X103.966 Y95.514 E20.40335
G1 X104.654 Y94.877 E20.44557
G1 X105.394 Y94.301 E20.48779
G1 X106.18 Y93.789 E20.53003
G1 X107.007 Y93.347 E20.57225
G1 X107.869 Y92.977 E20.61449
G1 X108.759 Y92.681 E20.65672
G1 X109.671 Y92.463 E20.69894
G1 X110.598 Y92.322 E20.74116
G1 X111.469 Y92.263 E20.78046
G1 X112.098 Y92.25 E20.80879
G1 X119.238 Y92.251 E21.13028
G1 X120.382 Y92.267 E21.18179
G1 F1500 E15.18179
;MESH:calicat.stl
G0 F7500 X119.354 Y102.585
G0 X119.354 Y103.664
G0 X118.768 Y104.25
;TYPE:WALL-INNER
G1 F1500 E21.18179
G1 F1800 X118.768 Y111.25 E21.49697
G1 X112.768 Y111.25 E21.76713
G1 X112.768 Y104.25 E22.08231
G1 X118.768 Y104.25 E22.35247
G0 F7500 X119.168 Y103.85
G1 F1800 X119.168 Y111.65 E22.70367
G1 X112.368 Y111.65 E23.00984
G1 X112.368 Y103.85 E23.36105
G1 X119.168 Y103.85 E23.66722
G0 F7500 X119.568 Y103.45
;TYPE:WALL-OUTER
G1 F1800 X119.568 Y112.05 E24.03508
G1 X111.968 Y112.05 E24.36017
G1 X111.968 Y103.45 E24.72803
G1 X119.568 Y103.45 E25.05312
G0 F7500 X119.568 Y103.85
G0 X119.128 Y103.89
G0 X118.378 Y104.36
G0 X118.378 Y104.64
;TYPE:SKIN
G1 F1800 X118.378 Y110.86 E25.33318
G1 X113.158 Y110.86 E25.56822
G1 X113.158 Y104.64 E25.84828
G1 X118.378 Y104.64 E26.08331
G0 F7500 X118.217 Y105.206
G1 F1800 X117.811 Y104.8 E26.10916
G0 F7500 X117.245 Y104.8
G1 F1800 X118.217 Y105.772 E26.17106
G0 F7500 X118.217 Y106.338
G1 F1800 X116.679 Y104.8 E26.26899
G0 F7500 X116.114 Y104.8
G1 F1800 X118.217 Y106.903 E26.4029
G0 F7500 X118.217 Y107.469
G1 F1800 X115.548 Y104.8 E26.57286
G0 F7500 X114.982 Y104.8
G1 F1800 X118.217 Y108.035 E26.77885
G0 F7500 X118.217 Y108.6
G1 F1800 X114.416 Y104.8 E27.02085
G0 F7500 X113.851 Y104.8
G1 F1800 X118.217 Y109.166 E27.29886
G0 F7500 X118.217 Y109.732
G1 F1800 X113.317 Y104.832 E27.61087
G0 F7500 X113.317 Y105.397
G1 F1800 X118.217 Y110.298 E27.92292
G0 F7500 X118.053 Y110.699
G1 F1800 X113.317 Y105.963 E28.22449
G0 F7500 X113.317 Y106.529
G1 F1800 X117.487 Y110.699 E28.49002
G0 F7500 X116.922 Y110.699
G1 F1800 X113.317 Y107.094 E28.71957
G0 F7500 X113.317 Y107.66
G1 F1800 X116.356 Y110.699 E28.91308
G0 F7500 X115.79 Y110.699
G1 F1800 X113.317 Y108.226 E29.07056
G0 F7500 X113.317 Y108.791
G1 F1800 X115.225 Y110.699 E29.19205
G0 F7500 X114.659 Y110.699
G1 F1800 X113.317 Y109.357 E29.2775
G0 F7500 X113.317 Y109.923
G1 F1800 X114.093 Y110.699 E29.32692
G0 F7500 X113.528 Y110.699
G1 F1800 X113.317 Y110.488 E29.34035
G0 F7500 X112.578 Y110.488
G1 F1500 E23.34035
G0 F7500 X112.95 Y111.068
G0 X119.348 Y111.25
G0 X120.433 Y111.25
G0 X123.103 Y111.25
G0 X124.188 Y111.25
G0 X124.768 Y111.25
;TYPE:WALL-INNER
G1 F1500 E29.34035
G1 F1800 X124.768 Y104.25 E29.65553
G1 X130.768 Y104.25 E29.92569
G1 X130.768 Y111.25 E30.24087
G1 X124.768 Y111.25 E30.51103
G0 F7500 X124.368 Y111.65
G1 F1800 X124.368 Y103.85 E30.86223
G1 X131.168 Y103.85 E31.1684
G1 X131.168 Y111.65 E31.51961
G1 X124.368 Y111.65 E31.82578
G0 F7500 X123.968 Y112.05
;TYPE:WALL-OUTER
G1 F1800 X123.968 Y103.45 E32.19364
G1 X131.568 Y103.45 E32.51873
G1 X131.568 Y112.05 E32.88659
G1 X123.968 Y112.05 E33.21168
G0 F7500 X123.968 Y111.65
G0 X124.408 Y111.61
G0 X124.878 Y110.86
G0 X125.158 Y110.86
;TYPE:SKIN
G1 F1800 X125.158 Y104.64 E33.49174
G1 X130.378 Y104.64 E33.72678
G1 X130.378 Y110.86 E34.00684
G1 X125.158 Y110.86 E34.24187
G0 F7500 X125.407 Y110.699
G1 F1800 X125.316 Y110.609 E34.24764
G0 F7500 X125.316 Y110.043
G1 F1800 X125.973 Y110.699 E34.28944
G0 F7500 X126.538 Y110.699
G1 F1800 X125.316 Y109.477 E34.36725
G0 F7500 X125.316 Y108.912
G1 F1800 X127.104 Y110.699 E34.48107
G0 F7500 X127.67 Y110.699
G1 F1800 X125.316 Y108.346 E34.63093
G0 F7500 X125.316 Y107.78
G1 F1800 X128.235 Y110.699 E34.81681
G0 F7500 X128.801 Y110.699
G1 F1800 X125.316 Y107.215 E35.03869
G0 F7500 X125.316 Y106.649
G1 F1800 X129.367 Y110.699 E35.29661
G0 F7500 X129.932 Y110.699
G1 F1800 X125.316 Y106.083 E35.59054
G0 F7500 X125.316 Y105.518
G1 F1800 X130.217 Y110.418 E35.90258
G0 F7500 X130.217 Y109.852
G1 F1800 X125.316 Y104.952 E36.21463
G0 F7500 X125.729 Y104.799
G1 F1800 X130.217 Y109.286 E36.50037
G0 F7500 X130.217 Y108.721
G1 F1800 X126.295 Y104.799 E36.75011
G0 F7500 X126.861 Y104.799
G1 F1800 X130.217 Y108.155 E36.96381
G0 F7500 X130.217 Y107.589
G1 F1800 X127.427 Y104.799 E37.14147
G0 F7500 X127.992 Y104.799
G1 F1800 X130.217 Y107.024 E37.28315
G0 F7500 X130.217 Y106.458
G1 F1800 X128.558 Y104.799 E37.38879
G0 F7500 X129.124 Y104.799
G1 F1800 X130.217 Y105.892 E37.45838
G0 F7500 X130.217 Y105.327
G1 F1800 X129.689 Y104.799 E37.492
G0 F7500 X129.689 Y104.06
G1 F1500 E31.492
G0 F7500 X130.586 Y104.432
G0 X130.768 Y111.83
G0 X130.768 Y112.915
G0 X130.768 Y114.585
G0 X130.768 Y115.67
G0 X130.768 Y116.25
;TYPE:WALL-INNER
G1 F1500 E37.492
G1 F1800 X130.768 Y123.25 E37.80719
G1 X123.268 Y123.25 E38.14488
G1 X123.268 Y130.75 E38.48257
G1 X115.59 Y130.75 E38.82828
G1 X115.589 Y127.949 E38.9544
G1 X115.589 Y127.75 E38.96336
G1 X115.788 Y127.75 E38.96916
G1 X120.268 Y127.75 E39.17087
G1 X120.268 Y123.25 E39.37349
G1 X112.768 Y123.25 E39.71118
G1 X112.768 Y116.25 E40.02637
G1 X118.768 Y116.25 E40.29652
G1 X118.768 Y121.25 E40.52165
G1 X124.768 Y121.25 E40.79181
G1 X124.768 Y116.25 E41.01694
G1 X130.768 Y116.25 E41.28709
G0 F7500 X131.168 Y115.85
G1 F1800 X131.168 Y123.65 E41.63829
G1 X123.668 Y123.65 E41.97599
G1 X123.668 Y131.15 E42.31368
G1 X115.19 Y131.15 E42.69541
G1 X115.189 Y127.549 E42.85755
G1 X115.189 Y127.35 E42.86651
G1 X115.388 Y127.35 E42.87231
G1 X119.868 Y127.35 E43.07402
G1 X119.868 Y123.65 E43.24062
G1 X112.368 Y123.65 E43.57831
G1 X112.368 Y115.85 E43.92952
G1 X119.168 Y115.85 E44.23569
G1 X119.168 Y120.85 E44.46082
G1 X124.368 Y120.85 E44.69496
G1 X124.368 Y115.85 E44.92009
G1 X131.168 Y115.85 E45.22626
G0 F7500 X131.568 Y115.45
;TYPE:WALL-OUTER
G1 F1800 X131.568 Y124.05 E45.59412
G1 X124.068 Y124.05 E45.91493
G1 X124.068 Y131.55 E46.23574
G1 X114.79 Y131.55 E46.63261
G1 X114.789 Y127.15 E46.82081
G1 X114.789 Y126.95 E46.82937
G1 X114.989 Y126.95 E46.83491
G1 X119.468 Y126.95 E47.0265
G1 X119.468 Y124.05 E47.15054
G1 X111.968 Y124.05 E47.47135
