;FLAVOR:Marlin
;TIME:1462
;Filament used: 0.731576m
;Layer height: 0.2
;MINX:96.5
;MINY:36.5
;MINZ:0.2
;MAXX:138.5
;MAXY:78.5
;MAXZ:10
;Generated with Cura_SteamEngine 4.6.2
M140 S60
M105
M190 S60
M104 S200
M105
M109 S200
M82 ;absolute extrusion mode
; Ender 3 Custom Start G-code
G92 E0 ; Reset Extruder
G28 ; Home all axes
G1 Z2.0 F3000 ; Move Z Axis up little to prevent scratching of Heat Bed
G1 X0.1 Y20 Z0.3 F5000.0 ; Move to start position
G1 X0.1 Y200.0 Z0.3 F1500.0 E15 ; Draw the first line
G1 X0.4 Y200.0 Z0.3 F5000.0 ; Move to side a little
G1 X0.4 Y20 Z0.3 F1500.0 E30 ; Draw the second line
G92 E0 ; Reset Extruder
G1 Z2.0 F3000 ; Move Z Axis up little to prevent scratching of Heat Bed
G1 X5 Y20 Z0.3 F5000.0 ; Move over to prevent blob squish
G92 E0
G92 E0
G1 F1500 E-6
;LAYER_COUNT:50
;LAYER:0
M107
M204 S500
M205 X8 Y8
G0 F7500 X127.637 Y37.311 Z0.2
;TYPE:SKIRT
G1 F1500 E0
G1 X128.539 Y37.364 E0.02855
G1 X129.432 Y37.496 E0.05707
G1 X130.31 Y37.707 E0.0856
G1 X131.166 Y37.995 E0.11414
G1 X131.993 Y38.357 E0.14267
G1 X132.785 Y38.792 E0.17122
G1 X133.536 Y39.294 E0.19976
G1 X134.239 Y39.861 E0.2283
G1 X134.889 Y40.488 E0.25683
G1 X135.481 Y41.17 E0.28537
G1 X136.011 Y41.901 E0.3139
G1 X136.473 Y42.677 E0.34243
G1 X136.866 Y43.49 E0.37097
G1 X137.184 Y44.335 E0.39949
G1 X137.427 Y45.205 E0.42804
G1 X137.592 Y46.093 E0.45657
G1 X137.687 Y47.223 E0.49241
G1 X137.7 Y47.83 E0.51159
G1 X137.699 Y66.89 E1.11383
G1 X137.69 Y67.617 E1.1368
G1 X137.639 Y68.519 E1.16535
G1 X137.508 Y69.413 E1.1939
G1 X137.299 Y70.291 E1.22242
G1 X137.013 Y71.148 E1.25096
G1 X136.652 Y71.976 E1.2795
G1 X136.22 Y72.768 E1.30801
G1 X135.719 Y73.52 E1.33656
G1 X135.153 Y74.224 E1.3651
G1 X134.528 Y74.875 E1.39362
G1 X133.847 Y75.469 E1.42217
G1 X133.116 Y76 E1.45072
G1 X132.342 Y76.464 E1.47923
G1 X131.529 Y76.858 E1.50778
G1 X130.685 Y77.178 E1.5363
G1 X129.815 Y77.423 E1.56486
G1 X128.928 Y77.589 E1.59337
G1 X127.777 Y77.687 E1.62987
G1 X127.17 Y77.7 E1.64906
G1 X108.075 Y77.699 E2.2524
G1 X107.377 Y77.69 E2.27446
G1 X106.476 Y77.639 E2.30297
G1 X105.582 Y77.507 E2.33153
G1 X104.704 Y77.298 E2.36005
G1 X103.847 Y77.011 E2.3886
G1 X103.02 Y76.65 E2.41711
G1 X102.227 Y76.217 E2.44566
G1 X101.476 Y75.716 E2.47419
G1 X100.772 Y75.15 E2.50273
G1 X100.121 Y74.524 E2.53127
G1 X99.528 Y73.843 E2.5598
G1 X98.998 Y73.112 E2.58833
G1 X98.534 Y72.337 E2.61687
G1 X98.14 Y71.524 E2.64542
G1 X97.82 Y70.68 E2.67394
G1 X97.576 Y69.81 E2.70249
G1 X97.41 Y68.922 E2.73103
G1 X97.313 Y67.767 E2.76765
G1 X97.3 Y67.158 E2.7869
G1 X97.301 Y48.036 E3.3911
G1 X97.31 Y47.371 E3.41211
G1 X97.362 Y46.469 E3.44066
G1 X97.494 Y45.576 E3.46919
G1 X97.704 Y44.698 E3.49771
G1 X97.991 Y43.841 E3.52627
G1 X98.353 Y43.014 E3.55479
G1 X98.786 Y42.222 E3.58331
G1 X99.288 Y41.471 E3.61186
G1 X99.855 Y40.767 E3.64042
G1 X100.481 Y40.117 E3.66893
G1 X101.162 Y39.524 E3.69746
G1 X101.894 Y38.994 E3.72602
G1 X102.669 Y38.531 E3.75454
G1 X103.482 Y38.138 E3.78308
G1 X104.327 Y37.818 E3.81163
G1 X105.196 Y37.575 E3.84014
G1 X106.084 Y37.409 E3.86868
G1 X107.223 Y37.313 E3.9048
G1 X107.83 Y37.3 E3.92398
G1 X126.837 Y37.301 E4.52455
G0 F1350 X126.939 Y37.301
G0 X127.637 Y37.311
G0 F7500 X127.643 Y36.911
G1 F1500 X128.562 Y36.964 E4.55363
G1 X129.473 Y37.097 E4.58272
G1 X130.369 Y37.308 E4.61181
G1 X131.243 Y37.596 E4.64089
G1 X132.09 Y37.959 E4.67
G1 X132.901 Y38.394 E4.69908
G1 X133.671 Y38.898 E4.72816
G1 X134.395 Y39.467 E4.75726
G1 X135.067 Y40.097 E4.78636
G1 X135.682 Y40.782 E4.81545
G1 X136.235 Y41.518 E4.84454
G1 X136.722 Y42.299 E4.87362
G1 X137.139 Y43.12 E4.90271
G1 X137.484 Y43.974 E4.93182
G1 X137.753 Y44.854 E4.96089
G1 X137.945 Y45.755 E4.99
G1 X138.058 Y46.668 E5.01907
G1 X138.087 Y47.212 E5.03628
G1 X138.1 Y47.83 E5.05581
G1 X138.099 Y66.895 E5.65821
G1 X138.09 Y67.622 E5.68119
G1 X138.039 Y68.541 E5.71027
G1 X137.908 Y69.453 E5.73938
G1 X137.698 Y70.349 E5.76846
G1 X137.412 Y71.224 E5.79755
G1 X137.051 Y72.071 E5.82664
G1 X136.617 Y72.883 E5.85573
G1 X136.115 Y73.655 E5.88483
G1 X135.547 Y74.38 E5.91393
G1 X134.919 Y75.053 E5.94301
G1 X134.235 Y75.669 E5.9721
G1 X133.5 Y76.223 E6.00118
G1 X132.72 Y76.712 E6.03027
G1 X131.9 Y77.131 E6.05936
G1 X131.047 Y77.477 E6.08845
G1 X130.167 Y77.748 E6.11754
G1 X129.267 Y77.941 E6.14663
G1 X128.353 Y78.056 E6.17574
G1 X127.788 Y78.087 E6.19361
G1 X127.17 Y78.1 E6.21315
G1 X108.07 Y78.099 E6.81665
G1 X107.372 Y78.09 E6.83871
G1 X106.453 Y78.038 E6.86779
G1 X105.542 Y77.907 E6.89687
G1 X104.646 Y77.697 E6.92595
G1 X103.771 Y77.41 E6.95505
G1 X102.924 Y77.048 E6.98415
G1 X102.112 Y76.614 E7.01324
G1 X101.341 Y76.112 E7.04231
G1 X100.616 Y75.544 E7.07142
G1 X99.943 Y74.915 E7.10052
G1 X99.328 Y74.231 E7.12959
G1 X98.774 Y73.496 E7.15867
G1 X98.286 Y72.715 E7.18777
G1 X97.867 Y71.895 E7.21686
G1 X97.521 Y71.042 E7.24595
G1 X97.251 Y70.162 E7.27503
G1 X97.058 Y69.261 E7.30415
G1 X96.944 Y68.348 E7.33322
G1 X96.913 Y67.777 E7.35129
G1 X96.9 Y67.158 E7.37085
G1 X96.901 Y48.031 E7.97521
G1 X96.91 Y47.366 E7.99622
G1 X96.962 Y46.446 E8.02534
G1 X97.094 Y45.535 E8.05443
G1 X97.305 Y44.639 E8.08351
G1 X97.592 Y43.764 E8.11261
G1 X97.955 Y42.918 E8.1417
G1 X98.389 Y42.106 E8.17079
G1 X98.892 Y41.335 E8.19987
G1 X99.461 Y40.611 E8.22897
G1 X100.089 Y39.939 E8.25803
G1 X100.774 Y39.323 E8.28714
G1 X101.51 Y38.77 E8.31623
G1 X102.291 Y38.282 E8.34533
G1 X103.111 Y37.864 E8.37441
G1 X103.965 Y37.519 E8.40351
G1 X104.845 Y37.249 E8.4326
G1 X105.745 Y37.057 E8.46167
G1 X106.659 Y36.943 E8.49078
G1 X107.212 Y36.913 E8.50828
G1 X107.83 Y36.9 E8.52781
G1 X126.843 Y36.901 E9.12856
G0 F1350 X126.945 Y36.901
G0 X127.643 Y36.911
G0 F7500 X127.649 Y36.511
G1 F1500 X128.585 Y36.565 E9.15819
G1 X129.513 Y36.697 E9.18781
G1 X130.427 Y36.909 E9.21745
G1 X131.319 Y37.198 E9.24708
G1 X132.184 Y37.561 E9.27672
G1 X133.014 Y37.997 E9.30634
G1 X133.805 Y38.502 E9.336
G1 X134.549 Y39.073 E9.36563
G1 X135.242 Y39.705 E9.39526
G1 X135.879 Y40.393 E9.42489
G1 X136.454 Y41.134 E9.45453
G1 X136.965 Y41.92 E9.48415
G1 X137.407 Y42.748 E9.51381
G1 X137.776 Y43.61 E9.54343
G1 X138.071 Y44.5 E9.57306
G1 X138.289 Y45.412 E9.60269
G1 X138.429 Y46.34 E9.63234
G1 X138.487 Y47.201 E9.65961
G1 X138.5 Y47.83 E9.67949
G1 X138.499 Y66.9 E10.28204
G1 X138.49 Y67.627 E10.30502
G1 X138.439 Y68.564 E10.33467
G1 X138.307 Y69.492 E10.36428
G1 X138.098 Y70.406 E10.39391
G1 X137.811 Y71.299 E10.42355
G1 X137.449 Y72.165 E10.4532
G1 X137.015 Y72.996 E10.48283
G1 X136.511 Y73.787 E10.51246
G1 X135.942 Y74.532 E10.54208
G1 X135.311 Y75.227 E10.57174
G1 X134.624 Y75.865 E10.60137
G1 X133.885 Y76.442 E10.63099
G1 X133.099 Y76.954 E10.66063
G1 X132.273 Y77.397 E10.69025
G1 X131.411 Y77.769 E10.71991
G1 X130.522 Y78.065 E10.74952
G1 X129.61 Y78.285 E10.77916
G1 X128.683 Y78.426 E10.80879
G1 X127.799 Y78.487 E10.83679
G1 X127.17 Y78.5 E10.85667
G1 X108.065 Y78.499 E11.46033
G1 X107.367 Y78.49 E11.48239
G1 X106.431 Y78.438 E11.51201
G1 X105.502 Y78.306 E11.54166
G1 X104.588 Y78.096 E11.57129
G1 X103.695 Y77.809 E11.60093
G1 X102.83 Y77.446 E11.63057
G1 X101.999 Y77.012 E11.66019
G1 X101.208 Y76.508 E11.68982
G1 X100.463 Y75.938 E11.71946
G1 X99.769 Y75.307 E11.7491
G1 X99.132 Y74.62 E11.7787
G1 X98.555 Y73.88 E11.80835
G1 X98.043 Y73.094 E11.83799
G1 X97.6 Y72.267 E11.86764
G1 X97.229 Y71.406 E11.89726
G1 X96.933 Y70.516 E11.9269
G1 X96.714 Y69.604 E11.95653
G1 X96.573 Y68.677 E11.98616
G1 X96.513 Y67.788 E12.01431
G1 X96.5 Y67.158 E12.03422
G1 X96.501 Y48.025 E12.63877
G1 X96.51 Y47.36 E12.65979
G1 X96.563 Y46.424 E12.68941
G1 X96.695 Y45.495 E12.71906
G1 X96.906 Y44.581 E12.7487
G1 X97.194 Y43.689 E12.77831
G1 X97.557 Y42.824 E12.80795
G1 X97.992 Y41.993 E12.83759
G1 X98.496 Y41.203 E12.8672
G1 X99.066 Y40.458 E12.89684
G1 X99.698 Y39.764 E12.9265
G1 X100.386 Y39.127 E12.95612
G1 X101.126 Y38.551 E12.98575
G1 X101.912 Y38.039 E13.01539
G1 X102.739 Y37.597 E13.04502
G1 X103.601 Y37.227 E13.07466
G1 X104.491 Y36.931 E13.1043
G1 X105.403 Y36.713 E13.13393
G1 X106.33 Y36.572 E13.16355
G1 X107.201 Y36.513 E13.19114
G1 X107.83 Y36.5 E13.21102
G1 X126.849 Y36.501 E13.81196
G0 F1350 X126.951 Y36.501
G0 X127.649 Y36.511
G1 F1500 E7.81196
;MESH:0.2mm 20%.stl(11)
G0 F7500 X125.381 Y46.835
G0 X125.381 Y48.797
G0 X124.878 Y49.1
;TYPE:WALL-OUTER
G1 F1500 E13.81196
G1 X124.851 Y49.131 E13.8132
G1 X124.83 Y49.155 E13.81415
G1 X124.8 Y49.205 E13.8159
G1 X124.777 Y49.243 E13.81724
G1 X124.754 Y49.301 E13.81911
G1 X124.716 Y49.396 E13.82218
G1 X124.689 Y49.524 E13.82611
G1 X124.68 Y49.566 E13.8274
G1 X124.664 Y49.744 E13.83276
G1 X124.653 Y49.854 E13.83608
G1 X124.655 Y50.015 E13.84091
G1 X124.659 Y50.18 E13.84587
G1 X124.662 Y50.311 E13.8498
G1 X124.665 Y50.333 E13.85047
G1 X124.697 Y50.535 E13.85661
G1 X124.702 Y50.564 E13.85749
G1 X124.73 Y50.658 E13.86043
G1 X124.736 Y50.678 E13.86106
G1 X124.725 Y50.66
G1 X124.695 Y50.567 E13.86109
G1 X124.685 Y50.537
G1 X124.646 Y50.337 E13.8613
G1 X124.644 Y50.313 E13.86136
G1 X124.631 Y50.181 E13.8616
G1 X124.626 Y50.016 E13.86197
G1 X124.633 Y49.854 E13.86228
G1 X124.638 Y49.742 E13.8625
G1 X124.663 Y49.564 E13.8628
G1 X124.67 Y49.52
G1 X124.704 Y49.391 E13.86298
G1 X124.741 Y49.296 E13.86305
G1 X124.771 Y49.24 E13.86311
G1 X124.792 Y49.201
G1 X124.828 Y49.154 E13.86318
G1 X124.847 Y49.129 E13.86319
G1 X124.878 Y49.1 E13.86321
G0 F7500 X124.851 Y49.131
G0 X124.83 Y49.155
G0 X124.8 Y49.205
G0 X124.777 Y49.243
G0 X124.754 Y49.301
G0 X124.716 Y49.396
G0 X124.704 Y49.457
G1 F1500 E7.86321
G0 F7500 X124.917 Y50.692
G0 X125.104 Y50.875
G0 X125.672 Y50.861
G1 F1500 E13.86321
G1 X125.681 Y50.847 E13.86371
G1 X125.727 Y50.772 E13.86635
G1 X125.768 Y50.669 E13.86968
G1 X125.788 Y50.621 E13.87124
G1 X125.814 Y50.498 E13.87501
G1 X125.824 Y50.454 E13.87637
G1 X125.841 Y50.268 E13.88197
G1 X125.851 Y50.167 E13.88502
G1 X125.854 Y50.005 E13.88988
G1 X125.844 Y49.752 E13.89748
G1 X125.841 Y49.695 E13.8992
G1 X125.813 Y49.537 E13.90401
G1 X125.79 Y49.411 E13.90786
G1 X125.785 Y49.387 E13.90859
G1 X125.767 Y49.332 E13.91033
G1 X125.754 Y49.3 E13.91137
G1 X125.766 Y49.332 E13.91137
G1 X125.787 Y49.385 E13.91139
G1 X125.797 Y49.409
G1 X125.831 Y49.533 E13.91151
G1 X125.854 Y49.693 E13.9117
G1 X125.863 Y49.751
G1 X125.875 Y50.007 E13.91213
G1 X125.869 Y50.167 E13.91233
G1 X125.864 Y50.27 E13.91252
G1 X125.837 Y50.455 E13.91276
G1 X125.83 Y50.501
G1 X125.796 Y50.623 E13.91287
G1 X125.781 Y50.673
G1 X125.735 Y50.775 E13.91296
G1 X125.687 Y50.85 E13.91305
G1 X125.672 Y50.861 E13.91309
G0 F7500 X125.681 Y50.847
G0 X125.727 Y50.772
G0 X125.768 Y50.669
G0 X125.788 Y50.621
G0 X125.814 Y50.498
G0 X125.816 Y50.489
G0 X125.643 Y50.427
G1 F1500 E7.91309
G0 F7500 X125.724 Y50.438
G0 X125.615 Y49.385
G0 X125.393 Y49.135
G0 X124.579 Y49.215
G0 X124.168 Y49.138
G0 X123.962 Y48.96
G1 F1500 E13.91309
G1 X123.979 Y48.977 E13.91381
G1 X123.991 Y48.989 E13.91432
G1 X123.995 Y49.006 E13.91484
G1 X123.996 Y49.051 E13.91619
G1 X123.997 Y49.065 E13.91661
G1 X123.995 Y49.078 E13.91701
G1 X123.992 Y49.094 E13.9175
G1 X123.983 Y49.115 E13.91818
G1 X123.964 Y49.129 E13.91889
G1 X123.935 Y49.133 E13.91977
G1 X123.91 Y49.13 E13.92053
G1 X123.882 Y49.114 E13.92102
G1 X123.87 Y49.086 E13.92119
G1 X123.866 Y49.056 E13.92135
G1 X123.867 Y49.016 E13.92186
G1 X123.873 Y48.994
G1 X123.891 Y48.973 E13.92224
G1 X123.901 Y48.962
G1 X123.913 Y48.958 E13.9223
G1 X123.942 Y48.959 E13.92266
G1 X123.962 Y48.96 E13.92284
G0 F7500 X123.979 Y48.977
G0 X123.991 Y48.989
G0 X123.995 Y49.006
G0 X123.996 Y49.051
G0 X123.997 Y49.065
G0 X123.995 Y49.078
G0 X123.992 Y49.094
G0 X123.983 Y49.115
G0 X123.964 Y49.129
G0 X123.935 Y49.133
G0 X123.91 Y49.13
G0 X123.882 Y49.114
G0 X123.87 Y49.086
G0 X123.866 Y49.056
G0 X123.867 Y49.016
G0 X123.873 Y48.994
G0 X123.874 Y48.993
G0 X123.33 Y49.621
G0 X123.074 Y49.218
G1 F1500 X123.039 Y49.133 E13.9256
G1 X123.022 Y49.091 E13.92696
G1 X122.984 Y49 E13.92992
G1 X123.074 Y49 E13.93057
G1 X123.24 Y49 E13.93357
G1 X123.24 Y49.05
G1 X123.139 Y49.152 E13.93474
G1 X123.074 Y49.218 E13.9355
G0 F7500 X123.039 Y49.133
G0 X123.022 Y49.091
G0 X122.984 Y49
G0 X123.074 Y49
G0 X123.15 Y49
G0 X123.15 Y48.952
G0 X123.237 Y49.03
G0 X122.222 Y50.165
G1 F1500 X122.19 Y50.228 E13.93762
G1 X122.18 Y50.247 E13.93826
G1 X122.161 Y50.3 E13.93995
G1 X122.146 Y50.342 E13.94129
G1 X122.142 Y50.362 E13.9419
G1 X122.131 Y50.412 E13.94344
G1 X122.123 Y50.477 E13.94541
G1 X122.121 Y50.534 E13.94712
G1 X122.119 Y50.558 E13.94784
G1 X122.121 Y50.595 E13.94895
G1 X122.123 Y50.623 E13.9498
G1 X122.129 Y50.664 E13.95104
G1 X122.134 Y50.691 E13.95186
G1 X122.146 Y50.727 E13.953
G1 X122.167 Y50.787 E13.95491
G1 X122.194 Y50.834 E13.95654
G1 X122.206 Y50.854 E13.95724
G1 X122.225 Y50.875 E13.95809
G1 X122.265 Y50.919 E13.95987
G1 X122.284 Y50.94 E13.96072
G1 X122.32 Y50.969 E13.96211
G1 X122.282 Y50.944
G1 X122.258 Y50.927
G1 X122.212 Y50.887 E13.96217
G1 X122.194 Y50.865 E13.96222
G1 X122.177 Y50.845
G1 X122.145 Y50.791 E13.96244
G1 X122.123 Y50.736 E13.96248
G1 X122.113 Y50.697 E13.96258
G1 X122.105 Y50.669
G1 X122.101 Y50.626 E13.96268
G1 X122.097 Y50.597
G1 X122.097 Y50.559 E13.96276
G1 X122.096 Y50.533
G1 X122.102 Y50.469 E13.96297
G1 X122.116 Y50.409 E13.963
G1 X122.128 Y50.36 E13.96304
G1 X122.136 Y50.339 E13.96309
G1 X122.152 Y50.297 E13.96309
G1 X122.176 Y50.246 E13.96313
G1 X122.185 Y50.226
G1 X122.222 Y50.165 E13.96316
G0 F7500 X122.19 Y50.228
G0 X122.18 Y50.247
G0 X122.161 Y50.3
G0 X122.146 Y50.342
G0 X122.142 Y50.362
G0 X122.131 Y50.412
G0 X122.123 Y50.477
G0 X122.121 Y50.534
G0 X122.12 Y50.55
G0 X122.073 Y50.55
G1 F1500 E7.96316
G0 F7500 X122.146 Y50.55
G0 X122.686 Y49.403
G0 X122.587 Y49.165
G0 X121.922 Y49.171
G0 X121.922 Y49.376
G0 X121.712 Y50.533
G0 X121.7 Y49.016
G0 X121.552 Y48.772
G0 X121.344 Y48.772
G0 X121.344 Y49.072
G0 X121.48 Y50.525
G0 X120.207 Y50.478
G0 X120.111 Y50.538
G0 X119.411 Y50.45
G1 F1500 E13.96316
G1 X119.365 Y50.434 E13.96462
G1 X119.326 Y50.414 E13.96594
G1 X119.284 Y50.383 E13.9675
G1 X119.25 Y50.347 E13.96899
G1 X119.224 Y50.309 E13.97037
G1 X119.199 Y50.254 E13.97219
G1 X119.179 Y50.188 E13.97426
G1 X119.166 Y50.117 E13.97642
G1 X119.163 Y50.055 E13.97829
G1 X119.16 Y50.02 E13.97934
G1 X119.158 Y49 E14.00996
G1 X119.174 Y49 E14.01044
G1 X119.177 Y50.019 E14.01169
G1 X119.178 Y50.054 E14.01173
G1 X119.186 Y50.119 E14.01186
G1 X119.202 Y50.181
G1 X119.221 Y50.248 E14.01198
G1 X119.247 Y50.295
G1 X119.268 Y50.331 E14.01198
G1 X119.301 Y50.366 E14.01206
G1 X119.333 Y50.4
G1 X119.371 Y50.424 E14.0121
G1 X119.411 Y50.45 E14.0121
G0 F7500 X119.365 Y50.434
G0 X119.326 Y50.414
G0 X119.284 Y50.383
G0 X119.25 Y50.347
G0 X119.224 Y50.309
G0 X119.199 Y50.254
G0 X119.179 Y50.188
G0 X119.173 Y50.155
G1 F1500 E8.0121
G0 F7500 X119.649 Y50.338
G0 X120.07 Y50.246
G0 X120.159 Y50.139
G0 X120.25 Y50.264
G0 X121.046 Y50.346
G0 X121.138 Y50.219
G0 X121.215 Y50.236
G0 X121.346 Y50.377
G0 X121.322 Y50.394
G1 F1500 E14.0121
G1 X121.28 Y50.174 E14.01883
G1 X121.276 Y50.153 E14.01947
G1 X121.24 Y50.181
G1 X121.253 Y50.145
G1 X121.263 Y50.121 E14.02006
G1 X121.285 Y50.024 E14.02304
G1 X121.306 Y49.71 E14.03249
G1 X121.305 Y49 E14.0538
G1 X121.322 Y49 E14.05431
G1 X121.322 Y49.71 E14.05519
G1 X121.322 Y50.024 E14.05582
G1 X121.322 Y50.121 E14.05615
G1 X121.322 Y50.153 E14.05628
G1 X121.322 Y50.181
G1 X121.322 Y50.394 E14.05649
G0 F7500 X121.28 Y50.174
G0 X121.276 Y50.153
G0 X121.24 Y50.181
G0 X121.253 Y50.145
G0 X121.263 Y50.121
G0 X121.273 Y50.075
G0 X120.486 Y50.453
G1 F1500 X120.452 Y50.44 E14.05758
G1 X120.43 Y50.428 E14.05834
G1 X120.381 Y50.399 E14.06005
G1 X120.351 Y50.373 E14.06124
G1 X120.331 Y50.355 E14.06204
G1 X120.286 Y50.297 E14.06425
G1 X120.23 Y50.226 E14.06696
G1 X120.179 Y50.161 E14.06944
G1 X120.201 Y50.096 E14.0715
G1 X120.212 Y50.045 E14.07307
G1 X120.219 Y50.012 E14.07408
G1 X120.229 Y49.917 E14.07695
G1 X120.233 Y49.763 E14.08157
G1 X120.232 Y49 E14.10448
G1 X120.249 Y49 E14.10499
G1 X120.249 Y49.762 E14.10592
G1 X120.25 Y49.916 E14.10617
G1 X120.251 Y50.011 E14.10643
G1 X120.252 Y50.053 E14.1065
G1 X120.257 Y50.086
G1 X120.268 Y50.144 E14.10672
G1 X120.277 Y50.188
