;FLAVOR:Marlin
;TIME:2129
;Filament used: 1.05541m
;Layer height: 0.2
;MINX:66.752
;MINY:91.5
;MINZ:0.2
;MAXX:168.25
;MAXY:143.5
;MAXZ:2.2
;Generated with Cura_SteamEngine 4.6.2
M140 S60
M105
M190 S60
M104 S200
M105
M109 S200
M82 ;absolute extrusion mode
; Ender 3 Custom Start G-code
G92 E0 ; Reset Extruder
G28 ; Home all axes
G1 Z2.0 F3000 ; Move Z Axis up little to prevent scratching of Heat Bed
G1 X0.1 Y20 Z0.3 F5000.0 ; Move to start position
G1 X0.1 Y200.0 Z0.3 F1500.0 E15 ; Draw the first line
G1 X0.4 Y200.0 Z0.3 F5000.0 ; Move to side a little
G1 X0.4 Y20 Z0.3 F1500.0 E30 ; Draw the second line
G92 E0 ; Reset Extruder
G1 Z2.0 F3000 ; Move Z Axis up little to prevent scratching of Heat Bed
G1 X5 Y20 Z0.3 F5000.0 ; Move over to prevent blob squish
G92 E0
G92 E0
G1 F1500 E-6
;LAYER_COUNT:11
;LAYER:0
M107
M204 S500
M205 X8 Y8
G0 F7500 X152.489 Y92.318 Z0.2
;TYPE:SKIRT
G1 F1500 E0
G1 X153.254 Y92.354 E0.0242
G1 X154.09 Y92.428 E0.05072
G1 X154.413 Y92.47 E0.06101
G1 X155.238 Y92.612 E0.08746
G1 X155.676 Y92.706 E0.10161
G1 X156.462 Y92.908 E0.12726
G1 X156.659 Y92.967 E0.13375
G1 X157.159 Y93.131 E0.15038
G1 X157.56 Y93.274 E0.16383
G1 X158.318 Y93.579 E0.18965
G1 X158.547 Y93.682 E0.19758
G1 X158.974 Y93.886 E0.21254
G1 X159.341 Y94.072 E0.22554
G1 X160.045 Y94.464 E0.251
G1 X160.217 Y94.569 E0.25736
G1 X160.691 Y94.877 E0.27523
G1 X161.074 Y95.141 E0.28992
G1 X161.75 Y95.649 E0.31664
G1 X161.905 Y95.776 E0.32297
G1 X162.275 Y96.095 E0.33841
G1 X162.604 Y96.392 E0.35242
G1 X163.406 Y97.202 E0.38843
G1 X163.761 Y97.603 E0.40535
G1 X164.453 Y98.476 E0.44055
G1 X164.827 Y99.005 E0.46102
G1 X165.293 Y99.726 E0.48815
G1 X165.434 Y99.966 E0.49694
G1 X165.835 Y100.721 E0.52396
G1 X166.037 Y101.142 E0.53871
G1 X166.36 Y101.889 E0.56443
G1 X166.442 Y102.102 E0.57164
G1 X166.609 Y102.57 E0.58734
G1 X166.742 Y102.973 E0.60075
G1 X166.966 Y103.755 E0.62645
G1 X167.014 Y103.952 E0.63286
G1 X167.122 Y104.448 E0.6489
G1 X167.208 Y104.897 E0.66334
G1 X167.339 Y105.796 E0.69205
G1 X167.359 Y105.995 E0.69837
G1 X167.392 Y106.409 E0.71149
G1 X167.419 Y106.863 E0.72586
G1 X167.433 Y107.183 E0.73598
G1 X167.446 Y107.788 E0.7551
G1 X167.449 Y126.162 E1.33567
G1 X167.439 Y126.846 E1.35728
G1 X167.44 Y129.134 E1.42958
G1 X167.45 Y130.727 E1.47991
G1 X167.448 Y131.892 E1.51672
G1 X167.439 Y132.521 E1.5366
G1 X167.386 Y133.422 E1.56512
G1 X167.172 Y134.697 E1.60597
G1 X167.154 Y134.774 E1.60846
G1 X166.91 Y135.643 E1.63698
G1 X166.59 Y136.488 E1.66553
G1 X166.196 Y137.3 E1.69405
G1 X165.732 Y138.075 E1.72259
G1 X165.201 Y138.806 E1.75114
G1 X164.608 Y139.487 E1.77967
G1 X163.957 Y140.113 E1.80821
G1 X163.253 Y140.678 E1.83673
G1 X162.501 Y141.179 E1.86528
G1 X161.899 Y141.517 E1.8871
G1 X161.082 Y141.9 E1.91561
G1 X160.234 Y142.21 E1.94414
G1 X159.361 Y142.444 E1.9727
G1 X158.472 Y142.599 E2.00121
G1 X157.341 Y142.682 E2.03704
G1 X156.219 Y142.7 E2.0725
G1 X152.768 Y142.688 E2.18154
G1 X150.631 Y142.7 E2.24907
G1 X145.933 Y142.689 E2.39751
G1 X136.174 Y142.63 E2.70587
G1 X132.591 Y142.589 E2.81909
G1 X130.869 Y142.586 E2.8735
G1 X124.71 Y142.534 E3.06811
G1 X123.457 Y142.517 E3.10771
G1 X114.224 Y142.43 E3.39946
G1 X113.445 Y142.416 E3.42408
G1 X105.999 Y142.352 E3.65936
G1 X105.175 Y142.337 E3.6854
G1 X104.754 Y142.335 E3.6987
G1 X95.946 Y142.24 E3.97702
G1 X95.791 Y142.244 E3.98192
G1 X95.366 Y142.246 E3.99535
G1 X93.914 Y142.222 E4.04124
G1 X93.168 Y142.215 E4.06481
G1 X89.895 Y142.177 E4.16823
G1 X89.282 Y142.179 E4.1876
G1 X87.868 Y142.158 E4.23229
G1 X87.077 Y142.156 E4.25728
G1 X86.243 Y142.14 E4.28364
G1 X83.748 Y142.105 E4.36248
G1 X83.198 Y142.104 E4.37986
G1 X79.241 Y142.056 E4.5049
G1 X78.526 Y142.037 E4.5275
G1 X77.625 Y141.973 E4.55604
G1 X76.734 Y141.83 E4.58455
G1 X75.858 Y141.608 E4.61311
G1 X75.204 Y141.387 E4.63492
G1 X75.026 Y141.32 E4.64093
G1 X74.195 Y140.965 E4.66948
G1 X73.4 Y140.538 E4.69799
G1 X72.645 Y140.042 E4.72654
G1 X71.937 Y139.481 E4.75508
G1 X71.43 Y139.01 E4.77695
G1 X71.275 Y138.856 E4.78385
G1 X70.663 Y138.192 E4.81238
G1 X70.112 Y137.476 E4.84093
G1 X69.627 Y136.714 E4.86947
G1 X69.211 Y135.912 E4.89802
G1 X68.868 Y135.077 E4.92654
G1 X68.603 Y134.227 E4.95467
G1 X68.557 Y134.053 E4.96036
G1 X68.365 Y133.171 E4.98888
G1 X68.234 Y132.018 E5.02555
G1 X68.174 Y130.949 E5.05938
G1 X68.16 Y130.598 E5.07048
G1 X68.139 Y129.608 E5.10176
G1 X68.062 Y127.574 E5.16608
G1 X67.818 Y120.688 E5.38379
G1 X67.692 Y116.55 E5.5146
G1 X67.618 Y113.742 E5.60336
G1 X67.562 Y110.83 E5.69539
G1 X67.552 Y109.706 E5.7309
G1 X67.552 Y108.081 E5.78225
G1 X67.558 Y107.584 E5.79795
G1 X67.568 Y107.234 E5.80902
G1 X67.6 Y106.545 E5.83081
G1 X67.727 Y105.348 E5.86884
G1 X67.839 Y104.673 E5.89046
G1 X68.032 Y103.767 E5.91973
G1 X68.109 Y103.472 E5.92937
G1 X68.356 Y102.662 E5.95612
G1 X68.501 Y102.25 E5.96992
G1 X68.809 Y101.477 E5.99622
G1 X68.905 Y101.262 E6.00366
G1 X69.105 Y100.84 E6.01841
G1 X69.298 Y100.456 E6.03199
G1 X69.781 Y99.602 E6.06299
G1 X69.98 Y99.286 E6.07479
G1 X70.222 Y98.919 E6.08868
G1 X70.397 Y98.666 E6.0984
G1 X71.108 Y97.753 E6.13497
G1 X71.401 Y97.418 E6.14903
G1 X72.025 Y96.765 E6.17757
G1 X72.705 Y96.17 E6.20612
G1 X73.434 Y95.637 E6.23465
G1 X74.208 Y95.171 E6.2632
G1 X75.019 Y94.776 E6.2917
G1 X75.863 Y94.453 E6.32026
G1 X76.732 Y94.207 E6.34879
G1 X77.619 Y94.038 E6.37732
G1 X78.518 Y93.948 E6.40587
G1 X79.421 Y93.939 E6.4344
G1 X80.064 Y93.981 E6.45476
G1 X80.61 Y94.034 E6.4721
G1 X83.278 Y94.254 E6.55669
G1 X85.786 Y94.389 E6.63605
G1 X88.347 Y94.455 E6.71699
G1 X90.884 Y94.448 E6.79715
G1 X93.409 Y94.371 E6.87697
G1 X95.953 Y94.219 E6.9575
G1 X98.461 Y93.999 E7.03705
G1 X101.033 Y93.7 E7.11887
G1 X103.479 Y93.345 E7.19696
G1 X107.19 Y92.676 E7.31611
G1 X108.008 Y92.512 E7.34247
G1 X108.901 Y92.373 E7.37103
G1 X109.67 Y92.318 E7.39539
G1 X110.023 Y92.306 E7.40655
G1 X110.37 Y92.3 E7.41751
G1 X151.689 Y92.301 E8.72307
G0 F1350 X151.696 Y92.301
G0 X152.489 Y92.318
G0 F7500 X152.508 Y91.919
G1 F1500 X153.273 Y91.955 E8.74727
G1 X154.142 Y92.031 E8.77484
G1 X154.465 Y92.073 E8.78513
G1 X155.322 Y92.221 E8.81261
G1 X155.76 Y92.315 E8.82676
G1 X156.577 Y92.525 E8.85342
G1 X156.774 Y92.584 E8.85991
G1 X157.293 Y92.754 E8.87717
G1 X157.694 Y92.897 E8.89062
G1 X158.482 Y93.214 E8.91746
G1 X158.711 Y93.317 E8.92539
G1 X159.155 Y93.529 E8.94094
G1 X159.522 Y93.715 E8.95394
G1 X160.253 Y94.123 E8.98039
G1 X160.425 Y94.228 E8.98676
G1 X160.918 Y94.547 E9.00531
G1 X161.301 Y94.811 E9.02001
G1 X162.003 Y95.34 E9.04779
G1 X162.158 Y95.467 E9.05412
G1 X162.543 Y95.798 E9.07016
G1 X162.872 Y96.095 E9.08416
G1 X163.706 Y96.937 E9.12161
G1 X164.061 Y97.338 E9.13853
G1 X164.779 Y98.245 E9.17508
G1 X165.153 Y98.774 E9.19555
G1 X165.637 Y99.524 E9.22376
G1 X165.778 Y99.764 E9.23255
G1 X166.196 Y100.548 E9.26063
G1 X166.398 Y100.969 E9.27538
G1 X166.733 Y101.746 E9.30212
G1 X166.815 Y101.959 E9.30933
G1 X166.989 Y102.445 E9.32564
G1 X167.122 Y102.848 E9.33905
G1 X167.355 Y103.661 E9.36577
G1 X167.403 Y103.858 E9.37218
G1 X167.515 Y104.373 E9.38883
G1 X167.601 Y104.822 E9.40328
G1 X167.737 Y105.756 E9.4331
G1 X167.757 Y105.955 E9.43942
G1 X167.791 Y106.386 E9.45308
G1 X167.833 Y107.172 E9.47795
G1 X167.846 Y107.788 E9.49742
G1 X167.849 Y126.167 E10.07814
G1 X167.839 Y126.851 E10.09976
G1 X167.84 Y129.131 E10.1718
G1 X167.85 Y130.727 E10.22223
G1 X167.848 Y131.898 E10.25923
G1 X167.839 Y132.527 E10.2791
G1 X167.786 Y133.446 E10.30819
G1 X167.562 Y134.788 E10.35118
G1 X167.544 Y134.865 E10.35368
G1 X167.295 Y135.751 E10.38276
G1 X166.971 Y136.613 E10.41186
G1 X166.573 Y137.443 E10.44094
G1 X166.105 Y138.236 E10.47004
G1 X165.57 Y138.985 E10.49912
G1 X164.971 Y139.685 E10.52823
G1 X164.314 Y140.33 E10.55732
G1 X163.604 Y140.915 E10.58639
G1 X162.846 Y141.437 E10.61547
G1 X162.085 Y141.871 E10.64315
G1 X161.252 Y142.263 E10.67224
G1 X160.388 Y142.581 E10.70133
G1 X159.5 Y142.823 E10.73041
G1 X158.594 Y142.987 E10.7595
G1 X157.348 Y143.082 E10.79899
G1 X156.218 Y143.1 E10.8347
G1 X152.769 Y143.088 E10.94368
G1 X150.63 Y143.1 E11.01126
G1 X145.932 Y143.089 E11.15971
G1 X136.17 Y143.03 E11.46816
G1 X132.587 Y142.989 E11.58138
G1 X130.865 Y142.986 E11.63579
G1 X124.704 Y142.934 E11.83047
G1 X123.453 Y142.917 E11.87
G1 X114.216 Y142.83 E12.16188
G1 X113.441 Y142.816 E12.18637
G1 X105.992 Y142.752 E12.42175
G1 X104.75 Y142.735 E12.46099
G1 X95.952 Y142.64 E12.739
G1 X95.801 Y142.644 E12.74377
G1 X95.359 Y142.646 E12.75774
G1 X93.903 Y142.622 E12.80375
G1 X93.164 Y142.615 E12.8271
G1 X89.893 Y142.577 E12.93046
G1 X89.277 Y142.579 E12.94993
G1 X87.863 Y142.558 E12.99461
G1 X87.069 Y142.556 E13.0197
G1 X86.227 Y142.54 E13.04631
G1 X83.743 Y142.505 E13.1248
G1 X83.194 Y142.504 E13.14215
G1 X79.23 Y142.456 E13.26741
G1 X78.515 Y142.437 E13.29001
G1 X77.597 Y142.373 E13.31909
G1 X76.688 Y142.229 E13.34817
G1 X75.794 Y142.007 E13.37727
G1 X75.063 Y141.762 E13.40163
G1 X74.885 Y141.695 E13.40764
G1 X74.038 Y141.333 E13.43675
G1 X73.226 Y140.9 E13.46582
G1 X72.454 Y140.397 E13.49494
G1 X71.729 Y139.83 E13.52402
G1 X71.148 Y139.294 E13.549
G1 X70.993 Y139.14 E13.5559
G1 X70.369 Y138.463 E13.58499
G1 X69.805 Y137.735 E13.61409
G1 X69.307 Y136.96 E13.6432
G1 X68.879 Y136.146 E13.67226
G1 X68.522 Y135.297 E13.70136
G1 X68.216 Y134.329 E13.73344
G1 X68.17 Y134.155 E13.73912
G1 X67.974 Y133.256 E13.7682
G1 X67.835 Y132.04 E13.80687
G1 X67.775 Y130.971 E13.8407
G1 X67.76 Y130.607 E13.85221
G1 X67.739 Y129.631 E13.88306
G1 X67.662 Y127.589 E13.94762
G1 X67.418 Y120.701 E14.1654
G1 X67.292 Y116.563 E14.29621
G1 X67.218 Y113.749 E14.38515
G1 X67.162 Y110.834 E14.47728
G1 X67.152 Y109.706 E14.51292
G1 X67.152 Y108.076 E14.56442
G1 X67.158 Y107.579 E14.58013
G1 X67.168 Y107.215 E14.59163
G1 X67.2 Y106.526 E14.61343
G1 X67.332 Y105.283 E14.65292
G1 X67.444 Y104.608 E14.67454
G1 X67.645 Y103.666 E14.70498
G1 X67.722 Y103.371 E14.71461
G1 X67.979 Y102.529 E14.74243
G1 X68.124 Y102.117 E14.75623
G1 X68.444 Y101.314 E14.78354
G1 X68.54 Y101.099 E14.79098
G1 X68.748 Y100.661 E14.8063
G1 X68.941 Y100.277 E14.81988
G1 X69.442 Y99.388 E14.85213
G1 X69.641 Y99.072 E14.86393
G1 X69.893 Y98.691 E14.87836
G1 X70.068 Y98.438 E14.88808
G1 X70.807 Y97.49 E14.92606
G1 X71.1 Y97.155 E14.94012
G1 X71.736 Y96.489 E14.96922
G1 X72.427 Y95.88 E14.99832
G1 X73.168 Y95.334 E15.02741
G1 X73.954 Y94.854 E15.05651
G1 X74.778 Y94.445 E15.08557
G1 X75.635 Y94.108 E15.11467
G1 X76.518 Y93.847 E15.14376
G1 X77.42 Y93.664 E15.17284
G1 X78.335 Y93.559 E15.20195
G1 X79.255 Y93.534 E15.23103
G1 X80.103 Y93.583 E15.25786
G1 X80.688 Y93.64 E15.27644
G1 X83.296 Y93.854 E15.35912
G1 X85.782 Y93.989 E15.43778
G1 X88.356 Y94.055 E15.51914
G1 X90.871 Y94.048 E15.59861
G1 X93.407 Y93.97 E15.67878
G1 X95.894 Y93.822 E15.7575
G1 X98.45 Y93.598 E15.83857
G1 X100.966 Y93.305 E15.91861
G1 X103.413 Y92.951 E15.99673
G1 X107.13 Y92.281 E16.11607
G1 X107.929 Y92.12 E16.14182
G1 X108.839 Y91.978 E16.17092
G1 X109.657 Y91.918 E16.19684
G1 X110.01 Y91.906 E16.208
G1 X110.37 Y91.9 E16.21938
G1 X151.702 Y91.901 E17.52535
G1 X151.708 Y91.902 E17.52554
G0 F1350 X152.508 Y91.919
G0 F7500 X152.527 Y91.519
G1 F1500 X153.292 Y91.555 E17.54974
G1 X154.193 Y91.635 E17.57832
G1 X154.516 Y91.677 E17.58861
G1 X155.406 Y91.83 E17.61715
G1 X155.844 Y91.924 E17.6313
G1 X156.692 Y92.141 E17.65896
G1 X156.889 Y92.2 E17.66546
G1 X157.428 Y92.377 E17.68338
G1 X157.829 Y92.52 E17.69683
G1 X158.646 Y92.849 E17.72466
G1 X158.875 Y92.952 E17.7326
G1 X159.336 Y93.172 E17.74874
G1 X159.703 Y93.358 E17.76174
G1 X160.462 Y93.781 E17.78919
G1 X160.634 Y93.886 E17.79556
G1 X161.145 Y94.218 E17.81482
G1 X161.528 Y94.482 E17.82951
G1 X162.257 Y95.03 E17.85833
G1 X162.412 Y95.157 E17.86466
G1 X162.811 Y95.501 E17.88131
G1 X163.14 Y95.798 E17.89531
G1 X164.005 Y96.672 E17.93417
G1 X164.36 Y97.073 E17.95109
G1 X165.106 Y98.014 E17.98903
G1 X165.48 Y98.543 E18.0095
G1 X165.982 Y99.321 E18.03876
G1 X166.123 Y99.561 E18.04755
G1 X166.556 Y100.374 E18.07666
G1 X166.758 Y100.795 E18.09141
G1 X167.107 Y101.602 E18.11919
G1 X167.189 Y101.815 E18.1264
G1 X167.369 Y102.32 E18.14334
G1 X167.502 Y102.723 E18.15675
G1 X167.743 Y103.566 E18.18446
G1 X167.791 Y103.763 E18.19086
G1 X167.908 Y104.298 E18.20817
G1 X167.994 Y104.747 E18.22261
G1 X168.135 Y105.716 E18.25355
G1 X168.155 Y105.915 E18.25987
G1 X168.191 Y106.362 E18.27404
G1 X168.218 Y106.816 E18.28841
G1 X168.242 Y107.482 E18.30947
G1 X168.246 Y107.788 E18.31914
G1 X168.249 Y126.173 E18.90005
G1 X168.239 Y126.857 E18.92167
G1 X168.24 Y129.128 E18.99342
G1 X168.25 Y130.728 E19.04398
G1 X168.248 Y131.903 E19.08111
G1 X168.239 Y132.532 E19.10098
G1 X168.185 Y133.469 E19.13064
G1 X168.053 Y134.397 E19.16026
G1 X167.933 Y134.956 E19.17832
G1 X167.681 Y135.859 E19.20794
G1 X167.353 Y136.738 E19.23759
G1 X166.951 Y137.585 E19.26721
G1 X166.478 Y138.395 E19.29685
G1 X165.938 Y139.162 E19.32649
G1 X165.335 Y139.88 E19.35612
G1 X164.673 Y140.544 E19.38574
G1 X163.956 Y141.15 E19.41541
G1 X163.191 Y141.692 E19.44503
G1 X162.271 Y142.225 E19.47862
G1 X161.423 Y142.625 E19.50825
G1 X160.543 Y142.951 E19.5379
G1 X159.639 Y143.201 E19.56754
G1 X158.718 Y143.373 E19.59714
G1 X157.355 Y143.482 E19.64035
G1 X156.216 Y143.5 E19.67634
G1 X152.769 Y143.488 E19.78526
G1 X150.629 Y143.5 E19.85288
G1 X145.931 Y143.489 E20.00132
G1 X136.165 Y143.43 E20.3099
G1 X132.581 Y143.389 E20.42315
G1 X130.861 Y143.386 E20.4775
G1 X124.699 Y143.334 E20.67221
G1 X123.45 Y143.317 E20.71168
G1 X114.209 Y143.23 E21.00368
G1 X113.437 Y143.216 E21.02808
G1 X105.985 Y143.152 E21.26355
G1 X104.746 Y143.135 E21.3027
G1 X95.958 Y143.04 E21.58039
G1 X95.811 Y143.044 E21.58504
G1 X95.352 Y143.045 E21.59954
G1 X93.952 Y143.021 E21.64378
G1 X93.161 Y143.015 E21.66878
G1 X89.892 Y142.977 E21.77208
G1 X89.271 Y142.979 E21.7917
G1 X87.857 Y142.958 E21.83638
G1 X87.062 Y142.956 E21.8615
G1 X86.217 Y142.94 E21.8882
G1 X83.737 Y142.905 E21.96657
G1 X83.189 Y142.904 E21.98389
G1 X79.22 Y142.856 E22.10931
G1 X78.505 Y142.837 E22.13191
G1 X77.569 Y142.772 E22.16155
G1 X76.642 Y142.628 E22.19119
G1 X75.731 Y142.405 E22.22083
G1 X74.922 Y142.136 E22.24777
G1 X74.744 Y142.069 E22.25378
G1 X73.881 Y141.701 E22.28342
G1 X73.053 Y141.262 E22.31303
G1 X72.265 Y140.753 E22.34267
G1 X71.523 Y140.179 E22.37232
G1 X70.866 Y139.577 E22.40047
G1 X70.711 Y139.423 E22.40738
G1 X70.075 Y138.735 E22.43698
G1 X69.499 Y137.994 E22.46664
G1 X68.989 Y137.207 E22.49627
G1 X68.547 Y136.38 E22.5259
G1 X68.178 Y135.518 E22.55552
G1 X67.829 Y134.431 E22.5916
G1 X67.783 Y134.257 E22.59728
G1 X67.583 Y133.341 E22.62691
G1 X67.435 Y132.062 E22.66759
G1 X67.375 Y130.993 E22.70142
G1 X67.361 Y130.615 E22.71337
G1 X67.34 Y129.656 E22.74368
G1 X67.263 Y127.604 E22.80856
G1 X67.018 Y120.713 E23.02644
G1 X66.892 Y116.575 E23.15725
G1 X66.818 Y113.757 E23.24632
G1 X66.763 Y110.838 E23.33857
G1 X66.752 Y109.706 E23.37434
G1 X66.752 Y108.071 E23.426
G1 X66.758 Y107.574 E23.4417
G1 X66.769 Y107.197 E23.45362
G1 X66.801 Y106.508 E23.47541
G1 X66.937 Y105.217 E23.51643
G1 X67.049 Y104.542 E23.53805
G1 X67.258 Y103.565 E23.56962
G1 X67.335 Y103.27 E23.57925
G1 X67.602 Y102.396 E23.60813
G1 X67.747 Y101.984 E23.62193
G1 X68.079 Y101.151 E23.65026
G1 X68.175 Y100.936 E23.6577
G1 X68.391 Y100.481 E23.67362
G1 X68.584 Y100.097 E23.6872
G1 X69.104 Y99.175 E23.72064
G1 X69.303 Y98.859 E23.73244
G1 X69.564 Y98.463 E23.74743
G1 X69.739 Y98.21 E23.75715
G1 X70.506 Y97.226 E23.79657
G1 X70.799 Y96.891 E23.81063
G1 X71.446 Y96.212 E23.84027
G1 X72.149 Y95.591 E23.86991
G1 X72.901 Y95.031 E23.89953
G1 X73.699 Y94.538 E23.92917
G1 X74.536 Y94.115 E23.9588
G1 X75.406 Y93.764 E23.98845
G1 X76.302 Y93.489 E24.01806
G1 X77.219 Y93.291 E24.0477
G1 X78.15 Y93.172 E24.07736
G1 X79.087 Y93.133 E24.10699
G1 X80.141 Y93.184 E24.14033
G1 X80.754 Y93.244 E24.15979
G1 X83.315 Y93.454 E24.24099
G1 X85.849 Y93.591 E24.32117
G1 X88.33 Y93.655 E24.39959
G1 X90.859 Y93.648 E24.4795
G1 X93.37 Y93.571 E24.55888
G1 X95.907 Y93.42 E24.63918
G1 X98.406 Y93.201 E24.71844
G1 X100.899 Y92.911 E24.79775
G1 X103.341 Y92.557 E24.87571
G1 X107.039 Y91.89 E24.99444
G1 X107.851 Y91.727 E25.02061
