;FLAVOR:Marlin
;TIME:11340
;Filament used: 4.85544m
;Layer height: 0.2
;MINX:62.893
;MINY:62.893
;MINZ:0.2
;MAXX:157.107
;MAXY:157.107
;MAXZ:91.51
;Generated with Cura_SteamEngine 4.7.0
M140 S60
M105
M190 S60
M104 S210
M105
M109 S210
M82 ;absolute extrusion mode
; Ender 3 Custom Start G-code
G92 E0 ; Reset Extruder
G28 ; Home all axes
G1 Z2.0 F3000 ; Move Z Axis up little to prevent scratching of Heat Bed
G1 X0.1 Y20 Z0.3 F5000.0 ; Move to start position
G1 X0.1 Y200.0 Z0.3 F1500.0 E15 ; Draw the first line
G1 X0.4 Y200.0 Z0.3 F5000.0 ; Move to side a little
G1 X0.4 Y20 Z0.3 F1500.0 E30 ; Draw the second line
G92 E0 ; Reset Extruder
G1 Z2.0 F3000 ; Move Z Axis up little to prevent scratching of Heat Bed
G1 X5 Y20 Z0.3 F5000.0 ; Move over to prevent blob squish
G92 E0
G92 E0
G1 F1500 E-6.5
;LAYER_COUNT:457
;LAYER:0
M107
M204 S500
M205 X8 Y8
G0 F6000 X76.544 Y76.835 Z0.2
;TYPE:SKIRT
G1 F1500 E0
G1 F1200 X77.223 Y76.189 E0.03117
G1 X78.233 Y75.407 E0.07366
G1 X79.019 Y74.868 E0.10536
G1 X79.185 Y74.756 E0.11202
G1 X83.799 Y71.714 E0.29583
G1 X84.776 Y71.062 E0.3349
G1 X89.461 Y67.889 E0.52309
G1 X90.113 Y67.459 E0.54907
G1 X90.917 Y66.978 E0.58023
G1 X91.76 Y66.566 E0.61144
G1 X92.635 Y66.228 E0.64264
G1 X93.87 Y65.89 E0.68523
G1 X94.801 Y65.692 E0.71688
G1 X95.011 Y65.649 E0.72401
G1 X100.264 Y64.639 E0.90193
G1 X101.464 Y64.4 E0.94262
G1 X107.116 Y63.24 E1.13453
G1 X107.283 Y63.207 E1.14019
G1 X107.933 Y63.084 E1.16219
G1 X108.861 Y62.949 E1.19338
G1 X109.797 Y62.893 E1.22457
G1 X110.735 Y62.918 E1.25578
G1 X111.975 Y63.075 E1.29735
G1 X112.912 Y63.248 E1.32904
G1 X113.125 Y63.289 E1.33626
G1 X118.542 Y64.4 E1.52018
G1 X119.658 Y64.621 E1.55802
G1 X125.187 Y65.686 E1.74529
G1 X126.034 Y65.861 E1.77406
G1 X126.943 Y66.09 E1.80524
G1 X127.83 Y66.396 E1.83645
G1 X128.687 Y66.776 E1.86763
G1 X129.803 Y67.413 E1.91037
G1 X130.588 Y67.924 E1.94152
G1 X130.756 Y68.035 E1.94822
G1 X135.287 Y71.104 E2.13023
G1 X136.279 Y71.767 E2.16992
G1 X141.03 Y74.899 E2.35918
G1 X141.166 Y74.99 E2.36463
G1 X141.711 Y75.361 E2.38656
G1 X142.463 Y75.921 E2.41774
G1 X143.165 Y76.544 E2.44896
G1 X143.811 Y77.223 E2.48013
G1 X144.593 Y78.233 E2.52261
G1 X145.132 Y79.019 E2.55431
G1 X145.244 Y79.185 E2.56097
G1 X148.252 Y83.748 E2.74275
G1 X148.926 Y84.758 E2.78313
G1 X152.111 Y89.461 E2.97205
G1 X152.541 Y90.113 E2.99803
G1 X153.022 Y90.917 E3.02919
G1 X153.434 Y91.76 E3.0604
G1 X153.772 Y92.635 E3.0916
G1 X154.11 Y93.87 E3.13418
G1 X154.308 Y94.801 E3.16584
G1 X154.351 Y95.011 E3.17297
G1 X155.358 Y100.247 E3.35031
G1 X155.6 Y101.464 E3.39158
G1 X156.76 Y107.116 E3.58349
G1 X156.793 Y107.283 E3.58915
G1 X156.916 Y107.933 E3.61115
G1 X157.051 Y108.861 E3.64234
G1 X157.107 Y109.797 E3.67353
G1 X157.082 Y110.735 E3.70474
G1 X156.925 Y111.975 E3.74631
G1 X156.752 Y112.912 E3.778
G1 X156.711 Y113.125 E3.78522
G1 X155.59 Y118.591 E3.9708
G1 X155.37 Y119.701 E4.00844
G1 X154.314 Y125.187 E4.19425
G1 X154.139 Y126.034 E4.22302
G1 X153.91 Y126.943 E4.2542
G1 X153.604 Y127.83 E4.2854
G1 X153.224 Y128.687 E4.31658
G1 X152.587 Y129.803 E4.35932
G1 X152.076 Y130.588 E4.39048
G1 X151.965 Y130.756 E4.39717
G1 X148.888 Y135.299 E4.57967
G1 X148.233 Y136.279 E4.61888
G1 X145.101 Y141.03 E4.80814
G1 X145.01 Y141.166 E4.81358
G1 X144.639 Y141.711 E4.83551
G1 X144.079 Y142.463 E4.8667
G1 X143.456 Y143.165 E4.89791
G1 X142.777 Y143.811 E4.92909
G1 X141.767 Y144.593 E4.97157
G1 X140.981 Y145.132 E5.00327
G1 X140.815 Y145.244 E5.00993
G1 X136.201 Y148.286 E5.19374
G1 X135.224 Y148.938 E5.23281
G1 X130.422 Y152.189 E5.42569
G1 X129.892 Y152.538 E5.44679
G1 X129.087 Y153.02 E5.478
G1 X128.244 Y153.432 E5.50921
G1 X127.37 Y153.77 E5.54037
G1 X126.13 Y154.11 E5.58314
G1 X125.199 Y154.308 E5.6148
G1 X124.989 Y154.351 E5.62193
G1 X119.736 Y155.361 E5.79984
G1 X118.536 Y155.6 E5.84054
G1 X112.884 Y156.76 E6.03244
G1 X112.717 Y156.793 E6.0381
G1 X112.067 Y156.916 E6.06011
G1 X111.139 Y157.051 E6.0913
G1 X110.203 Y157.107 E6.12248
G1 X109.265 Y157.082 E6.15369
G1 X108.025 Y156.925 E6.19527
G1 X107.088 Y156.752 E6.22696
G1 X106.875 Y156.711 E6.23417
G1 X101.455 Y155.599 E6.4182
G1 X100.342 Y155.379 E6.45593
G1 X94.813 Y154.314 E6.64321
G1 X93.956 Y154.136 E6.67232
G1 X93.046 Y153.906 E6.70354
G1 X92.16 Y153.6 E6.73471
G1 X91.303 Y153.219 E6.76591
G1 X90.199 Y152.588 E6.8082
G1 X89.274 Y151.985 E6.84493
G1 X84.707 Y148.893 E7.02837
G1 X83.815 Y148.297 E7.06405
G1 X79.017 Y145.133 E7.2552
G1 X78.287 Y144.637 E7.28456
G1 X77.535 Y144.076 E7.31576
G1 X76.833 Y143.454 E7.34696
G1 X76.188 Y142.773 E7.37815
G1 X75.413 Y141.774 E7.42021
G1 X74.858 Y140.966 E7.45281
G1 X74.741 Y140.792 E7.45978
G1 X71.748 Y136.252 E7.64065
G1 X71.062 Y135.224 E7.68175
G1 X67.889 Y130.539 E7.86995
G1 X67.459 Y129.887 E7.89593
G1 X66.978 Y129.083 E7.92709
G1 X66.566 Y128.24 E7.9583
G1 X66.228 Y127.365 E7.98949
G1 X65.89 Y126.13 E8.03208
G1 X65.692 Y125.199 E8.06374
G1 X65.649 Y124.989 E8.07087
G1 X64.629 Y119.686 E8.25048
G1 X64.4 Y118.536 E8.28948
G1 X63.24 Y112.884 E8.48138
G1 X63.207 Y112.717 E8.48705
G1 X63.084 Y112.067 E8.50905
G1 X62.949 Y111.139 E8.54024
G1 X62.893 Y110.203 E8.57143
G1 X62.918 Y109.265 E8.60264
G1 X63.075 Y108.025 E8.64421
G1 X63.248 Y107.088 E8.6759
G1 X63.289 Y106.875 E8.68311
G1 X64.41 Y101.409 E8.8687
G1 X64.63 Y100.299 E8.90633
G1 X65.686 Y94.813 E9.09215
G1 X65.861 Y93.966 E9.12092
G1 X66.09 Y93.057 E9.15209
G1 X66.396 Y92.17 E9.1833
G1 X66.776 Y91.313 E9.21448
G1 X67.413 Y90.197 E9.25722
G1 X67.924 Y89.412 E9.28837
G1 X68.035 Y89.244 E9.29507
G1 X71.112 Y84.701 E9.47757
G1 X71.767 Y83.721 E9.51677
G1 X74.899 Y78.97 E9.70604
G1 X74.99 Y78.834 E9.71148
G1 X75.361 Y78.289 E9.73341
G1 X75.921 Y77.537 E9.7646
G1 X76.544 Y76.835 E9.79581
G0 F6000 X76.855 Y77.089
G1 F1200 X77.525 Y76.457 E9.82645
G1 X78.459 Y75.737 E9.86567
G1 X79.245 Y75.198 E9.89737
G1 X79.405 Y75.09 E9.90379
G1 X84.019 Y72.048 E10.0876
G1 X84.938 Y71.435 E10.12435
G1 X89.803 Y68.141 E10.31976
G1 X90.332 Y67.793 E10.34082
G1 X91.123 Y67.321 E10.37145
G1 X91.951 Y66.92 E10.40205
G1 X92.811 Y66.591 E10.43268
G1 X93.953 Y66.281 E10.47204
G1 X94.884 Y66.083 E10.50369
G1 X95.087 Y66.042 E10.51058
G1 X100.39 Y65.022 E10.69019
G1 X101.489 Y64.804 E10.72746
G1 X107.196 Y63.632 E10.92124
G1 X107.357 Y63.6 E10.9267
G1 X108.007 Y63.477 E10.9487
G1 X108.918 Y63.345 E10.97931
G1 X109.837 Y63.293 E11.00993
G1 X110.758 Y63.321 E11.04058
G1 X111.903 Y63.468 E11.07897
G1 X112.84 Y63.641 E11.11066
G1 X113.045 Y63.681 E11.11761
G1 X118.511 Y64.802 E11.30319
G1 X119.564 Y65.011 E11.3389
G1 X125.258 Y66.108 E11.53177
G1 X125.953 Y66.252 E11.55537
G1 X126.845 Y66.478 E11.58598
G1 X127.715 Y66.781 E11.61662
G1 X128.555 Y67.157 E11.64723
G1 X129.585 Y67.748 E11.68673
G1 X130.37 Y68.259 E11.71788
G1 X135.02 Y71.407 E11.90465
G1 X136.048 Y72.094 E11.94577
G1 X140.81 Y75.233 E12.13547
G1 X141.486 Y75.692 E12.16265
G1 X142.224 Y76.242 E12.19326
G1 X142.911 Y76.855 E12.22388
G1 X143.543 Y77.525 E12.25452
G1 X144.263 Y78.459 E12.29374
G1 X144.802 Y79.245 E12.32544
G1 X144.91 Y79.405 E12.33186
G1 X147.952 Y84.019 E12.51567
G1 X148.565 Y84.938 E12.55242
G1 X151.859 Y89.803 E12.74783
G1 X152.207 Y90.332 E12.76889
G1 X152.679 Y91.123 E12.79953
G1 X153.08 Y91.951 E12.83012
G1 X153.409 Y92.811 E12.86075
G1 X153.719 Y93.953 E12.90011
G1 X153.917 Y94.884 E12.93177
G1 X153.958 Y95.087 E12.93865
G1 X154.965 Y100.325 E13.11606
G1 X155.194 Y101.477 E13.15513
G1 X156.368 Y107.196 E13.34931
G1 X156.4 Y107.357 E13.35477
G1 X156.523 Y108.007 E13.37677
G1 X156.655 Y108.918 E13.40739
G1 X156.707 Y109.837 E13.438
G1 X156.679 Y110.758 E13.46865
G1 X156.532 Y111.903 E13.50704
G1 X156.359 Y112.84 E13.53873
G1 X156.319 Y113.045 E13.54568
G1 X155.198 Y118.511 E13.73127
G1 X154.977 Y119.624 E13.76901
G1 X153.892 Y125.258 E13.95984
G1 X153.748 Y125.953 E13.98344
G1 X153.522 Y126.845 E14.01405
G1 X153.219 Y127.715 E14.04469
G1 X152.843 Y128.555 E14.0753
G1 X152.252 Y129.585 E14.1148
G1 X151.741 Y130.37 E14.14595
G1 X148.593 Y135.02 E14.33272
G1 X147.9 Y136.057 E14.3742
G1 X144.767 Y140.81 E14.56354
G1 X144.308 Y141.486 E14.59072
G1 X143.758 Y142.224 E14.62133
G1 X143.145 Y142.911 E14.65196
G1 X142.475 Y143.543 E14.68259
G1 X141.541 Y144.263 E14.72181
G1 X140.755 Y144.802 E14.75351
G1 X140.595 Y144.91 E14.75993
G1 X135.981 Y147.952 E14.94375
G1 X135.062 Y148.565 E14.98049
G1 X130.202 Y151.855 E15.17569
G1 X129.672 Y152.204 E15.19679
G1 X128.881 Y152.676 E15.22743
G1 X128.053 Y153.079 E15.25806
G1 X127.193 Y153.407 E15.28867
G1 X126.047 Y153.719 E15.32818
G1 X125.116 Y153.917 E15.35983
G1 X124.913 Y153.958 E15.36672
G1 X119.61 Y154.978 E15.54633
G1 X118.523 Y155.194 E15.58319
G1 X112.804 Y156.368 E15.77737
G1 X112.643 Y156.4 E15.78283
G1 X111.993 Y156.523 E15.80484
G1 X111.082 Y156.655 E15.83545
G1 X110.163 Y156.707 E15.86607
G1 X109.242 Y156.679 E15.89672
G1 X108.097 Y156.532 E15.93511
G1 X107.16 Y156.359 E15.9668
G1 X106.955 Y156.319 E15.97375
G1 X101.489 Y155.198 E16.15933
G1 X100.436 Y154.989 E16.19504
G1 X94.889 Y153.921 E16.38292
G1 X94.037 Y153.745 E16.41186
G1 X93.145 Y153.518 E16.44247
G1 X92.275 Y153.215 E16.47311
G1 X91.436 Y152.838 E16.50371
G1 X90.417 Y152.253 E16.54279
G1 X89.498 Y151.654 E16.57927
G1 X84.931 Y148.561 E16.76273
G1 X83.983 Y147.928 E16.80064
G1 X79.238 Y144.799 E16.98969
G1 X79.105 Y144.71 E16.99501
G1 X78.512 Y144.306 E17.01887
G1 X77.774 Y143.755 E17.04951
G1 X77.087 Y143.142 E17.08013
G1 X76.456 Y142.472 E17.11074
G1 X75.743 Y141.548 E17.14956
G1 X75.188 Y140.74 E17.18216
G1 X75.075 Y140.572 E17.1889
G1 X72.048 Y135.98 E17.37182
G1 X71.435 Y135.062 E17.40854
G1 X68.141 Y130.197 E17.60395
G1 X67.793 Y129.668 E17.62501
G1 X67.321 Y128.877 E17.65565
G1 X66.92 Y128.049 E17.68625
G1 X66.591 Y127.189 E17.71687
G1 X66.281 Y126.047 E17.75623
G1 X66.083 Y125.116 E17.78789
G1 X66.042 Y124.913 E17.79478
G1 X65.022 Y119.61 E17.97439
G1 X64.793 Y118.458 E18.01345
G1 X63.632 Y112.804 E18.20543
G1 X63.6 Y112.643 E18.21089
G1 X63.477 Y111.993 E18.23289
G1 X63.345 Y111.082 E18.26351
G1 X63.293 Y110.163 E18.29412
G1 X63.321 Y109.242 E18.32477
G1 X63.468 Y108.097 E18.36317
G1 X63.641 Y107.16 E18.39486
G1 X63.681 Y106.955 E18.4018
G1 X64.802 Y101.489 E18.58739
G1 X65.023 Y100.376 E18.62513
G1 X66.108 Y94.742 E18.81596
G1 X66.252 Y94.047 E18.83957
G1 X66.478 Y93.155 E18.87017
G1 X66.781 Y92.285 E18.90081
G1 X67.157 Y91.445 E18.93142
G1 X67.748 Y90.415 E18.97092
G1 X68.259 Y89.63 E19.00207
G1 X71.407 Y84.98 E19.18884
G1 X72.1 Y83.943 E19.23032
G1 X75.233 Y79.19 E19.41966
G1 X75.692 Y78.514 E19.44684
G1 X76.242 Y77.776 E19.47745
G1 X76.855 Y77.089 E19.50808
G0 F6000 X77.166 Y77.343
G1 F1200 X77.825 Y76.727 E19.53808
G1 X78.685 Y76.067 E19.57414
G1 X79.471 Y75.528 E19.60584
G1 X79.626 Y75.424 E19.61204
G1 X84.24 Y72.382 E19.79586
G1 X85.192 Y71.747 E19.83392
G1 X90.023 Y68.476 E20.02797
G1 X90.552 Y68.128 E20.04903
G1 X91.328 Y67.665 E20.07908
G1 X92.142 Y67.273 E20.10913
G1 X92.987 Y66.955 E20.13916
G1 X94.036 Y66.672 E20.1753
G1 X94.967 Y66.474 E20.20695
G1 X95.162 Y66.435 E20.21357
G1 X100.414 Y65.425 E20.39145
G1 X101.558 Y65.197 E20.43025
G1 X107.277 Y64.023 E20.62443
G1 X108.082 Y63.87 E20.65168
G1 X108.975 Y63.741 E20.68169
G1 X109.877 Y63.692 E20.71174
G1 X110.78 Y63.724 E20.74179
G1 X111.83 Y63.862 E20.77701
G1 X112.767 Y64.035 E20.80871
G1 X112.964 Y64.073 E20.81538
G1 X118.367 Y65.181 E20.99882
G1 X119.546 Y65.415 E21.0388
G1 X125.176 Y66.5 E21.2295
G1 X125.871 Y66.644 E21.25311
G1 X126.747 Y66.866 E21.28317
G1 X127.599 Y67.165 E21.3132
G1 X128.422 Y67.538 E21.34325
G1 X129.367 Y68.084 E21.37955
G1 X130.152 Y68.595 E21.4107
G1 X130.307 Y68.698 E21.41689
G1 X134.797 Y71.739 E21.59726
G1 X135.807 Y72.414 E21.63766
G1 X140.716 Y75.651 E21.83324
G1 X141.261 Y76.022 E21.85517
G1 X141.984 Y76.563 E21.8852
G1 X142.657 Y77.166 E21.91526
G1 X143.273 Y77.825 E21.94526
G1 X143.933 Y78.685 E21.98132
G1 X144.472 Y79.471 E22.01302
G1 X144.576 Y79.626 E22.01922
G1 X147.586 Y84.192 E22.20112
G1 X148.233 Y85.162 E22.2399
G1 X151.524 Y90.023 E22.43514
G1 X151.872 Y90.552 E22.45621
G1 X152.335 Y91.328 E22.48626
G1 X152.727 Y92.142 E22.51631
G1 X153.045 Y92.987 E22.54634
G1 X153.328 Y94.036 E22.58248
G1 X153.526 Y94.967 E22.61413
G1 X153.565 Y95.162 E22.62075
G1 X154.573 Y100.403 E22.79826
G1 X154.803 Y101.558 E22.83743
G1 X155.977 Y107.277 E23.03161
G1 X156.13 Y108.082 E23.05886
G1 X156.259 Y108.975 E23.08887
G1 X156.308 Y109.877 E23.11892
G1 X156.276 Y110.78 E23.14897
G1 X156.138 Y111.83 E23.18419
G1 X155.965 Y112.767 E23.21589
G1 X155.927 Y112.964 E23.22256
G1 X154.806 Y118.43 E23.40814
G1 X154.585 Y119.546 E23.44598
G1 X153.5 Y125.176 E23.63668
G1 X153.356 Y125.871 E23.66029
G1 X153.134 Y126.747 E23.69035
G1 X152.835 Y127.599 E23.72038
G1 X152.462 Y128.422 E23.75043
G1 X151.916 Y129.367 E23.78673
G1 X151.405 Y130.152 E23.81788
G1 X151.302 Y130.307 E23.82407
G1 X148.261 Y134.797 E24.00444
G1 X147.568 Y135.834 E24.04592
G1 X144.349 Y140.716 E24.24042
G1 X143.978 Y141.261 E24.26235
G1 X143.437 Y141.984 E24.29238
G1 X142.834 Y142.657 E24.32244
G1 X142.175 Y143.273 E24.35244
G1 X141.315 Y143.933 E24.3885
G1 X140.529 Y144.472 E24.42019
G1 X140.374 Y144.576 E24.4264
G1 X135.76 Y147.618 E24.61022
G1 X134.837 Y148.234 E24.64712
G1 X129.982 Y151.521 E24.84213
G1 X129.452 Y151.87 E24.86324
G1 X128.676 Y152.333 E24.89329
G1 X127.863 Y152.725 E24.92331
G1 X127.018 Y153.044 E24.95335
G1 X125.964 Y153.328 E24.98966
G1 X125.033 Y153.526 E25.02132
G1 X124.838 Y153.565 E25.02793
G1 X119.597 Y154.573 E25.20544
G1 X118.442 Y154.803 E25.24461
G1 X112.723 Y155.977 E25.43879
G1 X111.918 Y156.13 E25.46605
G1 X111.025 Y156.259 E25.49606
G1 X110.123 Y156.308 E25.5261
G1 X109.22 Y156.276 E25.55615
G1 X108.17 Y156.138 E25.59138
G1 X107.233 Y155.965 E25.62307
G1 X107.036 Y155.927 E25.62974
G1 X101.633 Y154.819 E25.81319
G1 X100.454 Y154.585 E25.85316
G1 X94.965 Y153.528 E26.03908
G1 X94.119 Y153.353 E26.06782
G1 X93.243 Y153.13 E26.09788
G1 X92.391 Y152.831 E26.12791
G1 X91.569 Y152.457 E26.15795
G1 X90.635 Y151.918 E26.19382
G1 X89.88 Y151.427 E26.22377
G1 X89.723 Y151.322 E26.23005
G1 X85.208 Y148.266 E26.41139
G1 X84.205 Y147.596 E26.45151
G1 X79.33 Y144.38 E26.64575
G1 X78.737 Y143.976 E26.66962
G1 X78.014 Y143.435 E26.69965
G1 X77.342 Y142.832 E26.72968
G1 X76.725 Y142.172 E26.75973
G1 X76.072 Y141.321 E26.79541
G1 X75.517 Y140.513 E26.82801
G1 X75.409 Y140.352 E26.83446
G1 X72.382 Y135.76 E27.01739
G1 X71.728 Y134.78 E27.05658
G1 X68.476 Y129.977 E27.2495
G1 X68.128 Y129.448 E27.27056
G1 X67.665 Y128.672 E27.30061
G1 X67.273 Y127.858 E27.33066
G1 X66.955 Y127.013 E27.36069
G1 X66.672 Y125.964 E27.39683
G1 X66.474 Y125.033 E27.42849
G1 X66.435 Y124.838 E27.4351
G1 X65.415 Y119.535 E27.61471
G1 X65.197 Y118.442 E27.65178
G1 X64.023 Y112.723 E27.84596
G1 X63.87 Y111.918 E27.87322
G1 X63.741 Y111.025 E27.90323
G1 X63.692 Y110.123 E27.93327
G1 X63.724 Y109.22 E27.96332
G1 X63.862 Y108.17 E27.99855
G1 X64.035 Y107.233 E28.03024
G1 X64.073 Y107.036 E28.03691
G1 X65.194 Y101.57 E28.2225
G1 X65.415 Y100.454 E28.26033
G1 X66.5 Y94.824 E28.45104
G1 X66.644 Y94.129 E28.47464
G1 X66.866 Y93.253 E28.5047
G1 X67.165 Y92.401 E28.53473
G1 X67.538 Y91.578 E28.56478
G1 X68.084 Y90.633 E28.60108
G1 X68.595 Y89.848 E28.63224
G1 X68.698 Y89.693 E28.63843
G1 X71.739 Y85.203 E28.81879
G1 X72.432 Y84.166 E28.86028
G1 X75.651 Y79.284 E29.05477
G1 X76.022 Y78.739 E29.0767
G1 X76.563 Y78.016 E29.10674
G1 X77.166 Y77.343 E29.13679
G1 F1500 E22.63679
;MESH:HexSurfaceVase3.stl
G0 F6000 X83.989 Y83.99
G0 X84.688 Y84.688
G0 X90.728 Y80.765
G0 X96.322 Y76.977
G0 X103.383 Y75.613
G0 X110 Y74.256
G0 X117.049 Y75.7
G0 X123.678 Y76.977
G0 X129.641 Y81.01
G0 X135.275 Y84.725
G0 X138.482 Y89.586
G0 X143.079 Y96.299
G0 X143.185 Y96.254
;TYPE:WALL-OUTER
G1 F1500 E29.13679
G1 F1200 X144.47 Y102.933 E29.36301
G1 X144.472 Y103.143 E29.36999
G1 X144.551 Y103.334 E29.37687
G1 X145.919 Y110 E29.6032
G1 X144.552 Y116.664 E29.82946
G1 X144.472 Y116.857 E29.83641
G1 X144.471 Y117.066 E29.84336
G1 X143.185 Y123.746 E30.06962
G1 X139.37 Y129.379 E30.2959
G1 X139.223 Y129.527 E30.30284
